%
(1001)
(origin stock bottom)
(T1  D=12.7 CR=0 - ZMIN=-26 - flat end mill)
G90 G94
G17
G21

(2D Adaptive16)
M9
T1 M6
S7500 M3
G54
G0 X-594.183 Y6.607
Z15
Z5
Z3.82
G1 Z2.55 F849.6
Z-25.5 F283.3
X-594.269 Y6.585 F849.6
X-594.404 Y6.532
X-594.54 Y6.458
X-594.65 Y6.381
X-594.731 Y6.312
X-594.756 Y6.287
X-594.78 Y6.26
X-594.642 Y6.202
X-594.501 Y6.15
X-594.357 Y6.103
X-594.181 Y6.051
X-593.967 Y5.994
X-593.706 Y5.932
X-593.384 Y5.865
X-592.981 Y5.794
X-592.469 Y5.718
X-591.793 Y5.637
X-590.855 Y5.552
X-589.647 Y5.477
X-589.451 Y5.498
X-589.273 Y5.582
X-589.132 Y5.721
X-589.046 Y5.898
X-589.022 Y6.093
X-589.065 Y6.286
X-589.169 Y6.453
X-589.322 Y6.577
X-589.508 Y6.644
X-590.293 Y6.642
X-593.886 Y6.634
G3 X-594.756 Y6.287 I0.003 J-1.27
G1 X-594.812 Y6.23
X-594.887 Y6.136
X-594.902 Y6.114
X-594.781 Y6.026
X-594.655 Y5.944
X-594.525 Y5.868
X-594.393 Y5.797
X-594.256 Y5.729
X-594.108 Y5.66
X-593.938 Y5.587
X-593.739 Y5.509
X-593.528 Y5.432
X-593.268 Y5.346
X-592.984 Y5.26
X-592.661 Y5.173
X-592.256 Y5.076
X-591.902 Y5.001
X-591.646 Y4.955
X-591.422 Y4.921
X-591.22 Y4.897
X-591.05 Y4.881
X-590.901 Y4.871
X-590.751 Y4.865
X-590.601
X-590.354 Y4.91
X-590.129 Y5.021
X-589.944 Y5.191
X-589.813 Y5.406
X-589.748 Y5.648
X-589.753 Y5.899
X-589.827 Y6.139
X-589.966 Y6.349
X-590.157 Y6.512
X-590.386 Y6.615
X-590.634 Y6.65
G3 X-594.853 Y6.155 I0.907 J-25.984
G1 X-594.872 Y6.148
X-594.887 Y6.136
X-594.931 Y6.079
X-595.031 Y5.904
X-595.042 Y5.866
X-594.931 Y5.766
X-594.815 Y5.671
X-594.696 Y5.58
X-594.573 Y5.493
X-594.449 Y5.41
X-594.313 Y5.325
X-594.161 Y5.236
X-593.999 Y5.147
X-593.818 Y5.054
X-593.628 Y4.964
X-593.434 Y4.878
X-593.236 Y4.797
X-593.036 Y4.722
X-592.839 Y4.654
X-592.645 Y4.593
X-592.456 Y4.54
X-592.288 Y4.498
X-592.142 Y4.465
X-591.995 Y4.437
X-591.846 Y4.414
X-591.698 Y4.395
X-591.548 Y4.382
X-591.398 Y4.374
X-591.248
X-590.961 Y4.427
X-590.696 Y4.551
X-590.472 Y4.738
X-590.303 Y4.977
X-590.2 Y5.251
X-590.17 Y5.541
X-590.215 Y5.83
X-590.333 Y6.098
X-590.514 Y6.327
X-590.748 Y6.502
X-591.019 Y6.612
X-591.309 Y6.65
G3 X-594.994 Y5.934 I0.419 J-11.993
G1 X-595.015 Y5.922
X-595.031 Y5.904
X-595.106 Y5.699
X-595.124 Y5.602
X-595.129 Y5.567
X-595.028 Y5.456
X-594.922 Y5.349
X-594.813 Y5.247
X-594.7 Y5.148
X-594.584 Y5.053
X-594.465 Y4.962
X-594.343 Y4.874
X-594.217 Y4.788
X-594.083 Y4.703
X-593.945 Y4.62
X-593.805 Y4.541
X-593.663 Y4.467
X-593.52 Y4.397
X-593.377 Y4.332
X-593.233 Y4.271
X-593.092 Y4.217
X-592.951 Y4.166
X-592.808 Y4.12
X-592.664 Y4.078
X-592.518 Y4.041
X-592.372 Y4.01
X-592.224 Y3.986
X-592.075 Y3.966
X-591.926 Y3.954
X-591.776 Y3.95
X-591.626 Y3.955
X-591.476 Y3.968
X-591.328 Y3.991
X-591.182 Y4.024
X-590.477 Y4.241
X-590.211 Y4.359
X-589.98 Y4.537
X-589.798 Y4.763
X-589.673 Y5.026
X-589.614 Y5.311
X-589.623 Y5.602
X-589.7 Y5.883
X-589.841 Y6.137
X-590.037 Y6.352
X-590.279 Y6.514
X-590.552 Y6.616
X-590.841 Y6.65
G3 X-595.104 Y5.627 I0.384 J-10.993
G1 X-595.117 Y5.617
X-595.124 Y5.602
X-595.142 Y5.51
X-595.15 Y5.32
Y5.285
X-595.148 Y5.243
X-595.06 Y5.122
X-594.966 Y5.005
X-594.867 Y4.892
X-594.764 Y4.783
X-594.656 Y4.679
X-594.544 Y4.579
X-594.429 Y4.483
X-594.31 Y4.391
X-594.189 Y4.303
X-594.065 Y4.219
X-593.938 Y4.139
X-593.808 Y4.064
X-593.676 Y3.993
X-593.541 Y3.926
X-593.405 Y3.864
X-593.266 Y3.807
X-593.125 Y3.755
X-592.983 Y3.708
X-592.839 Y3.667
X-592.693 Y3.631
X-592.546 Y3.601
X-592.398 Y3.577
X-592.249 Y3.56
X-592.099 Y3.55
X-591.949 Y3.546
X-591.799
X-591.649 Y3.551
X-591.5 Y3.561
X-591.351 Y3.577
X-591.202 Y3.598
X-591.055 Y3.626
X-590.909 Y3.661
X-590.765 Y3.703
X-590.623 Y3.753
X-590.34 Y3.899
X-590.094 Y4.102
X-589.896 Y4.353
X-589.756 Y4.639
X-589.68 Y4.949
X-589.67 Y5.268
X-589.729 Y5.582
X-589.853 Y5.876
X-590.036 Y6.137
X-590.27 Y6.354
X-590.545 Y6.516
X-590.848 Y6.616
X-591.165 Y6.65
G3 X-595.022 Y5.502 I0.279 J-7.995
X-595.15 Y5.285 I0.137 J-0.227
G1 Y4.906
X-595.148 Y4.872
X-595.069 Y4.744
X-594.983 Y4.621
X-594.891 Y4.503
X-594.794 Y4.389
X-594.691 Y4.28
X-594.584 Y4.175
X-594.472 Y4.074
X-594.357 Y3.979
X-594.238 Y3.888
X-594.115 Y3.801
X-593.989 Y3.72
X-593.86 Y3.643
X-593.729 Y3.571
X-593.594 Y3.505
X-593.457 Y3.443
X-593.318 Y3.387
X-593.177 Y3.337
X-593.034 Y3.291
X-592.89 Y3.251
X-592.744 Y3.216
X-592.597 Y3.186
X-592.449 Y3.161
X-592.3 Y3.141
X-592.151 Y3.127
X-592.001 Y3.119
X-591.851 Y3.116
X-591.701 Y3.119
X-591.551 Y3.128
X-591.402 Y3.144
X-591.254 Y3.167
X-591.107 Y3.197
X-590.962 Y3.234
X-590.819 Y3.281
X-590.679 Y3.334
X-589.457 Y3.89
X-589.447 Y3.894
X-589.134 Y4.044
X-588.86 Y4.257
X-588.637 Y4.523
X-588.474 Y4.829
X-588.38 Y5.163
X-588.358 Y5.51
G3 X-589.705 Y6.493 I-1.238 J-0.282
G1 X-593.989 Y6.127
G3 X-595.15 Y4.906 I0.108 J-1.265
G1 Y4.561
X-595.145 Y4.469
X-595.071 Y4.339
X-594.99 Y4.213
X-594.901 Y4.092
X-594.806 Y3.976
X-594.706 Y3.864
X-594.6 Y3.758
X-594.49 Y3.656
X-594.375 Y3.559
X-594.257 Y3.468
X-594.134 Y3.381
X-594.009 Y3.299
X-593.88 Y3.222
X-593.748 Y3.15
X-593.614 Y3.084
X-593.477 Y3.022
X-593.338 Y2.965
X-593.197 Y2.914
X-593.054 Y2.868
X-592.91 Y2.827
X-592.765 Y2.791
X-592.618 Y2.76
X-592.47 Y2.736
X-592.321 Y2.716
X-592.172 Y2.703
X-592.022 Y2.695
X-591.872 Y2.694
X-591.722 Y2.698
X-591.572 Y2.709
X-591.422 Y2.726
X-591.241 Y2.751
X-591.031 Y2.786
X-590.807 Y2.83
X-590.606 Y2.875
X-590.439 Y2.918
X-590.295 Y2.959
X-590.152 Y3.005
X-590.016 Y3.053
X-589.654 Y3.215
X-589.323 Y3.432
X-589.03 Y3.699
X-588.783 Y4.008
X-588.588 Y4.353
X-588.45 Y4.725
X-588.373 Y5.114
X-588.358 Y5.51
G3 X-589.804 Y6.48 I-1.238 J-0.282
G1 X-594.089 Y5.769
G3 X-595.15 Y4.561 I0.208 J-1.253
G1 Y4.181
X-595.146 Y4.093
X-595.078 Y3.959
X-595.001 Y3.831
X-594.916 Y3.707
X-594.825 Y3.588
X-594.727 Y3.474
X-594.624 Y3.365
X-594.516 Y3.261
X-594.403 Y3.162
X-594.286 Y3.068
X-594.165 Y2.98
X-594.041 Y2.896
X-593.913 Y2.818
X-593.782 Y2.744
X-593.648 Y2.676
X-593.512 Y2.613
X-593.374 Y2.555
X-593.234 Y2.502
X-593.091 Y2.455
X-592.947 Y2.413
X-592.802 Y2.377
X-592.655 Y2.345
X-592.507 Y2.32
X-592.359 Y2.299
X-592.21 Y2.282
X-592.06 Y2.27
X-591.908 Y2.263
X-591.756 Y2.259
X-591.603 Y2.26
X-591.451 Y2.265
X-591.301 Y2.275
X-591.152 Y2.289
X-591 Y2.308
X-590.852 Y2.33
X-590.705 Y2.358
X-590.558 Y2.391
X-590.413 Y2.429
X-590.27 Y2.472
X-590.128 Y2.521
X-589.988 Y2.576
X-589.591 Y2.79
X-589.234 Y3.067
X-588.927 Y3.399
X-588.68 Y3.777
X-588.498 Y4.191
X-588.387 Y4.629
X-588.35 Y5.079
G3 X-589.881 Y6.277 I-1.269 J-0.044
G1 X-594.143 Y5.38
G3 X-595.15 Y4.181 I0.262 J-1.243
G1 Y3.839
X-595.143 Y3.689
X-595.077 Y3.554
X-595.002 Y3.424
X-594.919 Y3.299
X-594.829 Y3.179
X-594.732 Y3.064
X-594.63 Y2.954
X-594.523 Y2.85
X-594.411 Y2.75
X-594.295 Y2.655
X-594.174 Y2.566
X-594.05 Y2.482
X-593.923 Y2.403
X-593.792 Y2.329
X-593.659 Y2.26
X-593.523 Y2.196
X-593.385 Y2.137
X-593.245 Y2.083
X-593.103 Y2.034
X-592.96 Y1.99
X-592.815 Y1.95
X-592.669 Y1.915
X-592.523 Y1.885
X-592.375 Y1.859
X-592.226 Y1.838
X-592.077 Y1.821
X-591.928 Y1.809
X-591.778 Y1.801
X-591.628 Y1.798
X-591.478 Y1.8
X-591.328 Y1.806
X-591.179 Y1.817
X-591.029 Y1.834
X-590.881 Y1.856
X-590.734 Y1.884
X-590.587 Y1.916
X-590.442 Y1.954
X-590.299 Y1.998
X-590.157 Y2.048
X-590.018 Y2.103
X-589.612 Y2.324
X-589.249 Y2.609
X-588.937 Y2.949
X-588.686 Y3.336
X-588.501 Y3.759
X-588.388 Y4.207
X-588.35 Y4.667
G3 X-589.861 Y5.869 I-1.269 J-0.044
G1 X-594.123 Y5.041
G3 X-595.15 Y3.839 I0.242 J-1.247
G1 Y3.453
X-595.143 Y3.303
X-595.08 Y3.167
X-595.009 Y3.035
X-594.928 Y2.909
X-594.841 Y2.787
X-594.746 Y2.67
X-594.646 Y2.559
X-594.54 Y2.452
X-594.43 Y2.351
X-594.314 Y2.255
X-594.195 Y2.164
X-594.073 Y2.078
X-593.946 Y1.996
X-593.817 Y1.92
X-593.685 Y1.848
X-593.551 Y1.782
X-593.415 Y1.72
X-593.276 Y1.663
X-593.135 Y1.61
X-592.993 Y1.562
X-592.85 Y1.519
X-592.705 Y1.48
X-592.559 Y1.446
X-592.411 Y1.417
X-592.263 Y1.393
X-592.115 Y1.373
X-591.965 Y1.358
X-591.816 Y1.348
X-591.666 Y1.343
X-591.516 Y1.342
X-591.366 Y1.347
X-591.216 Y1.357
X-591.067 Y1.372
X-590.918 Y1.393
X-590.771 Y1.419
X-590.624 Y1.45
X-590.479 Y1.487
X-590.335 Y1.531
X-590.193 Y1.58
X-590.054 Y1.634
X-589.916 Y1.694
X-589.533 Y1.923
X-589.191 Y2.21
X-588.899 Y2.548
X-588.663 Y2.927
X-588.491 Y3.339
X-588.385 Y3.772
X-588.35 Y4.217
G3 X-589.843 Y5.423 I-1.269 J-0.044
G1 X-594.105 Y4.659
G3 X-595.15 Y3.453 I0.224 J-1.25
G1 Y3.112
X-595.143 Y2.962
X-595.089 Y2.822
X-595.025 Y2.686
X-594.951 Y2.556
X-594.868 Y2.431
X-594.778 Y2.311
X-594.682 Y2.195
X-594.58 Y2.085
X-594.473 Y1.98
X-594.362 Y1.88
X-594.246 Y1.785
X-594.126 Y1.695
X-594.003 Y1.609
X-593.876 Y1.529
X-593.746 Y1.453
X-593.614 Y1.382
X-593.48 Y1.316
X-593.343 Y1.255
X-593.204 Y1.198
X-593.063 Y1.146
X-592.921 Y1.099
X-592.777 Y1.057
X-592.632 Y1.019
X-592.485 Y0.986
X-592.338 Y0.958
X-592.19 Y0.935
X-592.041 Y0.917
X-591.891 Y0.904
X-591.742 Y0.895
X-591.592 Y0.892
X-591.442 Y0.893
X-591.292 Y0.9
X-591.142 Y0.912
X-590.993 Y0.929
X-590.845 Y0.952
X-590.698 Y0.981
X-590.552 Y1.015
X-590.407 Y1.055
X-590.264 Y1.101
X-590.124 Y1.153
X-589.746 Y1.342
X-589.401 Y1.584
X-589.094 Y1.875
X-588.834 Y2.207
X-588.626 Y2.574
X-588.474 Y2.968
X-588.381 Y3.38
X-588.35 Y3.801
G3 X-589.822 Y5.01 I-1.269 J-0.044
G1 X-594.083 Y4.321
G3 X-595.15 Y3.112 I0.203 J-1.254
G1 Y2.738
X-595.143 Y2.588
X-595.094 Y2.447
X-595.033 Y2.309
X-594.963 Y2.177
X-594.884 Y2.05
X-594.797 Y1.927
X-594.704 Y1.809
X-594.605 Y1.697
X-594.501 Y1.589
X-594.391 Y1.486
X-594.278 Y1.388
X-594.16 Y1.295
X-594.039 Y1.207
X-593.914 Y1.123
X-593.786 Y1.045
X-593.656 Y0.971
X-593.523 Y0.902
X-593.387 Y0.838
X-593.249 Y0.779
X-593.109 Y0.724
X-592.968 Y0.674
X-592.825 Y0.629
X-592.68 Y0.589
X-592.535 Y0.554
X-592.388 Y0.523
X-592.24 Y0.498
X-592.091 Y0.477
X-591.942 Y0.461
X-591.793 Y0.451
X-591.643 Y0.445
X-591.493 Y0.444
X-591.343 Y0.449
X-591.193 Y0.459
X-591.044 Y0.475
X-590.895 Y0.496
X-590.748 Y0.523
X-590.601 Y0.555
X-590.457 Y0.594
X-590.313 Y0.638
X-590.172 Y0.688
X-589.784 Y0.879
X-589.43 Y1.125
X-589.115 Y1.422
X-588.848 Y1.761
X-588.634 Y2.136
X-588.477 Y2.538
X-588.382 Y2.959
X-588.35 Y3.39
G3 X-589.811 Y4.601 I-1.269 J-0.044
G1 X-594.073 Y3.949
G3 X-595.15 Y2.738 I0.192 J-1.255
G1 Y2.374
X-595.143 Y2.224
X-595.1 Y2.08
X-595.045 Y1.94
X-594.98 Y1.806
X-594.905 Y1.675
X-594.822 Y1.55
X-594.733 Y1.43
X-594.637 Y1.314
X-594.536 Y1.204
X-594.429 Y1.098
X-594.318 Y0.997
X-594.203 Y0.901
X-594.084 Y0.81
X-593.961 Y0.724
X-593.835 Y0.642
X-593.706 Y0.566
X-593.575 Y0.494
X-593.44 Y0.427
X-593.304 Y0.365
X-593.165 Y0.307
X-593.025 Y0.255
X-592.883 Y0.207
X-592.739 Y0.164
X-592.594 Y0.126
X-592.448 Y0.093
X-592.3 Y0.065
X-592.152 Y0.042
X-592.003 Y0.023
X-591.854 Y0.01
X-591.704 Y0.002
X-591.554 Y-0.001
X-591.404 Y0.002
X-591.254 Y0.009
X-591.105 Y0.023
X-590.956 Y0.043
X-590.808 Y0.067
X-590.661 Y0.098
X-590.516 Y0.135
X-590.372 Y0.177
X-590.23 Y0.225
X-590.09 Y0.279
X-589.718 Y0.476
X-589.379 Y0.724
X-589.078 Y1.018
X-588.824 Y1.353
X-588.62 Y1.72
X-588.471 Y2.114
X-588.38 Y2.524
X-588.35 Y2.944
G3 X-589.788 Y4.158 I-1.269 J-0.044
G1 X-594.049 Y3.588
G3 X-595.15 Y2.374 I0.168 J-1.259
G1 Y1.994
X-595.143 Y1.844
X-595.105 Y1.699
X-595.055 Y1.558
X-594.993 Y1.421
X-594.922 Y1.289
X-594.842 Y1.162
X-594.756 Y1.039
X-594.663 Y0.922
X-594.564 Y0.809
X-594.46 Y0.701
X-594.351 Y0.598
X-594.237 Y0.5
X-594.12 Y0.406
X-593.999 Y0.318
X-593.875 Y0.234
X-593.747 Y0.155
X-593.617 Y0.081
X-593.484 Y0.012
X-593.348 Y-0.053
X-593.21 Y-0.112
X-593.071 Y-0.167
X-592.929 Y-0.217
X-592.786 Y-0.262
X-592.642 Y-0.302
X-592.496 Y-0.337
X-592.349 Y-0.367
X-592.201 Y-0.393
X-592.052 Y-0.413
X-591.903 Y-0.428
X-591.753 Y-0.437
X-591.604 Y-0.442
X-591.454
X-591.304 Y-0.436
X-591.154 Y-0.424
X-591.005 Y-0.407
X-590.857 Y-0.384
X-590.71 Y-0.355
X-590.564 Y-0.321
X-590.419 Y-0.28
X-590.277 Y-0.234
X-590.136 Y-0.182
X-589.997 Y-0.124
X-589.596 Y0.106
X-589.236 Y0.398
X-588.929 Y0.744
X-588.68 Y1.135
X-588.498 Y1.561
X-588.387 Y2.011
X-588.35 Y2.472
G3 X-589.761 Y3.69 I-1.269 J-0.044
G1 X-594.022 Y3.212
G3 X-595.15 Y1.994 I0.142 J-1.262
G1 Y1.623
X-595.143 Y1.473
X-595.112 Y1.326
X-595.067 Y1.183
X-595.01 Y1.044
X-594.943 Y0.91
X-594.867 Y0.78
X-594.784 Y0.656
X-594.694 Y0.536
X-594.598 Y0.42
X-594.497 Y0.31
X-594.39 Y0.205
X-594.279 Y0.104
X-594.163 Y0.008
X-594.044 Y-0.083
X-593.921 Y-0.169
X-593.795 Y-0.25
X-593.666 Y-0.327
X-593.535 Y-0.399
X-593.4 Y-0.465
X-593.264 Y-0.527
X-593.125 Y-0.584
X-592.984 Y-0.636
X-592.842 Y-0.684
X-592.698 Y-0.726
X-592.553 Y-0.763
X-592.406 Y-0.796
X-592.259 Y-0.823
X-592.11 Y-0.845
X-591.961 Y-0.863
X-591.812 Y-0.875
X-591.662 Y-0.882
X-591.512 Y-0.883
X-591.362 Y-0.88
X-591.212 Y-0.871
X-591.063 Y-0.857
X-590.914 Y-0.836
X-590.767 Y-0.81
X-590.62 Y-0.778
X-590.475 Y-0.741
X-590.331 Y-0.697
X-590.19 Y-0.648
X-590.05 Y-0.593
X-589.913 Y-0.532
X-589.53 Y-0.301
X-589.189 Y-0.013
X-588.897 Y0.325
X-588.662 Y0.705
X-588.49 Y1.118
X-588.385 Y1.552
X-588.35 Y1.997
G3 X-589.73 Y3.218 I-1.269 J-0.044
G1 X-593.992 Y2.844
G3 X-595.15 Y1.623 I0.111 J-1.265
G1 Y1.215
X-595.143 Y1.065
X-595.114 Y0.918
X-595.071 Y0.774
X-595.016 Y0.634
X-594.951 Y0.499
X-594.877 Y0.369
X-594.795 Y0.243
X-594.707 Y0.122
X-594.612 Y0.006
X-594.512 Y-0.106
X-594.406 Y-0.212
X-594.296 Y-0.314
X-594.182 Y-0.411
X-594.063 Y-0.503
X-593.941 Y-0.591
X-593.816 Y-0.673
X-593.688 Y-0.751
X-593.556 Y-0.824
X-593.423 Y-0.891
X-593.287 Y-0.955
X-593.148 Y-1.013
X-593.008 Y-1.066
X-592.866 Y-1.114
X-592.723 Y-1.158
X-592.578 Y-1.196
X-592.431 Y-1.23
X-592.284 Y-1.258
X-592.136 Y-1.282
X-591.987 Y-1.3
X-591.838 Y-1.313
X-591.688 Y-1.322
X-591.538 Y-1.325
X-591.388 Y-1.322
X-591.238 Y-1.315
X-591.089 Y-1.302
X-590.94 Y-1.284
X-590.792 Y-1.259
X-590.645 Y-1.229
X-590.499 Y-1.193
X-590.355 Y-1.152
X-590.213 Y-1.104
X-590.073 Y-1.05
X-589.935 Y-0.991
X-589.548 Y-0.766
X-589.202 Y-0.481
X-588.906 Y-0.145
X-588.668 Y0.234
X-588.493 Y0.646
X-588.386 Y1.081
X-588.35 Y1.527
G3 X-589.712 Y2.749 I-1.269 J-0.044
G1 X-593.974 Y2.437
G3 X-595.15 Y1.215 I0.093 J-1.267
G1 Y0.794
X-595.143 Y0.644
X-595.116 Y0.497
X-595.074 Y0.353
X-595.02 Y0.213
X-594.955 Y0.077
X-594.882 Y-0.054
X-594.801 Y-0.18
X-594.714 Y-0.302
X-594.62 Y-0.419
X-594.52 Y-0.531
X-594.415 Y-0.638
X-594.305 Y-0.741
X-594.192 Y-0.838
X-594.074 Y-0.931
X-593.952 Y-1.019
X-593.827 Y-1.102
X-593.7 Y-1.181
X-593.569 Y-1.254
X-593.435 Y-1.323
X-593.3 Y-1.386
X-593.162 Y-1.445
X-593.022 Y-1.499
X-592.88 Y-1.549
X-592.737 Y-1.593
X-592.592 Y-1.632
X-592.446 Y-1.666
X-592.299 Y-1.696
X-592.151 Y-1.72
X-592.002 Y-1.739
X-591.853 Y-1.754
X-591.703 Y-1.763
X-591.553 Y-1.767
X-591.403 Y-1.765
X-591.253 Y-1.759
X-591.104 Y-1.747
X-590.955 Y-1.73
X-590.806 Y-1.706
X-590.659 Y-1.677
X-590.513 Y-1.643
X-590.369 Y-1.602
X-590.223 Y-1.554
X-589.827 Y-1.371
X-589.463 Y-1.13
X-589.14 Y-0.837
X-588.864 Y-0.498
X-588.643 Y-0.121
X-588.482 Y0.284
X-588.383 Y0.71
X-588.35 Y1.145
G3 X-589.723 Y2.366 I-1.269 J-0.044
G1 X-593.985 Y2.015
G3 X-595.15 Y0.794 I0.104 J-1.266
G1 Y0.386
X-595.143 Y0.236
X-595.119 Y0.088
X-595.08 Y-0.057
X-595.028 Y-0.198
X-594.965 Y-0.334
X-594.894 Y-0.466
X-594.815 Y-0.593
X-594.728 Y-0.716
X-594.635 Y-0.834
X-594.537 Y-0.947
X-594.433 Y-1.055
X-594.325 Y-1.159
X-594.212 Y-1.257
X-594.095 Y-1.351
X-593.974 Y-1.44
X-593.85 Y-1.525
X-593.723 Y-1.604
X-593.593 Y-1.679
X-593.46 Y-1.749
X-593.325 Y-1.813
X-593.187 Y-1.873
X-593.048 Y-1.929
X-592.906 Y-1.979
X-592.763 Y-2.024
X-592.619 Y-2.065
X-592.473 Y-2.101
X-592.326 Y-2.131
X-592.179 Y-2.157
X-592.03 Y-2.178
X-591.881 Y-2.193
X-591.731 Y-2.204
X-591.581 Y-2.209
X-591.431
X-591.281 Y-2.204
X-591.132 Y-2.192
X-590.983 Y-2.175
X-590.835 Y-2.152
X-590.687 Y-2.124
X-590.541 Y-2.089
X-590.397 Y-2.049
X-590.254 Y-2.003
X-590.114 Y-1.95
X-589.738 Y-1.758
X-589.394 Y-1.512
X-589.089 Y-1.22
X-588.831 Y-0.886
X-588.624 Y-0.518
X-588.473 Y-0.123
X-588.381 Y0.289
X-588.35 Y0.71
G3 X-589.716 Y1.932 I-1.269 J-0.044
G1 X-593.977 Y1.608
G3 X-595.15 Y0.386 I0.096 J-1.266
G1 Y-0.057
X-595.143 Y-0.207
X-595.118 Y-0.355
X-595.077 Y-0.499
X-595.025 Y-0.64
X-594.962 Y-0.776
X-594.891 Y-0.908
X-594.811 Y-1.035
X-594.724 Y-1.157
X-594.631 Y-1.275
X-594.533 Y-1.388
X-594.429 Y-1.496
X-594.32 Y-1.6
X-594.207 Y-1.698
X-594.09 Y-1.792
X-593.97 Y-1.881
X-593.846 Y-1.966
X-593.718 Y-2.045
X-593.588 Y-2.12
X-593.456 Y-2.19
X-593.32 Y-2.254
X-593.183 Y-2.315
X-593.043 Y-2.37
X-592.902 Y-2.42
X-592.759 Y-2.466
X-592.615 Y-2.507
X-592.469 Y-2.542
X-592.322 Y-2.573
X-592.175 Y-2.598
X-592.026 Y-2.619
X-591.877 Y-2.634
X-591.727 Y-2.644
X-591.577 Y-2.649
X-591.427
X-591.277 Y-2.643
X-591.128 Y-2.632
X-590.979 Y-2.614
X-590.831 Y-2.591
X-590.683 Y-2.563
X-590.537 Y-2.528
X-590.393 Y-2.487
X-590.25 Y-2.44
X-590.11 Y-2.388
X-589.734 Y-2.194
X-589.391 Y-1.948
X-589.088 Y-1.655
X-588.83 Y-1.32
X-588.623 Y-0.951
X-588.473 Y-0.557
X-588.381 Y-0.145
X-588.35 Y0.277
G3 X-589.718 Y1.499 I-1.269 J-0.044
G1 X-593.98 Y1.165
G3 X-595.15 Y-0.057 I0.099 J-1.266
G1 Y-0.488
X-595.143 Y-0.638
X-595.118 Y-0.786
X-595.079 Y-0.931
X-595.027 Y-1.071
X-594.964 Y-1.208
X-594.893 Y-1.34
X-594.814 Y-1.467
X-594.728 Y-1.59
X-594.635 Y-1.708
X-594.537 Y-1.821
X-594.433 Y-1.93
X-594.325 Y-2.034
X-594.212 Y-2.133
X-594.096 Y-2.227
X-593.975 Y-2.316
X-593.851 Y-2.401
X-593.724 Y-2.481
X-593.594 Y-2.556
X-593.462 Y-2.626
X-593.327 Y-2.691
X-593.19 Y-2.752
X-593.05 Y-2.807
X-592.909 Y-2.858
X-592.766 Y-2.904
X-592.622 Y-2.945
X-592.476 Y-2.981
X-592.33 Y-3.012
X-592.182 Y-3.037
X-592.033 Y-3.058
X-591.884 Y-3.074
X-591.734 Y-3.084
X-591.585 Y-3.089
X-591.435
X-591.285 Y-3.084
X-591.135 Y-3.073
X-590.986 Y-3.055
X-590.838 Y-3.032
X-590.69 Y-3.004
X-590.545 Y-2.969
X-590.4 Y-2.928
X-590.258 Y-2.882
X-590.117 Y-2.83
X-589.979 Y-2.771
X-589.582 Y-2.543
X-589.226 Y-2.254
X-588.922 Y-1.911
X-588.677 Y-1.524
X-588.497 Y-1.103
X-588.387 Y-0.658
X-588.35 Y-0.201
Y0.277
G3 X-589.844 Y1.482 I-1.269 J-0.044
G1 X-594.105 Y0.718
G3 X-595.15 Y-0.488 I0.224 J-1.25
G1 Y-0.912
X-595.143 Y-1.061
X-595.12 Y-1.21
X-595.082 Y-1.355
X-595.031 Y-1.496
X-594.97 Y-1.633
X-594.899 Y-1.765
X-594.821 Y-1.893
X-594.736 Y-2.017
X-594.644 Y-2.135
X-594.546 Y-2.249
X-594.443 Y-2.358
X-594.335 Y-2.462
X-594.223 Y-2.562
X-594.107 Y-2.657
X-593.987 Y-2.747
X-593.864 Y-2.832
X-593.737 Y-2.912
X-593.607 Y-2.988
X-593.475 Y-3.059
X-593.34 Y-3.125
X-593.203 Y-3.186
X-593.064 Y-3.242
X-592.923 Y-3.293
X-592.781 Y-3.339
X-592.636 Y-3.381
X-592.491 Y-3.417
X-592.344 Y-3.448
X-592.197 Y-3.475
X-592.048 Y-3.496
X-591.899 Y-3.512
X-591.749 Y-3.523
X-591.599 Y-3.528
X-591.449 Y-3.529
X-591.299 Y-3.524
X-591.15 Y-3.514
X-591.001 Y-3.498
X-590.852 Y-3.476
X-590.705 Y-3.448
X-590.559 Y-3.414
X-590.414 Y-3.375
X-590.271 Y-3.33
X-590.13 Y-3.278
X-589.991 Y-3.222
X-589.592 Y-2.997
X-589.234 Y-2.711
X-588.927 Y-2.37
X-588.68 Y-1.984
X-588.498 Y-1.564
X-588.387 Y-1.119
X-588.35 Y-0.662
Y-0.201
G3 X-589.828 Y1.007 I-1.269 J-0.044
G1 X-594.09 Y0.297
G3 X-595.15 Y-0.912 I0.209 J-1.253
G1 Y-1.341
X-595.143 Y-1.491
X-595.121 Y-1.639
X-595.084 Y-1.785
X-595.034 Y-1.926
X-594.973 Y-2.063
X-594.903 Y-2.196
X-594.826 Y-2.324
X-594.741 Y-2.448
X-594.649 Y-2.567
X-594.552 Y-2.681
X-594.449 Y-2.79
X-594.342 Y-2.895
X-594.23 Y-2.995
X-594.114 Y-3.09
X-593.995 Y-3.181
X-593.871 Y-3.266
X-593.745 Y-3.347
X-593.615 Y-3.423
X-593.483 Y-3.494
X-593.349 Y-3.56
X-593.212 Y-3.621
X-593.073 Y-3.678
X-592.932 Y-3.729
X-592.789 Y-3.776
X-592.645 Y-3.818
X-592.5 Y-3.855
X-592.353 Y-3.886
X-592.206 Y-3.913
X-592.057 Y-3.935
X-591.908 Y-3.951
X-591.759 Y-3.962
X-591.609 Y-3.969
X-591.459 Y-3.97
X-591.309 Y-3.965
X-591.159 Y-3.956
X-591.01 Y-3.94
X-590.862 Y-3.919
X-590.714 Y-3.892
X-590.568 Y-3.859
X-590.422 Y-3.821
X-590.279 Y-3.776
X-590.138 Y-3.726
X-589.999 Y-3.67
X-589.862 Y-3.608
X-589.492 Y-3.379
X-589.161 Y-3.096
X-588.879 Y-2.764
X-588.652 Y-2.393
X-588.485 Y-1.99
X-588.384 Y-1.566
X-588.35 Y-1.132
Y-0.662
G3 X-589.819 Y0.548 I-1.269 J-0.044
G1 X-594.081 Y-0.131
G3 X-595.15 Y-1.341 I0.2 J-1.254
G1 Y-1.808
X-595.143 Y-1.958
X-595.117 Y-2.106
X-595.077 Y-2.25
X-595.025 Y-2.391
X-594.962 Y-2.527
X-594.891 Y-2.659
X-594.811 Y-2.787
X-594.725 Y-2.909
X-594.633 Y-3.027
X-594.534 Y-3.141
X-594.431 Y-3.249
X-594.323 Y-3.353
X-594.21 Y-3.452
X-594.093 Y-3.546
X-593.973 Y-3.636
X-593.849 Y-3.72
X-593.722 Y-3.8
X-593.592 Y-3.875
X-593.46 Y-3.945
X-593.325 Y-4.011
X-593.187 Y-4.071
X-593.048 Y-4.127
X-592.907 Y-4.178
X-592.764 Y-4.223
X-592.62 Y-4.264
X-592.474 Y-4.3
X-592.327 Y-4.332
X-592.18 Y-4.358
X-592.031 Y-4.378
X-591.882 Y-4.394
X-591.732 Y-4.405
X-591.582 Y-4.41
X-591.432 Y-4.411
X-591.282 Y-4.406
X-591.133 Y-4.395
X-590.984 Y-4.38
X-590.835 Y-4.359
X-590.688 Y-4.331
X-590.541 Y-4.298
X-590.396 Y-4.259
X-590.253 Y-4.215
X-590.112 Y-4.163
X-589.737 Y-3.977
X-589.394 Y-3.738
X-589.09 Y-3.451
X-588.832 Y-3.122
X-588.624 Y-2.758
X-588.473 Y-2.368
X-588.381 Y-1.96
X-588.35 Y-1.543
Y-1.132
G3 X-589.818 Y0.078 I-1.269 J-0.044
G1 X-594.08 Y-0.598
G3 X-595.15 Y-1.808 I0.199 J-1.254
G1 Y-2.236
X-595.143 Y-2.386
X-595.119 Y-2.534
X-595.08 Y-2.679
X-595.029 Y-2.82
X-594.967 Y-2.957
X-594.896 Y-3.089
X-594.817 Y-3.217
X-594.732 Y-3.34
X-594.64 Y-3.458
X-594.542 Y-3.572
X-594.439 Y-3.681
X-594.331 Y-3.785
X-594.218 Y-3.884
X-594.102 Y-3.979
X-593.982 Y-4.069
X-593.858 Y-4.154
X-593.732 Y-4.234
X-593.602 Y-4.31
X-593.47 Y-4.38
X-593.335 Y-4.446
X-593.198 Y-4.507
X-593.059 Y-4.563
X-592.918 Y-4.614
X-592.775 Y-4.661
X-592.631 Y-4.702
X-592.485 Y-4.739
X-592.339 Y-4.77
X-592.191 Y-4.797
X-592.043 Y-4.819
X-591.894 Y-4.835
X-591.744 Y-4.846
X-591.594 Y-4.853
X-591.444 Y-4.854
X-591.294 Y-4.85
X-591.144 Y-4.84
X-590.995 Y-4.824
X-590.847 Y-4.802
X-590.699 Y-4.776
X-590.553 Y-4.742
X-590.408 Y-4.703
X-590.265 Y-4.658
X-590.124 Y-4.608
X-589.746 Y-4.418
X-589.401 Y-4.175
X-589.094 Y-3.884
X-588.834 Y-3.551
X-588.626 Y-3.183
X-588.474 Y-2.789
X-588.381 Y-2.377
X-588.35 Y-1.956
Y-1.543
G3 X-589.823 Y-0.333 I-1.269 J-0.044
G1 X-594.085 Y-1.027
G3 X-595.15 Y-2.236 I0.204 J-1.253
G1 Y-2.685
X-595.143 Y-2.835
X-595.118 Y-2.983
X-595.078 Y-3.127
X-595.026 Y-3.268
X-594.963 Y-3.404
X-594.892 Y-3.536
X-594.813 Y-3.664
X-594.726 Y-3.787
X-594.634 Y-3.905
X-594.536 Y-4.018
X-594.432 Y-4.127
X-594.324 Y-4.231
X-594.212 Y-4.33
X-594.095 Y-4.424
X-593.975 Y-4.514
X-593.851 Y-4.599
X-593.724 Y-4.679
X-593.594 Y-4.754
X-593.462 Y-4.824
X-593.327 Y-4.89
X-593.19 Y-4.951
X-593.051 Y-5.007
X-592.91 Y-5.058
X-592.767 Y-5.104
X-592.623 Y-5.146
X-592.478 Y-5.182
X-592.331 Y-5.214
X-592.183 Y-5.24
X-592.035 Y-5.261
X-591.886 Y-5.278
X-591.736 Y-5.289
X-591.586 Y-5.294
X-591.436 Y-5.295
X-591.286 Y-5.291
X-591.137 Y-5.28
X-590.987 Y-5.264
X-590.839 Y-5.241
X-590.692 Y-5.214
X-590.546 Y-5.18
X-590.401 Y-5.14
X-590.258 Y-5.094
X-590.117 Y-5.043
X-589.741 Y-4.851
X-589.396 Y-4.606
X-589.091 Y-4.314
X-588.832 Y-3.98
X-588.625 Y-3.611
X-588.473 Y-3.217
X-588.381 Y-2.804
X-588.35 Y-2.383
Y-1.956
G3 X-589.833 Y-0.748 I-1.269 J-0.044
G1 X-594.095 Y-1.478
G3 X-595.15 Y-2.685 I0.214 J-1.252
G1 Y-3.122
X-595.143 Y-3.272
X-595.118 Y-3.42
X-595.078 Y-3.565
X-595.026 Y-3.705
X-594.964 Y-3.842
X-594.893 Y-3.974
X-594.814 Y-4.101
X-594.728 Y-4.224
X-594.636 Y-4.342
X-594.538 Y-4.456
X-594.435 Y-4.565
X-594.327 Y-4.669
X-594.214 Y-4.768
X-594.098 Y-4.863
X-593.978 Y-4.953
X-593.854 Y-5.038
X-593.727 Y-5.118
X-593.598 Y-5.193
X-593.465 Y-5.264
X-593.33 Y-5.33
X-593.193 Y-5.391
X-593.054 Y-5.447
X-592.913 Y-5.498
X-592.771 Y-5.544
X-592.627 Y-5.586
X-592.481 Y-5.623
X-592.334 Y-5.654
X-592.187 Y-5.681
X-592.038 Y-5.702
X-591.889 Y-5.718
X-591.74 Y-5.729
X-591.59 Y-5.735
X-591.44
X-591.29 Y-5.731
X-591.14 Y-5.72
X-590.991 Y-5.704
X-590.843 Y-5.681
X-590.695 Y-5.654
X-590.549 Y-5.62
X-590.405 Y-5.579
X-590.262 Y-5.534
X-590.121 Y-5.482
X-589.983 Y-5.424
X-589.585 Y-5.197
X-589.229 Y-4.908
X-588.924 Y-4.566
X-588.678 Y-4.18
X-588.497 Y-3.759
X-588.387 Y-3.314
X-588.35 Y-2.857
Y-2.383
G3 X-589.836 Y-1.176 I-1.269 J-0.044
G1 X-594.098 Y-1.915
G3 X-595.15 Y-3.122 I0.217 J-1.251
G1 Y-3.568
X-595.143 Y-3.718
X-595.117 Y-3.866
X-595.077 Y-4.011
X-595.024 Y-4.151
X-594.962 Y-4.287
X-594.89 Y-4.419
X-594.811 Y-4.547
X-594.725 Y-4.669
X-594.632 Y-4.787
X-594.534 Y-4.901
X-594.431 Y-5.009
X-594.323 Y-5.113
X-594.21 Y-5.213
X-594.094 Y-5.307
X-593.973 Y-5.397
X-593.85 Y-5.481
X-593.723 Y-5.562
X-593.593 Y-5.637
X-593.461 Y-5.707
X-593.326 Y-5.773
X-593.189 Y-5.834
X-593.049 Y-5.89
X-592.908 Y-5.941
X-592.766 Y-5.987
X-592.621 Y-6.028
X-592.476 Y-6.064
X-592.329 Y-6.096
X-592.181 Y-6.122
X-592.033 Y-6.143
X-591.884 Y-6.159
X-591.734 Y-6.169
X-591.584 Y-6.175
X-591.434
X-591.284 Y-6.17
X-591.135 Y-6.159
X-590.986 Y-6.143
X-590.837 Y-6.121
X-590.69 Y-6.093
X-590.544 Y-6.059
X-590.399 Y-6.02
X-590.256 Y-5.974
X-590.115 Y-5.922
X-589.977 Y-5.865
X-589.58 Y-5.641
X-589.226 Y-5.355
X-588.922 Y-5.016
X-588.677 Y-4.632
X-588.497 Y-4.214
X-588.387 Y-3.772
X-588.35 Y-3.318
Y-2.857
G3 X-589.828 Y-1.649 I-1.269 J-0.044
G1 X-594.09 Y-2.36
G3 X-595.15 Y-3.568 I0.209 J-1.253
G1 Y-3.998
X-595.143 Y-4.148
X-595.119 Y-4.296
X-595.079 Y-4.44
X-595.028 Y-4.581
X-594.966 Y-4.718
X-594.895 Y-4.85
X-594.817 Y-4.978
X-594.731 Y-5.101
X-594.639 Y-5.22
X-594.541 Y-5.333
X-594.438 Y-5.442
X-594.33 Y-5.547
X-594.218 Y-5.646
X-594.102 Y-5.741
X-593.982 Y-5.831
X-593.859 Y-5.916
X-593.732 Y-5.997
X-593.602 Y-6.072
X-593.47 Y-6.143
X-593.335 Y-6.209
X-593.198 Y-6.27
X-593.059 Y-6.326
X-592.918 Y-6.378
X-592.776 Y-6.424
X-592.632 Y-6.466
X-592.486 Y-6.502
X-592.34 Y-6.534
X-592.192 Y-6.56
X-592.044 Y-6.582
X-591.894 Y-6.598
X-591.745 Y-6.609
X-591.595 Y-6.615
X-591.445 Y-6.616
X-591.295 Y-6.611
X-591.145 Y-6.602
X-590.996 Y-6.586
X-590.848 Y-6.564
X-590.7 Y-6.537
X-590.554 Y-6.504
X-590.409 Y-6.466
X-590.266 Y-6.421
X-590.125 Y-6.37
X-589.986 Y-6.314
X-589.849 Y-6.251
X-589.482 Y-6.023
X-589.154 Y-5.741
X-588.874 Y-5.411
X-588.649 Y-5.041
X-588.484 Y-4.641
X-588.384 Y-4.221
X-588.35 Y-3.789
Y-3.318
G3 X-589.819 Y-2.108 I-1.269 J-0.044
G1 X-594.081 Y-2.788
G3 X-595.15 Y-3.998 I0.2 J-1.254
G1 Y-4.429
X-595.143 Y-4.579
X-595.12 Y-4.727
X-595.082 Y-4.872
X-595.031 Y-5.013
X-594.97 Y-5.15
X-594.9 Y-5.283
X-594.821 Y-5.411
X-594.736 Y-5.534
X-594.645 Y-5.653
X-594.547 Y-5.767
X-594.444 Y-5.876
X-594.337 Y-5.981
X-594.225 Y-6.081
X-594.109 Y-6.176
X-593.989 Y-6.266
X-593.866 Y-6.352
X-593.74 Y-6.433
X-593.61 Y-6.508
X-593.478 Y-6.579
X-593.344 Y-6.646
X-593.207 Y-6.707
X-593.068 Y-6.764
X-592.927 Y-6.815
X-592.784 Y-6.862
X-592.64 Y-6.904
X-592.495 Y-6.941
X-592.348 Y-6.973
X-592.201 Y-7
X-592.052 Y-7.022
X-591.903 Y-7.038
X-591.754 Y-7.05
X-591.604 Y-7.056
X-591.454 Y-7.058
X-591.304 Y-7.054
X-591.154 Y-7.044
X-591.005 Y-7.03
X-590.856 Y-7.01
X-590.709 Y-6.983
X-590.562 Y-6.951
X-590.417 Y-6.914
X-590.273 Y-6.87
X-590.132 Y-6.82
X-589.753 Y-6.635
X-589.407 Y-6.396
X-589.099 Y-6.108
X-588.837 Y-5.777
X-588.628 Y-5.412
X-588.475 Y-5.019
X-588.381 Y-4.608
X-588.35 Y-4.188
Y-3.789
G3 X-589.808 Y-2.578 I-1.269 J-0.044
G1 X-594.069 Y-3.217
G3 X-595.15 Y-4.429 I0.188 J-1.256
G1 Y-4.893
X-595.143 Y-5.043
X-595.117 Y-5.191
X-595.076 Y-5.335
X-595.023 Y-5.475
X-594.961 Y-5.612
X-594.889 Y-5.744
X-594.81 Y-5.871
X-594.723 Y-5.993
X-594.631 Y-6.111
X-594.532 Y-6.225
X-594.429 Y-6.333
X-594.321 Y-6.437
X-594.208 Y-6.536
X-594.091 Y-6.631
X-593.971 Y-6.72
X-593.847 Y-6.805
X-593.72 Y-6.885
X-593.591 Y-6.96
X-593.458 Y-7.03
X-593.323 Y-7.096
X-593.186 Y-7.156
X-593.047 Y-7.212
X-592.906 Y-7.263
X-592.763 Y-7.309
X-592.619 Y-7.351
X-592.473 Y-7.387
X-592.326 Y-7.418
X-592.179 Y-7.445
X-592.03 Y-7.466
X-591.881 Y-7.482
X-591.732 Y-7.494
X-591.582 Y-7.5
X-591.432
X-591.282 Y-7.496
X-591.132 Y-7.486
X-590.983 Y-7.469
X-590.835 Y-7.448
X-590.687 Y-7.421
X-590.541 Y-7.387
X-590.396 Y-7.347
X-590.253 Y-7.302
X-590.112 Y-7.251
X-589.737 Y-7.061
X-589.393 Y-6.818
X-589.089 Y-6.527
X-588.831 Y-6.195
X-588.624 Y-5.828
X-588.473 Y-5.436
X-588.381 Y-5.025
X-588.35 Y-4.606
Y-4.188
G3 X-589.827 Y-2.979 I-1.269 J-0.044
G1 X-594.088 Y-3.684
G3 X-595.15 Y-4.893 I0.207 J-1.253
G1 Y-5.307
X-595.143 Y-5.457
X-595.12 Y-5.605
X-595.082 Y-5.751
X-595.032 Y-5.892
X-594.971 Y-6.029
X-594.901 Y-6.161
X-594.823 Y-6.29
X-594.738 Y-6.413
X-594.646 Y-6.532
X-594.549 Y-6.646
X-594.447 Y-6.756
X-594.339 Y-6.86
X-594.227 Y-6.96
X-594.111 Y-7.055
X-593.992 Y-7.146
X-593.868 Y-7.231
X-593.742 Y-7.312
X-593.613 Y-7.388
X-593.481 Y-7.459
X-593.346 Y-7.526
X-593.21 Y-7.588
X-593.071 Y-7.644
X-592.93 Y-7.696
X-592.788 Y-7.743
X-592.644 Y-7.786
X-592.498 Y-7.823
X-592.352 Y-7.855
X-592.204 Y-7.883
X-592.056 Y-7.905
X-591.907 Y-7.922
X-591.758 Y-7.934
X-591.608 Y-7.941
X-591.458 Y-7.942
X-591.308 Y-7.938
X-591.158 Y-7.929
X-591.009 Y-7.913
X-590.86 Y-7.892
X-590.713 Y-7.865
X-590.566 Y-7.833
X-590.422 Y-7.793
X-590.278 Y-7.749
X-590.137 Y-7.698
X-589.757 Y-7.508
X-589.409 Y-7.263
X-589.1 Y-6.97
X-588.838 Y-6.635
X-588.628 Y-6.265
X-588.475 Y-5.868
X-588.381 Y-5.453
X-588.35 Y-5.029
Y-4.606
G3 X-589.826 Y-3.397 I-1.269 J-0.044
G1 X-594.087 Y-4.098
G3 X-595.15 Y-5.307 I0.206 J-1.253
G1 Y-5.75
X-595.143 Y-5.9
X-595.12 Y-6.048
X-595.082 Y-6.193
X-595.031 Y-6.334
X-594.97 Y-6.471
X-594.9 Y-6.604
X-594.822 Y-6.732
X-594.737 Y-6.855
X-594.645 Y-6.974
X-594.548 Y-7.088
X-594.445 Y-7.198
X-594.338 Y-7.302
X-594.226 Y-7.402
X-594.11 Y-7.497
X-593.99 Y-7.588
X-593.867 Y-7.673
X-593.741 Y-7.754
X-593.611 Y-7.83
X-593.479 Y-7.902
X-593.345 Y-7.968
X-593.208 Y-8.03
X-593.069 Y-8.086
X-592.928 Y-8.138
X-592.786 Y-8.185
X-592.642 Y-8.227
X-592.497 Y-8.265
X-592.35 Y-8.297
X-592.203 Y-8.324
X-592.054 Y-8.346
X-591.905 Y-8.363
X-591.756 Y-8.375
X-591.606 Y-8.381
X-591.456 Y-8.382
X-591.306 Y-8.378
X-591.156 Y-8.368
X-591.007 Y-8.352
X-590.859 Y-8.331
X-590.711 Y-8.304
X-590.565 Y-8.27
X-590.42 Y-8.231
X-590.277 Y-8.186
X-590.136 Y-8.135
X-589.998 Y-8.077
X-589.596 Y-7.85
X-589.237 Y-7.562
X-588.929 Y-7.218
X-588.681 Y-6.83
X-588.499 Y-6.407
X-588.387 Y-5.959
X-588.35 Y-5.5
Y-5.029
G3 X-589.831 Y-3.821 I-1.269 J-0.044
G1 X-594.093 Y-4.542
G3 X-595.15 Y-5.75 I0.212 J-1.252
G1 Y-6.181
X-595.143 Y-6.331
X-595.121 Y-6.479
X-595.084 Y-6.625
X-595.034 Y-6.766
X-594.974 Y-6.903
X-594.904 Y-7.036
X-594.826 Y-7.165
X-594.742 Y-7.288
X-594.651 Y-7.408
X-594.554 Y-7.522
X-594.451 Y-7.632
X-594.344 Y-7.737
X-594.233 Y-7.837
X-594.117 Y-7.933
X-593.998 Y-8.023
X-593.875 Y-8.109
X-593.748 Y-8.19
X-593.619 Y-8.267
X-593.488 Y-8.338
X-593.353 Y-8.405
X-593.217 Y-8.467
X-593.078 Y-8.524
X-592.937 Y-8.576
X-592.795 Y-8.624
X-592.651 Y-8.666
X-592.506 Y-8.703
X-592.359 Y-8.736
X-592.212 Y-8.763
X-592.063 Y-8.785
X-591.914 Y-8.802
X-591.765 Y-8.814
X-591.615 Y-8.82
X-591.465 Y-8.822
X-591.315 Y-8.818
X-591.165 Y-8.808
X-591.016 Y-8.794
X-590.868 Y-8.772
X-590.72 Y-8.745
X-590.574 Y-8.713
X-590.429 Y-8.675
X-590.285 Y-8.63
X-590.144 Y-8.579
X-590.005 Y-8.523
X-589.602 Y-8.3
X-589.242 Y-8.013
X-588.932 Y-7.672
X-588.683 Y-7.285
X-588.5 Y-6.863
X-588.388 Y-6.416
X-588.35 Y-5.957
Y-5.5
G3 X-589.82 Y-4.29 I-1.269 J-0.044
G1 X-594.081 Y-4.971
G3 X-595.15 Y-6.181 I0.2 J-1.254
G1 Y-6.641
X-595.143 Y-6.791
X-595.119 Y-6.939
X-595.08 Y-7.083
X-595.028 Y-7.224
X-594.966 Y-7.361
X-594.896 Y-7.493
X-594.817 Y-7.621
X-594.732 Y-7.744
X-594.64 Y-7.863
X-594.542 Y-7.977
X-594.439 Y-8.086
X-594.331 Y-8.19
X-594.219 Y-8.29
X-594.103 Y-8.385
X-593.983 Y-8.475
X-593.86 Y-8.56
X-593.733 Y-8.641
X-593.604 Y-8.717
X-593.472 Y-8.787
X-593.337 Y-8.853
X-593.2 Y-8.915
X-593.061 Y-8.971
X-592.92 Y-9.023
X-592.778 Y-9.069
X-592.633 Y-9.111
X-592.488 Y-9.148
X-592.341 Y-9.179
X-592.194 Y-9.206
X-592.045 Y-9.227
X-591.896 Y-9.244
X-591.747 Y-9.255
X-591.597 Y-9.261
X-591.447 Y-9.262
X-591.297 Y-9.257
X-591.147 Y-9.248
X-590.998 Y-9.232
X-590.85 Y-9.21
X-590.702 Y-9.183
X-590.556 Y-9.15
X-590.411 Y-9.112
X-590.268 Y-9.066
X-590.127 Y-9.015
X-589.988 Y-8.959
X-589.851 Y-8.897
X-589.483 Y-8.668
X-589.155 Y-8.386
X-588.875 Y-8.055
X-588.649 Y-7.685
X-588.484 Y-7.284
X-588.384 Y-6.863
X-588.35 Y-6.431
Y-5.957
G3 X-589.82 Y-4.748 I-1.269 J-0.044
G1 X-594.082 Y-5.431
G3 X-595.15 Y-6.641 I0.201 J-1.254
G1 Y-7.086
X-595.143 Y-7.236
X-595.118 Y-7.384
X-595.079 Y-7.528
X-595.027 Y-7.669
X-594.965 Y-7.806
X-594.894 Y-7.938
X-594.815 Y-8.066
X-594.729 Y-8.189
X-594.637 Y-8.307
X-594.54 Y-8.421
X-594.437 Y-8.53
X-594.329 Y-8.634
X-594.216 Y-8.733
X-594.1 Y-8.828
X-593.98 Y-8.918
X-593.857 Y-9.003
X-593.73 Y-9.084
X-593.6 Y-9.159
X-593.468 Y-9.23
X-593.333 Y-9.296
X-593.196 Y-9.357
X-593.057 Y-9.413
X-592.916 Y-9.464
X-592.774 Y-9.511
X-592.63 Y-9.552
X-592.484 Y-9.589
X-592.337 Y-9.621
X-592.19 Y-9.647
X-592.041 Y-9.669
X-591.892 Y-9.685
X-591.743 Y-9.696
X-591.593 Y-9.702
X-591.443 Y-9.703
X-591.293 Y-9.699
X-591.143 Y-9.689
X-590.994 Y-9.674
X-590.845 Y-9.653
X-590.698 Y-9.626
X-590.551 Y-9.594
X-590.406 Y-9.556
X-590.263 Y-9.512
X-590.232 Y-9.5
X-589.834 Y-9.322
X-589.469 Y-9.086
X-589.144 Y-8.796
X-588.867 Y-8.461
X-588.645 Y-8.087
X-588.482 Y-7.683
X-588.383 Y-7.259
X-588.35 Y-6.825
Y-6.431
G3 X-589.812 Y-5.22 I-1.269 J-0.044
G1 X-594.074 Y-5.875
G3 X-595.15 Y-7.086 I0.193 J-1.255
G1 Y-7.508
X-595.143 Y-7.657
X-595.121 Y-7.806
X-595.083 Y-7.951
X-595.033 Y-8.092
X-594.972 Y-8.23
X-594.903 Y-8.362
X-594.825 Y-8.491
X-594.74 Y-8.614
X-594.649 Y-8.733
X-594.552 Y-8.848
X-594.449 Y-8.957
X-594.342 Y-9.062
X-594.23 Y-9.162
X-594.114 Y-9.257
X-593.995 Y-9.348
X-593.872 Y-9.434
X-593.745 Y-9.515
X-593.616 Y-9.591
X-593.484 Y-9.662
X-593.35 Y-9.729
X-593.213 Y-9.79
X-593.074 Y-9.847
X-592.934 Y-9.899
X-592.791 Y-9.946
X-592.647 Y-9.988
X-592.502 Y-10.026
X-592.355 Y-10.058
X-592.208 Y-10.085
X-592.06 Y-10.108
X-591.911 Y-10.125
X-591.761 Y-10.137
X-591.611 Y-10.144
X-591.461 Y-10.146
X-591.311 Y-10.142
X-591.162 Y-10.133
X-591.012 Y-10.117
X-590.864 Y-10.097
X-590.716 Y-10.07
X-590.57 Y-10.037
X-590.425 Y-9.999
X-590.281 Y-9.955
X-590.14 Y-9.904
X-589.76 Y-9.715
X-589.411 Y-9.472
X-589.102 Y-9.18
X-588.839 Y-8.845
X-588.629 Y-8.476
X-588.475 Y-8.079
X-588.381 Y-7.665
X-588.35 Y-7.241
Y-6.825
G3 X-589.82 Y-5.616 I-1.269 J-0.044
G1 X-594.082 Y-6.298
G3 X-595.15 Y-7.508 I0.201 J-1.254
G1 Y-7.964
X-595.143 Y-8.114
X-595.119 Y-8.262
X-595.08 Y-8.407
X-595.028 Y-8.548
X-594.966 Y-8.684
X-594.896 Y-8.817
X-594.817 Y-8.944
X-594.731 Y-9.067
X-594.639 Y-9.186
X-594.542 Y-9.3
X-594.439 Y-9.409
X-594.331 Y-9.513
X-594.219 Y-9.613
X-594.103 Y-9.708
X-593.983 Y-9.798
X-593.859 Y-9.883
X-593.733 Y-9.963
X-593.603 Y-10.039
X-593.471 Y-10.11
X-593.336 Y-10.176
X-593.199 Y-10.237
X-593.06 Y-10.294
X-592.919 Y-10.345
X-592.777 Y-10.392
X-592.633 Y-10.434
X-592.487 Y-10.471
X-592.341 Y-10.503
X-592.193 Y-10.529
X-592.045 Y-10.551
X-591.896 Y-10.568
X-591.746 Y-10.579
X-591.596 Y-10.585
X-591.446 Y-10.586
X-591.296 Y-10.582
X-591.147 Y-10.572
X-590.998 Y-10.555
X-590.849 Y-10.534
X-590.702 Y-10.506
X-590.556 Y-10.473
X-590.411 Y-10.433
X-590.268 Y-10.387
X-590.127 Y-10.336
X-589.748 Y-10.144
X-589.402 Y-9.899
X-589.095 Y-9.606
X-588.835 Y-9.271
X-588.626 Y-8.901
X-588.474 Y-8.505
X-588.381 Y-8.091
X-588.35 Y-7.667
Y-7.241
G3 X-589.832 Y-6.033 I-1.269 J-0.044
G1 X-594.093 Y-6.756
G3 X-595.15 Y-7.964 I0.212 J-1.252
G1 Y-8.407
X-595.143 Y-8.556
X-595.119 Y-8.705
X-595.079 Y-8.849
X-595.028 Y-8.99
X-594.966 Y-9.127
X-594.895 Y-9.259
X-594.816 Y-9.387
X-594.73 Y-9.51
X-594.638 Y-9.628
X-594.54 Y-9.742
X-594.437 Y-9.851
X-594.33 Y-9.955
X-594.217 Y-10.055
X-594.101 Y-10.15
X-593.981 Y-10.24
X-593.858 Y-10.325
X-593.731 Y-10.405
X-593.602 Y-10.481
X-593.469 Y-10.552
X-593.335 Y-10.618
X-593.198 Y-10.679
X-593.059 Y-10.735
X-592.918 Y-10.787
X-592.775 Y-10.834
X-592.631 Y-10.875
X-592.486 Y-10.912
X-592.339 Y-10.944
X-592.192 Y-10.97
X-592.043 Y-10.992
X-591.894 Y-11.008
X-591.745 Y-11.019
X-591.595 Y-11.025
X-591.445 Y-11.026
X-591.295 Y-11.021
X-591.145 Y-11.011
X-590.996 Y-10.994
X-590.848 Y-10.972
X-590.7 Y-10.944
X-590.554 Y-10.911
X-590.41 Y-10.87
X-590.267 Y-10.825
X-590.126 Y-10.773
X-589.988 Y-10.715
X-589.588 Y-10.488
X-589.231 Y-10.199
X-588.925 Y-9.856
X-588.679 Y-9.469
X-588.498 Y-9.046
X-588.387 Y-8.601
X-588.35 Y-8.143
Y-7.667
G3 X-589.836 Y-6.46 I-1.269 J-0.044
G1 X-594.098 Y-7.2
G3 X-595.15 Y-8.407 I0.217 J-1.251
G1 Y-8.838
X-595.143 Y-8.988
X-595.12 Y-9.136
X-595.081 Y-9.281
X-595.031 Y-9.422
X-594.969 Y-9.559
X-594.899 Y-9.691
X-594.821 Y-9.82
X-594.736 Y-9.943
X-594.644 Y-10.062
X-594.547 Y-10.176
X-594.444 Y-10.285
X-594.336 Y-10.39
X-594.225 Y-10.49
X-594.109 Y-10.585
X-593.989 Y-10.675
X-593.866 Y-10.761
X-593.739 Y-10.841
X-593.61 Y-10.917
X-593.478 Y-10.989
X-593.343 Y-11.055
X-593.206 Y-11.116
X-593.068 Y-11.173
X-592.927 Y-11.225
X-592.784 Y-11.271
X-592.64 Y-11.313
X-592.495 Y-11.35
X-592.348 Y-11.382
X-592.201 Y-11.409
X-592.052 Y-11.431
X-591.903 Y-11.447
X-591.754 Y-11.458
X-591.604 Y-11.465
X-591.454
X-591.304 Y-11.461
X-591.154 Y-11.451
X-591.005 Y-11.436
X-590.856 Y-11.414
X-590.709 Y-11.386
X-590.563 Y-11.353
X-590.418 Y-11.315
X-590.275 Y-11.269
X-590.134 Y-11.218
X-589.995 Y-11.162
X-589.594 Y-10.938
X-589.236 Y-10.652
X-588.928 Y-10.311
X-588.68 Y-9.925
X-588.499 Y-9.504
X-588.387 Y-9.059
X-588.35 Y-8.602
Y-8.143
G3 X-589.824 Y-6.934 I-1.269 J-0.044
G1 X-594.085 Y-7.629
G3 X-595.15 Y-8.838 I0.204 J-1.253
G1 Y-9.298
X-595.143 Y-9.448
X-595.117 Y-9.596
X-595.077 Y-9.74
X-595.024 Y-9.881
X-594.962 Y-10.017
X-594.89 Y-10.149
X-594.811 Y-10.276
X-594.725 Y-10.399
X-594.633 Y-10.517
X-594.535 Y-10.631
X-594.209 Y-10.93
X-593.846 Y-11.183
X-593.452 Y-11.384
X-593.035 Y-11.531
X-592.602 Y-11.62
X-592.161 Y-11.65
G3 X-590.154 Y-8.091 I-0.084 J2.392
X-595.15 Y-9.298 I-2.33 J-1.3
G1 Y-9.719
X-595.143 Y-9.869
X-595.12 Y-10.017
X-595.082 Y-10.162
X-595.03 Y-10.303
X-594.967 Y-10.44
X-594.896 Y-10.571
X-594.659 Y-10.881
X-594.373 Y-11.147
X-594.048 Y-11.363
X-593.691 Y-11.521
X-593.313 Y-11.617
X-592.924 Y-11.65
G3 X-591.236 Y-8.979 I-0.067 J1.911
X-595.15 Y-9.719 I-1.873 J-0.811
G1 Y-10.164
X-595.143 Y-10.314
X-595.113 Y-10.461
X-595.068 Y-10.604
X-594.906 Y-10.898
X-594.69 Y-11.155
X-594.429 Y-11.365
X-594.132 Y-11.521
X-593.811 Y-11.618
X-593.477 Y-11.65
G3 X-592.171 Y-9.64 I-0.051 J1.463
X-595.15 Y-10.164 I-1.434 J-0.579
G1 X-595.148 Y-10.431
X-595.125 Y-10.621
X-595.087 Y-10.763
X-595.031 Y-10.906
X-594.982 Y-11
X-594.922 Y-11.095
X-594.849 Y-11.19
X-594.75 Y-11.294
X-594.65 Y-11.381
X-594.555 Y-11.449
X-594.459 Y-11.504
X-594.269 Y-11.585
X-594.079 Y-11.633
X-593.888 Y-11.65
X-590.875
X-590.726 Y-11.642
X-590.576 Y-11.63
X-590.428 Y-11.609
X-590.28 Y-11.58
X-590.135 Y-11.542
X-590.126 Y-11.539
X-589.753 Y-11.386
X-589.41 Y-11.177
X-589.103 Y-10.916
X-588.841 Y-10.61
X-588.63 Y-10.267
X-588.476 Y-9.895
X-588.382 Y-9.504
X-588.35 Y-9.103
G3 X-591.426 Y-6.828 I-2.442 J-0.085
X-590.875 Y-11.65 I0.636 J-2.37
G1 X-590.198
X-590.049 Y-11.642
X-589.9 Y-11.624
X-589.753 Y-11.591
X-589.611 Y-11.545
X-589.472 Y-11.489
X-589.154 Y-11.291
X-588.878 Y-11.038
X-588.653 Y-10.739
X-588.487 Y-10.404
X-588.384 Y-10.044
X-588.35 Y-9.672
G3 X-590.734 Y-8.028 I-1.802 J-0.063
X-590.198 Y-11.65 I0.6 J-1.762
G1 X-589.733
X-589.583 Y-11.642
X-589.435 Y-11.618
X-589.292 Y-11.574
X-589.153 Y-11.516
X-588.882 Y-11.327
X-588.658 Y-11.084
X-588.489 Y-10.8
X-588.385 Y-10.486
X-588.35 Y-10.158
G3 X-590.147 Y-8.93 I-1.35 J-0.047
X-589.733 Y-11.65 I0.463 J-1.321
G1 X-589.698
X-589.508 Y-11.644
X-589.317 Y-11.61
X-589.127 Y-11.545
X-588.936 Y-11.441
X-588.85 Y-11.38
X-588.678 Y-11.22
X-588.555 Y-11.061
X-588.518 Y-11
X-588.429 Y-10.81
X-588.375 Y-10.621
X-588.352 Y-10.431
X-588.35 Y-10.241
Y-8.602
X-588.367 Y-8.495 Z-25.492
X-588.384 Y-8.39 Z-25.47
X-588.401 Y-8.289 Z-25.433
X-588.437 Y-8.205 Z-25.385
X-588.471 Y-8.128 Z-25.325
X-588.501 Y-8.058 Z-25.255
X-588.527 Y-7.998 Z-25.175
X-588.557 Y-7.954 Z-25.092
X-588.58 Y-7.92 Z-25.003
X-588.597 Y-7.895 Z-24.909
X-588.607 Y-7.879 Z-24.813
X-588.611 Y-7.874 Z-24.715
G0 Z5
X-409.68 Y6.355
Z3.82
G1 Z2.55 F849.6
Z-25.5 F283.3
X-409.721 Y6.322 F849.6
X-409.751 Y6.291
X-409.784 Y6.254
X-409.646 Y6.196
X-409.505 Y6.145
X-409.358 Y6.097
X-409.178 Y6.045
X-408.96 Y5.987
X-408.692 Y5.925
X-408.363 Y5.858
X-407.95 Y5.786
X-407.423 Y5.709
X-406.726 Y5.628
X-405.749 Y5.543
X-404.576 Y5.473
X-404.387 Y5.493
X-404.214 Y5.571
X-404.076 Y5.701
X-403.986 Y5.868
X-403.954 Y6.055
X-403.983 Y6.243
X-404.071 Y6.411
X-404.207 Y6.543
X-404.379 Y6.624
X-404.492 Y6.63
X-405.164 Y6.631
X-408.877 Y6.638
G3 X-409.751 Y6.291 I-0.002 J-1.27
G1 X-409.821 Y6.221
X-409.902 Y6.12
X-409.928 Y6.08
X-409.804 Y5.996
X-409.676 Y5.917
X-409.545 Y5.844
X-409.412 Y5.775
X-409.263 Y5.703
X-409.105 Y5.632
X-408.921 Y5.556
X-408.709 Y5.476
X-408.48 Y5.396
X-408.2 Y5.307
X-407.895 Y5.22
X-407.544 Y5.131
X-407.114 Y5.034
X-406.781 Y4.969
X-406.534 Y4.928
X-406.303 Y4.896
X-406.109 Y4.875
X-405.946 Y4.862
X-405.796 Y4.854
X-405.646 Y4.851
X-405.394 Y4.891
X-405.164 Y4.999
X-404.973 Y5.168
X-404.837 Y5.384
X-404.767 Y5.629
X-404.769 Y5.884
X-404.842 Y6.128
X-404.981 Y6.342
X-405.174 Y6.508
X-405.407 Y6.614
X-405.659 Y6.65
G3 X-409.901 Y6.121 I0.838 J-23.985
G1 X-409.902 Y6.12
X-409.931 Y6.079
X-410.038 Y5.889
X-410.048 Y5.854
X-409.937 Y5.753
X-409.822 Y5.657
X-409.702 Y5.566
X-409.58 Y5.479
X-409.455 Y5.396
X-409.319 Y5.311
X-409.175 Y5.227
X-409.007 Y5.135
X-408.832 Y5.046
X-408.643 Y4.956
X-408.447 Y4.869
X-408.244 Y4.786
X-408.04 Y4.71
X-407.838 Y4.64
X-407.639 Y4.578
X-407.451 Y4.526
X-407.292 Y4.486
X-407.145 Y4.453
X-406.998 Y4.425
X-406.849 Y4.402
X-406.701 Y4.384
X-406.551 Y4.37
X-406.401 Y4.364
X-406.251
X-405.963 Y4.419
X-405.699 Y4.544
X-405.475 Y4.734
X-405.306 Y4.973
X-405.204 Y5.248
X-405.175 Y5.54
X-405.221 Y5.829
X-405.339 Y6.097
X-405.522 Y6.327
X-405.756 Y6.502
X-406.028 Y6.612
X-406.319 Y6.65
G3 X-409.966 Y5.947 I0.419 J-11.993
G1 X-410.007 Y5.924
X-410.038 Y5.889
X-410.106 Y5.699
X-410.124 Y5.602
X-410.129 Y5.567
X-410.029 Y5.455
X-409.925 Y5.347
X-409.816 Y5.244
X-409.704 Y5.145
X-409.588 Y5.049
X-409.469 Y4.957
X-409.348 Y4.869
X-409.223 Y4.783
X-409.09 Y4.698
X-408.954 Y4.615
X-408.815 Y4.537
X-408.675 Y4.462
X-408.533 Y4.393
X-408.39 Y4.327
X-408.248 Y4.267
X-408.109 Y4.212
X-407.968 Y4.161
X-407.825 Y4.115
X-407.681 Y4.072
X-407.536 Y4.035
X-407.389 Y4.003
X-407.241 Y3.978
X-407.093 Y3.958
X-406.943 Y3.946
X-406.793 Y3.941
X-406.643 Y3.945
X-406.494 Y3.958
X-406.345 Y3.979
X-406.199 Y4.012
X-405.722 Y4.157
X-405.446 Y4.278
X-405.206 Y4.461
X-405.016 Y4.695
X-404.886 Y4.967
X-404.824 Y5.262
X-404.833 Y5.563
X-404.912 Y5.854
X-405.058 Y6.118
X-405.261 Y6.341
X-405.511 Y6.509
X-405.794 Y6.614
X-406.093 Y6.65
G3 X-410.067 Y5.673 I0.349 J-9.994
G1 X-410.093 Y5.656
X-410.113 Y5.631
X-410.124 Y5.602
X-410.142 Y5.51
X-410.15 Y5.32
Y5.254
X-410.148 Y5.212
X-410.058 Y5.092
X-409.963 Y4.976
X-409.862 Y4.864
X-409.758 Y4.757
X-409.649 Y4.653
X-409.537 Y4.554
X-409.421 Y4.459
X-409.302 Y4.368
X-409.18 Y4.28
X-409.055 Y4.197
X-408.927 Y4.118
X-408.797 Y4.043
X-408.665 Y3.973
X-408.53 Y3.907
X-408.393 Y3.846
X-408.254 Y3.79
X-408.113 Y3.738
X-407.97 Y3.692
X-407.826 Y3.652
X-407.68 Y3.617
X-407.533 Y3.588
X-407.385 Y3.565
X-407.236 Y3.549
X-407.086 Y3.539
X-406.936 Y3.536
X-406.786 Y3.537
X-406.636 Y3.546
X-406.487 Y3.56
X-406.338 Y3.58
X-406.191 Y3.607
X-406.045 Y3.643
X-405.902 Y3.687
X-404.872 Y4.065
X-404.596 Y4.205
X-404.359 Y4.404
X-404.175 Y4.653
X-404.053 Y4.937
X-404 Y5.241
X-404.018 Y5.55
X-404.107 Y5.846
X-404.262 Y6.114
X-404.475 Y6.339
X-404.733 Y6.508
X-405.024 Y6.614
X-405.331 Y6.65
G3 X-410.06 Y5.396 I0.384 J-10.993
G1 X-410.096 Y5.371
X-410.124 Y5.337
X-410.143 Y5.297
X-410.15 Y5.254
Y4.906
X-410.147 Y4.838
X-410.066 Y4.712
X-409.979 Y4.59
X-409.886 Y4.472
X-409.787 Y4.359
X-409.683 Y4.251
X-409.575 Y4.147
X-409.463 Y4.047
X-409.347 Y3.952
X-409.227 Y3.862
X-409.104 Y3.777
X-408.977 Y3.696
X-408.848 Y3.62
X-408.715 Y3.55
X-408.581 Y3.484
X-408.443 Y3.424
X-408.304 Y3.368
X-408.162 Y3.319
X-408.019 Y3.274
X-407.874 Y3.235
X-407.728 Y3.201
X-407.581 Y3.173
X-407.432 Y3.15
X-407.283 Y3.134
X-407.134 Y3.123
X-406.984 Y3.118
X-406.834 Y3.119
X-406.675 Y3.126
X-406.488 Y3.139
X-406.319 Y3.156
X-406.171 Y3.175
X-406.016 Y3.199
X-405.869 Y3.227
X-405.722 Y3.258
X-405.577 Y3.295
X-405.433 Y3.337
X-405.291 Y3.385
X-405.151 Y3.44
X-404.46 Y3.742
X-404.14 Y3.923
X-403.861 Y4.164
X-403.636 Y4.455
X-403.473 Y4.786
X-403.379 Y5.142
X-403.358 Y5.51
G3 X-404.705 Y6.493 I-1.238 J-0.282
G1 X-408.989 Y6.127
G3 X-410.15 Y4.906 I0.108 J-1.265
G1 Y4.526
X-410.146 Y4.439
X-410.07 Y4.309
X-409.987 Y4.184
X-409.898 Y4.064
X-409.802 Y3.948
X-409.701 Y3.838
X-409.594 Y3.732
X-409.483 Y3.631
X-409.368 Y3.535
X-409.249 Y3.444
X-409.126 Y3.358
X-409 Y3.277
X-408.87 Y3.201
X-408.738 Y3.131
X-408.603 Y3.065
X-408.466 Y3.005
X-408.326 Y2.95
X-408.184 Y2.9
X-408.041 Y2.856
X-407.896 Y2.817
X-407.75 Y2.782
X-407.603 Y2.753
X-407.455 Y2.728
X-407.307 Y2.708
X-407.157 Y2.693
X-407.008 Y2.682
X-406.858 Y2.676
X-406.708 Y2.674
X-406.558 Y2.678
X-406.408 Y2.686
X-406.259 Y2.699
X-406.086 Y2.719
X-405.909 Y2.745
X-405.758 Y2.771
X-405.604 Y2.803
X-405.442 Y2.84
X-405.297 Y2.879
X-405.154 Y2.921
X-405.011 Y2.969
X-404.649 Y3.14
X-404.317 Y3.366
X-404.024 Y3.64
X-403.778 Y3.957
X-403.584 Y4.308
X-403.448 Y4.685
X-403.371 Y5.079
X-403.357 Y5.48
G3 X-403.85 Y5.869 I-0.426 J-0.033
G1 X-403.929 Y5.857
X-409.596 Y4.964
X-409.789 Y4.933
G3 X-410.15 Y4.526 I0.067 J-0.422
G1 Y4.181
X-410.146 Y4.093
X-410.08 Y3.958
X-410.005 Y3.829
X-409.921 Y3.704
X-409.831 Y3.584
X-409.734 Y3.47
X-409.631 Y3.36
X-409.523 Y3.256
X-409.411 Y3.157
X-409.294 Y3.063
X-409.173 Y2.974
X-409.048 Y2.891
X-408.92 Y2.812
X-408.789 Y2.739
X-408.656 Y2.671
X-408.52 Y2.608
X-408.382 Y2.549
X-408.242 Y2.496
X-408.1 Y2.447
X-407.956 Y2.403
X-407.812 Y2.364
X-407.666 Y2.329
X-407.518 Y2.3
X-407.371 Y2.275
X-407.222 Y2.254
X-407.073 Y2.238
X-406.923 Y2.227
X-406.773 Y2.219
X-406.623 Y2.216
X-406.473 Y2.217
X-406.323 Y2.223
X-406.174 Y2.233
X-406.025 Y2.248
X-405.876 Y2.268
X-405.728 Y2.294
X-405.581 Y2.324
X-405.436 Y2.361
X-405.292 Y2.402
X-405.149 Y2.449
X-405.009 Y2.503
X-404.607 Y2.717
X-404.245 Y2.995
X-403.935 Y3.33
X-403.685 Y3.71
X-403.5 Y4.128
X-403.388 Y4.569
X-403.35 Y5.024
G3 X-404.866 Y6.225 I-1.269 J-0.044
G1 X-409.127 Y5.383
G3 X-410.15 Y4.181 I0.246 J-1.246
G1 Y3.839
X-410.142 Y3.689
X-410.078 Y3.554
X-410.004 Y3.423
X-409.922 Y3.298
X-409.832 Y3.177
X-409.737 Y3.062
X-409.635 Y2.952
X-409.528 Y2.847
X-409.416 Y2.747
X-409.3 Y2.651
X-409.18 Y2.561
X-409.057 Y2.476
X-408.93 Y2.396
X-408.8 Y2.321
X-408.667 Y2.251
X-408.533 Y2.185
X-408.395 Y2.124
X-408.256 Y2.068
X-408.115 Y2.017
X-407.973 Y1.97
X-407.829 Y1.928
X-407.684 Y1.89
X-407.538 Y1.857
X-407.39 Y1.828
X-407.242 Y1.804
X-407.093 Y1.784
X-406.944 Y1.77
X-406.795 Y1.759
X-406.645 Y1.754
X-406.495
X-406.345 Y1.758
X-406.195 Y1.767
X-406.046 Y1.781
X-405.897 Y1.802
X-405.749 Y1.828
X-405.603 Y1.858
X-405.457 Y1.895
X-405.313 Y1.938
X-405.172 Y1.987
X-405.032 Y2.041
X-404.894 Y2.101
X-404.516 Y2.326
X-404.179 Y2.609
X-403.891 Y2.941
X-403.659 Y3.314
X-403.489 Y3.72
X-403.385 Y4.148
X-403.35 Y4.586
G3 X-404.839 Y5.793 I-1.269 J-0.044
G1 X-409.1 Y5.046
G3 X-410.15 Y3.839 I0.219 J-1.251
G1 Y3.459
X-410.142 Y3.31
X-410.082 Y3.172
X-410.012 Y3.04
X-409.933 Y2.912
X-409.846 Y2.79
X-409.753 Y2.672
X-409.653 Y2.56
X-409.549 Y2.453
X-409.439 Y2.35
X-409.325 Y2.253
X-409.207 Y2.16
X-409.086 Y2.072
X-408.961 Y1.989
X-408.833 Y1.911
X-408.702 Y1.837
X-408.569 Y1.769
X-408.433 Y1.704
X-408.295 Y1.645
X-408.156 Y1.59
X-408.014 Y1.54
X-407.871 Y1.495
X-407.727 Y1.454
X-407.582 Y1.417
X-407.435 Y1.386
X-407.287 Y1.359
X-407.139 Y1.337
X-406.99 Y1.32
X-406.84 Y1.308
X-406.691 Y1.301
X-406.541 Y1.298
X-406.391 Y1.301
X-406.241 Y1.309
X-406.091 Y1.322
X-405.942 Y1.34
X-405.794 Y1.364
X-405.647 Y1.394
X-405.502 Y1.429
X-405.357 Y1.47
X-405.215 Y1.517
X-405.182 Y1.529
X-404.794 Y1.711
X-404.438 Y1.948
X-404.122 Y2.237
X-403.853 Y2.569
X-403.637 Y2.939
X-403.479 Y3.337
X-403.382 Y3.754
X-403.35 Y4.181
G3 X-404.831 Y5.389 I-1.269 J-0.044
G1 X-409.093 Y4.667
G3 X-410.15 Y3.459 I0.212 J-1.252
G1 Y3.112
X-410.142 Y2.962
X-410.09 Y2.821
X-410.027 Y2.685
X-409.954 Y2.554
X-409.873 Y2.428
X-409.784 Y2.307
X-409.689 Y2.191
X-409.588 Y2.08
X-409.483 Y1.974
X-409.372 Y1.872
X-409.257 Y1.776
X-409.138 Y1.684
X-409.016 Y1.597
X-408.891 Y1.515
X-408.762 Y1.438
X-408.631 Y1.365
X-408.497 Y1.297
X-408.361 Y1.234
X-408.223 Y1.176
X-408.083 Y1.122
X-407.941 Y1.073
X-407.798 Y1.029
X-407.653 Y0.989
X-407.507 Y0.955
X-407.36 Y0.925
X-407.212 Y0.9
X-407.064 Y0.88
X-406.914 Y0.864
X-406.765 Y0.854
X-406.615 Y0.849
X-406.465
X-406.315 Y0.854
X-406.165 Y0.865
X-406.016 Y0.881
X-405.868 Y0.903
X-405.72 Y0.93
X-405.574 Y0.964
X-405.429 Y1.003
X-405.286 Y1.047
X-405.145 Y1.098
X-404.763 Y1.289
X-404.413 Y1.534
X-404.103 Y1.828
X-403.84 Y2.164
X-403.629 Y2.535
X-403.475 Y2.933
X-403.382 Y3.35
X-403.35 Y3.776
G3 X-404.815 Y4.986 I-1.269 J-0.044
G1 X-409.076 Y4.322
G3 X-410.15 Y3.112 I0.195 J-1.255
G1 Y2.738
X-410.142 Y2.588
X-410.095 Y2.446
X-410.036 Y2.308
X-409.968 Y2.175
X-409.89 Y2.046
X-409.805 Y1.923
X-409.713 Y1.804
X-409.616 Y1.69
X-409.513 Y1.581
X-409.405 Y1.477
X-409.292 Y1.378
X-409.176 Y1.283
X-409.056 Y1.194
X-408.932 Y1.109
X-408.805 Y1.029
X-408.675 Y0.953
X-408.543 Y0.883
X-408.408 Y0.817
X-408.271 Y0.756
X-408.132 Y0.7
X-407.991 Y0.648
X-407.849 Y0.601
X-407.705 Y0.56
X-407.559 Y0.523
X-407.413 Y0.49
X-407.265 Y0.463
X-407.117 Y0.441
X-406.968 Y0.424
X-406.818 Y0.412
X-406.669 Y0.405
X-406.519 Y0.403
X-406.369 Y0.406
X-406.219 Y0.414
X-406.07 Y0.429
X-405.921 Y0.449
X-405.773 Y0.475
X-405.627 Y0.506
X-405.481 Y0.545
X-405.338 Y0.588
X-405.196 Y0.637
X-405.057 Y0.692
X-404.692 Y0.888
X-404.358 Y1.134
X-404.064 Y1.426
X-403.814 Y1.756
X-403.614 Y2.119
X-403.468 Y2.507
X-403.38 Y2.912
X-403.35 Y3.325
G3 X-404.792 Y4.539 I-1.269 J-0.044
G1 X-409.054 Y3.952
G3 X-410.15 Y2.738 I0.173 J-1.258
G1 Y2.374
X-410.142 Y2.224
X-410.103 Y2.079
X-410.05 Y1.939
X-409.986 Y1.803
X-409.913 Y1.672
X-409.832 Y1.546
X-409.744 Y1.424
X-409.65 Y1.308
X-409.55 Y1.196
X-409.445 Y1.089
X-409.335 Y0.986
X-409.221 Y0.889
X-409.103 Y0.797
X-408.981 Y0.709
X-408.856 Y0.626
X-408.728 Y0.548
X-408.597 Y0.474
X-408.464 Y0.406
X-408.328 Y0.342
X-408.19 Y0.283
X-408.05 Y0.229
X-407.909 Y0.18
X-407.765 Y0.136
X-407.621 Y0.096
X-407.475 Y0.061
X-407.328 Y0.032
X-407.18 Y0.007
X-407.031 Y-0.012
X-406.882 Y-0.027
X-406.732 Y-0.036
X-406.582 Y-0.04
X-406.432 Y-0.039
X-406.282 Y-0.033
X-406.133 Y-0.021
X-405.984 Y-0.003
X-405.836 Y0.02
X-405.688 Y0.049
X-405.542 Y0.084
X-405.398 Y0.125
X-405.256 Y0.172
X-405.115 Y0.224
X-404.977 Y0.283
X-404.58 Y0.512
X-404.225 Y0.802
X-403.921 Y1.145
X-403.676 Y1.533
X-403.497 Y1.954
X-403.387 Y2.399
X-403.35 Y2.856
G3 X-404.762 Y4.074 I-1.269 J-0.044
G1 X-409.024 Y3.591
G3 X-410.15 Y2.374 I0.143 J-1.262
G1 Y1.994
X-410.142 Y1.844
X-410.108 Y1.698
X-410.06 Y1.556
X-410 Y1.419
X-409.931 Y1.286
X-409.854 Y1.157
X-409.769 Y1.034
X-409.677 Y0.915
X-409.58 Y0.801
X-409.477 Y0.691
X-409.369 Y0.587
X-409.257 Y0.487
X-409.141 Y0.393
X-409.021 Y0.303
X-408.897 Y0.217
X-408.771 Y0.137
X-408.641 Y0.062
X-408.509 Y-0.009
X-408.374 Y-0.075
X-408.237 Y-0.136
X-408.098 Y-0.192
X-407.957 Y-0.243
X-407.814 Y-0.29
X-407.67 Y-0.331
X-407.525 Y-0.368
X-407.378 Y-0.399
X-407.23 Y-0.426
X-407.082 Y-0.447
X-406.933 Y-0.464
X-406.783 Y-0.475
X-406.633 Y-0.481
X-406.483 Y-0.482
X-406.333 Y-0.478
X-406.184 Y-0.468
X-406.034 Y-0.453
X-405.886 Y-0.432
X-405.738 Y-0.405
X-405.592 Y-0.372
X-405.447 Y-0.335
X-405.303 Y-0.29
X-405.162 Y-0.24
X-405.023 Y-0.184
X-404.616 Y0.04
X-404.252 Y0.328
X-403.939 Y0.671
X-403.687 Y1.061
X-403.501 Y1.487
X-403.388 Y1.937
X-403.35 Y2.4
G3 X-404.74 Y3.62 I-1.269 J-0.044
G1 X-409.001 Y3.214
G3 X-410.15 Y1.994 I0.12 J-1.264
G1 Y1.588
X-410.142 Y1.438
X-410.111 Y1.291
X-410.065 Y1.149
X-410.007 Y1.01
X-409.94 Y0.876
X-409.864 Y0.747
X-409.781 Y0.622
X-409.691 Y0.502
X-409.595 Y0.387
X-409.493 Y0.276
X-409.387 Y0.17
X-409.276 Y0.07
X-409.161 Y-0.026
X-409.042 Y-0.118
X-408.919 Y-0.204
X-408.793 Y-0.286
X-408.664 Y-0.362
X-408.533 Y-0.434
X-408.398 Y-0.501
X-408.262 Y-0.563
X-408.123 Y-0.621
X-407.983 Y-0.673
X-407.841 Y-0.721
X-407.697 Y-0.763
X-407.552 Y-0.801
X-407.405 Y-0.834
X-407.258 Y-0.862
X-407.11 Y-0.884
X-406.961 Y-0.902
X-406.811 Y-0.915
X-406.661 Y-0.922
X-406.511 Y-0.924
X-406.361 Y-0.921
X-406.212 Y-0.913
X-406.062 Y-0.899
X-405.914 Y-0.879
X-405.766 Y-0.854
X-405.619 Y-0.823
X-405.473 Y-0.786
X-405.33 Y-0.743
X-405.188 Y-0.694
X-405.048 Y-0.64
X-404.911 Y-0.58
X-404.529 Y-0.351
X-404.188 Y-0.064
X-403.897 Y0.272
X-403.662 Y0.651
X-403.49 Y1.061
X-403.385 Y1.494
X-403.35 Y1.938
G3 X-404.723 Y3.159 I-1.269 J-0.044
G1 X-408.985 Y2.809
G3 X-410.15 Y1.588 I0.104 J-1.266
G1 Y1.173
X-410.142 Y1.024
X-410.113 Y0.877
X-410.069 Y0.733
X-410.013 Y0.594
X-409.947 Y0.459
X-409.872 Y0.329
X-409.79 Y0.203
X-409.702 Y0.083
X-409.607 Y-0.034
X-409.506 Y-0.145
X-409.401 Y-0.251
X-409.29 Y-0.353
X-409.176 Y-0.45
X-409.058 Y-0.542
X-408.936 Y-0.63
X-408.81 Y-0.712
X-408.682 Y-0.79
X-408.551 Y-0.862
X-408.417 Y-0.93
X-408.281 Y-0.994
X-408.143 Y-1.052
X-408.003 Y-1.105
X-407.861 Y-1.154
X-407.717 Y-1.197
X-407.572 Y-1.236
X-407.426 Y-1.27
X-407.279 Y-1.299
X-407.131 Y-1.322
X-406.982 Y-1.341
X-406.833 Y-1.355
X-406.683 Y-1.363
X-406.533 Y-1.366
X-406.383 Y-1.364
X-406.233 Y-1.357
X-406.084 Y-1.345
X-405.935 Y-1.327
X-405.787 Y-1.303
X-405.64 Y-1.272
X-405.494 Y-1.237
X-405.35 Y-1.196
X-405.207 Y-1.148
X-405.185 Y-1.14
X-404.796 Y-0.957
X-404.439 Y-0.717
X-404.123 Y-0.427
X-403.853 Y-0.093
X-403.637 Y0.278
X-403.479 Y0.678
X-403.382 Y1.096
X-403.35 Y1.524
G3 X-404.723 Y2.746 I-1.269 J-0.044
G1 X-408.985 Y2.395
G3 X-410.15 Y1.173 I0.104 J-1.266
G1 Y0.765
X-410.142 Y0.616
X-410.116 Y0.468
X-410.075 Y0.324
X-410.021 Y0.184
X-409.957 Y0.048
X-409.884 Y-0.083
X-409.804 Y-0.21
X-409.717 Y-0.332
X-409.623 Y-0.449
X-409.524 Y-0.561
X-409.419 Y-0.669
X-409.31 Y-0.772
X-409.196 Y-0.87
X-409.079 Y-0.963
X-408.958 Y-1.051
X-408.833 Y-1.135
X-408.705 Y-1.214
X-408.575 Y-1.288
X-408.442 Y-1.357
X-408.306 Y-1.421
X-408.169 Y-1.481
X-408.029 Y-1.535
X-407.887 Y-1.585
X-407.744 Y-1.63
X-407.6 Y-1.67
X-407.454 Y-1.704
X-407.307 Y-1.735
X-407.159 Y-1.76
X-407.01 Y-1.779
X-406.861 Y-1.794
X-406.711 Y-1.804
X-406.561 Y-1.809
X-406.411 Y-1.808
X-406.261 Y-1.802
X-406.112 Y-1.79
X-405.963 Y-1.772
X-405.815 Y-1.749
X-405.668 Y-1.72
X-405.522 Y-1.685
X-405.377 Y-1.644
X-405.235 Y-1.598
X-405.094 Y-1.545
X-404.722 Y-1.353
X-404.382 Y-1.109
X-404.081 Y-0.818
X-403.826 Y-0.487
X-403.621 Y-0.122
X-403.471 Y0.269
X-403.381 Y0.678
X-403.35 Y1.095
G3 X-404.717 Y2.317 I-1.269 J-0.044
G1 X-408.979 Y1.987
G3 X-410.15 Y0.765 I0.098 J-1.266
G1 Y0.351
X-410.142 Y0.201
X-410.119 Y0.053
X-410.079 Y-0.092
X-410.028 Y-0.232
X-409.965 Y-0.369
X-409.894 Y-0.501
X-409.815 Y-0.628
X-409.729 Y-0.751
X-409.636 Y-0.869
X-409.538 Y-0.982
X-409.434 Y-1.091
X-409.326 Y-1.194
X-409.213 Y-1.293
X-409.096 Y-1.387
X-408.975 Y-1.477
X-408.852 Y-1.561
X-408.724 Y-1.641
X-408.595 Y-1.716
X-408.462 Y-1.786
X-408.327 Y-1.851
X-408.19 Y-1.911
X-408.05 Y-1.967
X-407.909 Y-2.018
X-407.766 Y-2.064
X-407.622 Y-2.104
X-407.476 Y-2.14
X-407.329 Y-2.171
X-407.182 Y-2.197
X-407.033 Y-2.218
X-406.884 Y-2.233
X-406.734 Y-2.244
X-406.584 Y-2.249
X-406.434
X-406.284 Y-2.244
X-406.135 Y-2.233
X-405.986 Y-2.216
X-405.838 Y-2.194
X-405.69 Y-2.166
X-405.544 Y-2.132
X-405.4 Y-2.091
X-405.257 Y-2.045
X-405.116 Y-1.994
X-404.74 Y-1.801
X-404.395 Y-1.556
X-404.091 Y-1.263
X-403.832 Y-0.929
X-403.624 Y-0.561
X-403.473 Y-0.166
X-403.381 Y0.246
X-403.35 Y0.668
G3 X-404.713 Y1.89 I-1.269 J-0.044
G1 X-408.975 Y1.573
G3 X-410.15 Y0.351 I0.094 J-1.267
G1 Y-0.086
X-410.142 Y-0.236
X-410.119 Y-0.384
X-410.079 Y-0.528
X-410.027 Y-0.669
X-409.965 Y-0.806
X-409.894 Y-0.938
X-409.815 Y-1.065
X-409.729 Y-1.188
X-409.636 Y-1.306
X-409.538 Y-1.419
X-409.434 Y-1.528
X-409.326 Y-1.632
X-409.214 Y-1.731
X-409.097 Y-1.825
X-408.977 Y-1.915
X-408.853 Y-1.999
X-408.726 Y-2.079
X-408.596 Y-2.154
X-408.463 Y-2.225
X-408.328 Y-2.29
X-408.191 Y-2.351
X-408.052 Y-2.406
X-407.911 Y-2.457
X-407.768 Y-2.503
X-407.624 Y-2.544
X-407.478 Y-2.58
X-407.331 Y-2.611
X-407.184 Y-2.637
X-407.035 Y-2.658
X-406.886 Y-2.674
X-406.736 Y-2.684
X-406.586 Y-2.69
X-406.436
X-406.286 Y-2.685
X-406.137 Y-2.674
X-405.988 Y-2.657
X-405.84 Y-2.634
X-405.692 Y-2.606
X-405.546 Y-2.572
X-405.402 Y-2.531
X-405.259 Y-2.485
X-405.118 Y-2.433
X-404.98 Y-2.375
X-404.583 Y-2.147
X-404.227 Y-1.859
X-403.923 Y-1.517
X-403.677 Y-1.13
X-403.497 Y-0.709
X-403.387 Y-0.264
X-403.35 Y0.192
G3 X-404.702 Y1.415 I-1.269 J-0.044
G1 X-408.963 Y1.137
G3 X-410.15 Y-0.086 I0.083 J-1.267
G1 Y-0.532
X-410.142 Y-0.682
X-410.117 Y-0.83
X-410.077 Y-0.974
X-410.024 Y-1.115
X-409.962 Y-1.251
X-409.89 Y-1.383
X-409.811 Y-1.51
X-409.724 Y-1.633
X-409.631 Y-1.75
X-409.533 Y-1.864
X-409.429 Y-1.972
X-409.321 Y-2.076
X-409.208 Y-2.175
X-409.091 Y-2.269
X-408.971 Y-2.358
X-408.847 Y-2.443
X-408.72 Y-2.523
X-408.59 Y-2.597
X-408.457 Y-2.667
X-408.322 Y-2.733
X-408.185 Y-2.793
X-408.046 Y-2.849
X-407.905 Y-2.899
X-407.762 Y-2.945
X-407.617 Y-2.986
X-407.472 Y-3.022
X-407.325 Y-3.053
X-407.177 Y-3.078
X-407.029 Y-3.099
X-406.879 Y-3.115
X-406.73 Y-3.125
X-406.58 Y-3.13
X-406.43
X-406.28 Y-3.124
X-406.13 Y-3.113
X-405.981 Y-3.097
X-405.833 Y-3.074
X-405.686 Y-3.045
X-405.54 Y-3.012
X-405.395 Y-2.972
X-405.252 Y-2.926
X-405.111 Y-2.874
X-404.973 Y-2.816
X-404.577 Y-2.592
X-404.223 Y-2.306
X-403.92 Y-1.967
X-403.676 Y-1.583
X-403.496 Y-1.165
X-403.387 Y-0.723
X-403.35 Y-0.27
Y0.192
G3 X-404.832 Y1.4 I-1.269 J-0.044
G1 X-409.094 Y0.676
G3 X-410.15 Y-0.532 I0.213 J-1.252
G1 Y-0.962
X-410.142 Y-1.111
X-410.119 Y-1.259
X-410.079 Y-1.404
X-410.027 Y-1.545
X-409.965 Y-1.681
X-409.894 Y-1.814
X-409.815 Y-1.941
X-409.729 Y-2.064
X-409.637 Y-2.182
X-409.539 Y-2.296
X-409.436 Y-2.405
X-409.328 Y-2.509
X-409.215 Y-2.608
X-409.099 Y-2.703
X-408.979 Y-2.792
X-408.855 Y-2.877
X-408.728 Y-2.957
X-408.598 Y-3.033
X-408.466 Y-3.103
X-408.331 Y-3.169
X-408.194 Y-3.229
X-408.055 Y-3.285
X-407.914 Y-3.336
X-407.771 Y-3.382
X-407.627 Y-3.423
X-407.481 Y-3.46
X-407.335 Y-3.491
X-407.187 Y-3.517
X-407.038 Y-3.538
X-406.889 Y-3.554
X-406.74 Y-3.565
X-406.59 Y-3.57
X-406.44 Y-3.571
X-406.29 Y-3.566
X-406.14 Y-3.556
X-405.991 Y-3.54
X-405.842 Y-3.518
X-405.695 Y-3.49
X-405.549 Y-3.457
X-405.404 Y-3.418
X-405.261 Y-3.373
X-405.12 Y-3.322
X-404.981 Y-3.265
X-404.584 Y-3.042
X-404.228 Y-2.758
X-403.924 Y-2.42
X-403.678 Y-2.036
X-403.497 Y-1.618
X-403.387 Y-1.177
X-403.35 Y-0.723
Y-0.27
G3 X-404.823 Y0.94 I-1.269 J-0.044
G1 X-409.084 Y0.248
G3 X-410.15 Y-0.962 I0.204 J-1.254
G1 Y-1.393
X-410.142 Y-1.543
X-410.12 Y-1.691
X-410.081 Y-1.836
X-410.03 Y-1.977
X-409.968 Y-2.114
X-409.898 Y-2.246
X-409.819 Y-2.374
X-409.734 Y-2.497
X-409.642 Y-2.616
X-409.544 Y-2.729
X-409.441 Y-2.839
X-409.334 Y-2.943
X-409.221 Y-3.042
X-409.105 Y-3.137
X-408.985 Y-3.227
X-408.862 Y-3.312
X-408.735 Y-3.393
X-408.606 Y-3.468
X-408.473 Y-3.539
X-408.339 Y-3.605
X-408.201 Y-3.666
X-408.062 Y-3.722
X-407.921 Y-3.774
X-407.779 Y-3.82
X-407.635 Y-3.862
X-407.489 Y-3.898
X-407.343 Y-3.93
X-407.195 Y-3.956
X-407.047 Y-3.978
X-406.897 Y-3.994
X-406.748 Y-4.006
X-406.598 Y-4.012
X-406.448 Y-4.013
X-406.298 Y-4.008
X-406.148 Y-3.999
X-405.999 Y-3.984
X-405.851 Y-3.962
X-405.703 Y-3.935
X-405.557 Y-3.902
X-405.412 Y-3.864
X-405.269 Y-3.819
X-405.127 Y-3.769
X-404.75 Y-3.583
X-404.404 Y-3.344
X-404.097 Y-3.057
X-403.836 Y-2.727
X-403.627 Y-2.362
X-403.474 Y-1.97
X-403.381 Y-1.56
X-403.35 Y-1.14
Y-0.723
G3 X-404.816 Y0.487 I-1.269 J-0.044
G1 X-409.078 Y-0.182
G3 X-410.15 Y-1.393 I0.197 J-1.255
G1 Y-1.857
X-410.142 Y-2.007
X-410.116 Y-2.154
X-410.075 Y-2.299
X-410.022 Y-2.439
X-409.959 Y-2.575
X-409.887 Y-2.707
X-409.807 Y-2.834
X-409.72 Y-2.956
X-409.628 Y-3.074
X-409.529 Y-3.187
X-409.425 Y-3.295
X-409.317 Y-3.399
X-409.204 Y-3.498
X-409.087 Y-3.592
X-408.966 Y-3.681
X-408.842 Y-3.765
X-408.715 Y-3.845
X-408.585 Y-3.92
X-408.453 Y-3.99
X-408.318 Y-4.055
X-408.18 Y-4.115
X-408.041 Y-4.171
X-407.9 Y-4.221
X-407.757 Y-4.267
X-407.613 Y-4.308
X-407.467 Y-4.344
X-407.32 Y-4.375
X-407.173 Y-4.401
X-407.024 Y-4.422
X-406.875 Y-4.438
X-406.725 Y-4.449
X-406.575 Y-4.454
X-406.425
X-406.275 Y-4.449
X-406.126 Y-4.439
X-405.977 Y-4.422
X-405.828 Y-4.4
X-405.681 Y-4.372
X-405.535 Y-4.338
X-405.39 Y-4.298
X-405.247 Y-4.252
X-405.107 Y-4.201
X-404.732 Y-4.01
X-404.39 Y-3.767
X-404.087 Y-3.476
X-403.829 Y-3.144
X-403.623 Y-2.778
X-403.472 Y-2.386
X-403.381 Y-1.976
X-403.35 Y-1.558
Y-1.14
G3 X-404.83 Y0.068 I-1.269 J-0.044
G1 X-409.091 Y-0.649
G3 X-410.15 Y-1.857 I0.211 J-1.252
G1 Y-2.271
X-410.142 Y-2.421
X-410.12 Y-2.569
X-410.081 Y-2.714
X-410.03 Y-2.855
X-409.969 Y-2.992
X-409.899 Y-3.124
X-409.82 Y-3.252
X-409.735 Y-3.376
X-409.643 Y-3.494
X-409.545 Y-3.608
X-409.442 Y-3.717
X-409.335 Y-3.822
X-409.223 Y-3.921
X-409.106 Y-4.016
X-408.987 Y-4.106
X-408.863 Y-4.192
X-408.737 Y-4.272
X-408.607 Y-4.348
X-408.475 Y-4.419
X-408.34 Y-4.485
X-408.203 Y-4.546
X-408.065 Y-4.603
X-407.924 Y-4.654
X-407.781 Y-4.701
X-407.637 Y-4.743
X-407.492 Y-4.78
X-407.345 Y-4.812
X-407.198 Y-4.839
X-407.049 Y-4.86
X-406.9 Y-4.877
X-406.75 Y-4.888
X-406.601 Y-4.895
X-406.451 Y-4.896
X-406.301 Y-4.892
X-406.151 Y-4.882
X-406.002 Y-4.866
X-405.853 Y-4.844
X-405.706 Y-4.817
X-405.56 Y-4.784
X-405.415 Y-4.744
X-405.272 Y-4.699
X-405.131 Y-4.649
X-404.752 Y-4.458
X-404.405 Y-4.213
X-404.097 Y-3.92
X-403.836 Y-3.585
X-403.627 Y-3.216
X-403.474 Y-2.82
X-403.381 Y-2.406
X-403.35 Y-1.982
Y-1.558
G3 X-404.829 Y-0.349 I-1.269 J-0.044
G1 X-409.09 Y-1.063
G3 X-410.15 Y-2.271 I0.21 J-1.253
G1 Y-2.714
X-410.142 Y-2.863
X-410.119 Y-3.012
X-410.08 Y-3.156
X-410.029 Y-3.297
X-409.968 Y-3.434
X-409.897 Y-3.567
X-409.819 Y-3.694
X-409.733 Y-3.818
X-409.641 Y-3.936
X-409.543 Y-4.05
X-409.441 Y-4.159
X-409.333 Y-4.264
X-409.221 Y-4.363
X-409.105 Y-4.458
X-408.985 Y-4.548
X-408.861 Y-4.634
X-408.735 Y-4.714
X-408.605 Y-4.79
X-408.473 Y-4.861
X-408.338 Y-4.927
X-408.201 Y-4.988
X-408.063 Y-5.044
X-407.922 Y-5.096
X-407.779 Y-5.143
X-407.635 Y-5.184
X-407.49 Y-5.221
X-407.343 Y-5.253
X-407.195 Y-5.28
X-407.047 Y-5.301
X-406.898 Y-5.318
X-406.748 Y-5.329
X-406.598 Y-5.335
X-406.448 Y-5.336
X-406.299 Y-5.332
X-406.149 Y-5.322
X-406 Y-5.305
X-405.851 Y-5.283
X-405.704 Y-5.256
X-405.558 Y-5.222
X-405.413 Y-5.182
X-405.27 Y-5.137
X-405.129 Y-5.085
X-404.991 Y-5.028
X-404.591 Y-4.801
X-404.233 Y-4.512
X-403.927 Y-4.169
X-403.679 Y-3.782
X-403.498 Y-3.359
X-403.387 Y-2.913
X-403.35 Y-2.455
Y-1.982
G3 X-404.834 Y-0.775 I-1.269 J-0.044
G1 X-409.096 Y-1.506
G3 X-410.15 Y-2.714 I0.215 J-1.252
G1 Y-3.145
X-410.142 Y-3.295
X-410.12 Y-3.443
X-410.082 Y-3.588
X-410.032 Y-3.729
X-409.971 Y-3.866
X-409.901 Y-3.999
X-409.823 Y-4.127
X-409.738 Y-4.251
X-409.647 Y-4.37
X-409.549 Y-4.484
X-409.447 Y-4.593
X-409.339 Y-4.698
X-409.227 Y-4.798
X-409.112 Y-4.893
X-408.992 Y-4.984
X-408.869 Y-5.069
X-408.742 Y-5.15
X-408.613 Y-5.226
X-408.481 Y-5.297
X-408.347 Y-5.364
X-408.21 Y-5.425
X-408.071 Y-5.482
X-407.93 Y-5.534
X-407.788 Y-5.581
X-407.644 Y-5.623
X-407.498 Y-5.66
X-407.352 Y-5.692
X-407.204 Y-5.719
X-407.056 Y-5.741
X-406.907 Y-5.757
X-406.757 Y-5.769
X-406.607 Y-5.775
X-406.457 Y-5.776
X-406.307 Y-5.772
X-406.158 Y-5.762
X-406.008 Y-5.747
X-405.86 Y-5.725
X-405.713 Y-5.698
X-405.566 Y-5.665
X-405.421 Y-5.626
X-405.278 Y-5.581
X-405.137 Y-5.53
X-404.998 Y-5.474
X-404.597 Y-5.25
X-404.238 Y-4.964
X-403.93 Y-4.624
X-403.681 Y-4.238
X-403.499 Y-3.816
X-403.387 Y-3.371
X-403.35 Y-2.913
Y-2.455
G3 X-404.822 Y-1.246 I-1.269 J-0.044
G1 X-409.084 Y-1.935
G3 X-410.15 Y-3.145 I0.203 J-1.254
G1 Y-3.605
X-410.142 Y-3.755
X-410.118 Y-3.903
X-410.078 Y-4.047
X-410.026 Y-4.188
X-409.963 Y-4.325
X-409.892 Y-4.457
X-409.813 Y-4.584
X-409.727 Y-4.707
X-409.635 Y-4.825
X-409.537 Y-4.939
X-409.434 Y-5.048
X-409.326 Y-5.152
X-409.213 Y-5.251
X-409.097 Y-5.346
X-408.977 Y-5.435
X-408.853 Y-5.52
X-408.726 Y-5.601
X-408.597 Y-5.676
X-408.464 Y-5.747
X-408.329 Y-5.812
X-408.192 Y-5.873
X-408.053 Y-5.929
X-407.912 Y-5.98
X-407.769 Y-6.026
X-407.625 Y-6.068
X-407.48 Y-6.104
X-407.333 Y-6.136
X-407.185 Y-6.162
X-407.037 Y-6.183
X-406.888 Y-6.199
X-406.738 Y-6.21
X-406.588 Y-6.216
X-406.438
X-406.288 Y-6.211
X-406.139 Y-6.201
X-405.99 Y-6.185
X-405.841 Y-6.163
X-405.694 Y-6.135
X-405.547 Y-6.103
X-405.403 Y-6.064
X-405.26 Y-6.018
X-405.119 Y-5.967
X-404.98 Y-5.91
X-404.583 Y-5.687
X-404.228 Y-5.402
X-403.923 Y-5.063
X-403.677 Y-4.68
X-403.497 Y-4.262
X-403.387 Y-3.82
X-403.35 Y-3.366
Y-2.913
G3 X-404.823 Y-1.704 I-1.269 J-0.044
G1 X-409.084 Y-2.396
G3 X-410.15 Y-3.605 I0.204 J-1.254
G1 Y-4.026
X-410.142 Y-4.176
X-410.12 Y-4.324
X-410.082 Y-4.47
X-410.032 Y-4.611
X-409.971 Y-4.748
X-409.901 Y-4.881
X-409.823 Y-5.009
X-409.738 Y-5.132
X-409.647 Y-5.251
X-409.549 Y-5.365
X-409.447 Y-5.475
X-409.339 Y-5.579
X-409.227 Y-5.679
X-409.111 Y-5.774
X-408.992 Y-5.865
X-408.869 Y-5.95
X-408.742 Y-6.031
X-408.613 Y-6.107
X-408.481 Y-6.178
X-408.346 Y-6.245
X-408.209 Y-6.306
X-408.071 Y-6.363
X-407.93 Y-6.415
X-407.787 Y-6.462
X-407.643 Y-6.503
X-407.498 Y-6.541
X-407.351 Y-6.573
X-407.204 Y-6.6
X-407.055 Y-6.621
X-406.906 Y-6.638
X-406.757 Y-6.65
X-406.607 Y-6.656
X-406.457 Y-6.658
X-406.307 Y-6.654
X-406.157 Y-6.645
X-406.008 Y-6.63
X-405.86 Y-6.609
X-405.712 Y-6.582
X-405.565 Y-6.55
X-405.42 Y-6.512
X-405.277 Y-6.467
X-405.129 Y-6.415
X-404.752 Y-6.23
X-404.405 Y-5.992
X-404.098 Y-5.705
X-403.837 Y-5.375
X-403.627 Y-5.01
X-403.474 Y-4.619
X-403.381 Y-4.208
X-403.35 Y-3.789
Y-3.366
G3 X-404.814 Y-2.155 I-1.269 J-0.044
G1 X-409.075 Y-2.816
G3 X-410.15 Y-4.026 I0.195 J-1.255
G1 Y-4.471
X-410.142 Y-4.621
X-410.12 Y-4.769
X-410.081 Y-4.914
X-410.031 Y-5.055
X-409.969 Y-5.192
X-409.899 Y-5.325
X-409.821 Y-5.453
X-409.735 Y-5.576
X-409.644 Y-5.695
X-409.546 Y-5.809
X-409.444 Y-5.918
X-409.336 Y-6.023
X-409.224 Y-6.123
X-409.108 Y-6.218
X-408.988 Y-6.308
X-408.865 Y-6.393
X-408.738 Y-6.474
X-408.609 Y-6.55
X-408.477 Y-6.621
X-408.342 Y-6.687
X-408.205 Y-6.748
X-408.066 Y-6.805
X-407.926 Y-6.857
X-407.783 Y-6.903
X-407.639 Y-6.945
X-407.494 Y-6.982
X-407.347 Y-7.014
X-407.2 Y-7.041
X-407.051 Y-7.063
X-406.902 Y-7.08
X-406.753 Y-7.092
X-406.603 Y-7.098
X-406.453 Y-7.1
X-406.303 Y-7.096
X-406.153 Y-7.086
X-406.004 Y-7.07
X-405.855 Y-7.049
X-405.708 Y-7.023
X-405.561 Y-6.99
X-405.417 Y-6.951
X-405.273 Y-6.906
X-405.132 Y-6.856
X-404.753 Y-6.667
X-404.406 Y-6.423
X-404.098 Y-6.132
X-403.837 Y-5.798
X-403.627 Y-5.43
X-403.474 Y-5.035
X-403.381 Y-4.621
X-403.35 Y-4.198
Y-3.789
G3 X-404.82 Y-2.579 I-1.269 J-0.044
G1 X-409.082 Y-3.262
G3 X-410.15 Y-4.471 I0.201 J-1.254
G1 Y-4.928
X-410.142 Y-5.077
X-410.118 Y-5.225
X-410.078 Y-5.37
X-410.025 Y-5.511
X-409.963 Y-5.647
X-409.892 Y-5.779
X-409.813 Y-5.907
X-409.727 Y-6.029
X-409.634 Y-6.148
X-409.536 Y-6.261
X-409.433 Y-6.37
X-409.325 Y-6.474
X-409.213 Y-6.573
X-409.096 Y-6.668
X-408.976 Y-6.757
X-408.852 Y-6.842
X-408.725 Y-6.923
X-408.596 Y-6.998
X-408.463 Y-7.069
X-408.329 Y-7.134
X-408.192 Y-7.195
X-408.052 Y-7.251
X-407.911 Y-7.303
X-407.769 Y-7.349
X-407.625 Y-7.39
X-407.479 Y-7.427
X-407.333 Y-7.459
X-407.185 Y-7.485
X-407.036 Y-7.506
X-406.887 Y-7.523
X-406.738 Y-7.534
X-406.588 Y-7.54
X-406.438
X-406.288 Y-7.536
X-406.138 Y-7.526
X-405.989 Y-7.509
X-405.841 Y-7.487
X-405.693 Y-7.459
X-405.547 Y-7.425
X-405.403 Y-7.385
X-405.26 Y-7.34
X-405.119 Y-7.288
X-404.742 Y-7.096
X-404.397 Y-6.851
X-404.092 Y-6.558
X-403.833 Y-6.224
X-403.625 Y-5.856
X-403.473 Y-5.461
X-403.381 Y-5.048
X-403.35 Y-4.626
Y-4.198
G3 X-404.833 Y-2.991 I-1.269 J-0.044
G1 X-409.095 Y-3.72
G3 X-410.15 Y-4.928 I0.214 J-1.252
G1 Y-5.342
X-410.142 Y-5.492
X-410.121 Y-5.64
X-410.084 Y-5.786
X-410.034 Y-5.927
X-409.973 Y-6.064
X-409.904 Y-6.197
X-409.826 Y-6.325
X-409.741 Y-6.449
X-409.65 Y-6.568
X-409.553 Y-6.682
X-409.451 Y-6.792
X-409.343 Y-6.897
X-409.232 Y-6.997
X-409.116 Y-7.093
X-408.996 Y-7.183
X-408.873 Y-7.269
X-408.747 Y-7.35
X-408.618 Y-7.426
X-408.486 Y-7.498
X-408.352 Y-7.564
X-408.215 Y-7.626
X-408.076 Y-7.683
X-407.936 Y-7.735
X-407.793 Y-7.783
X-407.649 Y-7.825
X-407.504 Y-7.862
X-407.358 Y-7.894
X-407.21 Y-7.922
X-407.062 Y-7.944
X-406.913 Y-7.961
X-406.763 Y-7.973
X-406.613 Y-7.979
X-406.463 Y-7.981
X-406.313 Y-7.977
X-406.164 Y-7.967
X-406.014 Y-7.952
X-405.866 Y-7.93
X-405.718 Y-7.903
X-405.572 Y-7.87
X-405.427 Y-7.831
X-405.284 Y-7.786
X-405.143 Y-7.735
X-405.004 Y-7.678
X-404.602 Y-7.451
X-404.241 Y-7.161
X-403.932 Y-6.817
X-403.682 Y-6.428
X-403.499 Y-6.003
X-403.388 Y-5.554
X-403.35 Y-5.093
Y-4.626
G3 X-404.83 Y-3.418 I-1.269 J-0.044
G1 X-409.091 Y-4.134
G3 X-410.15 Y-5.342 I0.21 J-1.252
G1 Y-5.802
X-410.142 Y-5.951
X-410.119 Y-6.099
X-410.079 Y-6.244
X-410.028 Y-6.385
X-409.966 Y-6.522
X-409.895 Y-6.654
X-409.816 Y-6.782
X-409.731 Y-6.905
X-409.639 Y-7.023
X-409.541 Y-7.137
X-409.438 Y-7.246
X-409.33 Y-7.35
X-409.218 Y-7.45
X-409.102 Y-7.545
X-408.982 Y-7.635
X-408.858 Y-7.72
X-408.732 Y-7.801
X-408.602 Y-7.876
X-408.47 Y-7.947
X-408.335 Y-8.013
X-408.198 Y-8.074
X-408.059 Y-8.13
X-407.918 Y-8.182
X-407.776 Y-8.228
X-407.632 Y-8.27
X-407.486 Y-8.307
X-407.34 Y-8.338
X-407.192 Y-8.365
X-407.044 Y-8.386
X-406.894 Y-8.403
X-406.745 Y-8.414
X-406.595 Y-8.419
X-406.445 Y-8.42
X-406.295 Y-8.415
X-406.145 Y-8.405
X-405.996 Y-8.389
X-405.848 Y-8.367
X-405.7 Y-8.339
X-405.554 Y-8.306
X-405.409 Y-8.267
X-405.267 Y-8.221
X-405.126 Y-8.17
X-404.987 Y-8.113
X-404.588 Y-7.888
X-404.231 Y-7.602
X-403.925 Y-7.261
X-403.679 Y-6.876
X-403.498 Y-6.455
X-403.387 Y-6.011
X-403.35 Y-5.555
Y-5.093
G3 X-404.827 Y-3.885 I-1.269 J-0.044
G1 X-409.089 Y-4.593
G3 X-410.15 Y-5.802 I0.208 J-1.253
G1 Y-6.225
X-410.142 Y-6.375
X-410.121 Y-6.523
X-410.083 Y-6.669
X-410.033 Y-6.81
X-409.973 Y-6.947
X-409.903 Y-7.08
X-409.825 Y-7.208
X-409.74 Y-7.332
X-409.649 Y-7.451
X-409.552 Y-7.565
X-409.449 Y-7.675
X-409.342 Y-7.78
X-409.23 Y-7.88
X-409.115 Y-7.975
X-408.995 Y-8.066
X-408.872 Y-8.152
X-408.746 Y-8.233
X-408.617 Y-8.309
X-408.485 Y-8.38
X-408.35 Y-8.447
X-408.213 Y-8.508
X-408.075 Y-8.565
X-407.934 Y-8.617
X-407.791 Y-8.664
X-407.647 Y-8.706
X-407.502 Y-8.743
X-407.356 Y-8.775
X-407.208 Y-8.802
X-407.06 Y-8.824
X-406.911 Y-8.841
X-406.761 Y-8.853
X-406.611 Y-8.859
X-406.461 Y-8.861
X-406.311 Y-8.857
X-406.162 Y-8.847
X-406.012 Y-8.832
X-405.864 Y-8.811
X-405.716 Y-8.784
X-405.57 Y-8.752
X-405.425 Y-8.714
X-405.281 Y-8.669
X-405.14 Y-8.619
X-405.001 Y-8.563
X-404.599 Y-8.341
X-404.24 Y-8.056
X-403.931 Y-7.716
X-403.682 Y-7.33
X-403.499 Y-6.909
X-403.388 Y-6.464
X-403.35 Y-6.007
Y-5.555
G3 X-404.817 Y-4.345 I-1.269 J-0.044
G1 X-409.078 Y-5.015
G3 X-410.15 Y-6.225 I0.197 J-1.255
G1 Y-6.683
X-410.142 Y-6.833
X-410.119 Y-6.981
X-410.079 Y-7.126
X-410.028 Y-7.266
X-409.966 Y-7.403
X-409.895 Y-7.535
X-409.816 Y-7.663
X-409.731 Y-7.786
X-409.639 Y-7.905
X-409.541 Y-8.018
X-409.438 Y-8.128
X-409.33 Y-8.232
X-409.218 Y-8.331
X-409.102 Y-8.426
X-408.982 Y-8.516
X-408.858 Y-8.601
X-408.732 Y-8.682
X-408.602 Y-8.757
X-408.47 Y-8.828
X-408.335 Y-8.894
X-408.198 Y-8.955
X-408.059 Y-9.011
X-407.918 Y-9.063
X-407.775 Y-9.109
X-407.631 Y-9.151
X-407.486 Y-9.187
X-407.339 Y-9.219
X-407.192 Y-9.246
X-407.043 Y-9.267
X-406.894 Y-9.283
X-406.744 Y-9.295
X-406.595 Y-9.301
X-406.445 Y-9.302
X-406.295 Y-9.297
X-406.145 Y-9.287
X-405.996 Y-9.272
X-405.847 Y-9.25
X-405.7 Y-9.223
X-405.553 Y-9.191
X-405.408 Y-9.152
X-405.265 Y-9.107
X-405.124 Y-9.056
X-405.108 Y-9.049
X-404.734 Y-8.866
X-404.392 Y-8.628
X-404.088 Y-8.343
X-403.831 Y-8.017
X-403.624 Y-7.655
X-403.473 Y-7.267
X-403.381 Y-6.861
X-403.35 Y-6.446
Y-6.007
G3 X-404.818 Y-4.797 I-1.269 J-0.044
G1 X-409.08 Y-5.473
G3 X-410.15 Y-6.683 I0.199 J-1.254
G1 Y-7.128
X-410.142 Y-7.278
X-410.118 Y-7.426
X-410.078 Y-7.57
X-410.026 Y-7.711
X-409.964 Y-7.848
X-409.893 Y-7.98
X-409.814 Y-8.107
X-409.729 Y-8.23
X-409.636 Y-8.349
X-409.538 Y-8.462
X-409.435 Y-8.571
X-409.327 Y-8.675
X-409.215 Y-8.775
X-409.098 Y-8.869
X-408.978 Y-8.959
X-408.855 Y-9.044
X-408.728 Y-9.124
X-408.598 Y-9.2
X-408.466 Y-9.271
X-408.331 Y-9.336
X-408.194 Y-9.397
X-408.055 Y-9.453
X-407.914 Y-9.505
X-407.772 Y-9.551
X-407.627 Y-9.593
X-407.482 Y-9.629
X-407.335 Y-9.661
X-407.188 Y-9.687
X-407.039 Y-9.709
X-406.89 Y-9.725
X-406.74 Y-9.736
X-406.591 Y-9.742
X-406.441 Y-9.743
X-406.291 Y-9.739
X-406.141 Y-9.729
X-405.992 Y-9.713
X-405.843 Y-9.691
X-405.696 Y-9.664
X-405.55 Y-9.631
X-405.405 Y-9.592
X-405.262 Y-9.547
X-405.12 Y-9.497
X-404.744 Y-9.308
X-404.399 Y-9.065
X-404.093 Y-8.775
X-403.833 Y-8.443
X-403.625 Y-8.076
X-403.474 Y-7.683
X-403.381 Y-7.272
X-403.35 Y-6.852
Y-6.446
G3 X-404.82 Y-5.236 I-1.269 J-0.044
G1 X-409.082 Y-5.918
G3 X-410.15 Y-7.128 I0.201 J-1.254
G1 Y-7.55
X-410.142 Y-7.7
X-410.121 Y-7.848
X-410.083 Y-7.993
X-410.033 Y-8.135
X-409.972 Y-8.272
X-409.902 Y-8.404
X-409.824 Y-8.533
X-409.739 Y-8.656
X-409.647 Y-8.775
X-409.55 Y-8.889
X-409.448 Y-8.999
X-409.34 Y-9.103
X-409.228 Y-9.203
X-409.112 Y-9.299
X-408.993 Y-9.389
X-408.87 Y-9.475
X-408.743 Y-9.556
X-408.614 Y-9.632
X-408.482 Y-9.703
X-408.348 Y-9.769
X-408.211 Y-9.831
X-408.072 Y-9.888
X-407.931 Y-9.94
X-407.789 Y-9.987
X-407.645 Y-10.029
X-407.5 Y-10.066
X-407.353 Y-10.098
X-407.206 Y-10.126
X-407.057 Y-10.148
X-406.908 Y-10.165
X-406.759 Y-10.177
X-406.609 Y-10.183
X-406.459 Y-10.185
X-406.309 Y-10.181
X-406.159 Y-10.172
X-406.01 Y-10.156
X-405.862 Y-10.135
X-405.714 Y-10.108
X-405.568 Y-10.076
X-405.423 Y-10.036
X-405.279 Y-9.992
X-405.138 Y-9.941
X-404.758 Y-9.751
X-404.409 Y-9.507
X-404.101 Y-9.214
X-403.838 Y-8.879
X-403.628 Y-8.509
X-403.475 Y-8.112
X-403.381 Y-7.697
X-403.35 Y-7.272
Y-6.852
G3 X-404.825 Y-5.643 I-1.269 J-0.044
G1 X-409.086 Y-6.341
G3 X-410.15 Y-7.55 I0.205 J-1.253
G1 Y-7.999
X-410.142 Y-8.148
X-410.119 Y-8.297
X-410.081 Y-8.442
X-410.03 Y-8.583
X-409.968 Y-8.719
X-409.898 Y-8.852
X-409.82 Y-8.98
X-409.734 Y-9.103
X-409.642 Y-9.222
X-409.545 Y-9.336
X-409.442 Y-9.445
X-409.334 Y-9.55
X-409.222 Y-9.649
X-409.106 Y-9.744
X-408.986 Y-9.835
X-408.863 Y-9.92
X-408.737 Y-10.001
X-408.607 Y-10.076
X-408.475 Y-10.147
X-408.341 Y-10.214
X-408.204 Y-10.275
X-408.065 Y-10.332
X-407.924 Y-10.383
X-407.781 Y-10.43
X-407.637 Y-10.472
X-407.492 Y-10.509
X-407.345 Y-10.541
X-407.198 Y-10.568
X-407.05 Y-10.59
X-406.9 Y-10.606
X-406.751 Y-10.618
X-406.601 Y-10.624
X-406.451 Y-10.625
X-406.301 Y-10.621
X-406.151 Y-10.611
X-406.002 Y-10.595
X-405.854 Y-10.573
X-405.706 Y-10.546
X-405.56 Y-10.512
X-405.416 Y-10.472
X-405.273 Y-10.427
X-405.132 Y-10.376
X-404.752 Y-10.184
X-404.405 Y-9.938
X-404.097 Y-9.644
X-403.836 Y-9.308
X-403.627 Y-8.938
X-403.474 Y-8.541
X-403.381 Y-8.125
X-403.35 Y-7.701
Y-7.272
G3 X-404.833 Y-6.065 I-1.269 J-0.044
G1 X-409.094 Y-6.791
G3 X-410.15 Y-7.999 I0.213 J-1.252
G1 Y-8.436
X-410.142 Y-8.585
X-410.12 Y-8.734
X-410.082 Y-8.879
X-410.031 Y-9.02
X-409.97 Y-9.157
X-409.9 Y-9.289
X-409.821 Y-9.417
X-409.736 Y-9.541
X-409.645 Y-9.66
X-409.547 Y-9.774
X-409.445 Y-9.883
X-409.337 Y-9.988
X-409.225 Y-10.088
X-409.109 Y-10.183
X-408.989 Y-10.273
X-408.866 Y-10.359
X-408.74 Y-10.44
X-408.611 Y-10.516
X-408.479 Y-10.587
X-408.344 Y-10.653
X-408.207 Y-10.715
X-408.068 Y-10.771
X-407.928 Y-10.823
X-407.785 Y-10.87
X-407.641 Y-10.912
X-407.496 Y-10.949
X-407.349 Y-10.981
X-407.202 Y-11.008
X-407.053 Y-11.03
X-406.904 Y-11.046
X-406.755 Y-11.058
X-406.605 Y-11.064
X-406.455 Y-11.065
X-406.305 Y-11.06
X-406.155 Y-11.05
X-406.006 Y-11.034
X-405.858 Y-11.012
X-405.71 Y-10.985
X-405.564 Y-10.951
X-405.419 Y-10.911
X-405.276 Y-10.866
X-405.135 Y-10.815
X-404.997 Y-10.757
X-404.596 Y-10.529
X-404.236 Y-10.239
X-403.929 Y-9.896
X-403.681 Y-9.507
X-403.499 Y-9.083
X-403.387 Y-8.635
X-403.35 Y-8.175
Y-7.701
G3 X-404.835 Y-6.494 I-1.269 J-0.044
G1 X-409.096 Y-7.228
G3 X-410.15 Y-8.436 I0.216 J-1.252
G1 Y-8.882
X-410.142 Y-9.032
X-410.119 Y-9.18
X-410.08 Y-9.325
X-410.029 Y-9.466
X-409.967 Y-9.602
X-409.897 Y-9.735
X-409.819 Y-9.863
X-409.733 Y-9.986
X-409.641 Y-10.105
X-409.544 Y-10.219
X-409.441 Y-10.328
X-409.333 Y-10.432
X-409.221 Y-10.532
X-409.105 Y-10.627
X-408.985 Y-10.717
X-408.862 Y-10.803
X-408.735 Y-10.883
X-408.606 Y-10.959
X-408.474 Y-11.03
X-408.339 Y-11.096
X-408.202 Y-11.157
X-408.063 Y-11.214
X-407.922 Y-11.265
X-407.78 Y-11.312
X-407.636 Y-11.354
X-407.49 Y-11.39
X-407.344 Y-11.422
X-407.196 Y-11.449
X-407.048 Y-11.47
X-406.899 Y-11.486
X-406.749 Y-11.497
X-406.599 Y-11.503
X-406.449 Y-11.504
X-406.299 Y-11.499
X-406.15 Y-11.489
X-406 Y-11.473
X-405.852 Y-11.451
X-405.705 Y-11.423
X-405.558 Y-11.39
X-405.413 Y-11.351
X-405.271 Y-11.305
X-405.13 Y-11.254
X-404.991 Y-11.198
X-404.591 Y-10.973
X-404.233 Y-10.686
X-403.927 Y-10.345
X-403.68 Y-9.959
X-403.498 Y-9.538
X-403.387 Y-9.094
X-403.35 Y-8.637
Y-8.175
G3 X-404.827 Y-6.967 I-1.269 J-0.044
G1 X-409.089 Y-7.673
G3 X-410.15 Y-8.882 I0.208 J-1.253
G1 Y-9.311
X-410.142 Y-9.461
X-410.121 Y-9.61
X-410.083 Y-9.755
X-410.033 Y-9.896
X-409.972 Y-10.033
X-409.902 Y-10.166
X-409.824 Y-10.294
X-409.739 Y-10.418
X-409.648 Y-10.537
X-409.328 Y-10.862
X-408.965 Y-11.138
X-408.566 Y-11.358
X-408.14 Y-11.519
X-407.695 Y-11.617
X-407.24 Y-11.65
G3 X-405.234 Y-8.179 I-0.083 J2.363
X-410.15 Y-9.311 I-2.307 J-1.224
G1 Y-9.779
X-410.142 Y-9.928
X-410.117 Y-10.076
X-410.076 Y-10.22
X-410.022 Y-10.36
X-409.957 Y-10.496
X-409.728 Y-10.825
X-409.445 Y-11.11
X-409.117 Y-11.341
X-408.754 Y-11.511
X-408.366 Y-11.615
X-407.967 Y-11.65
G3 X-406.335 Y-9.033 I-0.065 J1.858
X-410.15 Y-9.779 I-1.821 J-0.816
G1 Y-10.207
X-410.142 Y-10.356
X-410.112 Y-10.503
X-410.063 Y-10.645
X-410.002 Y-10.782
X-409.792 Y-11.075
X-409.524 Y-11.318
X-409.212 Y-11.5
X-408.869 Y-11.612
X-408.51 Y-11.65
G3 X-407.243 Y-9.68 I-0.05 J1.424
X-410.15 Y-10.207 I-1.396 J-0.579
G1 X-410.148 Y-10.431
X-410.125 Y-10.621
X-410.071 Y-10.81
X-409.982 Y-11
X-409.902 Y-11.123
X-409.793 Y-11.251
X-409.652 Y-11.38
X-409.521 Y-11.47
X-409.331 Y-11.563
X-409.14 Y-11.621
X-408.95 Y-11.647
X-408.759 Y-11.65
X-405.789
X-405.639 Y-11.642
X-405.49 Y-11.629
X-405.342 Y-11.606
X-405.195 Y-11.575
X-404.811 Y-11.431
X-404.455 Y-11.227
X-404.136 Y-10.969
X-403.863 Y-10.662
X-403.643 Y-10.316
X-403.482 Y-9.938
X-403.383 Y-9.54
X-403.35 Y-9.131
G3 X-406.39 Y-6.944 I-2.366 J-0.083
X-405.789 Y-11.65 I0.684 J-2.304
G1 X-405.172
X-405.022 Y-11.642
X-404.873 Y-11.625
X-404.727 Y-11.59
X-404.584 Y-11.545
X-404.238 Y-11.358
X-403.935 Y-11.107
X-403.687 Y-10.802
X-403.502 Y-10.455
X-403.388 Y-10.079
X-403.35 Y-9.687
G3 X-405.714 Y-8.069 I-1.778 J-0.062
X-405.172 Y-11.65 I0.607 J-1.739
G1 X-404.712 Y-11.649
X-404.562 Y-11.641
X-404.415 Y-11.614
X-404.272 Y-11.569
X-404.012 Y-11.423
X-403.786 Y-11.23
X-403.601 Y-10.998
X-403.463 Y-10.734
X-403.379 Y-10.448
X-403.35 Y-10.152
G3 X-405.161 Y-8.945 I-1.339 J-0.047
X-404.712 Y-11.649 I0.492 J-1.308
G1 X-404.569 Y-11.648
X-404.379 Y-11.624
X-404.188 Y-11.569
X-404.019 Y-11.492
X-403.85 Y-11.38
X-403.807 Y-11.345
X-403.714 Y-11.259
X-403.637 Y-11.173
X-403.518 Y-11
X-403.426 Y-10.803
X-403.375 Y-10.621
X-403.352 Y-10.431
X-403.35 Y-10.241
Y-8.637
X-403.367 Y-8.529 Z-25.492
X-403.384 Y-8.424 Z-25.47
X-403.401 Y-8.323 Z-25.433
X-403.437 Y-8.24 Z-25.385
X-403.471 Y-8.162 Z-25.325
X-403.501 Y-8.093 Z-25.255
X-403.527 Y-8.032 Z-25.175
X-403.557 Y-7.989 Z-25.092
X-403.58 Y-7.954 Z-25.003
X-403.597 Y-7.929 Z-24.909
X-403.607 Y-7.914 Z-24.813
X-403.611 Y-7.909 Z-24.715
G0 Z5
X-251.179 Y6.355
Z3.82
G1 Z2.55 F849.6
Z-25.5 F283.3
X-251.244 Y6.298 F849.6
X-251.267 Y6.272
X-251.13 Y6.212
X-250.989 Y6.159
X-250.847 Y6.111
X-250.677 Y6.06
X-250.47 Y6.004
X-250.218 Y5.943
X-249.907 Y5.877
X-249.52 Y5.806
X-249.029 Y5.731
X-248.387 Y5.651
X-247.504 Y5.567
X-246.18 Y5.478
X-246.083 Y5.474
X-245.894 Y5.498
X-245.722 Y5.581
X-245.586 Y5.714
X-245.5 Y5.884
X-245.472 Y6.073
X-245.507 Y6.26
X-245.599 Y6.427
X-245.74 Y6.555
X-245.915 Y6.631
X-246.009 Y6.634
X-246.7 Y6.625
X-250.462 Y6.58
G3 X-251.244 Y6.298 I0.015 J-1.27
G1 X-251.348 Y6.189
X-251.391 Y6.132
X-251.407 Y6.109
X-251.284 Y6.023
X-251.157 Y5.942
X-251.028 Y5.867
X-250.895 Y5.797
X-250.752 Y5.726
X-250.603 Y5.658
X-250.422 Y5.581
X-250.228 Y5.505
X-250.003 Y5.424
X-249.733 Y5.336
X-249.454 Y5.253
X-249.109 Y5.161
X-248.69 Y5.063
X-248.339 Y4.99
X-248.082 Y4.945
X-247.868 Y4.913
X-247.664 Y4.889
X-247.494 Y4.874
X-247.344 Y4.865
X-247.194 Y4.86
X-247.044
X-246.797 Y4.905
X-246.572 Y5.018
X-246.387 Y5.189
X-246.257 Y5.404
X-246.192 Y5.647
X-246.197 Y5.899
X-246.272 Y6.139
X-246.411 Y6.349
X-246.603 Y6.511
X-246.832 Y6.615
X-247.081 Y6.65
G3 X-251.379 Y6.14 I0.907 J-25.984
G1 X-251.391 Y6.132
X-251.431 Y6.079
X-251.438 Y6.069
X-251.525 Y5.91
X-251.54 Y5.884
X-251.55 Y5.849
X-251.437 Y5.751
X-251.32 Y5.657
X-251.2 Y5.567
X-251.077 Y5.481
X-250.951 Y5.399
X-250.809 Y5.312
X-250.653 Y5.222
X-250.484 Y5.131
X-250.296 Y5.036
X-250.1 Y4.945
X-249.9 Y4.858
X-249.697 Y4.777
X-249.493 Y4.701
X-249.291 Y4.634
X-249.094 Y4.574
X-248.902 Y4.521
X-248.734 Y4.48
X-248.587 Y4.449
X-248.44 Y4.421
X-248.291 Y4.399
X-248.142 Y4.382
X-247.993 Y4.369
X-247.843 Y4.362
X-247.693 Y4.363
X-247.405 Y4.417
X-247.14 Y4.543
X-246.916 Y4.732
X-246.747 Y4.972
X-246.645 Y5.247
X-246.616 Y5.539
X-246.662 Y5.828
X-246.78 Y6.097
X-246.962 Y6.326
X-247.197 Y6.502
X-247.469 Y6.612
X-247.76 Y6.65
G3 X-251.508 Y5.91 I0.419 J-11.993
G1 X-251.526 Y5.9
X-251.54 Y5.884
X-251.606 Y5.699
X-251.624 Y5.602
X-251.629 Y5.567
X-251.529 Y5.455
X-251.423 Y5.348
X-251.314 Y5.245
X-251.202 Y5.147
X-251.086 Y5.051
X-250.967 Y4.96
X-250.845 Y4.872
X-250.718 Y4.785
X-250.583 Y4.699
X-250.444 Y4.616
X-250.303 Y4.536
X-250.16 Y4.461
X-250.016 Y4.39
X-249.871 Y4.324
X-249.726 Y4.263
X-249.584 Y4.208
X-249.442 Y4.157
X-249.3 Y4.111
X-249.156 Y4.069
X-249.011 Y4.031
X-248.864 Y3.999
X-248.716 Y3.974
X-248.568 Y3.954
X-248.418 Y3.94
X-248.268 Y3.934
X-248.118 Y3.937
X-247.969 Y3.949
X-247.82 Y3.969
X-247.673 Y3.999
X-247.529 Y4.041
X-246.871 Y4.253
X-246.608 Y4.374
X-246.381 Y4.552
X-246.202 Y4.779
X-246.08 Y5.041
X-246.024 Y5.324
X-246.035 Y5.613
X-246.113 Y5.891
X-246.254 Y6.143
X-246.45 Y6.355
X-246.69 Y6.516
X-246.961 Y6.616
X-247.248 Y6.65
G3 X-251.552 Y5.689 I0.419 J-11.993
G1 X-251.585 Y5.668
X-251.61 Y5.638
X-251.624 Y5.602
X-251.642 Y5.51
X-251.65 Y5.32
Y5.254
X-251.648 Y5.212
X-251.558 Y5.092
X-251.462 Y4.976
X-251.361 Y4.865
X-251.256 Y4.758
X-251.147 Y4.655
X-251.035 Y4.556
X-250.919 Y4.461
X-250.799 Y4.37
X-250.677 Y4.283
X-250.552 Y4.2
X-250.425 Y4.12
X-250.295 Y4.046
X-250.163 Y3.975
X-250.028 Y3.909
X-249.891 Y3.847
X-249.752 Y3.79
X-249.612 Y3.738
X-249.469 Y3.691
X-249.325 Y3.65
X-249.179 Y3.614
X-249.033 Y3.584
X-248.884 Y3.56
X-248.736 Y3.542
X-248.586 Y3.531
X-248.436 Y3.526
X-248.286
X-248.136 Y3.531
X-247.986 Y3.541
X-247.837 Y3.556
X-247.689 Y3.576
X-247.541 Y3.602
X-247.394 Y3.634
X-247.25 Y3.674
X-247.107 Y3.721
X-247.082 Y3.731
X-246.797 Y3.879
X-246.549 Y4.083
X-246.35 Y4.336
X-246.209 Y4.625
X-246.132 Y4.937
X-246.123 Y5.258
X-246.182 Y5.574
X-246.307 Y5.87
X-246.491 Y6.133
X-246.727 Y6.351
X-247.004 Y6.515
X-247.309 Y6.616
X-247.629 Y6.65
G3 X-251.515 Y5.485 I0.279 J-7.995
X-251.65 Y5.254 I0.147 J-0.242
G1 Y4.906
X-251.647 Y4.838
X-251.566 Y4.712
X-251.478 Y4.59
X-251.385 Y4.473
X-251.286 Y4.36
X-251.182 Y4.252
X-251.074 Y4.148
X-250.962 Y4.048
X-250.846 Y3.953
X-250.726 Y3.863
X-250.603 Y3.777
X-250.476 Y3.696
X-250.347 Y3.62
X-250.215 Y3.549
X-250.081 Y3.483
X-249.944 Y3.422
X-249.804 Y3.366
X-249.663 Y3.315
X-249.52 Y3.27
X-249.376 Y3.23
X-249.23 Y3.195
X-249.083 Y3.165
X-248.935 Y3.14
X-248.786 Y3.12
X-248.637 Y3.105
X-248.487 Y3.096
X-248.337 Y3.092
X-248.187 Y3.094
X-248.038 Y3.103
X-247.888 Y3.118
X-247.74 Y3.14
X-247.593 Y3.168
X-247.447 Y3.204
X-247.304 Y3.249
X-247.163 Y3.301
X-247.026 Y3.362
X-245.814 Y3.938
X-245.535 Y4.103
X-245.293 Y4.32
X-245.098 Y4.579
X-244.957 Y4.871
X-244.876 Y5.186
X-244.858 Y5.51
G3 X-246.205 Y6.493 I-1.238 J-0.282
G1 X-250.489 Y6.127
G3 X-251.65 Y4.906 I0.108 J-1.265
G1 Y4.526
X-251.646 Y4.439
X-251.57 Y4.309
X-251.487 Y4.184
X-251.397 Y4.064
X-251.302 Y3.949
X-251.201 Y3.838
X-251.094 Y3.732
X-250.984 Y3.631
X-250.868 Y3.535
X-250.749 Y3.443
X-250.627 Y3.357
X-250.501 Y3.276
X-250.372 Y3.199
X-250.24 Y3.128
X-250.105 Y3.061
X-249.969 Y3
X-249.83 Y2.943
X-249.689 Y2.891
X-249.546 Y2.845
X-249.402 Y2.804
X-249.256 Y2.768
X-249.11 Y2.737
X-248.962 Y2.711
X-248.813 Y2.691
X-248.664 Y2.677
X-248.514 Y2.669
X-248.364 Y2.667
X-248.214 Y2.67
X-248.064 Y2.68
X-247.915 Y2.696
X-247.753 Y2.719
X-247.558 Y2.752
X-247.349 Y2.793
X-247.174 Y2.833
X-246.99 Y2.88
X-246.821 Y2.929
X-246.678 Y2.974
X-246.537 Y3.024
X-246.383 Y3.084
X-246 Y3.289
X-245.658 Y3.557
X-245.367 Y3.88
X-245.135 Y4.248
X-244.97 Y4.651
X-244.877 Y5.075
X-244.858 Y5.51
G3 X-246.314 Y6.479 I-1.238 J-0.282
G1 X-250.599 Y5.733
G3 X-251.65 Y4.526 I0.218 J-1.251
G1 Y4.181
X-251.646 Y4.093
X-251.58 Y3.958
X-251.505 Y3.828
X-251.422 Y3.704
X-251.331 Y3.584
X-251.235 Y3.469
X-251.133 Y3.359
X-251.025 Y3.255
X-250.913 Y3.155
X-250.797 Y3.06
X-250.676 Y2.971
X-250.552 Y2.886
X-250.425 Y2.807
X-250.295 Y2.733
X-250.162 Y2.663
X-250.026 Y2.599
X-249.888 Y2.54
X-249.748 Y2.486
X-249.606 Y2.438
X-249.462 Y2.395
X-249.317 Y2.357
X-249.171 Y2.325
X-249.023 Y2.297
X-248.875 Y2.275
X-248.726 Y2.258
X-248.576 Y2.246
X-248.427 Y2.238
X-248.276 Y2.234
X-248.125 Y2.235
X-247.972 Y2.239
X-247.821 Y2.249
X-247.671 Y2.262
X-247.522 Y2.28
X-247.374 Y2.303
X-247.227 Y2.331
X-247.08 Y2.363
X-246.935 Y2.401
X-246.791 Y2.444
X-246.65 Y2.493
X-246.51 Y2.547
X-246.107 Y2.761
X-245.746 Y3.039
X-245.435 Y3.373
X-245.185 Y3.753
X-245.001 Y4.17
X-244.888 Y4.612
X-244.85 Y5.066
G3 X-246.377 Y6.265 I-1.269 J-0.044
G1 X-250.639 Y5.38
G3 X-251.65 Y4.181 I0.258 J-1.243
G1 Y3.839
X-251.643 Y3.689
X-251.578 Y3.553
X-251.505 Y3.423
X-251.423 Y3.297
X-251.335 Y3.176
X-251.239 Y3.06
X-251.138 Y2.949
X-251.032 Y2.844
X-250.921 Y2.743
X-250.805 Y2.647
X-250.685 Y2.557
X-250.562 Y2.472
X-250.435 Y2.391
X-250.305 Y2.316
X-250.172 Y2.247
X-250.037 Y2.182
X-249.9 Y2.122
X-249.76 Y2.067
X-249.618 Y2.017
X-249.475 Y1.972
X-249.331 Y1.932
X-249.185 Y1.896
X-249.038 Y1.865
X-248.891 Y1.839
X-248.742 Y1.817
X-248.593 Y1.799
X-248.444 Y1.787
X-248.294 Y1.779
X-248.144 Y1.775
X-247.994 Y1.777
X-247.844 Y1.783
X-247.695 Y1.794
X-247.546 Y1.81
X-247.397 Y1.832
X-247.25 Y1.859
X-247.103 Y1.891
X-246.958 Y1.928
X-246.815 Y1.973
X-246.673 Y2.022
X-246.533 Y2.076
X-246.396 Y2.137
X-246.018 Y2.364
X-245.68 Y2.648
X-245.391 Y2.982
X-245.159 Y3.357
X-244.989 Y3.764
X-244.885 Y4.193
X-244.85 Y4.633
G3 X-246.352 Y5.837 I-1.269 J-0.044
G1 X-250.613 Y5.043
G3 X-251.65 Y3.839 I0.233 J-1.248
G1 Y3.459
X-251.643 Y3.31
X-251.583 Y3.172
X-251.513 Y3.039
X-251.435 Y2.911
X-251.349 Y2.788
X-251.256 Y2.671
X-251.157 Y2.558
X-251.052 Y2.45
X-250.943 Y2.348
X-250.829 Y2.251
X-250.71 Y2.158
X-250.588 Y2.071
X-250.463 Y1.989
X-250.335 Y1.911
X-250.203 Y1.839
X-250.069 Y1.771
X-249.933 Y1.708
X-249.795 Y1.65
X-249.655 Y1.596
X-249.513 Y1.548
X-249.37 Y1.504
X-249.225 Y1.464
X-249.079 Y1.43
X-248.932 Y1.4
X-248.784 Y1.374
X-248.635 Y1.354
X-248.486 Y1.339
X-248.337 Y1.328
X-248.187 Y1.322
X-248.037 Y1.321
X-247.887 Y1.325
X-247.737 Y1.334
X-247.588 Y1.348
X-247.439 Y1.367
X-247.291 Y1.392
X-247.144 Y1.424
X-246.999 Y1.46
X-246.855 Y1.501
X-246.713 Y1.549
X-246.573 Y1.603
X-246.545 Y1.615
X-246.134 Y1.832
X-245.765 Y2.115
X-245.448 Y2.455
X-245.192 Y2.843
X-245.004 Y3.268
X-244.889 Y3.718
X-244.85 Y4.181
G3 X-246.331 Y5.389 I-1.269 J-0.044
G1 X-250.593 Y4.667
G3 X-251.65 Y3.459 I0.212 J-1.252
G1 Y3.112
X-251.643 Y2.962
X-251.591 Y2.821
X-251.528 Y2.685
X-251.455 Y2.554
X-251.374 Y2.428
X-251.286 Y2.307
X-251.19 Y2.191
X-251.09 Y2.08
X-250.983 Y1.974
X-250.872 Y1.873
X-250.757 Y1.777
X-250.638 Y1.686
X-250.515 Y1.6
X-250.389 Y1.518
X-250.26 Y1.442
X-250.128 Y1.37
X-249.994 Y1.304
X-249.857 Y1.241
X-249.719 Y1.184
X-249.578 Y1.132
X-249.436 Y1.084
X-249.292 Y1.041
X-249.147 Y1.003
X-249.001 Y0.969
X-248.854 Y0.941
X-248.706 Y0.917
X-248.557 Y0.898
X-248.407 Y0.884
X-248.258 Y0.875
X-248.108 Y0.871
X-247.958 Y0.872
X-247.808 Y0.878
X-247.658 Y0.889
X-247.509 Y0.906
X-247.361 Y0.929
X-247.214 Y0.957
X-247.067 Y0.99
X-246.923 Y1.029
X-246.78 Y1.074
X-246.638 Y1.125
X-246.258 Y1.312
X-245.91 Y1.553
X-245.601 Y1.843
X-245.339 Y2.176
X-245.129 Y2.544
X-244.975 Y2.938
X-244.881 Y3.352
X-244.85 Y3.774
G3 X-246.314 Y4.985 I-1.269 J-0.044
G1 X-250.576 Y4.322
G3 X-251.65 Y3.112 I0.195 J-1.255
G1 Y2.738
X-251.643 Y2.588
X-251.596 Y2.446
X-251.537 Y2.308
X-251.468 Y2.175
X-251.39 Y2.047
X-251.304 Y1.923
X-251.212 Y1.805
X-251.114 Y1.691
X-251.011 Y1.583
X-250.902 Y1.479
X-250.789 Y1.381
X-250.672 Y1.287
X-250.551 Y1.198
X-250.427 Y1.114
X-250.3 Y1.035
X-250.17 Y0.96
X-250.037 Y0.89
X-249.901 Y0.826
X-249.764 Y0.766
X-249.625 Y0.71
X-249.483 Y0.66
X-249.34 Y0.614
X-249.196 Y0.573
X-249.05 Y0.537
X-248.904 Y0.506
X-248.756 Y0.48
X-248.608 Y0.459
X-248.458 Y0.442
X-248.309 Y0.431
X-248.159 Y0.425
X-248.009 Y0.423
X-247.859 Y0.427
X-247.709 Y0.436
X-247.56 Y0.452
X-247.412 Y0.472
X-247.264 Y0.498
X-247.117 Y0.53
X-246.972 Y0.568
X-246.829 Y0.612
X-246.687 Y0.661
X-246.547 Y0.716
X-246.135 Y0.943
X-245.765 Y1.234
X-245.448 Y1.581
X-245.192 Y1.976
X-245.004 Y2.407
X-244.889 Y2.864
X-244.85 Y3.333
G3 X-246.295 Y4.546 I-1.269 J-0.044
G1 X-250.556 Y3.952
G3 X-251.65 Y2.738 I0.175 J-1.258
G1 Y2.374
X-251.643 Y2.224
X-251.602 Y2.079
X-251.549 Y1.939
X-251.485 Y1.804
X-251.411 Y1.673
X-251.33 Y1.547
X-251.241 Y1.426
X-251.146 Y1.31
X-251.046 Y1.198
X-250.94 Y1.092
X-250.83 Y0.99
X-250.715 Y0.894
X-250.596 Y0.802
X-250.474 Y0.715
X-250.349 Y0.633
X-250.22 Y0.555
X-250.089 Y0.483
X-249.955 Y0.415
X-249.819 Y0.352
X-249.681 Y0.294
X-249.54 Y0.241
X-249.398 Y0.193
X-249.255 Y0.149
X-249.11 Y0.11
X-248.964 Y0.077
X-248.817 Y0.048
X-248.668 Y0.024
X-248.52 Y0.005
X-248.37 Y-0.009
X-248.221 Y-0.017
X-248.071 Y-0.021
X-247.921 Y-0.019
X-247.771 Y-0.013
X-247.621 Y0
X-247.472 Y0.018
X-247.324 Y0.042
X-247.177 Y0.071
X-247.031 Y0.106
X-246.887 Y0.148
X-246.745 Y0.195
X-246.604 Y0.248
X-246.23 Y0.439
X-245.888 Y0.682
X-245.586 Y0.973
X-245.329 Y1.305
X-245.123 Y1.67
X-244.972 Y2.062
X-244.881 Y2.472
X-244.85 Y2.891
G3 X-246.272 Y4.107 I-1.269 J-0.044
G1 X-250.534 Y3.59
G3 X-251.65 Y2.374 I0.153 J-1.261
G1 Y1.994
X-251.643 Y1.844
X-251.607 Y1.699
X-251.558 Y1.557
X-251.498 Y1.419
X-251.428 Y1.287
X-251.35 Y1.159
X-251.264 Y1.036
X-251.172 Y0.917
X-251.074 Y0.804
X-250.971 Y0.695
X-250.862 Y0.591
X-250.749 Y0.492
X-250.633 Y0.398
X-250.512 Y0.309
X-250.388 Y0.225
X-250.261 Y0.145
X-250.131 Y0.07
X-249.998 Y0
X-249.863 Y-0.065
X-249.726 Y-0.125
X-249.586 Y-0.18
X-249.445 Y-0.231
X-249.302 Y-0.277
X-249.158 Y-0.317
X-249.012 Y-0.353
X-248.865 Y-0.384
X-248.718 Y-0.41
X-248.569 Y-0.431
X-248.42 Y-0.447
X-248.27 Y-0.458
X-248.121 Y-0.463
X-247.971 Y-0.464
X-247.821 Y-0.459
X-247.671 Y-0.448
X-247.522 Y-0.432
X-247.373 Y-0.41
X-247.226 Y-0.383
X-247.08 Y-0.35
X-246.935 Y-0.31
X-246.792 Y-0.265
X-246.651 Y-0.215
X-246.512 Y-0.158
X-246.107 Y0.07
X-245.745 Y0.36
X-245.434 Y0.705
X-245.184 Y1.096
X-245 Y1.522
X-244.888 Y1.972
X-244.85 Y2.435
G3 X-246.25 Y3.654 I-1.269 J-0.044
G1 X-250.511 Y3.213
G3 X-251.65 Y1.994 I0.131 J-1.263
G1 Y1.593
X-251.643 Y1.443
X-251.61 Y1.297
X-251.564 Y1.154
X-251.506 Y1.016
X-251.438 Y0.882
X-251.362 Y0.753
X-251.278 Y0.628
X-251.187 Y0.509
X-251.091 Y0.394
X-250.989 Y0.284
X-250.882 Y0.179
X-250.771 Y0.078
X-250.655 Y-0.017
X-250.536 Y-0.108
X-250.413 Y-0.194
X-250.286 Y-0.275
X-250.157 Y-0.351
X-250.025 Y-0.423
X-249.891 Y-0.489
X-249.754 Y-0.551
X-249.615 Y-0.608
X-249.475 Y-0.66
X-249.332 Y-0.707
X-249.188 Y-0.749
X-249.043 Y-0.786
X-248.896 Y-0.819
X-248.749 Y-0.846
X-248.601 Y-0.868
X-248.452 Y-0.885
X-248.302 Y-0.897
X-248.152 Y-0.904
X-248.002 Y-0.906
X-247.852 Y-0.902
X-247.703 Y-0.893
X-247.553 Y-0.879
X-247.405 Y-0.859
X-247.257 Y-0.832
X-247.11 Y-0.801
X-246.965 Y-0.763
X-246.822 Y-0.72
X-246.68 Y-0.67
X-246.54 Y-0.615
X-246.403 Y-0.554
X-246.023 Y-0.324
X-245.684 Y-0.037
X-245.394 Y0.3
X-245.16 Y0.679
X-244.989 Y1.089
X-244.885 Y1.521
X-244.85 Y1.965
G3 X-246.23 Y3.185 I-1.269 J-0.044
G1 X-250.491 Y2.814
G3 X-251.65 Y1.593 I0.11 J-1.265
G1 Y1.208
X-251.643 Y1.059
X-251.616 Y0.911
X-251.574 Y0.767
X-251.52 Y0.627
X-251.456 Y0.491
X-251.382 Y0.361
X-251.301 Y0.234
X-251.213 Y0.113
X-251.119 Y-0.004
X-251.019 Y-0.116
X-250.914 Y-0.223
X-250.805 Y-0.325
X-250.691 Y-0.423
X-250.573 Y-0.515
X-250.451 Y-0.603
X-250.326 Y-0.686
X-250.198 Y-0.764
X-250.067 Y-0.837
X-249.934 Y-0.906
X-249.798 Y-0.97
X-249.66 Y-1.028
X-249.52 Y-1.082
X-249.378 Y-1.131
X-249.235 Y-1.175
X-249.09 Y-1.214
X-248.944 Y-1.248
X-248.797 Y-1.278
X-248.649 Y-1.302
X-248.5 Y-1.321
X-248.35 Y-1.335
X-248.201 Y-1.344
X-248.051 Y-1.347
X-247.901 Y-1.346
X-247.751 Y-1.339
X-247.601 Y-1.327
X-247.452 Y-1.309
X-247.304 Y-1.286
X-247.157 Y-1.256
X-247.011 Y-1.221
X-246.867 Y-1.181
X-246.725 Y-1.134
X-246.577 Y-1.077
X-246.209 Y-0.89
X-245.872 Y-0.65
X-245.574 Y-0.364
X-245.321 Y-0.037
X-245.118 Y0.323
X-244.97 Y0.709
X-244.88 Y1.112
X-244.85 Y1.524
G3 X-246.213 Y2.747 I-1.269 J-0.044
G1 X-250.475 Y2.431
G3 X-251.65 Y1.208 I0.094 J-1.267
G1 Y0.794
X-251.643 Y0.644
X-251.618 Y0.496
X-251.578 Y0.352
X-251.525 Y0.211
X-251.462 Y0.075
X-251.39 Y-0.057
X-251.311 Y-0.184
X-251.224 Y-0.306
X-251.131 Y-0.424
X-251.032 Y-0.536
X-250.928 Y-0.644
X-250.819 Y-0.747
X-250.705 Y-0.846
X-250.588 Y-0.939
X-250.467 Y-1.028
X-250.343 Y-1.112
X-250.215 Y-1.191
X-250.085 Y-1.265
X-249.952 Y-1.335
X-249.817 Y-1.399
X-249.679 Y-1.459
X-249.539 Y-1.514
X-249.398 Y-1.564
X-249.255 Y-1.609
X-249.11 Y-1.649
X-248.965 Y-1.684
X-248.818 Y-1.714
X-248.67 Y-1.739
X-248.521 Y-1.76
X-248.372 Y-1.775
X-248.222 Y-1.785
X-248.072 Y-1.789
X-247.922
X-247.772 Y-1.783
X-247.623 Y-1.772
X-247.474 Y-1.755
X-247.326 Y-1.732
X-247.178 Y-1.704
X-247.032 Y-1.67
X-246.888 Y-1.629
X-246.745 Y-1.584
X-246.604 Y-1.532
X-246.23 Y-1.341
X-245.888 Y-1.098
X-245.586 Y-0.808
X-245.328 Y-0.476
X-245.123 Y-0.11
X-244.972 Y0.282
X-244.881 Y0.691
X-244.85 Y1.11
G3 X-246.213 Y2.332 I-1.269 J-0.044
G1 X-250.475 Y2.016
G3 X-251.65 Y0.794 I0.094 J-1.267
G1 Y0.351
X-251.643 Y0.201
X-251.617 Y0.054
X-251.576 Y-0.091
X-251.522 Y-0.231
X-251.459 Y-0.367
X-251.387 Y-0.498
X-251.307 Y-0.625
X-251.22 Y-0.747
X-251.126 Y-0.865
X-251.027 Y-0.977
X-250.923 Y-1.085
X-250.814 Y-1.188
X-250.701 Y-1.287
X-250.584 Y-1.38
X-250.463 Y-1.469
X-250.338 Y-1.553
X-250.211 Y-1.632
X-250.08 Y-1.706
X-249.947 Y-1.776
X-249.812 Y-1.84
X-249.674 Y-1.9
X-249.535 Y-1.955
X-249.393 Y-2.005
X-249.25 Y-2.05
X-249.106 Y-2.09
X-248.96 Y-2.126
X-248.813 Y-2.156
X-248.665 Y-2.181
X-248.517 Y-2.201
X-248.367 Y-2.217
X-248.218 Y-2.227
X-248.068 Y-2.231
X-247.918
X-247.768 Y-2.225
X-247.618 Y-2.214
X-247.469 Y-2.196
X-247.321 Y-2.173
X-247.174 Y-2.145
X-247.028 Y-2.11
X-246.884 Y-2.069
X-246.741 Y-2.023
X-246.601 Y-1.97
X-246.227 Y-1.778
X-245.886 Y-1.533
X-245.584 Y-1.241
X-245.327 Y-0.908
X-245.122 Y-0.541
X-244.972 Y-0.149
X-244.881 Y0.261
X-244.85 Y0.68
G3 X-246.217 Y1.902 I-1.269 J-0.044
G1 X-250.479 Y1.573
G3 X-251.65 Y0.351 I0.098 J-1.266
G1 Y-0.057
X-251.643 Y-0.207
X-251.62 Y-0.355
X-251.582 Y-0.5
X-251.531 Y-0.641
X-251.47 Y-0.778
X-251.4 Y-0.91
X-251.321 Y-1.038
X-251.235 Y-1.162
X-251.143 Y-1.28
X-251.046 Y-1.394
X-250.942 Y-1.503
X-250.835 Y-1.607
X-250.722 Y-1.706
X-250.606 Y-1.801
X-250.486 Y-1.891
X-250.362 Y-1.976
X-250.235 Y-2.056
X-250.106 Y-2.131
X-249.973 Y-2.202
X-249.838 Y-2.268
X-249.701 Y-2.328
X-249.562 Y-2.384
X-249.421 Y-2.436
X-249.279 Y-2.482
X-249.134 Y-2.523
X-248.989 Y-2.56
X-248.842 Y-2.591
X-248.695 Y-2.618
X-248.546 Y-2.639
X-248.397 Y-2.655
X-248.247 Y-2.666
X-248.097 Y-2.672
X-247.947
X-247.798 Y-2.668
X-247.648 Y-2.658
X-247.499 Y-2.641
X-247.35 Y-2.619
X-247.203 Y-2.591
X-247.057 Y-2.558
X-246.912 Y-2.517
X-246.769 Y-2.472
X-246.628 Y-2.421
X-246.49 Y-2.363
X-246.09 Y-2.135
X-245.733 Y-1.847
X-245.426 Y-1.504
X-245.179 Y-1.116
X-244.998 Y-0.693
X-244.887 Y-0.247
X-244.85 Y0.211
G3 X-246.199 Y1.434 I-1.269 J-0.044
G1 X-250.461 Y1.166
G3 X-251.65 Y-0.057 I0.08 J-1.267
G1 Y-0.488
X-251.643 Y-0.638
X-251.621 Y-0.786
X-251.583 Y-0.931
X-251.533 Y-1.073
X-251.472 Y-1.21
X-251.402 Y-1.343
X-251.324 Y-1.471
X-251.239 Y-1.594
X-251.147 Y-1.713
X-251.05 Y-1.827
X-250.947 Y-1.936
X-250.839 Y-2.041
X-250.727 Y-2.14
X-250.611 Y-2.235
X-250.491 Y-2.326
X-250.368 Y-2.411
X-250.241 Y-2.491
X-250.112 Y-2.567
X-249.98 Y-2.638
X-249.845 Y-2.704
X-249.708 Y-2.765
X-249.569 Y-2.822
X-249.428 Y-2.873
X-249.286 Y-2.92
X-249.142 Y-2.962
X-248.996 Y-2.998
X-248.85 Y-3.03
X-248.702 Y-3.057
X-248.554 Y-3.078
X-248.404 Y-3.095
X-248.255 Y-3.106
X-248.105 Y-3.112
X-247.955 Y-3.113
X-247.805 Y-3.108
X-247.655 Y-3.098
X-247.506 Y-3.083
X-247.358 Y-3.061
X-247.21 Y-3.033
X-247.064 Y-3.001
X-246.919 Y-2.962
X-246.776 Y-2.917
X-246.635 Y-2.866
X-246.496 Y-2.809
X-246.095 Y-2.585
X-245.737 Y-2.299
X-245.429 Y-1.958
X-245.181 Y-1.572
X-244.999 Y-1.151
X-244.887 Y-0.705
X-244.85 Y-0.248
Y0.211
G3 X-246.325 Y1.42 I-1.269 J-0.044
G1 X-250.586 Y0.721
G3 X-251.65 Y-0.488 I0.206 J-1.253
G1 Y-0.948
X-251.643 Y-1.098
X-251.618 Y-1.246
X-251.578 Y-1.391
X-251.526 Y-1.531
X-251.463 Y-1.668
X-251.392 Y-1.8
X-251.313 Y-1.927
X-251.227 Y-2.05
X-251.134 Y-2.168
X-251.036 Y-2.281
X-250.933 Y-2.39
X-250.824 Y-2.494
X-250.712 Y-2.593
X-250.595 Y-2.687
X-250.475 Y-2.777
X-250.351 Y-2.862
X-250.224 Y-2.942
X-250.094 Y-3.017
X-249.962 Y-3.087
X-249.827 Y-3.153
X-249.69 Y-3.213
X-249.55 Y-3.269
X-249.409 Y-3.32
X-249.267 Y-3.366
X-249.122 Y-3.407
X-248.977 Y-3.443
X-248.83 Y-3.474
X-248.682 Y-3.5
X-248.534 Y-3.521
X-248.385 Y-3.537
X-248.235 Y-3.547
X-248.085 Y-3.553
X-247.935
X-247.785 Y-3.548
X-247.635 Y-3.538
X-247.486 Y-3.522
X-247.338 Y-3.499
X-247.191 Y-3.471
X-247.044 Y-3.438
X-246.9 Y-3.399
X-246.757 Y-3.353
X-246.616 Y-3.302
X-246.477 Y-3.245
X-246.081 Y-3.022
X-245.726 Y-2.737
X-245.422 Y-2.398
X-245.177 Y-2.015
X-244.997 Y-1.597
X-244.887 Y-1.155
X-244.85 Y-0.701
Y-0.248
G3 X-246.325 Y0.961 I-1.269 J-0.044
G1 X-250.587 Y0.261
G3 X-251.65 Y-0.948 I0.206 J-1.253
G1 Y-1.369
X-251.643 Y-1.519
X-251.62 Y-1.668
X-251.582 Y-1.813
X-251.532 Y-1.954
X-251.47 Y-2.091
X-251.4 Y-2.223
X-251.322 Y-2.351
X-251.237 Y-2.475
X-251.145 Y-2.594
X-251.048 Y-2.708
X-250.945 Y-2.817
X-250.837 Y-2.921
X-250.725 Y-3.021
X-250.609 Y-3.116
X-250.489 Y-3.206
X-250.366 Y-3.292
X-250.239 Y-3.372
X-250.11 Y-3.448
X-249.978 Y-3.519
X-249.843 Y-3.585
X-249.706 Y-3.646
X-249.567 Y-3.703
X-249.426 Y-3.754
X-249.284 Y-3.801
X-249.14 Y-3.843
X-248.994 Y-3.879
X-248.848 Y-3.911
X-248.7 Y-3.938
X-248.552 Y-3.96
X-248.403 Y-3.976
X-248.253 Y-3.988
X-248.103 Y-3.994
X-247.953 Y-3.995
X-247.803 Y-3.991
X-247.653 Y-3.981
X-247.504 Y-3.966
X-247.356 Y-3.945
X-247.208 Y-3.918
X-247.062 Y-3.886
X-246.917 Y-3.848
X-246.773 Y-3.803
X-246.62 Y-3.748
X-246.244 Y-3.564
X-245.899 Y-3.326
X-245.594 Y-3.04
X-245.334 Y-2.711
X-245.126 Y-2.348
X-244.974 Y-1.958
X-244.881 Y-1.55
X-244.85 Y-1.132
Y-0.701
G3 X-246.316 Y0.509 I-1.269 J-0.044
G1 X-250.577 Y-0.159
G3 X-251.65 Y-1.369 I0.197 J-1.255
G1 Y-1.815
X-251.643 Y-1.964
X-251.62 Y-2.113
X-251.581 Y-2.257
X-251.53 Y-2.399
X-251.468 Y-2.535
X-251.398 Y-2.668
X-251.319 Y-2.796
X-251.234 Y-2.919
X-251.142 Y-3.037
X-251.044 Y-3.151
X-250.941 Y-3.26
X-250.833 Y-3.365
X-250.721 Y-3.464
X-250.605 Y-3.559
X-250.485 Y-3.649
X-250.362 Y-3.734
X-250.235 Y-3.815
X-250.106 Y-3.89
X-249.973 Y-3.961
X-249.839 Y-4.027
X-249.702 Y-4.088
X-249.563 Y-4.145
X-249.422 Y-4.196
X-249.279 Y-4.243
X-249.135 Y-4.284
X-248.99 Y-4.321
X-248.843 Y-4.353
X-248.695 Y-4.38
X-248.547 Y-4.401
X-248.398 Y-4.418
X-248.248 Y-4.429
X-248.098 Y-4.436
X-247.948 Y-4.437
X-247.799 Y-4.433
X-247.649 Y-4.423
X-247.5 Y-4.407
X-247.351 Y-4.386
X-247.204 Y-4.359
X-247.057 Y-4.326
X-246.912 Y-4.287
X-246.769 Y-4.243
X-246.628 Y-4.192
X-246.25 Y-4.003
X-245.903 Y-3.76
X-245.596 Y-3.469
X-245.336 Y-3.136
X-245.127 Y-2.768
X-244.974 Y-2.374
X-244.881 Y-1.961
X-244.85 Y-1.539
Y-1.132
G3 X-246.32 Y0.077 I-1.269 J-0.044
G1 X-250.582 Y-0.605
G3 X-251.65 Y-1.815 I0.201 J-1.254
G1 Y-2.271
X-251.643 Y-2.421
X-251.617 Y-2.569
X-251.577 Y-2.713
X-251.524 Y-2.854
X-251.462 Y-2.99
X-251.39 Y-3.122
X-251.311 Y-3.249
X-251.225 Y-3.372
X-251.132 Y-3.49
X-251.034 Y-3.603
X-250.93 Y-3.712
X-250.822 Y-3.816
X-250.71 Y-3.915
X-250.593 Y-4.009
X-250.473 Y-4.099
X-250.349 Y-4.183
X-250.222 Y-4.263
X-250.092 Y-4.338
X-249.96 Y-4.409
X-249.825 Y-4.474
X-249.688 Y-4.535
X-249.548 Y-4.591
X-249.407 Y-4.642
X-249.265 Y-4.688
X-249.12 Y-4.729
X-248.975 Y-4.766
X-248.828 Y-4.797
X-248.68 Y-4.823
X-248.532 Y-4.845
X-248.383 Y-4.861
X-248.233 Y-4.872
X-248.083 Y-4.877
X-247.933 Y-4.878
X-247.783 Y-4.873
