%
(1001)
(origin stock bottom)
(T1  D=12.7 CR=0 - ZMIN=-26 - flat end mill)
G90 G94
G17
G21

(2D Adaptive17)
M9
T1 M6
S7500 M3
G54
G0 X-588.816 Y-50.351
Z15
Z5
Z3.82
G1 Z2.55 F849.6
Z-25.5 F283.3
X-588.752 Y-50.295 F849.6
X-588.73 Y-50.268
X-588.868 Y-50.209
X-589.008 Y-50.156
X-589.15 Y-50.109
X-589.322 Y-50.057
X-589.53 Y-50.001
X-589.785 Y-49.94
X-590.099 Y-49.874
X-590.49 Y-49.803
X-590.986 Y-49.728
X-591.637 Y-49.648
X-592.533 Y-49.563
X-593.873 Y-49.475
X-593.915 Y-49.473
X-594.104 Y-49.497
X-594.276 Y-49.581
X-594.412 Y-49.715
X-594.498 Y-49.885
X-594.525 Y-50.075
X-594.49 Y-50.263
X-594.396 Y-50.429
X-594.254 Y-50.557
X-594.079 Y-50.633
X-593.992 Y-50.634
X-593.293 Y-50.626
X-589.539 Y-50.58
G3 X-588.752 Y-50.295 I-0.016 J1.27
G1 X-588.65 Y-50.187
X-588.608 Y-50.131
X-588.592 Y-50.107
X-588.714 Y-50.021
X-588.841 Y-49.94
X-588.971 Y-49.865
X-589.103 Y-49.795
X-589.247 Y-49.724
X-589.396 Y-49.656
X-589.576 Y-49.579
X-589.772 Y-49.503
X-589.996 Y-49.422
X-590.267 Y-49.334
X-590.547 Y-49.251
X-590.89 Y-49.16
X-591.314 Y-49.06
X-591.664 Y-48.988
X-591.92 Y-48.943
X-592.133 Y-48.912
X-592.336 Y-48.888
X-592.506 Y-48.873
X-592.656 Y-48.864
X-592.805 Y-48.859
X-592.955
X-593.203 Y-48.905
X-593.428 Y-49.018
X-593.613 Y-49.188
X-593.742 Y-49.404
X-593.807 Y-49.647
X-593.802 Y-49.898
X-593.727 Y-50.139
X-593.588 Y-50.348
X-593.397 Y-50.511
X-593.167 Y-50.615
X-592.918 Y-50.65
G3 X-588.623 Y-50.14 I-0.907 J25.984
G1 X-588.608 Y-50.131
X-588.569 Y-50.079
X-588.555 Y-50.059
X-588.472 Y-49.904
X-588.458 Y-49.879
X-588.448 Y-49.845
X-588.561 Y-49.747
X-588.678 Y-49.653
X-588.799 Y-49.563
X-588.922 Y-49.478
X-589.048 Y-49.395
X-589.19 Y-49.308
X-589.348 Y-49.218
X-589.518 Y-49.126
X-589.707 Y-49.032
X-589.903 Y-48.94
X-590.103 Y-48.854
X-590.307 Y-48.772
X-590.511 Y-48.698
X-590.713 Y-48.63
X-590.91 Y-48.57
X-591.102 Y-48.518
X-591.27 Y-48.477
X-591.417 Y-48.446
X-591.564 Y-48.419
X-591.712 Y-48.397
X-591.861 Y-48.38
X-592.011 Y-48.367
X-592.161 Y-48.361
X-592.311 Y-48.362
X-592.599 Y-48.417
X-592.863 Y-48.543
X-593.087 Y-48.733
X-593.256 Y-48.973
X-593.358 Y-49.248
X-593.386 Y-49.539
X-593.34 Y-49.829
X-593.222 Y-50.097
X-593.039 Y-50.327
X-592.804 Y-50.502
X-592.533 Y-50.612
X-592.242 Y-50.65
G3 X-588.497 Y-49.912 I-0.419 J11.993
G1 X-588.475 Y-49.899
X-588.458 Y-49.879
X-588.394 Y-49.699
X-588.376 Y-49.602
X-588.371 Y-49.567
X-588.471 Y-49.455
X-588.576 Y-49.348
X-588.685 Y-49.245
X-588.798 Y-49.146
X-588.913 Y-49.05
X-589.032 Y-48.959
X-589.154 Y-48.871
X-589.281 Y-48.784
X-589.415 Y-48.698
X-589.553 Y-48.615
X-589.694 Y-48.536
X-589.838 Y-48.46
X-589.981 Y-48.39
X-590.126 Y-48.324
X-590.27 Y-48.263
X-590.412 Y-48.208
X-590.554 Y-48.157
X-590.697 Y-48.11
X-590.841 Y-48.068
X-590.986 Y-48.031
X-591.133 Y-47.998
X-591.28 Y-47.973
X-591.429 Y-47.953
X-591.578 Y-47.939
X-591.728 Y-47.933
X-591.878 Y-47.935
X-592.028 Y-47.946
X-592.177 Y-47.966
X-592.324 Y-47.996
X-592.468 Y-48.038
X-593.124 Y-48.25
X-593.387 Y-48.371
X-593.614 Y-48.549
X-593.793 Y-48.776
X-593.915 Y-49.039
X-593.971 Y-49.323
X-593.96 Y-49.612
X-593.882 Y-49.89
X-593.741 Y-50.143
X-593.544 Y-50.355
X-593.304 Y-50.516
X-593.033 Y-50.616
X-592.745 Y-50.65
G3 X-588.452 Y-49.694 I-0.419 J11.993
G1 X-588.417 Y-49.672
X-588.391 Y-49.64
X-588.376 Y-49.602
X-588.358 Y-49.51
X-588.35 Y-49.32
Y-49.254
X-588.352 Y-49.212
X-588.442 Y-49.092
X-588.538 Y-48.976
X-588.638 Y-48.865
X-588.743 Y-48.758
X-588.852 Y-48.654
X-588.965 Y-48.555
X-589.081 Y-48.46
X-589.2 Y-48.369
X-589.322 Y-48.282
X-589.447 Y-48.199
X-589.574 Y-48.12
X-589.704 Y-48.045
X-589.837 Y-47.974
X-589.971 Y-47.908
X-590.108 Y-47.846
X-590.247 Y-47.789
X-590.387 Y-47.737
X-590.53 Y-47.69
X-590.674 Y-47.649
X-590.82 Y-47.613
X-590.966 Y-47.582
X-591.115 Y-47.558
X-591.263 Y-47.54
X-591.413 Y-47.529
X-591.563 Y-47.524
X-591.713 Y-47.525
X-591.863 Y-47.529
X-592.013 Y-47.539
X-592.162 Y-47.554
X-592.31 Y-47.575
X-592.458 Y-47.6
X-592.605 Y-47.633
X-592.749 Y-47.673
X-592.891 Y-47.72
X-592.914 Y-47.729
X-593.199 Y-47.877
X-593.447 Y-48.082
X-593.646 Y-48.335
X-593.786 Y-48.624
X-593.863 Y-48.936
X-593.872 Y-49.258
X-593.812 Y-49.574
X-593.687 Y-49.87
X-593.503 Y-50.133
X-593.266 Y-50.351
X-592.989 Y-50.515
X-592.684 Y-50.616
X-592.364 Y-50.65
G3 X-588.49 Y-49.492 I-0.279 J7.995
X-588.35 Y-49.254 I-0.151 J0.248
G1 Y-48.906
X-588.353 Y-48.838
X-588.434 Y-48.712
X-588.522 Y-48.59
X-588.615 Y-48.473
X-588.714 Y-48.36
X-588.817 Y-48.251
X-588.925 Y-48.147
X-589.038 Y-48.048
X-589.154 Y-47.953
X-589.273 Y-47.862
X-589.397 Y-47.777
X-589.523 Y-47.696
X-589.652 Y-47.619
X-589.784 Y-47.548
X-589.919 Y-47.482
X-590.056 Y-47.421
X-590.195 Y-47.365
X-590.336 Y-47.314
X-590.479 Y-47.269
X-590.623 Y-47.229
X-590.769 Y-47.193
X-590.916 Y-47.163
X-591.064 Y-47.138
X-591.213 Y-47.118
X-591.362 Y-47.104
X-591.512 Y-47.095
X-591.662 Y-47.091
X-591.812 Y-47.093
X-591.961 Y-47.101
X-592.111 Y-47.117
X-592.259 Y-47.139
X-592.406 Y-47.167
X-592.552 Y-47.204
X-592.695 Y-47.249
X-592.836 Y-47.301
X-592.973 Y-47.362
X-594.185 Y-47.938
X-594.464 Y-48.103
X-594.707 Y-48.319
X-594.902 Y-48.579
X-595.043 Y-48.871
X-595.124 Y-49.185
X-595.142 Y-49.51
G3 X-593.795 Y-50.493 I1.238 J0.282
G1 X-589.511 Y-50.127
G3 X-588.35 Y-48.906 I-0.108 J1.265
G1 Y-48.526
X-588.354 Y-48.439
X-588.43 Y-48.309
X-588.513 Y-48.184
X-588.602 Y-48.064
X-588.698 Y-47.948
X-588.799 Y-47.838
X-588.905 Y-47.732
X-589.016 Y-47.63
X-589.131 Y-47.534
X-589.25 Y-47.443
X-589.373 Y-47.356
X-589.498 Y-47.275
X-589.628 Y-47.198
X-589.759 Y-47.127
X-589.894 Y-47.06
X-590.031 Y-46.999
X-590.169 Y-46.942
X-590.31 Y-46.89
X-590.453 Y-46.844
X-590.597 Y-46.803
X-590.743 Y-46.767
X-590.89 Y-46.736
X-591.037 Y-46.71
X-591.186 Y-46.69
X-591.335 Y-46.676
X-591.485 Y-46.668
X-591.635 Y-46.666
X-591.785 Y-46.669
X-591.935 Y-46.68
X-592.084 Y-46.696
X-592.247 Y-46.718
X-592.443 Y-46.751
X-592.651 Y-46.793
X-592.826 Y-46.833
X-593.011 Y-46.88
X-593.18 Y-46.929
X-593.323 Y-46.975
X-593.456 Y-47.022
X-593.824 Y-47.184
X-594.161 Y-47.404
X-594.459 Y-47.673
X-594.71 Y-47.987
X-594.908 Y-48.337
X-595.048 Y-48.714
X-595.127 Y-49.108
X-595.142 Y-49.51
G3 X-593.686 Y-50.479 I1.238 J0.282
G1 X-589.401 Y-49.733
G3 X-588.35 Y-48.526 I-0.218 J1.251
G1 Y-48.181
X-588.354 Y-48.093
X-588.42 Y-47.958
X-588.495 Y-47.828
X-588.578 Y-47.703
X-588.668 Y-47.584
X-588.765 Y-47.469
X-588.867 Y-47.359
X-588.974 Y-47.254
X-589.086 Y-47.154
X-589.203 Y-47.06
X-589.323 Y-46.97
X-589.447 Y-46.886
X-589.574 Y-46.806
X-589.705 Y-46.732
X-589.838 Y-46.663
X-589.973 Y-46.598
X-590.111 Y-46.539
X-590.251 Y-46.486
X-590.393 Y-46.437
X-590.537 Y-46.394
X-590.682 Y-46.356
X-590.828 Y-46.324
X-590.976 Y-46.297
X-591.124 Y-46.275
X-591.273 Y-46.258
X-591.423 Y-46.245
X-591.573 Y-46.237
X-591.723 Y-46.233
X-591.875 Y-46.234
X-592.026 Y-46.239
X-592.176 Y-46.248
X-592.326 Y-46.262
X-592.477 Y-46.28
X-592.625 Y-46.303
X-592.773 Y-46.33
X-592.919 Y-46.363
X-593.064 Y-46.401
X-593.208 Y-46.444
X-593.35 Y-46.492
X-593.49 Y-46.546
X-593.893 Y-46.762
X-594.254 Y-47.042
X-594.565 Y-47.377
X-594.815 Y-47.759
X-595 Y-48.177
X-595.112 Y-48.62
X-595.15 Y-49.076
G3 X-593.62 Y-50.274 I1.269 J0.044
G1 X-589.358 Y-49.38
G3 X-588.35 Y-48.181 I-0.261 J1.243
G1 Y-47.839
X-588.357 Y-47.689
X-588.421 Y-47.553
X-588.495 Y-47.423
X-588.576 Y-47.297
X-588.665 Y-47.176
X-588.76 Y-47.06
X-588.861 Y-46.949
X-588.968 Y-46.843
X-589.079 Y-46.743
X-589.195 Y-46.647
X-589.314 Y-46.557
X-589.438 Y-46.471
X-589.564 Y-46.391
X-589.694 Y-46.316
X-589.827 Y-46.246
X-589.962 Y-46.181
X-590.1 Y-46.121
X-590.239 Y-46.067
X-590.381 Y-46.017
X-590.524 Y-45.972
X-590.668 Y-45.931
X-590.814 Y-45.896
X-590.961 Y-45.865
X-591.109 Y-45.838
X-591.257 Y-45.816
X-591.406 Y-45.799
X-591.555 Y-45.786
X-591.705 Y-45.778
X-591.855 Y-45.775
X-592.005 Y-45.776
X-592.155 Y-45.782
X-592.305 Y-45.793
X-592.454 Y-45.809
X-592.602 Y-45.832
X-592.75 Y-45.859
X-592.896 Y-45.891
X-593.041 Y-45.928
X-593.185 Y-45.973
X-593.326 Y-46.022
X-593.466 Y-46.077
X-593.603 Y-46.137
X-593.982 Y-46.365
X-594.32 Y-46.65
X-594.608 Y-46.985
X-594.841 Y-47.36
X-595.011 Y-47.768
X-595.115 Y-48.198
X-595.15 Y-48.638
G3 X-593.647 Y-49.842 I1.269 J0.044
G1 X-589.385 Y-49.043
G3 X-588.35 Y-47.839 I-0.234 J1.248
G1 Y-47.459
X-588.357 Y-47.31
X-588.417 Y-47.172
X-588.487 Y-47.039
X-588.565 Y-46.911
X-588.651 Y-46.788
X-588.744 Y-46.67
X-588.843 Y-46.558
X-588.947 Y-46.45
X-589.057 Y-46.348
X-589.171 Y-46.25
X-589.289 Y-46.158
X-589.411 Y-46.071
X-589.536 Y-45.988
X-589.665 Y-45.911
X-589.796 Y-45.838
X-589.93 Y-45.77
X-590.066 Y-45.707
X-590.204 Y-45.649
X-590.345 Y-45.596
X-590.486 Y-45.547
X-590.63 Y-45.503
X-590.775 Y-45.464
X-590.921 Y-45.429
X-591.068 Y-45.399
X-591.215 Y-45.374
X-591.364 Y-45.354
X-591.513 Y-45.338
X-591.663 Y-45.328
X-591.813 Y-45.322
X-591.963 Y-45.321
X-592.113 Y-45.325
X-592.262 Y-45.334
X-592.412 Y-45.348
X-592.56 Y-45.367
X-592.708 Y-45.393
X-592.855 Y-45.424
X-593.001 Y-45.46
X-593.145 Y-45.501
X-593.287 Y-45.55
X-593.427 Y-45.604
X-593.565 Y-45.663
X-593.952 Y-45.888
X-594.298 Y-46.172
X-594.594 Y-46.508
X-594.832 Y-46.887
X-595.007 Y-47.3
X-595.114 Y-47.735
X-595.15 Y-48.181
G3 X-593.669 Y-49.389 I1.269 J0.044
G1 X-589.407 Y-48.667
G3 X-588.35 Y-47.459 I-0.212 J1.252
G1 Y-47.074
X-588.357 Y-46.924
X-588.414 Y-46.785
X-588.48 Y-46.65
X-588.556 Y-46.521
X-588.64 Y-46.397
X-588.73 Y-46.277
X-588.827 Y-46.162
X-588.93 Y-46.053
X-589.037 Y-45.949
X-589.15 Y-45.849
X-589.266 Y-45.754
X-589.386 Y-45.665
X-589.51 Y-45.58
X-589.637 Y-45.5
X-589.766 Y-45.424
X-589.899 Y-45.354
X-590.034 Y-45.288
X-590.171 Y-45.227
X-590.31 Y-45.171
X-590.451 Y-45.12
X-590.593 Y-45.073
X-590.737 Y-45.031
X-590.883 Y-44.994
X-591.029 Y-44.962
X-591.177 Y-44.934
X-591.325 Y-44.911
X-591.474 Y-44.894
X-591.623 Y-44.881
X-591.773 Y-44.873
X-591.923 Y-44.87
X-592.073 Y-44.872
X-592.223 Y-44.879
X-592.372 Y-44.891
X-592.521 Y-44.909
X-592.669 Y-44.933
X-592.817 Y-44.962
X-592.963 Y-44.996
X-593.107 Y-45.036
X-593.25 Y-45.083
X-593.39 Y-45.135
X-593.765 Y-45.323
X-594.108 Y-45.564
X-594.411 Y-45.853
X-594.67 Y-46.184
X-594.876 Y-46.548
X-595.027 Y-46.94
X-595.119 Y-47.349
X-595.15 Y-47.767
G3 X-593.677 Y-48.976 I1.269 J0.044
G1 X-589.415 Y-48.283
G3 X-588.35 Y-47.074 I-0.204 J1.254
G1 Y-46.732
X-588.357 Y-46.583
X-588.404 Y-46.44
X-588.463 Y-46.302
X-588.533 Y-46.169
X-588.611 Y-46.041
X-588.696 Y-45.918
X-588.788 Y-45.799
X-588.887 Y-45.686
X-588.99 Y-45.578
X-589.099 Y-45.474
X-589.212 Y-45.376
X-589.33 Y-45.282
X-589.451 Y-45.194
X-589.575 Y-45.11
X-589.702 Y-45.031
X-589.833 Y-44.957
X-589.966 Y-44.887
X-590.101 Y-44.822
X-590.239 Y-44.763
X-590.378 Y-44.708
X-590.519 Y-44.657
X-590.662 Y-44.612
X-590.807 Y-44.571
X-590.952 Y-44.535
X-591.099 Y-44.504
X-591.247 Y-44.478
X-591.395 Y-44.457
X-591.544 Y-44.441
X-591.694 Y-44.43
X-591.844 Y-44.423
X-591.994 Y-44.422
X-592.144 Y-44.426
X-592.294 Y-44.435
X-592.443 Y-44.451
X-592.591 Y-44.471
X-592.739 Y-44.497
X-592.886 Y-44.529
X-593.031 Y-44.567
X-593.174 Y-44.611
X-593.316 Y-44.66
X-593.456 Y-44.715
X-593.867 Y-44.942
X-594.237 Y-45.232
X-594.553 Y-45.58
X-594.809 Y-45.974
X-594.997 Y-46.405
X-595.111 Y-46.861
X-595.15 Y-47.329
G3 X-593.705 Y-48.543 I1.269 J0.044
G1 X-589.443 Y-47.946
G3 X-588.35 Y-46.732 I-0.176 J1.258
G1 Y-46.359
X-588.357 Y-46.209
X-588.399 Y-46.065
X-588.454 Y-45.925
X-588.519 Y-45.79
X-588.593 Y-45.66
X-588.675 Y-45.534
X-588.765 Y-45.414
X-588.86 Y-45.298
X-588.961 Y-45.187
X-589.067 Y-45.081
X-589.178 Y-44.98
X-589.293 Y-44.884
X-589.412 Y-44.792
X-589.535 Y-44.706
X-589.661 Y-44.624
X-589.789 Y-44.547
X-589.921 Y-44.475
X-590.055 Y-44.408
X-590.191 Y-44.346
X-590.33 Y-44.288
X-590.47 Y-44.235
X-590.612 Y-44.187
X-590.756 Y-44.144
X-590.901 Y-44.106
X-591.047 Y-44.072
X-591.195 Y-44.044
X-591.343 Y-44.021
X-591.492 Y-44.002
X-591.641 Y-43.989
X-591.791 Y-43.98
X-591.941 Y-43.977
X-592.091 Y-43.979
X-592.241 Y-43.986
X-592.39 Y-43.999
X-592.539 Y-44.017
X-592.687 Y-44.042
X-592.834 Y-44.072
X-592.98 Y-44.107
X-593.124 Y-44.149
X-593.266 Y-44.197
X-593.406 Y-44.25
X-593.778 Y-44.441
X-594.118 Y-44.684
X-594.419 Y-44.974
X-594.675 Y-45.305
X-594.879 Y-45.67
X-595.029 Y-46.06
X-595.12 Y-46.468
X-595.15 Y-46.885
G3 X-593.725 Y-48.101 I1.269 J0.044
G1 X-589.464 Y-47.575
G3 X-588.35 Y-46.359 I-0.156 J1.26
G1 Y-45.994
X-588.357 Y-45.844
X-588.392 Y-45.698
X-588.441 Y-45.557
X-588.501 Y-45.419
X-588.57 Y-45.286
X-588.649 Y-45.158
X-588.734 Y-45.035
X-588.826 Y-44.917
X-588.924 Y-44.803
X-589.028 Y-44.694
X-589.136 Y-44.591
X-589.249 Y-44.492
X-589.365 Y-44.397
X-589.486 Y-44.308
X-589.61 Y-44.224
X-589.737 Y-44.144
X-589.867 Y-44.069
X-590 Y-43.999
X-590.135 Y-43.934
X-590.272 Y-43.874
X-590.412 Y-43.818
X-590.553 Y-43.768
X-590.696 Y-43.722
X-590.84 Y-43.681
X-590.986 Y-43.645
X-591.132 Y-43.614
X-591.28 Y-43.588
X-591.429 Y-43.567
X-591.578 Y-43.551
X-591.727 Y-43.541
X-591.877 Y-43.535
X-592.027 Y-43.534
X-592.177 Y-43.539
X-592.327 Y-43.549
X-592.476 Y-43.566
X-592.624 Y-43.587
X-592.772 Y-43.615
X-592.918 Y-43.647
X-593.063 Y-43.687
X-593.206 Y-43.732
X-593.347 Y-43.782
X-593.486 Y-43.839
X-593.891 Y-44.066
X-594.254 Y-44.356
X-594.565 Y-44.701
X-594.816 Y-45.092
X-595 Y-45.519
X-595.112 Y-45.97
X-595.15 Y-46.433
G3 X-593.751 Y-47.652 I1.269 J0.044
G1 X-589.489 Y-47.213
G3 X-588.35 Y-45.994 I-0.13 J1.263
G1 Y-45.588
X-588.357 Y-45.438
X-588.39 Y-45.292
X-588.437 Y-45.149
X-588.495 Y-45.011
X-588.563 Y-44.877
X-588.64 Y-44.748
X-588.723 Y-44.624
X-588.814 Y-44.504
X-588.911 Y-44.389
X-589.013 Y-44.28
X-589.12 Y-44.175
X-589.231 Y-44.074
X-589.347 Y-43.979
X-589.467 Y-43.888
X-589.59 Y-43.802
X-589.716 Y-43.721
X-589.845 Y-43.645
X-589.977 Y-43.574
X-590.112 Y-43.508
X-590.248 Y-43.446
X-590.387 Y-43.389
X-590.528 Y-43.337
X-590.67 Y-43.29
X-590.814 Y-43.248
X-590.96 Y-43.211
X-591.106 Y-43.179
X-591.254 Y-43.152
X-591.402 Y-43.13
X-591.551 Y-43.113
X-591.701 Y-43.101
X-591.85 Y-43.094
X-592 Y-43.092
X-592.15 Y-43.096
X-592.3 Y-43.105
X-592.449 Y-43.119
X-592.598 Y-43.139
X-592.746 Y-43.166
X-592.892 Y-43.198
X-593.038 Y-43.235
X-593.181 Y-43.279
X-593.323 Y-43.329
X-593.462 Y-43.384
X-593.599 Y-43.444
X-593.979 Y-43.675
X-594.318 Y-43.962
X-594.607 Y-44.299
X-594.84 Y-44.677
X-595.011 Y-45.087
X-595.115 Y-45.519
X-595.15 Y-45.962
G3 X-593.77 Y-47.182 I1.269 J0.044
G1 X-589.508 Y-46.809
G3 X-588.35 Y-45.588 I-0.111 J1.265
G1 Y-45.208
X-588.357 Y-45.059
X-588.384 Y-44.911
X-588.425 Y-44.767
X-588.479 Y-44.627
X-588.543 Y-44.491
X-588.616 Y-44.36
X-588.697 Y-44.234
X-588.785 Y-44.112
X-588.879 Y-43.996
X-588.979 Y-43.884
X-589.084 Y-43.776
X-589.194 Y-43.674
X-589.308 Y-43.577
X-589.426 Y-43.484
X-589.547 Y-43.396
X-589.672 Y-43.313
X-589.8 Y-43.235
X-589.931 Y-43.161
X-590.065 Y-43.093
X-590.2 Y-43.029
X-590.338 Y-42.97
X-590.478 Y-42.917
X-590.62 Y-42.867
X-590.763 Y-42.823
X-590.908 Y-42.784
X-591.054 Y-42.75
X-591.201 Y-42.721
X-591.349 Y-42.696
X-591.498 Y-42.677
X-591.647 Y-42.663
X-591.797 Y-42.654
X-591.947 Y-42.65
X-592.097 Y-42.652
X-592.247 Y-42.659
X-592.397 Y-42.671
X-592.546 Y-42.688
X-592.694 Y-42.711
X-592.841 Y-42.741
X-592.987 Y-42.776
X-593.131 Y-42.816
X-593.274 Y-42.863
X-593.419 Y-42.919
X-593.788 Y-43.107
X-594.125 Y-43.346
X-594.424 Y-43.633
X-594.678 Y-43.96
X-594.881 Y-44.321
X-595.029 Y-44.708
X-595.12 Y-45.112
X-595.15 Y-45.524
G3 X-593.787 Y-46.747 I1.269 J0.044
G1 X-589.525 Y-46.431
G3 X-588.35 Y-45.208 I-0.094 J1.267
G1 Y-44.794
X-588.357 Y-44.644
X-588.382 Y-44.496
X-588.422 Y-44.351
X-588.474 Y-44.211
X-588.537 Y-44.075
X-588.609 Y-43.943
X-588.688 Y-43.816
X-588.775 Y-43.694
X-588.868 Y-43.576
X-588.967 Y-43.463
X-589.071 Y-43.355
X-589.18 Y-43.252
X-589.293 Y-43.153
X-589.41 Y-43.06
X-589.531 Y-42.971
X-589.655 Y-42.887
X-589.783 Y-42.808
X-589.913 Y-42.734
X-590.046 Y-42.664
X-590.182 Y-42.6
X-590.319 Y-42.54
X-590.459 Y-42.485
X-590.6 Y-42.435
X-590.743 Y-42.39
X-590.888 Y-42.35
X-591.034 Y-42.314
X-591.18 Y-42.284
X-591.328 Y-42.259
X-591.477 Y-42.238
X-591.626 Y-42.223
X-591.776 Y-42.213
X-591.926 Y-42.208
X-592.076 Y-42.209
X-592.226 Y-42.214
X-592.375 Y-42.225
X-592.524 Y-42.242
X-592.672 Y-42.265
X-592.82 Y-42.293
X-592.966 Y-42.327
X-593.11 Y-42.368
X-593.253 Y-42.413
X-593.394 Y-42.465
X-593.768 Y-42.656
X-594.111 Y-42.899
X-594.414 Y-43.19
X-594.671 Y-43.522
X-594.877 Y-43.888
X-595.028 Y-44.28
X-595.119 Y-44.69
X-595.15 Y-45.109
G3 X-593.787 Y-46.331 I1.269 J0.044
G1 X-589.526 Y-46.016
G3 X-588.35 Y-44.794 I-0.094 J1.267
G1 Y-44.351
X-588.357 Y-44.201
X-588.383 Y-44.053
X-588.424 Y-43.909
X-588.477 Y-43.769
X-588.54 Y-43.633
X-588.612 Y-43.501
X-588.692 Y-43.374
X-588.779 Y-43.252
X-588.873 Y-43.135
X-588.972 Y-43.022
X-589.076 Y-42.914
X-589.185 Y-42.811
X-589.298 Y-42.712
X-589.415 Y-42.619
X-589.536 Y-42.53
X-589.66 Y-42.446
X-589.788 Y-42.367
X-589.918 Y-42.293
X-590.051 Y-42.223
X-590.186 Y-42.159
X-590.324 Y-42.099
X-590.463 Y-42.044
X-590.605 Y-41.994
X-590.748 Y-41.948
X-590.892 Y-41.908
X-591.038 Y-41.873
X-591.185 Y-41.842
X-591.333 Y-41.817
X-591.481 Y-41.797
X-591.63 Y-41.781
X-591.78 Y-41.771
X-591.93 Y-41.766
X-592.08 Y-41.767
X-592.23 Y-41.772
X-592.38 Y-41.784
X-592.529 Y-41.801
X-592.677 Y-41.824
X-592.824 Y-41.853
X-592.97 Y-41.887
X-593.114 Y-41.928
X-593.257 Y-41.975
X-593.398 Y-42.027
X-593.771 Y-42.22
X-594.113 Y-42.465
X-594.416 Y-42.757
X-594.672 Y-43.09
X-594.878 Y-43.457
X-595.028 Y-43.849
X-595.119 Y-44.26
X-595.15 Y-44.679
G3 X-593.783 Y-45.901 I1.269 J0.044
G1 X-589.522 Y-45.573
G3 X-588.35 Y-44.351 I-0.098 J1.266
G1 Y-43.943
X-588.357 Y-43.793
X-588.379 Y-43.645
X-588.417 Y-43.5
X-588.468 Y-43.359
X-588.529 Y-43.222
X-588.6 Y-43.089
X-588.678 Y-42.961
X-588.763 Y-42.838
X-588.855 Y-42.72
X-588.953 Y-42.606
X-589.056 Y-42.497
X-589.164 Y-42.393
X-589.276 Y-42.293
X-589.393 Y-42.198
X-589.513 Y-42.108
X-589.636 Y-42.023
X-589.763 Y-41.943
X-589.893 Y-41.868
X-590.025 Y-41.797
X-590.16 Y-41.731
X-590.297 Y-41.67
X-590.436 Y-41.614
X-590.577 Y-41.563
X-590.719 Y-41.516
X-590.864 Y-41.475
X-591.009 Y-41.438
X-591.156 Y-41.407
X-591.303 Y-41.381
X-591.452 Y-41.359
X-591.601 Y-41.343
X-591.751 Y-41.332
X-591.901 Y-41.326
X-592.051 Y-41.325
X-592.2 Y-41.33
X-592.35 Y-41.34
X-592.499 Y-41.357
X-592.648 Y-41.379
X-592.795 Y-41.406
X-592.941 Y-41.44
X-593.086 Y-41.48
X-593.229 Y-41.525
X-593.37 Y-41.577
X-593.508 Y-41.634
X-593.908 Y-41.862
X-594.266 Y-42.151
X-594.573 Y-42.494
X-594.82 Y-42.882
X-595.002 Y-43.305
X-595.113 Y-43.752
X-595.15 Y-44.21
G3 X-593.801 Y-45.434 I1.269 J0.044
G1 X-589.54 Y-45.166
G3 X-588.35 Y-43.943 I-0.079 J1.268
G1 Y-43.512
X-588.357 Y-43.362
X-588.379 Y-43.214
X-588.416 Y-43.068
X-588.466 Y-42.927
X-588.527 Y-42.79
X-588.597 Y-42.657
X-588.675 Y-42.529
X-588.76 Y-42.406
X-588.852 Y-42.287
X-588.949 Y-42.173
X-589.052 Y-42.063
X-589.159 Y-41.959
X-589.271 Y-41.859
X-589.387 Y-41.764
X-589.507 Y-41.674
X-589.63 Y-41.588
X-589.757 Y-41.507
X-589.886 Y-41.432
X-590.018 Y-41.361
X-590.153 Y-41.295
X-590.29 Y-41.233
X-590.429 Y-41.177
X-590.57 Y-41.125
X-590.712 Y-41.079
X-590.856 Y-41.037
X-591.002 Y-41
X-591.148 Y-40.968
X-591.296 Y-40.941
X-591.444 Y-40.92
X-591.594 Y-40.903
X-591.743 Y-40.892
X-591.893 Y-40.886
X-592.043 Y-40.885
X-592.193 Y-40.89
X-592.343 Y-40.9
X-592.492 Y-40.915
X-592.64 Y-40.937
X-592.788 Y-40.964
X-592.934 Y-40.997
X-593.079 Y-41.036
X-593.222 Y-41.081
X-593.363 Y-41.132
X-593.502 Y-41.188
X-593.903 Y-41.412
X-594.262 Y-41.699
X-594.57 Y-42.04
X-594.819 Y-42.426
X-595.001 Y-42.848
X-595.113 Y-43.293
X-595.15 Y-43.751
Y-44.21
G3 X-593.675 Y-45.419 I1.269 J0.044
G1 X-589.414 Y-44.721
G3 X-588.35 Y-43.512 I-0.205 J1.253
G1 Y-43.052
X-588.357 Y-42.903
X-588.382 Y-42.754
X-588.421 Y-42.61
X-588.473 Y-42.469
X-588.536 Y-42.333
X-588.607 Y-42.201
X-588.686 Y-42.073
X-588.772 Y-41.95
X-588.864 Y-41.832
X-588.962 Y-41.719
X-589.066 Y-41.61
X-589.174 Y-41.506
X-589.286 Y-41.407
X-589.403 Y-41.312
X-589.523 Y-41.222
X-589.647 Y-41.138
X-589.774 Y-41.058
X-589.903 Y-40.982
X-590.036 Y-40.912
X-590.171 Y-40.846
X-590.308 Y-40.786
X-590.447 Y-40.73
X-590.588 Y-40.679
X-590.731 Y-40.633
X-590.875 Y-40.592
X-591.021 Y-40.556
X-591.167 Y-40.524
X-591.315 Y-40.498
X-591.464 Y-40.477
X-591.613 Y-40.461
X-591.762 Y-40.451
X-591.912 Y-40.445
X-592.062
X-592.212 Y-40.45
X-592.362 Y-40.46
X-592.511 Y-40.476
X-592.659 Y-40.498
X-592.807 Y-40.526
X-592.953 Y-40.559
X-593.098 Y-40.598
X-593.241 Y-40.644
X-593.382 Y-40.695
X-593.521 Y-40.752
X-593.917 Y-40.976
X-594.273 Y-41.261
X-594.577 Y-41.6
X-594.823 Y-41.983
X-595.003 Y-42.402
X-595.113 Y-42.844
X-595.15 Y-43.298
Y-43.751
G3 X-593.675 Y-44.96 I1.269 J0.044
G1 X-589.414 Y-44.261
G3 X-588.35 Y-43.052 I-0.206 J1.253
G1 Y-42.631
X-588.357 Y-42.481
X-588.38 Y-42.332
X-588.417 Y-42.187
X-588.468 Y-42.046
X-588.529 Y-41.909
X-588.599 Y-41.776
X-588.677 Y-41.648
X-588.762 Y-41.525
X-588.854 Y-41.406
X-588.951 Y-41.292
X-589.054 Y-41.183
X-589.161 Y-41.078
X-589.273 Y-40.978
X-589.389 Y-40.883
X-589.509 Y-40.793
X-589.633 Y-40.707
X-589.759 Y-40.627
X-589.888 Y-40.551
X-590.021 Y-40.48
X-590.155 Y-40.414
X-590.292 Y-40.352
X-590.431 Y-40.296
X-590.572 Y-40.244
X-590.714 Y-40.198
X-590.858 Y-40.156
X-591.004 Y-40.119
X-591.15 Y-40.087
X-591.298 Y-40.06
X-591.446 Y-40.039
X-591.596 Y-40.022
X-591.745 Y-40.011
X-591.895 Y-40.004
X-592.045 Y-40.003
X-592.195 Y-40.007
X-592.345 Y-40.017
X-592.494 Y-40.032
X-592.642 Y-40.053
X-592.79 Y-40.08
X-592.936 Y-40.112
X-593.081 Y-40.15
X-593.225 Y-40.195
X-593.377 Y-40.25
X-593.754 Y-40.434
X-594.099 Y-40.672
X-594.405 Y-40.958
X-594.665 Y-41.287
X-594.874 Y-41.65
X-595.026 Y-42.041
X-595.119 Y-42.45
X-595.15 Y-42.868
Y-43.298
G3 X-593.684 Y-44.508 I1.269 J0.044
G1 X-589.423 Y-43.841
G3 X-588.35 Y-42.631 I-0.196 J1.255
G1 Y-42.185
X-588.357 Y-42.036
X-588.38 Y-41.887
X-588.419 Y-41.742
X-588.47 Y-41.601
X-588.531 Y-41.464
X-588.602 Y-41.332
X-588.68 Y-41.204
X-588.765 Y-41.081
X-588.857 Y-40.962
X-588.955 Y-40.848
X-589.057 Y-40.739
X-589.165 Y-40.635
X-589.277 Y-40.535
X-589.393 Y-40.44
X-589.513 Y-40.35
X-589.637 Y-40.265
X-589.763 Y-40.184
X-589.893 Y-40.108
X-590.025 Y-40.038
X-590.16 Y-39.972
X-590.297 Y-39.91
X-590.436 Y-39.854
X-590.577 Y-39.802
X-590.719 Y-39.756
X-590.863 Y-39.714
X-591.009 Y-39.677
X-591.155 Y-39.645
X-591.303 Y-39.619
X-591.451 Y-39.597
X-591.6 Y-39.58
X-591.75 Y-39.569
X-591.9 Y-39.562
X-592.05 Y-39.561
X-592.2 Y-39.565
X-592.349 Y-39.575
X-592.498 Y-39.591
X-592.647 Y-39.612
X-592.794 Y-39.639
X-592.941 Y-39.672
X-593.086 Y-39.711
X-593.229 Y-39.755
X-593.37 Y-39.806
X-593.749 Y-39.995
X-594.096 Y-40.238
X-594.403 Y-40.529
X-594.664 Y-40.862
X-594.873 Y-41.23
X-595.026 Y-41.625
X-595.119 Y-42.038
X-595.15 Y-42.46
Y-42.868
G3 X-593.68 Y-44.077 I1.269 J0.044
G1 X-589.418 Y-43.395
G3 X-588.35 Y-42.185 I-0.201 J1.254
G1 Y-41.729
X-588.357 Y-41.579
X-588.383 Y-41.431
X-588.423 Y-41.287
X-588.475 Y-41.146
X-588.538 Y-41.01
X-588.609 Y-40.878
X-588.688 Y-40.751
X-588.774 Y-40.628
X-588.867 Y-40.51
X-588.965 Y-40.396
X-589.068 Y-40.288
X-589.177 Y-40.184
X-589.289 Y-40.085
X-589.406 Y-39.99
X-589.526 Y-39.901
X-589.65 Y-39.816
X-589.776 Y-39.736
X-589.906 Y-39.661
X-590.039 Y-39.59
X-590.174 Y-39.524
X-590.311 Y-39.464
X-590.45 Y-39.408
X-590.591 Y-39.357
X-590.734 Y-39.31
X-590.878 Y-39.269
X-591.023 Y-39.233
X-591.17 Y-39.201
X-591.318 Y-39.175
X-591.466 Y-39.154
X-591.615 Y-39.138
X-591.765 Y-39.127
X-591.915 Y-39.121
X-592.065 Y-39.12
X-592.215 Y-39.125
X-592.364 Y-39.135
X-592.513 Y-39.152
X-592.662 Y-39.174
X-592.809 Y-39.202
X-592.955 Y-39.236
X-593.1 Y-39.276
X-593.243 Y-39.322
X-593.384 Y-39.373
X-593.76 Y-39.565
X-594.104 Y-39.81
X-594.409 Y-40.103
X-594.668 Y-40.437
X-594.876 Y-40.805
X-595.027 Y-41.199
X-595.119 Y-41.612
X-595.15 Y-42.033
Y-42.46
G3 X-593.666 Y-43.668 I1.269 J0.044
G1 X-589.404 Y-42.936
G3 X-588.35 Y-41.729 I-0.215 J1.252
G1 Y-41.315
X-588.357 Y-41.165
X-588.379 Y-41.017
X-588.417 Y-40.871
X-588.467 Y-40.73
X-588.527 Y-40.593
X-588.597 Y-40.46
X-588.675 Y-40.332
X-588.76 Y-40.208
X-588.851 Y-40.089
X-588.949 Y-39.975
X-589.051 Y-39.865
X-589.158 Y-39.761
X-589.27 Y-39.661
X-589.386 Y-39.565
X-589.506 Y-39.475
X-589.629 Y-39.389
X-589.755 Y-39.308
X-589.884 Y-39.232
X-590.016 Y-39.161
X-590.151 Y-39.094
X-590.287 Y-39.033
X-590.426 Y-38.976
X-590.567 Y-38.924
X-590.709 Y-38.877
X-590.853 Y-38.835
X-590.999 Y-38.797
X-591.145 Y-38.765
X-591.293 Y-38.738
X-591.441 Y-38.716
X-591.59 Y-38.699
X-591.74 Y-38.687
X-591.89 Y-38.681
X-592.04 Y-38.68
X-592.19 Y-38.684
X-592.339 Y-38.693
X-592.488 Y-38.709
X-592.637 Y-38.731
X-592.784 Y-38.758
X-592.931 Y-38.791
X-593.075 Y-38.83
X-593.218 Y-38.875
X-593.36 Y-38.926
X-593.498 Y-38.983
X-593.901 Y-39.21
X-594.261 Y-39.5
X-594.569 Y-39.843
X-594.818 Y-40.233
X-595.001 Y-40.657
X-595.112 Y-41.105
X-595.15 Y-41.566
Y-42.033
G3 X-593.67 Y-43.241 I1.269 J0.044
G1 X-589.408 Y-42.523
G3 X-588.35 Y-41.315 I-0.211 J1.252
G1 Y-40.855
X-588.357 Y-40.705
X-588.382 Y-40.557
X-588.421 Y-40.413
X-588.473 Y-40.272
X-588.535 Y-40.135
X-588.606 Y-40.003
X-588.685 Y-39.876
X-588.771 Y-39.753
X-588.863 Y-39.634
X-588.961 Y-39.521
X-589.064 Y-39.412
X-589.172 Y-39.307
X-589.284 Y-39.208
X-589.4 Y-39.113
X-589.521 Y-39.023
X-589.644 Y-38.938
X-589.771 Y-38.858
X-589.9 Y-38.782
X-590.033 Y-38.712
X-590.167 Y-38.646
X-590.304 Y-38.585
X-590.443 Y-38.529
X-590.584 Y-38.477
X-590.727 Y-38.431
X-590.871 Y-38.389
X-591.017 Y-38.353
X-591.163 Y-38.321
X-591.311 Y-38.295
X-591.459 Y-38.273
X-591.609 Y-38.257
X-591.758 Y-38.246
X-591.908 Y-38.241
X-592.058 Y-38.24
X-592.208 Y-38.245
X-592.358 Y-38.255
X-592.507 Y-38.271
X-592.655 Y-38.294
X-592.802 Y-38.322
X-592.949 Y-38.355
X-593.094 Y-38.394
X-593.236 Y-38.44
X-593.377 Y-38.491
X-593.516 Y-38.548
X-593.914 Y-38.773
X-594.27 Y-39.059
X-594.576 Y-39.4
X-594.822 Y-39.785
X-595.003 Y-40.205
X-595.113 Y-40.648
X-595.15 Y-41.104
Y-41.566
G3 X-593.672 Y-42.774 I1.269 J0.044
G1 X-589.41 Y-42.064
G3 X-588.35 Y-40.855 I-0.209 J1.253
G1 Y-40.432
X-588.357 Y-40.282
X-588.379 Y-40.133
X-588.417 Y-39.988
X-588.468 Y-39.847
X-588.529 Y-39.71
X-588.598 Y-39.577
X-588.676 Y-39.449
X-588.761 Y-39.325
X-588.853 Y-39.207
X-588.95 Y-39.092
X-589.053 Y-38.983
X-589.16 Y-38.878
X-589.272 Y-38.778
X-589.388 Y-38.683
X-589.507 Y-38.592
X-589.63 Y-38.507
X-589.757 Y-38.426
X-589.886 Y-38.35
X-590.018 Y-38.279
X-590.153 Y-38.212
X-590.289 Y-38.151
X-590.428 Y-38.094
X-590.569 Y-38.042
X-590.711 Y-37.995
X-590.855 Y-37.953
X-591.001 Y-37.916
X-591.147 Y-37.884
X-591.295 Y-37.857
X-591.443 Y-37.835
X-591.592 Y-37.819
X-591.742 Y-37.807
X-591.892 Y-37.801
X-592.042 Y-37.8
X-592.192 Y-37.804
X-592.341 Y-37.813
X-592.491 Y-37.828
X-592.639 Y-37.849
X-592.787 Y-37.877
X-592.933 Y-37.909
X-593.078 Y-37.947
X-593.221 Y-37.992
X-593.363 Y-38.042
X-593.502 Y-38.098
X-593.903 Y-38.32
X-594.262 Y-38.605
X-594.57 Y-38.945
X-594.819 Y-39.33
X-595.001 Y-39.751
X-595.112 Y-40.195
X-595.15 Y-40.652
Y-41.104
G3 X-593.683 Y-42.314 I1.269 J0.044
G1 X-589.421 Y-41.642
G3 X-588.35 Y-40.432 I-0.198 J1.254
G1 Y-39.974
X-588.357 Y-39.824
X-588.382 Y-39.676
X-588.421 Y-39.531
X-588.473 Y-39.391
X-588.535 Y-39.254
X-588.606 Y-39.122
X-588.685 Y-38.994
X-588.771 Y-38.871
X-588.863 Y-38.753
X-588.961 Y-38.639
X-589.064 Y-38.53
X-589.172 Y-38.426
X-589.284 Y-38.327
X-589.401 Y-38.232
X-589.521 Y-38.142
X-589.644 Y-38.057
X-589.771 Y-37.977
X-589.901 Y-37.901
X-590.033 Y-37.831
X-590.168 Y-37.765
X-590.305 Y-37.704
X-590.444 Y-37.648
X-590.585 Y-37.596
X-590.727 Y-37.55
X-590.872 Y-37.509
X-591.017 Y-37.472
X-591.164 Y-37.441
X-591.311 Y-37.414
X-591.46 Y-37.393
X-591.609 Y-37.376
X-591.759 Y-37.365
X-591.908 Y-37.359
X-592.058 Y-37.358
X-592.208 Y-37.363
X-592.358 Y-37.373
X-592.507 Y-37.388
X-592.656 Y-37.41
X-592.803 Y-37.438
X-592.95 Y-37.47
X-593.094 Y-37.509
X-593.237 Y-37.554
X-593.379 Y-37.605
X-593.397 Y-37.612
X-593.77 Y-37.796
X-594.111 Y-38.033
X-594.414 Y-38.317
X-594.671 Y-38.644
X-594.877 Y-39.004
X-595.028 Y-39.391
X-595.119 Y-39.797
X-595.15 Y-40.211
Y-40.652
G3 X-593.681 Y-41.862 I1.269 J0.044
G1 X-589.42 Y-41.184
G3 X-588.35 Y-39.974 I-0.2 J1.254
G1 Y-39.535
X-588.357 Y-39.385
X-588.381 Y-39.237
X-588.421 Y-39.092
X-588.472 Y-38.952
X-588.534 Y-38.815
X-588.605 Y-38.683
X-588.684 Y-38.555
X-588.77 Y-38.432
X-588.862 Y-38.314
X-588.96 Y-38.2
X-589.063 Y-38.091
X-589.171 Y-37.987
X-589.283 Y-37.887
X-589.399 Y-37.792
X-589.519 Y-37.703
X-589.643 Y-37.617
X-589.77 Y-37.537
X-589.899 Y-37.462
X-590.031 Y-37.391
X-590.166 Y-37.325
X-590.303 Y-37.264
X-590.442 Y-37.208
X-590.583 Y-37.156
X-590.726 Y-37.11
X-590.87 Y-37.068
X-591.015 Y-37.031
X-591.162 Y-37
X-591.31 Y-36.973
X-591.458 Y-36.952
X-591.607 Y-36.935
X-591.757 Y-36.924
X-591.906 Y-36.918
X-592.057 Y-36.917
X-592.206 Y-36.921
X-592.356 Y-36.931
X-592.505 Y-36.947
X-592.654 Y-36.968
X-592.801 Y-36.995
X-592.948 Y-37.028
X-593.092 Y-37.067
X-593.236 Y-37.112
X-593.377 Y-37.162
X-593.754 Y-37.35
X-594.1 Y-37.593
X-594.406 Y-37.883
X-594.666 Y-38.215
X-594.874 Y-38.582
X-595.026 Y-38.975
X-595.119 Y-39.386
X-595.15 Y-39.807
Y-40.211
G3 X-593.682 Y-41.421 I1.269 J0.044
G1 X-589.42 Y-40.745
G3 X-588.35 Y-39.535 I-0.199 J1.254
G1 Y-39.107
X-588.357 Y-38.957
X-588.38 Y-38.809
X-588.418 Y-38.664
X-588.469 Y-38.522
X-588.53 Y-38.385
X-588.6 Y-38.253
X-588.678 Y-38.125
X-588.763 Y-38.001
X-588.855 Y-37.883
X-588.952 Y-37.768
X-589.055 Y-37.659
X-589.162 Y-37.554
X-589.274 Y-37.455
X-589.39 Y-37.359
X-589.51 Y-37.269
X-589.633 Y-37.184
X-589.759 Y-37.103
X-589.889 Y-37.027
X-590.021 Y-36.956
X-590.155 Y-36.889
X-590.292 Y-36.828
X-590.431 Y-36.771
X-590.572 Y-36.719
X-590.714 Y-36.672
X-590.858 Y-36.63
X-591.003 Y-36.593
X-591.15 Y-36.561
X-591.297 Y-36.534
X-591.446 Y-36.512
X-591.595 Y-36.495
X-591.744 Y-36.483
X-591.894 Y-36.477
X-592.044 Y-36.475
X-592.194 Y-36.479
X-592.344 Y-36.488
X-592.493 Y-36.504
X-592.642 Y-36.525
X-592.789 Y-36.552
X-592.936 Y-36.585
X-593.08 Y-36.624
X-593.224 Y-36.669
X-593.365 Y-36.719
X-593.745 Y-36.91
X-594.093 Y-37.154
X-594.401 Y-37.447
X-594.662 Y-37.782
X-594.872 Y-38.151
X-595.025 Y-38.548
X-595.119 Y-38.963
X-595.15 Y-39.386
Y-39.807
G3 X-593.675 Y-41.016 I1.269 J0.044
G1 X-589.413 Y-40.316
G3 X-588.35 Y-39.107 I-0.206 J1.253
G1 Y-38.658
X-588.357 Y-38.508
X-588.381 Y-38.36
X-588.42 Y-38.215
X-588.471 Y-38.074
X-588.533 Y-37.938
X-588.604 Y-37.805
X-588.682 Y-37.677
X-588.768 Y-37.554
X-588.86 Y-37.436
X-588.957 Y-37.322
X-589.06 Y-37.213
X-589.168 Y-37.108
X-589.28 Y-37.009
X-589.396 Y-36.914
X-589.516 Y-36.824
X-589.639 Y-36.738
X-589.766 Y-36.658
X-589.895 Y-36.582
X-590.028 Y-36.511
X-590.162 Y-36.445
X-590.299 Y-36.384
X-590.438 Y-36.327
X-590.579 Y-36.276
X-590.721 Y-36.229
X-590.866 Y-36.187
X-591.011 Y-36.15
X-591.157 Y-36.118
X-591.305 Y-36.091
X-591.453 Y-36.07
X-591.603 Y-36.053
X-591.752 Y-36.042
X-591.902 Y-36.036
X-592.052 Y-36.035
X-592.202 Y-36.039
X-592.352 Y-36.049
X-592.501 Y-36.065
X-592.649 Y-36.087
X-592.797 Y-36.115
X-592.943 Y-36.148
X-593.087 Y-36.188
X-593.23 Y-36.234
X-593.371 Y-36.285
X-593.75 Y-36.477
X-594.097 Y-36.723
X-594.404 Y-37.017
X-594.665 Y-37.352
X-594.874 Y-37.722
X-595.026 Y-38.119
X-595.119 Y-38.533
X-595.15 Y-38.957
Y-39.386
G3 X-593.667 Y-40.594 I1.269 J0.044
G1 X-589.405 Y-39.866
G3 X-588.35 Y-38.658 I-0.214 J1.252
G1 Y-38.221
X-588.357 Y-38.071
X-588.38 Y-37.923
X-588.419 Y-37.778
X-588.47 Y-37.637
X-588.532 Y-37.5
X-588.602 Y-37.368
X-588.68 Y-37.24
X-588.766 Y-37.117
X-588.857 Y-36.998
X-588.955 Y-36.884
X-589.058 Y-36.775
X-589.165 Y-36.67
X-589.277 Y-36.57
X-589.393 Y-36.475
X-589.513 Y-36.385
X-589.636 Y-36.299
X-589.763 Y-36.219
X-589.892 Y-36.143
X-590.024 Y-36.072
X-590.159 Y-36.006
X-590.296 Y-35.944
X-590.435 Y-35.888
X-590.575 Y-35.836
X-590.718 Y-35.789
X-590.862 Y-35.747
X-591.007 Y-35.71
X-591.154 Y-35.678
X-591.301 Y-35.652
X-591.45 Y-35.63
X-591.599 Y-35.613
X-591.748 Y-35.602
X-591.898 Y-35.596
X-592.048 Y-35.595
X-592.198 Y-35.599
X-592.348 Y-35.609
X-592.497 Y-35.626
X-592.645 Y-35.648
X-592.793 Y-35.675
X-592.939 Y-35.709
X-593.084 Y-35.749
X-593.227 Y-35.795
X-593.367 Y-35.846
X-593.506 Y-35.904
X-593.906 Y-36.132
X-594.265 Y-36.421
X-594.572 Y-36.764
X-594.82 Y-37.153
X-595.002 Y-37.576
X-595.113 Y-38.024
X-595.15 Y-38.483
Y-38.957
G3 X-593.665 Y-40.164 I1.269 J0.044
G1 X-589.403 Y-39.428
G3 X-588.35 Y-38.221 I-0.216 J1.251
G1 Y-37.775
X-588.357 Y-37.625
X-588.381 Y-37.477
X-588.42 Y-37.332
X-588.472 Y-37.191
X-588.534 Y-37.055
X-588.604 Y-36.922
X-588.683 Y-36.794
X-588.769 Y-36.671
X-588.861 Y-36.553
X-588.958 Y-36.439
X-589.061 Y-36.33
X-589.169 Y-36.226
X-589.281 Y-36.126
X-589.397 Y-36.031
X-589.517 Y-35.941
X-589.641 Y-35.856
X-589.767 Y-35.775
X-589.897 Y-35.699
X-590.029 Y-35.629
X-590.163 Y-35.563
X-590.3 Y-35.501
X-590.439 Y-35.445
X-590.58 Y-35.394
X-590.723 Y-35.347
X-590.867 Y-35.305
X-591.013 Y-35.269
X-591.159 Y-35.237
X-591.307 Y-35.211
X-591.455 Y-35.189
X-591.604 Y-35.173
X-591.754 Y-35.162
X-591.904 Y-35.156
X-592.054
X-592.204 Y-35.161
X-592.353 Y-35.171
X-592.503 Y-35.187
X-592.651 Y-35.209
X-592.798 Y-35.237
X-592.945 Y-35.27
X-593.089 Y-35.309
X-593.232 Y-35.355
X-593.373 Y-35.406
X-593.512 Y-35.463
X-593.911 Y-35.688
X-594.268 Y-35.974
X-594.574 Y-36.315
X-594.821 Y-36.7
X-595.002 Y-37.121
X-595.113 Y-37.565
X-595.15 Y-38.021
Y-38.483
G3 X-593.673 Y-39.691 I1.269 J0.044
G1 X-589.411 Y-38.983
G3 X-588.35 Y-37.775 I-0.208 J1.253
G1 Y-37.345
X-588.357 Y-37.196
X-588.38 Y-37.047
X-588.418 Y-36.902
X-588.468 Y-36.761
X-588.529 Y-36.624
X-588.599 Y-36.491
X-588.677 Y-36.363
X-588.762 Y-36.24
X-588.854 Y-36.121
X-588.951 Y-36.007
X-589.054 Y-35.897
X-589.161 Y-35.792
X-589.273 Y-35.692
X-589.389 Y-35.597
X-589.508 Y-35.507
X-589.632 Y-35.421
X-589.758 Y-35.34
X-589.887 Y-35.264
X-590.019 Y-35.193
X-590.154 Y-35.127
X-590.291 Y-35.065
X-590.429 Y-35.009
X-590.57 Y-34.957
X-590.713 Y-34.91
X-590.857 Y-34.868
X-591.002 Y-34.831
X-591.149 Y-34.799
X-591.296 Y-34.772
X-591.445 Y-34.751
X-591.594 Y-34.734
X-591.743 Y-34.723
X-591.893 Y-34.716
X-592.043 Y-34.715
X-592.193 Y-34.72
X-592.343 Y-34.729
X-592.492 Y-34.744
X-592.641 Y-34.766
X-592.788 Y-34.793
X-592.935 Y-34.825
X-593.08 Y-34.864
X-593.223 Y-34.908
X-593.364 Y-34.959
X-593.503 Y-35.015
X-593.517 Y-35.021
X-593.914 Y-35.242
X-594.27 Y-35.525
X-594.575 Y-35.861
X-594.822 Y-36.243
X-595.002 Y-36.66
X-595.113 Y-37.101
X-595.15 Y-37.554
Y-38.021
G3 X-593.682 Y-39.231 I1.269 J0.044
G1 X-589.42 Y-38.555
G3 X-588.35 Y-37.345 I-0.199 J1.254
G1 Y-36.914
X-588.357 Y-36.764
X-588.378 Y-36.616
X-588.416 Y-36.471
X-588.465 Y-36.329
X-588.526 Y-36.192
X-588.595 Y-36.059
X-588.672 Y-35.93
X-588.757 Y-35.806
X-588.848 Y-35.687
X-588.945 Y-35.573
X-589.047 Y-35.463
X-589.154 Y-35.358
X-589.266 Y-35.258
X-589.382 Y-35.162
X-589.501 Y-35.072
X-589.624 Y-34.986
X-589.75 Y-34.905
X-589.88 Y-34.828
X-590.011 Y-34.757
X-590.146 Y-34.69
X-590.283 Y-34.629
X-590.421 Y-34.572
X-590.562 Y-34.52
X-590.704 Y-34.473
X-590.848 Y-34.43
X-590.994 Y-34.393
X-591.14 Y-34.361
X-591.288 Y-34.334
X-591.436 Y-34.311
X-591.585 Y-34.294
X-591.735 Y-34.282
X-591.884 Y-34.276
X-592.034 Y-34.274
X-592.184 Y-34.278
X-592.334 Y-34.287
X-592.483 Y-34.301
X-592.632 Y-34.322
X-592.78 Y-34.349
X-592.926 Y-34.38
X-593.071 Y-34.418
X-593.215 Y-34.462
X-593.356 Y-34.511
X-593.737 Y-34.695
X-594.086 Y-34.934
X-594.396 Y-35.222
X-594.659 Y-35.553
X-594.87 Y-35.919
X-595.024 Y-36.313
X-595.118 Y-36.725
X-595.15 Y-37.147
Y-37.554
G3 X-593.692 Y-38.766 I1.269 J0.044
G1 X-589.431 Y-38.126
G3 X-588.35 Y-36.914 I-0.189 J1.256
G1 Y-36.45
X-588.357 Y-36.3
X-588.382 Y-36.152
X-588.421 Y-36.008
X-588.473 Y-35.867
X-588.535 Y-35.73
X-588.606 Y-35.598
X-588.684 Y-35.47
X-588.77 Y-35.347
X-588.862 Y-35.229
X-588.96 Y-35.115
X-589.063 Y-35.006
X-589.171 Y-34.902
X-589.283 Y-34.802
X-589.399 Y-34.708
X-589.52 Y-34.618
X-589.643 Y-34.533
X-589.77 Y-34.452
X-589.899 Y-34.377
X-590.032 Y-34.306
X-590.167 Y-34.24
X-590.304 Y-34.179
X-590.443 Y-34.123
X-590.584 Y-34.072
X-590.726 Y-34.025
X-590.87 Y-33.984
X-591.016 Y-33.947
X-591.162 Y-33.916
X-591.31 Y-33.889
X-591.458 Y-33.867
X-591.608 Y-33.851
X-591.757 Y-33.84
X-591.907 Y-33.833
X-592.057 Y-33.832
X-592.207 Y-33.837
X-592.357 Y-33.847
X-592.506 Y-33.863
X-592.654 Y-33.884
X-592.802 Y-33.911
X-592.948 Y-33.945
X-593.093 Y-33.984
X-593.236 Y-34.029
X-593.377 Y-34.08
X-593.754 Y-34.27
X-594.1 Y-34.513
X-594.406 Y-34.804
X-594.666 Y-35.138
X-594.874 Y-35.505
X-595.026 Y-35.9
X-595.119 Y-36.312
X-595.15 Y-36.733
Y-37.147
G3 X-593.676 Y-38.356 I1.269 J0.044
G1 X-589.414 Y-37.659
G3 X-588.35 Y-36.45 I-0.205 J1.253
G1 Y-36.001
X-588.357 Y-35.852
X-588.383 Y-35.704
X-588.423 Y-35.559
X-588.475 Y-35.419
X-588.538 Y-35.282
X-588.609 Y-35.15
X-588.688 Y-35.023
X-588.774 Y-34.9
X-588.867 Y-34.782
X-588.965 Y-34.669
X-589.068 Y-34.56
X-589.177 Y-34.456
X-589.289 Y-34.357
X-589.406 Y-34.262
X-589.526 Y-34.173
X-589.65 Y-34.088
X-589.776 Y-34.008
X-589.906 Y-33.932
X-590.039 Y-33.862
X-590.174 Y-33.796
X-590.311 Y-33.736
X-590.45 Y-33.68
X-590.591 Y-33.628
X-590.733 Y-33.582
X-590.878 Y-33.541
X-591.023 Y-33.504
X-591.17 Y-33.473
X-591.317 Y-33.446
X-591.466 Y-33.425
X-591.615 Y-33.409
X-591.765 Y-33.398
X-591.915 Y-33.392
X-592.065
X-592.214 Y-33.396
X-592.364 Y-33.407
X-592.513 Y-33.423
X-592.662 Y-33.446
X-592.809 Y-33.473
X-592.955 Y-33.507
X-593.1 Y-33.547
X-593.242 Y-33.593
X-593.383 Y-33.645
X-593.76 Y-33.837
X-594.104 Y-34.082
X-594.409 Y-34.374
X-594.668 Y-34.708
X-594.875 Y-35.077
X-595.027 Y-35.471
X-595.119 Y-35.884
X-595.15 Y-36.305
Y-36.733
G3 X-593.666 Y-37.941 I1.269 J0.044
G1 X-589.404 Y-37.209
G3 X-588.35 Y-36.001 I-0.215 J1.252
G1 Y-35.593
X-588.357 Y-35.444
X-588.378 Y-35.295
X-588.415 Y-35.15
X-588.465 Y-35.008
X-588.525 Y-34.871
X-588.594 Y-34.738
X-588.672 Y-34.609
X-588.756 Y-34.485
X-588.848 Y-34.366
X-588.945 Y-34.252
X-589.047 Y-34.142
X-589.154 Y-34.037
X-589.266 Y-33.937
X-589.381 Y-33.841
X-589.501 Y-33.751
X-589.624 Y-33.665
X-589.75 Y-33.583
X-589.879 Y-33.507
X-590.011 Y-33.436
X-590.145 Y-33.369
X-590.282 Y-33.307
X-590.42 Y-33.25
X-590.561 Y-33.198
X-590.703 Y-33.15
X-590.847 Y-33.108
X-590.992 Y-33.07
X-591.139 Y-33.038
X-591.286 Y-33.011
X-591.435 Y-32.988
X-591.584 Y-32.971
X-591.733 Y-32.959
X-591.883 Y-32.953
X-592.033 Y-32.951
X-592.183 Y-32.955
X-592.333 Y-32.964
X-592.482 Y-32.98
X-592.63 Y-33.001
X-592.778 Y-33.028
X-592.924 Y-33.061
X-593.069 Y-33.1
X-593.212 Y-33.145
X-593.354 Y-33.195
X-593.492 Y-33.252
X-593.896 Y-33.479
X-594.257 Y-33.769
X-594.567 Y-34.113
X-594.817 Y-34.503
X-595 Y-34.929
X-595.112 Y-35.378
X-595.15 Y-35.84
Y-36.305
G3 X-593.672 Y-37.514 I1.269 J0.044
G1 X-589.41 Y-36.802
G3 X-588.35 Y-35.593 I-0.209 J1.253
G1 Y-35.118
X-588.357 Y-34.968
X-588.383 Y-34.821
X-588.424 Y-34.676
X-588.476 Y-34.536
X-588.539 Y-34.399
X-588.61 Y-34.267
X-588.69 Y-34.14
X-588.776 Y-34.017
X-588.868 Y-33.899
X-588.966 Y-33.786
X-589.07 Y-33.677
X-589.178 Y-33.573
X-589.291 Y-33.474
X-589.407 Y-33.38
X-589.527 Y-33.29
X-589.651 Y-33.205
X-589.778 Y-33.125
X-589.908 Y-33.05
X-590.04 Y-32.98
X-590.175 Y-32.914
X-590.312 Y-32.853
X-590.451 Y-32.797
X-590.592 Y-32.746
X-590.735 Y-32.7
X-590.879 Y-32.659
X-591.025 Y-32.622
X-591.172 Y-32.591
X-591.319 Y-32.565
X-591.468 Y-32.544
X-591.617 Y-32.528
X-591.767 Y-32.518
X-591.917 Y-32.512
X-592.067
X-592.216 Y-32.517
X-592.366 Y-32.528
X-592.515 Y-32.544
X-592.663 Y-32.567
X-592.811 Y-32.595
X-592.957 Y-32.629
X-593.102 Y-32.668
X-593.244 Y-32.715
X-593.385 Y-32.766
X-593.524 Y-32.823
X-593.92 Y-33.049
X-594.275 Y-33.336
X-594.579 Y-33.676
X-594.824 Y-34.06
X-595.003 Y-34.479
X-595.113 Y-34.922
X-595.15 Y-35.377
Y-35.84
G3 X-593.669 Y-37.047 I1.269 J0.044
G1 X-589.407 Y-36.326
G3 X-588.35 Y-35.118 I-0.212 J1.252
G1 Y-34.689
X-588.357 Y-34.539
X-588.381 Y-34.391
X-588.421 Y-34.246
X-588.472 Y-34.105
X-588.534 Y-33.969
X-588.605 Y-33.836
X-588.684 Y-33.709
X-588.769 Y-33.585
X-588.861 Y-33.467
X-589.186 Y-33.141
X-589.553 Y-32.864
X-589.956 Y-32.643
X-590.387 Y-32.481
X-590.837 Y-32.383
X-591.296 Y-32.35
G3 X-593.296 Y-35.86 I0.083 J-2.372
X-588.35 Y-34.689 I2.312 J1.263
G1 Y-34.257
X-588.357 Y-34.108
X-588.38 Y-33.959
X-588.419 Y-33.814
X-588.472 Y-33.674
X-588.534 Y-33.538
X-588.765 Y-33.199
X-589.052 Y-32.907
X-589.386 Y-32.669
X-589.756 Y-32.494
X-590.151 Y-32.386
X-590.56 Y-32.35
G3 X-592.225 Y-35 I0.066 J-1.89
X-588.35 Y-34.257 I1.853 J0.813
G1 Y-33.836
X-588.357 Y-33.686
X-588.384 Y-33.538
X-588.43 Y-33.395
X-588.488 Y-33.257
X-588.66 Y-32.999
X-588.875 Y-32.776
X-589.126 Y-32.594
X-589.405 Y-32.46
X-589.704 Y-32.378
X-590.013 Y-32.35
G3 X-591.321 Y-34.349 I0.051 J-1.461
X-588.35 Y-33.836 I1.432 J0.567
G1 X-588.352 Y-33.569
X-588.375 Y-33.379
X-588.429 Y-33.19
X-588.518 Y-33
X-588.555 Y-32.939
X-588.678 Y-32.78
X-588.85 Y-32.62
X-588.936 Y-32.559
X-589.127 Y-32.455
X-589.317 Y-32.39
X-589.508 Y-32.356
X-589.698 Y-32.35
X-592.668
X-592.818 Y-32.357
X-592.968 Y-32.37
X-593.116 Y-32.391
X-593.263 Y-32.421
X-593.655 Y-32.562
X-594.019 Y-32.766
X-594.345 Y-33.026
X-594.624 Y-33.336
X-594.85 Y-33.686
X-595.015 Y-34.069
X-595.116 Y-34.474
X-595.15 Y-34.889
G3 X-592.085 Y-37.118 I2.404 J0.084
X-592.668 Y-32.35 I-0.668 J2.338
G1 X-593.322
X-593.472 Y-32.357
X-593.62 Y-32.376
X-593.766 Y-32.412
X-593.909 Y-32.458
X-594.257 Y-32.648
X-594.562 Y-32.901
X-594.812 Y-33.209
X-594.997 Y-33.56
X-595.111 Y-33.939
X-595.15 Y-34.334
G3 X-592.761 Y-35.955 I1.787 J0.062
X-593.322 Y-32.35 I-0.625 J1.749
G1 X-593.769
X-593.918 Y-32.358
X-594.066 Y-32.384
X-594.21 Y-32.427
X-594.474 Y-32.574
X-594.705 Y-32.768
X-594.894 Y-33.004
X-595.034 Y-33.271
X-595.121 Y-33.56
X-595.15 Y-33.861
G3 X-593.331 Y-35.084 I1.353 J0.047
X-593.769 Y-32.35 I-0.486 J1.324
G1 X-593.888
X-594.079 Y-32.367
X-594.269 Y-32.415
X-594.459 Y-32.496
X-594.555 Y-32.551
X-594.652 Y-32.62
X-594.75 Y-32.706
X-594.849 Y-32.81
X-594.922 Y-32.905
X-594.982 Y-33
X-595.031 Y-33.094
X-595.087 Y-33.237
X-595.125 Y-33.379
X-595.148 Y-33.569
X-595.15 Y-33.759
Y-35.377
X-595.133 Y-35.484 Z-25.492
X-595.116 Y-35.589 Z-25.47
X-595.099 Y-35.69 Z-25.433
X-595.063 Y-35.774 Z-25.385
X-595.029 Y-35.851 Z-25.325
X-594.999 Y-35.92 Z-25.255
X-594.973 Y-35.981 Z-25.175
X-594.943 Y-36.024 Z-25.092
X-594.92 Y-36.059 Z-25.003
X-594.903 Y-36.084 Z-24.909
X-594.893 Y-36.099 Z-24.813
X-594.889 Y-36.104 Z-24.715
G0 Z5
X-404.188 Y-50.569
Z3.82
G1 Z2.55 F849.6
Z-25.5 F283.3
X-404.075 Y-50.521 F849.6
X-403.963 Y-50.458
X-403.807 Y-50.345
X-403.766 Y-50.304
X-403.749 Y-50.285
X-403.885 Y-50.223
X-404.025 Y-50.169
X-404.167 Y-50.12
X-404.33 Y-50.07
X-404.53 Y-50.015
X-404.773 Y-49.955
X-405.071 Y-49.89
X-405.442 Y-49.82
X-405.91 Y-49.746
X-406.518 Y-49.667
X-407.344 Y-49.583
X-408.558 Y-49.495
X-408.843 Y-49.483
X-409.038 Y-49.507
X-409.215 Y-49.596
X-409.352 Y-49.737
X-409.434 Y-49.917
X-409.452 Y-50.113
X-409.404 Y-50.304
X-409.295 Y-50.469
X-409.138 Y-50.587
X-408.95 Y-50.647
X-408.164 Y-50.646
X-404.622 Y-50.638
G3 X-403.766 Y-50.304 I-0.003 J1.27
G1 X-403.672 Y-50.212
X-403.615 Y-50.139
X-403.598 Y-50.113
X-403.72 Y-50.028
X-403.847 Y-49.947
X-403.977 Y-49.873
X-404.11 Y-49.802
X-404.25 Y-49.733
X-404.404 Y-49.662
X-404.588 Y-49.584
X-404.779 Y-49.509
X-405.012 Y-49.425
X-405.27 Y-49.341
X-405.559 Y-49.255
X-405.918 Y-49.16
X-406.305 Y-49.069
X-406.636 Y-49
X-406.881 Y-48.957
X-407.091 Y-48.926
X-407.289 Y-48.903
X-407.455 Y-48.888
X-407.605 Y-48.879
X-407.755 Y-48.874
X-407.905
X-408.15 Y-48.92
X-408.373 Y-49.032
X-408.556 Y-49.201
X-408.685 Y-49.415
X-408.749 Y-49.656
X-408.743 Y-49.905
X-408.669 Y-50.143
X-408.531 Y-50.351
X-408.341 Y-50.513
X-408.114 Y-50.615
X-407.867 Y-50.65
G3 X-403.641 Y-50.154 I-0.907 J25.984
G1 X-403.627 Y-50.149
X-403.615 Y-50.139
X-403.569 Y-50.079
X-403.487 Y-49.94
X-403.468 Y-49.898
X-403.459 Y-49.873
X-403.571 Y-49.773
X-403.687 Y-49.678
X-403.806 Y-49.587
X-403.928 Y-49.5
X-404.053 Y-49.417
X-404.193 Y-49.329
X-404.342 Y-49.242
X-404.507 Y-49.152
X-404.688 Y-49.059
X-404.876 Y-48.97
X-405.069 Y-48.884
X-405.265 Y-48.804
X-405.464 Y-48.729
X-405.66 Y-48.662
X-405.852 Y-48.601
X-406.04 Y-48.549
X-406.209 Y-48.506
X-406.355 Y-48.474
X-406.503 Y-48.445
X-406.651 Y-48.422
X-406.8 Y-48.404
X-406.949 Y-48.39
X-407.099 Y-48.383
X-407.249 Y-48.382
X-407.536 Y-48.434
X-407.799 Y-48.558
X-408.023 Y-48.745
X-408.192 Y-48.982
X-408.295 Y-49.255
X-408.325 Y-49.545
X-408.28 Y-49.833
X-408.163 Y-50.1
X-407.982 Y-50.328
X-407.749 Y-50.503
X-407.479 Y-50.613
X-407.19 Y-50.65
G3 X-403.51 Y-49.936 I-0.419 J11.993
G1 X-403.486 Y-49.921
X-403.468 Y-49.898
X-403.426 Y-49.801
X-403.394 Y-49.699
X-403.383 Y-49.642
X-403.38 Y-49.617
X-403.474 Y-49.5
X-403.574 Y-49.388
X-403.679 Y-49.281
X-403.788 Y-49.178
X-403.9 Y-49.079
X-404.016 Y-48.983
X-404.135 Y-48.892
X-404.257 Y-48.804
X-404.381 Y-48.72
X-404.508 Y-48.64
X-404.637 Y-48.563
X-404.767 Y-48.489
X-404.9 Y-48.42
X-405.035 Y-48.354
X-405.171 Y-48.292
X-405.31 Y-48.233
X-405.45 Y-48.179
X-405.591 Y-48.129
X-405.734 Y-48.083
X-405.878 Y-48.042
X-406.024 Y-48.006
X-406.171 Y-47.977
X-406.319 Y-47.954
X-406.468 Y-47.936
X-406.618 Y-47.927
X-406.768 Y-47.926
X-406.917 Y-47.933
X-407.067 Y-47.949
X-407.214 Y-47.975
X-407.36 Y-48.013
X-407.977 Y-48.198
X-408.249 Y-48.317
X-408.486 Y-48.496
X-408.674 Y-48.726
X-408.802 Y-48.993
X-408.864 Y-49.283
X-408.856 Y-49.58
X-408.778 Y-49.866
X-408.635 Y-50.126
X-408.435 Y-50.345
X-408.189 Y-50.511
X-407.911 Y-50.615
X-407.617 Y-50.65
G3 X-403.484 Y-49.761 I-0.419 J11.993
G1 X-403.449 Y-49.741
X-403.419 Y-49.714
X-403.397 Y-49.68
X-403.383 Y-49.642
X-403.358 Y-49.51
X-403.35 Y-49.32
Y-49.254
X-403.352 Y-49.212
X-403.442 Y-49.092
X-403.537 Y-48.976
X-403.637 Y-48.864
X-403.742 Y-48.756
X-403.85 Y-48.652
X-403.962 Y-48.553
X-404.077 Y-48.457
X-404.196 Y-48.365
X-404.317 Y-48.277
X-404.442 Y-48.193
X-404.569 Y-48.113
X-404.698 Y-48.038
X-404.83 Y-47.967
X-404.965 Y-47.9
X-405.101 Y-47.838
X-405.24 Y-47.781
X-405.381 Y-47.729
X-405.523 Y-47.682
X-405.668 Y-47.641
X-405.813 Y-47.605
X-405.96 Y-47.576
X-406.108 Y-47.552
X-406.258 Y-47.536
X-406.407 Y-47.526
X-406.557 Y-47.521
X-406.707
X-406.857 Y-47.526
X-407.007 Y-47.537
X-407.156 Y-47.553
X-407.304 Y-47.575
X-407.451 Y-47.604
X-407.597 Y-47.64
X-407.741 Y-47.684
X-407.882 Y-47.735
X-408.166 Y-47.883
X-408.413 Y-48.088
X-408.611 Y-48.34
X-408.751 Y-48.629
X-408.828 Y-48.94
X-408.836 Y-49.261
X-408.776 Y-49.576
X-408.652 Y-49.872
X-408.467 Y-50.135
X-408.231 Y-50.352
X-407.955 Y-50.515
X-407.65 Y-50.616
X-407.331 Y-50.65
G3 X-403.51 Y-49.524 I-0.279 J7.995
X-403.35 Y-49.254 I-0.168 J0.282
G1 Y-48.906
X-403.353 Y-48.838
X-403.433 Y-48.711
X-403.52 Y-48.589
X-403.613 Y-48.471
X-403.711 Y-48.358
X-403.814 Y-48.249
X-403.922 Y-48.144
X-404.033 Y-48.044
X-404.149 Y-47.949
X-404.269 Y-47.858
X-404.391 Y-47.772
X-404.517 Y-47.691
X-404.647 Y-47.614
X-404.779 Y-47.543
X-404.913 Y-47.477
X-405.05 Y-47.416
X-405.189 Y-47.36
X-405.331 Y-47.309
X-405.474 Y-47.264
X-405.618 Y-47.224
X-405.764 Y-47.189
X-405.911 Y-47.159
X-406.059 Y-47.135
X-406.208 Y-47.116
X-406.357 Y-47.102
X-406.507 Y-47.094
X-406.657 Y-47.092
X-406.807 Y-47.095
X-406.957 Y-47.105
X-407.106 Y-47.123
X-407.254 Y-47.146
X-407.401 Y-47.176
X-407.546 Y-47.214
X-407.688 Y-47.261
X-407.828 Y-47.315
X-409.048 Y-47.875
X-409.363 Y-48.028
X-409.638 Y-48.244
X-409.862 Y-48.513
X-410.025 Y-48.823
X-410.12 Y-49.16
X-410.142 Y-49.51
G3 X-408.795 Y-50.493 I1.238 J0.282
G1 X-404.511 Y-50.127
G3 X-403.35 Y-48.906 I-0.108 J1.265
G1 Y-48.526
X-403.354 Y-48.439
X-403.429 Y-48.309
X-403.511 Y-48.183
X-403.6 Y-48.063
X-403.695 Y-47.947
X-403.796 Y-47.835
X-403.902 Y-47.729
X-404.012 Y-47.628
X-404.127 Y-47.531
X-404.246 Y-47.44
X-404.369 Y-47.353
X-404.494 Y-47.272
X-404.623 Y-47.195
X-404.755 Y-47.123
X-404.89 Y-47.057
X-405.027 Y-46.995
X-405.166 Y-46.939
X-405.307 Y-46.888
X-405.449 Y-46.842
X-405.594 Y-46.801
X-405.739 Y-46.766
X-405.886 Y-46.735
X-406.034 Y-46.711
X-406.183 Y-46.692
X-406.333 Y-46.679
X-406.482 Y-46.672
X-406.632 Y-46.67
X-406.782 Y-46.675
X-406.932 Y-46.687
X-407.081 Y-46.703
X-407.261 Y-46.729
X-407.467 Y-46.763
X-407.686 Y-46.807
X-407.889 Y-46.853
X-408.056 Y-46.897
X-408.2 Y-46.938
X-408.343 Y-46.984
X-408.473 Y-47.031
X-408.837 Y-47.194
X-409.171 Y-47.414
X-409.466 Y-47.683
X-409.715 Y-47.996
X-409.911 Y-48.344
X-410.05 Y-48.718
X-410.127 Y-49.11
X-410.142 Y-49.51
G3 X-408.686 Y-50.479 I1.238 J0.282
G1 X-404.401 Y-49.733
G3 X-403.35 Y-48.526 I-0.218 J1.251
G1 Y-48.181
X-403.354 Y-48.093
X-403.419 Y-47.958
X-403.494 Y-47.828
X-403.576 Y-47.702
X-403.666 Y-47.582
X-403.762 Y-47.467
X-403.864 Y-47.357
X-403.972 Y-47.252
X-404.084 Y-47.153
X-404.2 Y-47.058
X-404.32 Y-46.968
X-404.444 Y-46.884
X-404.571 Y-46.804
X-404.702 Y-46.73
X-404.835 Y-46.661
X-404.971 Y-46.597
X-405.109 Y-46.539
X-405.249 Y-46.485
X-405.391 Y-46.437
X-405.535 Y-46.395
X-405.68 Y-46.358
X-405.827 Y-46.326
X-405.975 Y-46.299
X-406.123 Y-46.278
X-406.272 Y-46.261
X-406.422 Y-46.249
X-406.572 Y-46.241
X-406.724 Y-46.237
X-406.877 Y-46.238
X-407.028 Y-46.242
X-407.178 Y-46.252
X-407.327 Y-46.265
X-407.48 Y-46.284
X-407.628 Y-46.307
X-407.775 Y-46.334
X-407.922 Y-46.367
X-408.067 Y-46.405
X-408.211 Y-46.448
X-408.353 Y-46.496
X-408.492 Y-46.55
X-408.895 Y-46.766
X-409.256 Y-47.046
X-409.566 Y-47.381
X-409.816 Y-47.762
X-410 Y-48.18
X-410.112 Y-48.623
X-410.15 Y-49.078
G3 X-408.619 Y-50.276 I1.269 J0.044
G1 X-404.358 Y-49.38
G3 X-403.35 Y-48.181 I-0.261 J1.243
G1 Y-47.802
X-403.358 Y-47.652
X-403.425 Y-47.518
X-403.502 Y-47.389
X-403.586 Y-47.265
X-403.676 Y-47.145
X-403.774 Y-47.031
X-403.876 Y-46.922
X-403.984 Y-46.817
X-404.097 Y-46.718
X-404.214 Y-46.624
X-404.334 Y-46.535
X-404.459 Y-46.451
X-404.586 Y-46.373
X-404.717 Y-46.299
X-404.851 Y-46.231
X-404.987 Y-46.168
X-405.125 Y-46.109
X-405.265 Y-46.056
X-405.407 Y-46.007
X-405.551 Y-45.964
X-405.695 Y-45.925
X-405.841 Y-45.89
X-405.988 Y-45.86
X-406.136 Y-45.835
X-406.285 Y-45.814
X-406.434 Y-45.798
X-406.583 Y-45.786
X-406.733 Y-45.779
X-406.883 Y-45.777
X-407.033 Y-45.779
X-407.183 Y-45.786
X-407.333 Y-45.798
X-407.482 Y-45.815
X-407.63 Y-45.838
X-407.777 Y-45.866
X-407.923 Y-45.9
X-408.068 Y-45.938
X-408.211 Y-45.984
X-408.353 Y-46.034
X-408.492 Y-46.09
X-408.895 Y-46.313
X-409.257 Y-46.6
X-409.566 Y-46.941
X-409.817 Y-47.328
X-410 Y-47.751
X-410.112 Y-48.199
X-410.15 Y-48.658
G3 X-408.631 Y-49.859 I1.269 J0.044
G1 X-404.369 Y-49.002
G3 X-403.35 Y-47.802 I-0.25 J1.245
G1 Y-47.459
X-403.358 Y-47.31
X-403.416 Y-47.171
X-403.485 Y-47.038
X-403.562 Y-46.91
X-403.648 Y-46.787
X-403.741 Y-46.669
X-403.84 Y-46.556
X-403.944 Y-46.449
X-404.054 Y-46.346
X-404.168 Y-46.249
X-404.286 Y-46.157
X-404.409 Y-46.069
X-404.534 Y-45.987
X-404.663 Y-45.91
X-404.794 Y-45.838
X-404.928 Y-45.77
X-405.064 Y-45.707
X-405.203 Y-45.649
X-405.343 Y-45.596
X-405.485 Y-45.548
X-405.628 Y-45.504
X-405.773 Y-45.465
X-405.919 Y-45.43
X-406.066 Y-45.4
X-406.214 Y-45.375
X-406.362 Y-45.355
X-406.512 Y-45.339
X-406.661 Y-45.329
X-406.811 Y-45.323
X-406.961 Y-45.322
X-407.111 Y-45.326
X-407.261 Y-45.335
X-407.41 Y-45.35
X-407.559 Y-45.37
X-407.706 Y-45.396
X-407.853 Y-45.427
X-407.999 Y-45.463
X-408.143 Y-45.505
X-408.285 Y-45.554
X-408.425 Y-45.608
X-408.562 Y-45.667
X-408.95 Y-45.896
X-409.297 Y-46.184
X-409.593 Y-46.523
X-409.832 Y-46.905
X-410.007 Y-47.321
X-410.114 Y-47.758
X-410.15 Y-48.207
G3 X-408.661 Y-49.414 I1.269 J0.044
G1 X-404.4 Y-48.666
G3 X-403.35 Y-47.459 I-0.22 J1.251
G1 Y-47.074
X-403.358 Y-46.924
X-403.413 Y-46.785
X-403.479 Y-46.65
X-403.555 Y-46.52
X-403.639 Y-46.396
X-403.729 Y-46.276
X-403.826 Y-46.162
X-403.929 Y-46.052
X-404.036 Y-45.948
X-404.148 Y-45.848
X-404.265 Y-45.754
X-404.385 Y-45.664
X-404.509 Y-45.579
X-404.636 Y-45.499
X-404.766 Y-45.424
X-404.898 Y-45.354
X-405.033 Y-45.288
X-405.17 Y-45.227
X-405.309 Y-45.171
X-405.45 Y-45.12
X-405.593 Y-45.073
X-405.737 Y-45.032
X-405.882 Y-44.995
X-406.029 Y-44.962
X-406.176 Y-44.935
X-406.324 Y-44.912
X-406.473 Y-44.895
X-406.623 Y-44.882
X-406.773 Y-44.874
X-406.923 Y-44.872
X-407.073 Y-44.874
X-407.222 Y-44.882
X-407.372 Y-44.894
X-407.521 Y-44.912
X-407.669 Y-44.936
X-407.816 Y-44.966
X-407.962 Y-45
X-408.106 Y-45.041
X-408.249 Y-45.088
X-408.389 Y-45.14
X-408.764 Y-45.33
X-409.107 Y-45.573
X-409.411 Y-45.863
X-409.669 Y-46.195
X-409.876 Y-46.561
X-410.027 Y-46.953
X-410.119 Y-47.363
X-410.15 Y-47.783
G3 X-408.672 Y-48.991 I1.269 J0.044
G1 X-404.411 Y-48.282
G3 X-403.35 Y-47.074 I-0.208 J1.253
G1 Y-46.732
X-403.358 Y-46.583
X-403.404 Y-46.44
X-403.463 Y-46.302
X-403.532 Y-46.169
X-403.61 Y-46.041
X-403.695 Y-45.917
X-403.788 Y-45.799
X-403.886 Y-45.686
X-403.99 Y-45.578
X-404.099 Y-45.474
X-404.212 Y-45.376
X-404.329 Y-45.282
X-404.45 Y-45.194
X-404.574 Y-45.11
X-404.702 Y-45.031
X-404.832 Y-44.957
X-404.965 Y-44.887
X-405.101 Y-44.823
X-405.238 Y-44.763
X-405.378 Y-44.708
X-405.519 Y-44.658
X-405.662 Y-44.613
X-405.807 Y-44.572
X-405.952 Y-44.537
X-406.099 Y-44.506
X-406.247 Y-44.48
X-406.396 Y-44.459
X-406.545 Y-44.443
X-406.694 Y-44.432
X-406.844 Y-44.426
X-406.994 Y-44.425
X-407.144 Y-44.429
X-407.294 Y-44.439
X-407.443 Y-44.454
X-407.591 Y-44.475
X-407.739 Y-44.501
X-407.886 Y-44.533
X-408.031 Y-44.572
X-408.174 Y-44.616
X-408.316 Y-44.665
X-408.455 Y-44.721
X-408.867 Y-44.948
X-409.237 Y-45.24
X-409.553 Y-45.588
X-409.809 Y-45.984
X-409.997 Y-46.415
X-410.111 Y-46.872
X-410.15 Y-47.341
G3 X-408.701 Y-48.554 I1.269 J0.044
G1 X-404.44 Y-47.945
G3 X-403.35 Y-46.732 I-0.18 J1.257
G1 Y-46.359
X-403.358 Y-46.209
X-403.399 Y-46.065
X-403.454 Y-45.925
X-403.519 Y-45.79
X-403.593 Y-45.66
X-403.675 Y-45.534
X-403.764 Y-45.413
X-403.86 Y-45.298
X-403.961 Y-45.187
X-404.067 Y-45.081
X-404.178 Y-44.98
X-404.293 Y-44.884
X-404.412 Y-44.793
X-404.535 Y-44.706
X-404.661 Y-44.625
X-404.789 Y-44.548
X-404.921 Y-44.476
X-405.055 Y-44.409
X-405.192 Y-44.346
X-405.33 Y-44.289
X-405.471 Y-44.236
X-405.613 Y-44.188
X-405.756 Y-44.145
X-405.902 Y-44.107
X-406.048 Y-44.074
X-406.195 Y-44.046
X-406.343 Y-44.023
X-406.492 Y-44.004
X-406.642 Y-43.991
X-406.791 Y-43.983
X-406.941 Y-43.98
X-407.091 Y-43.982
X-407.241 Y-43.99
X-407.391 Y-44.002
X-407.539 Y-44.021
X-407.687 Y-44.046
X-407.834 Y-44.076
X-407.98 Y-44.112
X-408.124 Y-44.154
X-408.266 Y-44.202
X-408.406 Y-44.255
X-408.778 Y-44.447
X-409.118 Y-44.691
X-409.419 Y-44.981
X-409.675 Y-45.313
X-409.879 Y-45.678
X-410.029 Y-46.069
X-410.12 Y-46.477
X-410.15 Y-46.895
G3 X-408.722 Y-48.11 I1.269 J0.044
G1 X-404.461 Y-47.574
G3 X-403.35 Y-46.359 I-0.158 J1.26
G1 Y-45.994
X-403.358 Y-45.844
X-403.392 Y-45.698
X-403.441 Y-45.556
X-403.501 Y-45.419
X-403.57 Y-45.286
X-403.649 Y-45.158
X-403.734 Y-45.035
X-403.826 Y-44.917
X-403.924 Y-44.803
X-404.028 Y-44.694
X-404.136 Y-44.591
X-404.249 Y-44.492
X-404.366 Y-44.398
X-404.486 Y-44.309
X-404.61 Y-44.224
X-404.737 Y-44.145
X-404.868 Y-44.07
X-405 Y-44
X-405.135 Y-43.935
X-405.273 Y-43.875
X-405.412 Y-43.82
X-405.554 Y-43.769
X-405.697 Y-43.724
X-405.841 Y-43.683
X-405.987 Y-43.647
X-406.133 Y-43.616
X-406.281 Y-43.591
X-406.43 Y-43.57
X-406.579 Y-43.554
X-406.728 Y-43.543
X-406.878 Y-43.538
X-407.028
X-407.178 Y-43.543
X-407.328 Y-43.553
X-407.477 Y-43.57
X-407.625 Y-43.592
X-407.773 Y-43.619
X-407.919 Y-43.652
X-408.064 Y-43.692
X-408.207 Y-43.737
X-408.348 Y-43.787
X-408.487 Y-43.844
X-408.892 Y-44.072
X-409.255 Y-44.363
X-409.565 Y-44.708
X-409.816 Y-45.099
X-410 Y-45.526
X-410.112 Y-45.977
X-410.15 Y-46.44
G3 X-408.749 Y-47.659 I1.269 J0.044
G1 X-404.487 Y-47.213
G3 X-403.35 Y-45.994 I-0.132 J1.263
G1 Y-45.588
X-403.358 Y-45.438
X-403.39 Y-45.292
X-403.437 Y-45.149
X-403.495 Y-45.011
X-403.563 Y-44.877
X-403.64 Y-44.748
X-403.724 Y-44.624
X-403.814 Y-44.504
X-403.911 Y-44.39
X-404.013 Y-44.28
X-404.12 Y-44.175
X-404.232 Y-44.075
X-404.348 Y-43.979
X-404.467 Y-43.889
X-404.59 Y-43.803
X-404.717 Y-43.722
X-404.846 Y-43.646
X-404.978 Y-43.575
X-405.113 Y-43.509
X-405.249 Y-43.447
X-405.388 Y-43.391
X-405.529 Y-43.339
X-405.672 Y-43.292
X-405.816 Y-43.25
X-405.961 Y-43.213
X-406.108 Y-43.181
X-406.255 Y-43.154
X-406.404 Y-43.132
X-406.553 Y-43.115
X-406.702 Y-43.104
X-406.852 Y-43.097
X-407.002 Y-43.096
X-407.152 Y-43.099
X-407.302 Y-43.108
X-407.451 Y-43.123
X-407.599 Y-43.144
X-407.747 Y-43.17
X-407.894 Y-43.202
X-408.039 Y-43.24
X-408.182 Y-43.284
X-408.324 Y-43.334
X-408.463 Y-43.389
X-408.6 Y-43.45
X-408.98 Y-43.68
X-409.318 Y-43.968
X-409.608 Y-44.305
X-409.84 Y-44.683
X-410.011 Y-45.093
X-410.115 Y-45.525
X-410.15 Y-45.968
G3 X-408.768 Y-47.188 I1.269 J0.044
G1 X-404.506 Y-46.809
G3 X-403.35 Y-45.588 I-0.113 J1.265
G1 Y-45.208
X-403.358 Y-45.059
X-403.384 Y-44.911
X-403.425 Y-44.767
X-403.479 Y-44.627
X-403.544 Y-44.491
X-403.617 Y-44.36
X-403.698 Y-44.234
X-403.786 Y-44.113
X-403.88 Y-43.996
X-403.98 Y-43.884
X-404.085 Y-43.777
X-404.195 Y-43.675
X-404.309 Y-43.577
X-404.427 Y-43.485
X-404.548 Y-43.397
X-404.673 Y-43.314
X-404.801 Y-43.236
X-404.932 Y-43.163
X-405.066 Y-43.094
X-405.202 Y-43.031
X-405.34 Y-42.972
X-405.48 Y-42.918
X-405.622 Y-42.869
X-405.765 Y-42.825
X-405.91 Y-42.786
X-406.056 Y-42.752
X-406.203 Y-42.723
X-406.351 Y-42.699
X-406.5 Y-42.68
X-406.649 Y-42.666
X-406.799 Y-42.657
X-406.949 Y-42.654
X-407.099 Y-42.655
X-407.249 Y-42.662
X-407.398 Y-42.675
X-407.547 Y-42.692
X-407.695 Y-42.716
X-407.842 Y-42.745
X-407.988 Y-42.78
X-408.133 Y-42.821
X-408.275 Y-42.868
X-408.426 Y-42.926
X-408.793 Y-43.113
X-409.129 Y-43.353
X-409.427 Y-43.639
X-409.68 Y-43.965
X-409.882 Y-44.325
X-410.03 Y-44.71
X-410.12 Y-45.113
X-410.15 Y-45.524
G3 X-408.787 Y-46.747 I1.269 J0.044
G1 X-404.525 Y-46.431
G3 X-403.35 Y-45.208 I-0.094 J1.267
G1 Y-44.794
X-403.358 Y-44.644
X-403.382 Y-44.496
X-403.422 Y-44.352
X-403.474 Y-44.211
X-403.537 Y-44.075
X-403.609 Y-43.943
X-403.689 Y-43.816
X-403.776 Y-43.694
X-403.869 Y-43.576
X-403.968 Y-43.464
X-404.072 Y-43.356
X-404.181 Y-43.253
X-404.294 Y-43.154
X-404.412 Y-43.061
X-404.533 Y-42.972
X-404.657 Y-42.888
X-404.784 Y-42.809
X-404.915 Y-42.735
X-405.048 Y-42.666
X-405.183 Y-42.601
X-405.321 Y-42.542
X-405.461 Y-42.487
X-405.602 Y-42.437
X-405.745 Y-42.392
X-405.89 Y-42.352
X-406.035 Y-42.317
X-406.182 Y-42.287
X-406.33 Y-42.261
X-406.479 Y-42.241
X-406.628 Y-42.226
X-406.778 Y-42.216
X-406.928 Y-42.212
X-407.078
X-407.228 Y-42.218
X-407.377 Y-42.229
X-407.526 Y-42.246
X-407.674 Y-42.269
X-407.822 Y-42.297
X-407.968 Y-42.331
X-408.112 Y-42.372
X-408.255 Y-42.418
X-408.396 Y-42.469
X-408.77 Y-42.66
X-409.112 Y-42.903
X-409.414 Y-43.194
X-409.672 Y-43.525
X-409.877 Y-43.891
X-410.028 Y-44.283
X-410.119 Y-44.692
X-410.15 Y-45.111
G3 X-408.787 Y-46.333 I1.269 J0.044
G1 X-404.525 Y-46.016
G3 X-403.35 Y-44.794 I-0.094 J1.267
G1 Y-44.351
X-403.358 Y-44.201
X-403.383 Y-44.054
X-403.424 Y-43.909
X-403.477 Y-43.769
X-403.541 Y-43.633
X-403.613 Y-43.502
X-403.693 Y-43.375
X-403.78 Y-43.253
X-403.874 Y-43.135
X-403.973 Y-43.023
X-404.077 Y-42.915
X-404.186 Y-42.812
X-404.299 Y-42.713
X-404.417 Y-42.62
X-404.537 Y-42.531
X-404.662 Y-42.447
X-404.789 Y-42.368
X-404.92 Y-42.294
X-405.053 Y-42.225
X-405.188 Y-42.16
X-405.326 Y-42.101
X-405.465 Y-42.046
X-405.607 Y-41.996
X-405.75 Y-41.951
X-405.894 Y-41.91
X-406.04 Y-41.875
X-406.187 Y-41.845
X-406.335 Y-41.82
X-406.484 Y-41.799
X-406.633 Y-41.784
X-406.783 Y-41.775
X-406.932 Y-41.77
X-407.082
X-407.232 Y-41.776
X-407.382 Y-41.787
X-407.531 Y-41.805
X-407.679 Y-41.828
X-407.826 Y-41.856
X-407.972 Y-41.891
X-408.117 Y-41.932
X-408.259 Y-41.979
X-408.4 Y-42.031
X-408.773 Y-42.224
X-409.114 Y-42.469
X-409.417 Y-42.761
X-409.673 Y-43.093
X-409.878 Y-43.46
X-410.028 Y-43.852
X-410.119 Y-44.262
X-410.15 Y-44.681
G3 X-408.783 Y-45.903 I1.269 J0.044
G1 X-404.521 Y-45.573
G3 X-403.35 Y-44.351 I-0.098 J1.266
G1 Y-43.943
X-403.358 Y-43.793
X-403.38 Y-43.645
X-403.418 Y-43.5
X-403.469 Y-43.359
X-403.53 Y-43.222
X-403.6 Y-43.09
X-403.679 Y-42.962
X-403.765 Y-42.839
X-403.857 Y-42.72
X-403.954 Y-42.606
X-404.058 Y-42.498
X-404.166 Y-42.393
X-404.278 Y-42.294
X-404.394 Y-42.199
X-404.515 Y-42.11
X-404.638 Y-42.025
X-404.765 Y-41.945
X-404.895 Y-41.869
X-405.027 Y-41.799
X-405.162 Y-41.733
X-405.299 Y-41.672
X-405.438 Y-41.616
X-405.579 Y-41.565
X-405.722 Y-41.519
X-405.866 Y-41.477
X-406.012 Y-41.441
X-406.158 Y-41.41
X-406.306 Y-41.383
X-406.454 Y-41.362
X-406.604 Y-41.346
X-406.753 Y-41.335
X-406.903 Y-41.329
X-407.053
X-407.203 Y-41.333
X-407.353 Y-41.344
X-407.502 Y-41.36
X-407.65 Y-41.382
X-407.797 Y-41.41
X-407.944 Y-41.444
X-408.088 Y-41.484
X-408.231 Y-41.529
X-408.372 Y-41.581
X-408.51 Y-41.639
X-408.91 Y-41.866
X-409.268 Y-42.155
X-409.574 Y-42.498
X-409.821 Y-42.885
X-410.002 Y-43.308
X-410.113 Y-43.754
X-410.15 Y-44.212
G3 X-408.801 Y-45.436 I1.269 J0.044
G1 X-404.539 Y-45.166
G3 X-403.35 Y-43.943 I-0.08 J1.267
G1 Y-43.512
X-403.358 Y-43.362
X-403.379 Y-43.214
X-403.417 Y-43.069
X-403.467 Y-42.927
X-403.528 Y-42.79
X-403.598 Y-42.658
X-403.676 Y-42.529
X-403.761 Y-42.406
X-403.853 Y-42.287
X-403.951 Y-42.173
X-404.053 Y-42.064
X-404.161 Y-41.96
X-404.273 Y-41.86
X-404.389 Y-41.765
X-404.509 Y-41.675
X-404.632 Y-41.589
X-404.759 Y-41.509
X-404.889 Y-41.433
X-405.021 Y-41.362
X-405.155 Y-41.296
X-405.292 Y-41.235
X-405.431 Y-41.179
X-405.572 Y-41.127
X-405.715 Y-41.081
X-405.859 Y-41.039
X-406.004 Y-41.002
X-406.151 Y-40.971
X-406.299 Y-40.944
X-406.447 Y-40.923
X-406.596 Y-40.906
X-406.746 Y-40.895
X-406.896 Y-40.889
X-407.046 Y-40.888
X-407.196 Y-40.893
X-407.345 Y-40.903
X-407.494 Y-40.918
X-407.643 Y-40.94
X-407.79 Y-40.968
X-407.937 Y-41.001
X-408.082 Y-41.039
X-408.225 Y-41.085
X-408.366 Y-41.136
X-408.505 Y-41.192
X-408.905 Y-41.416
X-409.264 Y-41.702
X-409.571 Y-42.043
X-409.819 Y-42.429
X-410.001 Y-42.851
X-410.113 Y-43.296
X-410.15 Y-43.753
Y-44.212
G3 X-408.675 Y-45.421 I1.269 J0.044
G1 X-404.413 Y-44.721
G3 X-403.35 Y-43.512 I-0.206 J1.253
G1 Y-43.052
X-403.358 Y-42.902
X-403.382 Y-42.754
X-403.422 Y-42.609
X-403.474 Y-42.469
X-403.537 Y-42.332
X-403.608 Y-42.2
X-403.687 Y-42.073
X-403.774 Y-41.95
X-403.866 Y-41.832
X-403.964 Y-41.719
X-404.068 Y-41.61
X-404.176 Y-41.506
X-404.289 Y-41.407
X-404.405 Y-41.313
X-404.526 Y-41.223
X-404.649 Y-41.139
X-404.776 Y-41.059
X-404.906 Y-40.984
X-405.039 Y-40.913
X-405.174 Y-40.848
X-405.311 Y-40.787
X-405.45 Y-40.732
X-405.591 Y-40.681
X-405.734 Y-40.635
X-405.878 Y-40.594
X-406.024 Y-40.558
X-406.171 Y-40.527
X-406.318 Y-40.501
X-406.467 Y-40.48
X-406.616 Y-40.464
X-406.766 Y-40.453
X-406.916 Y-40.448
X-407.066
X-407.216 Y-40.453
X-407.365 Y-40.463
X-407.514 Y-40.479
X-407.663 Y-40.502
X-407.81 Y-40.53
X-407.956 Y-40.563
X-408.101 Y-40.602
X-408.244 Y-40.648
X-408.385 Y-40.699
X-408.524 Y-40.756
X-408.92 Y-40.98
X-409.274 Y-41.265
X-409.578 Y-41.603
X-409.823 Y-41.987
X-410.003 Y-42.405
X-410.113 Y-42.846
X-410.15 Y-43.299
Y-43.753
G3 X-408.674 Y-44.962 I1.269 J0.044
G1 X-404.413 Y-44.26
G3 X-403.35 Y-43.052 I-0.206 J1.253
G1 Y-42.631
X-403.358 Y-42.481
X-403.38 Y-42.332
X-403.418 Y-42.187
X-403.469 Y-42.046
X-403.53 Y-41.909
X-403.6 Y-41.777
X-403.678 Y-41.649
X-403.763 Y-41.525
X-403.855 Y-41.407
X-403.953 Y-41.293
X-404.056 Y-41.183
X-404.163 Y-41.079
X-404.275 Y-40.979
X-404.391 Y-40.884
X-404.511 Y-40.794
X-404.635 Y-40.709
X-404.761 Y-40.628
X-404.891 Y-40.552
X-405.023 Y-40.482
X-405.158 Y-40.416
X-405.294 Y-40.354
X-405.433 Y-40.298
X-405.574 Y-40.246
X-405.717 Y-40.2
X-405.861 Y-40.158
X-406.006 Y-40.121
X-406.153 Y-40.09
X-406.301 Y-40.063
X-406.449 Y-40.041
X-406.598 Y-40.025
X-406.748 Y-40.013
X-406.898 Y-40.007
X-407.048 Y-40.006
X-407.198 Y-40.01
X-407.347 Y-40.02
X-407.497 Y-40.035
X-407.645 Y-40.056
X-407.793 Y-40.083
X-407.939 Y-40.115
X-408.084 Y-40.153
X-408.227 Y-40.198
X-408.382 Y-40.254
X-408.757 Y-40.438
X-409.102 Y-40.676
X-409.407 Y-40.962
X-409.666 Y-41.29
X-409.874 Y-41.653
X-410.026 Y-42.043
X-410.119 Y-42.451
X-410.15 Y-42.868
Y-43.299
G3 X-408.684 Y-44.51 I1.269 J0.044
G1 X-404.422 Y-43.841
G3 X-403.35 Y-42.631 I-0.197 J1.255
G1 Y-42.185
X-403.358 Y-42.036
X-403.381 Y-41.887
X-403.419 Y-41.743
X-403.471 Y-41.602
X-403.532 Y-41.465
X-403.603 Y-41.332
X-403.681 Y-41.205
X-403.767 Y-41.081
X-403.859 Y-40.963
X-403.956 Y-40.849
X-404.059 Y-40.74
X-404.167 Y-40.636
X-404.279 Y-40.536
X-404.395 Y-40.441
X-404.515 Y-40.351
X-404.639 Y-40.266
X-404.766 Y-40.186
X-404.895 Y-40.11
X-405.027 Y-40.039
X-405.162 Y-39.973
X-405.299 Y-39.912
X-405.438 Y-39.856
X-405.579 Y-39.804
X-405.722 Y-39.758
X-405.866 Y-39.716
X-406.011 Y-39.68
X-406.158 Y-39.648
X-406.305 Y-39.621
X-406.454 Y-39.599
X-406.603 Y-39.583
X-406.752 Y-39.571
X-406.902 Y-39.565
X-407.052 Y-39.564
X-407.202 Y-39.568
X-407.352 Y-39.578
X-407.501 Y-39.594
X-407.65 Y-39.615
X-407.797 Y-39.642
X-407.943 Y-39.675
X-408.088 Y-39.714
X-408.232 Y-39.759
X-408.373 Y-39.809
X-408.751 Y-39.998
X-409.097 Y-40.241
X-409.404 Y-40.532
X-409.665 Y-40.865
X-409.873 Y-41.232
X-410.026 Y-41.627
X-410.119 Y-42.039
X-410.15 Y-42.461
Y-42.868
G3 X-408.68 Y-44.077 I1.269 J0.044
G1 X-404.418 Y-43.395
G3 X-403.35 Y-42.185 I-0.201 J1.254
G1 Y-41.764
X-403.358 Y-41.614
X-403.378 Y-41.465
X-403.415 Y-41.32
X-403.465 Y-41.178
X-403.525 Y-41.041
X-403.595 Y-40.908
X-403.672 Y-40.78
X-403.757 Y-40.656
X-403.848 Y-40.537
X-403.945 Y-40.422
X-404.047 Y-40.313
X-404.155 Y-40.208
X-404.266 Y-40.108
X-404.382 Y-40.012
X-404.501 Y-39.922
X-404.624 Y-39.836
X-404.751 Y-39.755
X-404.88 Y-39.678
X-405.012 Y-39.607
X-405.146 Y-39.54
X-405.283 Y-39.478
X-405.422 Y-39.422
X-405.562 Y-39.369
X-405.705 Y-39.322
X-405.849 Y-39.28
X-405.994 Y-39.242
X-406.14 Y-39.21
X-406.288 Y-39.183
X-406.436 Y-39.16
X-406.585 Y-39.143
X-406.735 Y-39.131
X-406.884 Y-39.124
X-407.034 Y-39.123
X-407.184 Y-39.126
X-407.334 Y-39.135
X-407.483 Y-39.151
X-407.632 Y-39.172
X-407.779 Y-39.198
X-407.926 Y-39.231
X-408.071 Y-39.27
X-408.214 Y-39.314
X-408.355 Y-39.365
X-408.737 Y-39.555
X-409.087 Y-39.8
X-409.397 Y-40.093
X-409.66 Y-40.429
X-409.871 Y-40.8
X-410.025 Y-41.198
X-410.118 Y-41.614
X-410.15 Y-42.04
Y-42.461
G3 X-408.676 Y-43.67 I1.269 J0.044
G1 X-404.414 Y-42.973
G3 X-403.35 Y-41.764 I-0.205 J1.253
G1 Y-41.315
X-403.358 Y-41.165
X-403.38 Y-41.017
X-403.418 Y-40.872
X-403.468 Y-40.73
X-403.529 Y-40.593
X-403.599 Y-40.461
X-403.677 Y-40.332
X-403.762 Y-40.209
X-403.853 Y-40.09
X-403.951 Y-39.976
X-404.053 Y-39.866
X-404.161 Y-39.762
X-404.273 Y-39.662
X-404.389 Y-39.567
X-404.508 Y-39.476
X-404.631 Y-39.391
X-404.758 Y-39.31
X-404.887 Y-39.234
X-405.019 Y-39.162
X-405.154 Y-39.096
X-405.29 Y-39.035
X-405.429 Y-38.978
X-405.57 Y-38.926
X-405.712 Y-38.879
X-405.856 Y-38.837
X-406.002 Y-38.8
X-406.148 Y-38.767
X-406.296 Y-38.74
X-406.444 Y-38.718
X-406.593 Y-38.702
X-406.743 Y-38.69
X-406.893 Y-38.684
X-407.043 Y-38.682
X-407.193 Y-38.686
X-407.342 Y-38.696
X-407.491 Y-38.713
X-407.64 Y-38.734
X-407.787 Y-38.761
X-407.934 Y-38.795
X-408.078 Y-38.834
X-408.221 Y-38.879
X-408.362 Y-38.93
X-408.501 Y-38.988
X-408.902 Y-39.215
X-409.262 Y-39.504
X-409.57 Y-39.847
X-409.819 Y-40.236
X-410.001 Y-40.66
X-410.113 Y-41.108
X-410.15 Y-41.568
Y-42.04
G3 X-408.668 Y-43.248 I1.269 J0.044
G1 X-404.406 Y-42.523
G3 X-403.35 Y-41.315 I-0.213 J1.252
G1 Y-40.878
X-403.358 Y-40.728
X-403.379 Y-40.58
X-403.417 Y-40.434
X-403.467 Y-40.293
X-403.528 Y-40.156
X-403.597 Y-40.023
X-403.675 Y-39.895
X-403.76 Y-39.771
X-403.851 Y-39.652
X-403.949 Y-39.538
X-404.051 Y-39.428
X-404.158 Y-39.324
X-404.27 Y-39.223
X-404.386 Y-39.128
X-404.505 Y-39.038
X-404.629 Y-38.952
X-404.755 Y-38.871
X-404.884 Y-38.795
X-405.016 Y-38.723
X-405.15 Y-38.657
X-405.287 Y-38.595
X-405.426 Y-38.538
X-405.567 Y-38.486
X-405.709 Y-38.439
X-405.853 Y-38.397
X-405.998 Y-38.36
X-406.145 Y-38.328
X-406.292 Y-38.301
X-406.441 Y-38.279
X-406.59 Y-38.262
X-406.739 Y-38.25
X-406.889 Y-38.244
X-407.039 Y-38.243
X-407.189 Y-38.247
X-407.339 Y-38.257
X-407.488 Y-38.272
X-407.637 Y-38.294
X-407.784 Y-38.321
X-407.93 Y-38.353
X-408.075 Y-38.392
X-408.219 Y-38.437
X-408.36 Y-38.488
X-408.499 Y-38.544
X-408.901 Y-38.768
X-409.261 Y-39.054
X-409.569 Y-39.395
X-409.818 Y-39.782
X-410.001 Y-40.204
X-410.112 Y-40.651
X-410.15 Y-41.109
Y-41.568
G3 X-408.678 Y-42.777 I1.269 J0.044
G1 X-404.416 Y-42.087
G3 X-403.35 Y-40.878 I-0.203 J1.254
G1 Y-40.432
X-403.358 Y-40.282
X-403.38 Y-40.133
X-403.418 Y-39.988
X-403.469 Y-39.847
X-403.53 Y-39.71
X-403.6 Y-39.578
X-403.678 Y-39.45
X-403.763 Y-39.326
X-403.855 Y-39.207
X-403.952 Y-39.093
X-404.055 Y-38.984
X-404.162 Y-38.879
X-404.274 Y-38.779
X-404.39 Y-38.684
X-404.51 Y-38.594
X-404.633 Y-38.508
X-404.759 Y-38.427
X-404.889 Y-38.351
X-405.021 Y-38.28
X-405.155 Y-38.214
X-405.292 Y-38.152
X-405.431 Y-38.096
X-405.572 Y-38.044
X-405.714 Y-37.997
X-405.858 Y-37.955
X-406.004 Y-37.919
X-406.15 Y-37.887
X-406.298 Y-37.86
X-406.446 Y-37.838
X-406.595 Y-37.821
X-406.745 Y-37.81
X-406.895 Y-37.804
X-407.045 Y-37.803
X-407.195 Y-37.807
X-407.345 Y-37.817
X-407.494 Y-37.832
X-407.642 Y-37.853
X-407.79 Y-37.881
X-407.936 Y-37.913
X-408.081 Y-37.951
X-408.224 Y-37.996
X-408.366 Y-38.047
X-408.505 Y-38.103
X-408.905 Y-38.326
X-409.264 Y-38.611
X-409.571 Y-38.951
X-409.819 Y-39.336
X-410.001 Y-39.756
X-410.113 Y-40.201
X-410.15 Y-40.658
Y-41.109
G3 X-408.681 Y-42.319 I1.269 J0.044
G1 X-404.42 Y-41.642
G3 X-403.35 Y-40.432 I-0.199 J1.254
G1 Y-40.002
X-403.358 Y-39.852
X-403.378 Y-39.704
X-403.416 Y-39.559
X-403.465 Y-39.417
X-403.526 Y-39.28
X-403.595 Y-39.147
X-403.672 Y-39.018
X-403.757 Y-38.894
X-403.848 Y-38.775
X-403.945 Y-38.661
X-404.047 Y-38.551
X-404.155 Y-38.446
X-404.266 Y-38.346
X-404.382 Y-38.25
X-404.501 Y-38.16
X-404.624 Y-38.074
X-404.75 Y-37.993
X-404.88 Y-37.916
X-405.011 Y-37.845
X-405.146 Y-37.778
X-405.283 Y-37.716
X-405.421 Y-37.659
X-405.562 Y-37.607
X-405.704 Y-37.56
X-405.848 Y-37.518
X-405.994 Y-37.481
X-406.14 Y-37.448
X-406.288 Y-37.421
X-406.436 Y-37.399
X-406.585 Y-37.382
X-406.734 Y-37.37
X-406.884 Y-37.363
X-407.034 Y-37.361
X-407.184 Y-37.365
X-407.334 Y-37.374
X-407.483 Y-37.389
X-407.632 Y-37.409
X-407.779 Y-37.436
X-407.926 Y-37.468
X-408.071 Y-37.505
X-408.215 Y-37.55
X-408.356 Y-37.6
X-408.495 Y-37.655
X-408.898 Y-37.877
X-409.258 Y-38.161
X-409.568 Y-38.501
X-409.817 Y-38.886
X-410 Y-39.307
X-410.112 Y-39.753
X-410.15 Y-40.211
Y-40.658
G3 X-408.688 Y-41.869 I1.269 J0.044
G1 X-404.426 Y-41.213
G3 X-403.35 Y-40.002 I-0.193 J1.255
G1 Y-39.535
X-403.358 Y-39.385
X-403.382 Y-39.237
X-403.422 Y-39.093
X-403.474 Y-38.952
X-403.536 Y-38.815
X-403.607 Y-38.683
X-403.686 Y-38.556
X-403.772 Y-38.433
X-403.864 Y-38.314
X-403.962 Y-38.201
X-404.065 Y-38.092
X-404.173 Y-37.988
X-404.285 Y-37.888
X-404.402 Y-37.794
X-404.522 Y-37.704
X-404.646 Y-37.619
X-404.772 Y-37.539
X-404.902 Y-37.463
X-405.034 Y-37.393
X-405.169 Y-37.327
X-405.306 Y-37.266
X-405.445 Y-37.21
X-405.586 Y-37.159
X-405.729 Y-37.112
X-405.873 Y-37.071
X-406.019 Y-37.034
X-406.165 Y-37.003
X-406.313 Y-36.976
X-406.461 Y-36.955
X-406.61 Y-36.938
X-406.76 Y-36.927
X-406.91 Y-36.921
X-407.06 Y-36.92
X-407.21 Y-36.925
X-407.359 Y-36.934
X-407.509 Y-36.95
X-407.657 Y-36.972
X-407.805 Y-36.999
X-407.951 Y-37.031
X-408.096 Y-37.07
X-408.239 Y-37.115
X-408.38 Y-37.166
X-408.756 Y-37.351
X-409.101 Y-37.59
X-409.406 Y-37.878
X-409.666 Y-38.207
X-409.874 Y-38.571
X-410.026 Y-38.962
X-410.119 Y-39.371
X-410.15 Y-39.789
Y-40.211
G3 X-408.682 Y-41.421 I1.269 J0.044
G1 X-404.42 Y-40.745
G3 X-403.35 Y-39.535 I-0.199 J1.254
G1 Y-39.107
X-403.358 Y-38.957
X-403.38 Y-38.809
X-403.419 Y-38.664
X-403.47 Y-38.523
X-403.531 Y-38.386
X-403.601 Y-38.253
X-403.679 Y-38.125
X-403.765 Y-38.002
X-403.857 Y-37.883
X-403.954 Y-37.769
X-404.057 Y-37.66
X-404.164 Y-37.556
X-404.276 Y-37.456
X-404.392 Y-37.361
X-404.512 Y-37.27
X-404.636 Y-37.185
X-404.762 Y-37.104
X-404.891 Y-37.029
X-405.023 Y-36.957
X-405.158 Y-36.891
X-405.295 Y-36.83
X-405.434 Y-36.773
X-405.575 Y-36.721
X-405.717 Y-36.675
X-405.861 Y-36.633
X-406.007 Y-36.596
X-406.153 Y-36.564
X-406.301 Y-36.537
X-406.449 Y-36.515
X-406.598 Y-36.498
X-406.748 Y-36.486
X-406.897 Y-36.479
X-407.047 Y-36.478
X-407.197 Y-36.482
X-407.347 Y-36.491
X-407.496 Y-36.507
X-407.645 Y-36.528
X-407.792 Y-36.555
X-407.939 Y-36.588
X-408.084 Y-36.627
X-408.227 Y-36.671
X-408.368 Y-36.721
X-408.747 Y-36.911
X-409.094 Y-37.154
X-409.402 Y-37.445
X-409.663 Y-37.779
X-409.873 Y-38.147
X-410.026 Y-38.542
X-410.119 Y-38.956
X-410.15 Y-39.378
Y-39.789
G3 X-408.68 Y-40.999 I1.269 J0.044
G1 X-404.418 Y-40.317
G3 X-403.35 Y-39.107 I-0.201 J1.254
G1 Y-38.658
X-403.358 Y-38.508
X-403.381 Y-38.36
X-403.421 Y-38.215
X-403.472 Y-38.075
X-403.534 Y-37.938
X-403.605 Y-37.806
X-403.684 Y-37.678
X-403.769 Y-37.555
X-403.862 Y-37.436
X-403.959 Y-37.323
X-404.062 Y-37.214
X-404.17 Y-37.109
X-404.282 Y-37.01
X-404.399 Y-36.915
X-404.519 Y-36.825
X-404.642 Y-36.74
X-404.769 Y-36.659
X-404.898 Y-36.584
X-405.03 Y-36.513
X-405.165 Y-36.447
X-405.302 Y-36.386
X-405.441 Y-36.329
X-405.582 Y-36.278
X-405.724 Y-36.231
X-405.868 Y-36.189
X-406.014 Y-36.153
X-406.16 Y-36.121
X-406.308 Y-36.094
X-406.457 Y-36.072
X-406.606 Y-36.056
X-406.755 Y-36.044
X-406.905 Y-36.038
X-407.055 Y-36.037
X-407.205 Y-36.041
X-407.355 Y-36.051
X-407.504 Y-36.068
X-407.652 Y-36.089
X-407.8 Y-36.117
X-407.946 Y-36.15
X-408.09 Y-36.19
X-408.233 Y-36.235
X-408.374 Y-36.287
X-408.753 Y-36.478
X-409.099 Y-36.723
X-409.405 Y-37.016
X-409.665 Y-37.351
X-409.874 Y-37.72
X-410.026 Y-38.116
X-410.119 Y-38.529
X-410.15 Y-38.952
Y-39.378
G3 X-408.669 Y-40.586 I1.269 J0.044
G1 X-404.408 Y-39.866
G3 X-403.35 Y-38.658 I-0.212 J1.252
G1 Y-38.221
X-403.358 Y-38.071
X-403.381 Y-37.923
X-403.42 Y-37.778
X-403.471 Y-37.637
X-403.533 Y-37.501
X-403.603 Y-37.368
X-403.682 Y-37.24
X-403.767 Y-37.117
X-403.859 Y-36.999
X-403.957 Y-36.885
X-404.06 Y-36.776
X-404.167 Y-36.671
X-404.279 Y-36.571
X-404.396 Y-36.477
X-404.515 Y-36.386
X-404.639 Y-36.301
X-404.765 Y-36.22
X-404.895 Y-36.145
X-405.027 Y-36.074
X-405.161 Y-36.007
X-405.298 Y-35.946
X-405.437 Y-35.89
X-405.578 Y-35.838
X-405.721 Y-35.791
X-405.865 Y-35.749
X-406.01 Y-35.712
X-406.157 Y-35.68
X-406.304 Y-35.654
X-406.453 Y-35.632
X-406.602 Y-35.615
X-406.751 Y-35.604
X-406.901 Y-35.598
X-407.051 Y-35.597
X-407.201 Y-35.601
X-407.351 Y-35.611
X-407.5 Y-35.628
X-407.648 Y-35.65
X-407.796 Y-35.677
X-407.942 Y-35.711
X-408.086 Y-35.751
X-408.229 Y-35.796
X-408.37 Y-35.848
X-408.509 Y-35.906
X-408.909 Y-36.133
X-409.267 Y-36.421
X-409.573 Y-36.764
X-409.821 Y-37.152
X-410.002 Y-37.575
X-410.113 Y-38.021
X-410.15 Y-38.479
Y-38.952
G3 X-408.666 Y-40.16 I1.269 J0.044
G1 X-404.404 Y-39.429
G3 X-403.35 Y-38.221 I-0.215 J1.252
G1 Y-37.775
X-403.358 Y-37.625
X-403.382 Y-37.477
X-403.421 Y-37.332
X-403.473 Y-37.192
X-403.535 Y-37.055
X-403.606 Y-36.923
X-403.684 Y-36.795
X-403.77 Y-36.672
X-403.862 Y-36.554
X-403.96 Y-36.44
X-404.063 Y-36.331
X-404.171 Y-36.227
X-404.283 Y-36.127
X-404.399 Y-36.032
X-404.52 Y-35.942
X-404.643 Y-35.857
X-404.77 Y-35.777
X-404.899 Y-35.701
X-405.031 Y-35.63
X-405.166 Y-35.564
X-405.303 Y-35.503
X-405.442 Y-35.447
X-405.583 Y-35.395
X-405.726 Y-35.349
X-405.87 Y-35.307
X-406.015 Y-35.271
X-406.162 Y-35.239
X-406.309 Y-35.212
X-406.458 Y-35.191
X-406.607 Y-35.175
X-406.757 Y-35.164
X-406.906 Y-35.158
X-407.056
X-407.206 Y-35.162
X-407.356 Y-35.173
X-407.505 Y-35.188
X-407.654 Y-35.211
X-407.801 Y-35.239
X-407.947 Y-35.272
X-408.092 Y-35.311
X-408.235 Y-35.357
X-408.376 Y-35.408
X-408.515 Y-35.465
X-408.913 Y-35.689
X-409.27 Y-35.975
X-409.575 Y-36.315
X-409.822 Y-36.7
X-410.002 Y-37.12
X-410.113 Y-37.563
X-410.15 Y-38.019
Y-38.479
G3 X-408.674 Y-39.688 I1.269 J0.044
G1 X-404.412 Y-38.984
G3 X-403.35 Y-37.775 I-0.207 J1.253
G1 Y-37.345
X-403.358 Y-37.196
X-403.38 Y-37.047
X-403.418 Y-36.902
X-403.469 Y-36.761
X-403.53 Y-36.624
X-403.601 Y-36.492
X-403.679 Y-36.364
X-403.764 Y-36.24
X-403.855 Y-36.121
X-403.953 Y-36.007
X-404.056 Y-35.898
X-404.163 Y-35.793
X-404.275 Y-35.693
X-404.391 Y-35.598
X-404.511 Y-35.508
X-404.634 Y-35.422
X-404.76 Y-35.342
X-404.89 Y-35.266
X-405.022 Y-35.194
X-405.156 Y-35.128
X-405.293 Y-35.067
X-405.432 Y-35.01
X-405.573 Y-34.958
X-405.715 Y-34.912
X-405.859 Y-34.87
X-406.005 Y-34.833
X-406.151 Y-34.801
X-406.299 Y-34.774
X-406.447 Y-34.752
X-406.596 Y-34.736
X-406.746 Y-34.724
X-406.896 Y-34.718
X-407.046 Y-34.717
X-407.196 Y-34.721
X-407.345 Y-34.731
X-407.495 Y-34.746
X-407.643 Y-34.767
X-407.791 Y-34.795
X-407.937 Y-34.827
X-408.082 Y-34.865
X-408.225 Y-34.91
X-408.366 Y-34.961
X-408.506 Y-35.016
X-408.518 Y-35.022
X-408.915 Y-35.243
X-409.271 Y-35.525
X-409.576 Y-35.862
X-409.822 Y-36.244
X-410.003 Y-36.661
X-410.113 Y-37.101
X-410.15 Y-37.554
Y-38.019
G3 X-408.683 Y-39.229 I1.269 J0.044
G1 X-404.421 Y-38.556
G3 X-403.35 Y-37.345 I-0.198 J1.254
G1 Y-36.914
X-403.358 Y-36.764
X-403.379 Y-36.616
X-403.416 Y-36.471
X-403.466 Y-36.329
X-403.527 Y-36.192
X-403.596 Y-36.059
X-403.674 Y-35.931
X-403.759 Y-35.807
X-403.85 Y-35.688
X-403.947 Y-35.574
X-404.049 Y-35.464
X-404.156 Y-35.359
X-404.268 Y-35.259
X-404.384 Y-35.163
X-404.503 Y-35.073
X-404.626 Y-34.987
X-404.753 Y-34.906
X-404.882 Y-34.83
X-405.014 Y-34.758
X-405.148 Y-34.692
X-405.285 Y-34.63
X-405.424 Y-34.573
X-405.564 Y-34.521
X-405.707 Y-34.474
X-405.851 Y-34.432
X-405.996 Y-34.394
X-406.142 Y-34.362
X-406.29 Y-34.335
X-406.438 Y-34.313
X-406.587 Y-34.296
X-406.737 Y-34.284
X-406.887 Y-34.277
X-407.037 Y-34.276
X-407.187 Y-34.279
X-407.336 Y-34.288
X-407.486 Y-34.303
X-407.634 Y-34.324
X-407.782 Y-34.35
X-407.928 Y-34.382
X-408.074 Y-34.419
X-408.217 Y-34.463
X-408.359 Y-34.513
X-408.739 Y-34.697
X-409.087 Y-34.936
X-409.397 Y-35.223
X-409.66 Y-35.554
X-409.871 Y-35.92
X-410.025 Y-36.313
X-410.118 Y-36.725
X-410.15 Y-37.146
Y-37.554
G3 X-408.692 Y-38.766 I1.269 J0.044
G1 X-404.431 Y-38.126
G3 X-403.35 Y-36.914 I-0.189 J1.256
G1 Y-36.45
X-403.358 Y-36.3
X-403.382 Y-36.152
X-403.422 Y-36.008
X-403.474 Y-35.867
X-403.536 Y-35.73
X-403.607 Y-35.598
X-403.686 Y-35.471
X-403.771 Y-35.348
X-403.864 Y-35.229
X-403.962 Y-35.116
X-404.065 Y-35.007
X-404.173 Y-34.903
X-404.285 Y-34.803
X-404.401 Y-34.709
X-404.521 Y-34.619
X-404.645 Y-34.534
X-404.772 Y-34.453
X-404.901 Y-34.378
X-405.034 Y-34.307
X-405.168 Y-34.242
X-405.306 Y-34.181
X-405.445 Y-34.124
X-405.586 Y-34.073
X-405.728 Y-34.027
X-405.872 Y-33.985
X-406.018 Y-33.949
X-406.164 Y-33.917
X-406.312 Y-33.89
X-406.46 Y-33.869
X-406.61 Y-33.852
X-406.759 Y-33.841
X-406.909 Y-33.835
X-407.059 Y-33.834
X-407.209 Y-33.838
X-407.359 Y-33.848
X-407.508 Y-33.864
X-407.656 Y-33.886
X-407.804 Y-33.913
X-407.95 Y-33.946
X-408.095 Y-33.986
X-408.238 Y-34.03
X-408.379 Y-34.081
X-408.756 Y-34.271
X-409.101 Y-34.514
X-409.407 Y-34.806
X-409.667 Y-35.139
X-409.875 Y-35.506
X-410.026 Y-35.9
X-410.119 Y-36.312
X-410.15 Y-36.733
Y-37.146
G3 X-408.676 Y-38.355 I1.269 J0.044
G1 X-404.414 Y-37.659
G3 X-403.35 Y-36.45 I-0.205 J1.253
G1 Y-36.036
X-403.358 Y-35.886
X-403.378 Y-35.738
X-403.415 Y-35.592
X-403.465 Y-35.451
X-403.525 Y-35.313
X-403.595 Y-35.18
X-403.672 Y-35.052
X-403.757 Y-34.928
X-403.848 Y-34.809
X-403.945 Y-34.695
X-404.047 Y-34.585
X-404.154 Y-34.48
X-404.266 Y-34.38
X-404.382 Y-34.284
X-404.501 Y-34.193
X-404.624 Y-34.107
X-404.75 Y-34.026
X-404.879 Y-33.95
X-405.011 Y-33.878
X-405.145 Y-33.812
X-405.282 Y-33.75
X-405.421 Y-33.693
X-405.561 Y-33.64
X-405.704 Y-33.593
X-405.847 Y-33.551
X-405.993 Y-33.513
X-406.139 Y-33.481
X-406.287 Y-33.453
X-406.435 Y-33.431
X-406.584 Y-33.413
X-406.733 Y-33.401
X-406.883 Y-33.394
X-407.033 Y-33.393
X-407.183 Y-33.396
X-407.333 Y-33.405
X-407.482 Y-33.421
X-407.631 Y-33.442
X-407.778 Y-33.468
X-407.925 Y-33.501
X-408.07 Y-33.54
X-408.213 Y-33.584
X-408.354 Y-33.634
X-408.736 Y-33.825
X-409.086 Y-34.069
X-409.396 Y-34.363
X-409.659 Y-34.699
X-409.871 Y-35.07
X-410.025 Y-35.468
X-410.118 Y-35.885
X-410.15 Y-36.31
Y-36.733
G3 X-408.676 Y-37.942 I1.269 J0.044
G1 X-404.414 Y-37.245
G3 X-403.35 Y-36.036 I-0.205 J1.253
G1 Y-35.593
X-403.358 Y-35.444
X-403.379 Y-35.295
X-403.416 Y-35.15
X-403.466 Y-35.008
X-403.526 Y-34.871
X-403.596 Y-34.738
X-403.673 Y-34.61
X-403.758 Y-34.486
X-403.849 Y-34.367
X-403.946 Y-34.252
X-404.049 Y-34.143
X-404.156 Y-34.038
X-404.267 Y-33.938
X-404.383 Y-33.842
X-404.503 Y-33.751
X-404.626 Y-33.665
X-404.752 Y-33.584
X-404.881 Y-33.508
X-405.013 Y-33.437
X-405.147 Y-33.37
X-405.284 Y-33.308
X-405.422 Y-33.251
X-405.563 Y-33.199
X-405.705 Y-33.152
X-405.849 Y-33.109
X-405.995 Y-33.072
X-406.141 Y-33.039
X-406.289 Y-33.012
X-406.437 Y-32.99
X-406.586 Y-32.973
X-406.735 Y-32.961
X-406.885 Y-32.954
X-407.035 Y-32.952
X-407.185 Y-32.956
X-407.335 Y-32.966
X-407.484 Y-32.982
X-407.633 Y-33.003
X-407.78 Y-33.03
X-407.926 Y-33.063
X-408.071 Y-33.103
X-408.214 Y-33.147
X-408.355 Y-33.198
X-408.494 Y-33.255
X-408.897 Y-33.482
X-409.258 Y-33.772
X-409.568 Y-34.116
X-409.817 Y-34.505
X-410.001 Y-34.93
X-410.112 Y-35.379
X-410.15 Y-35.84
Y-36.31
G3 X-408.67 Y-37.518 I1.269 J0.044
G1 X-404.409 Y-36.801
G3 X-403.35 Y-35.593 I-0.211 J1.252
G1 Y-35.118
X-403.358 Y-34.968
X-403.383 Y-34.821
X-403.424 Y-34.676
X-403.477 Y-34.536
X-403.54 Y-34.4
X-403.611 Y-34.268
X-403.691 Y-34.141
X-403.777 Y-34.018
X-403.87 Y-33.9
X-403.968 Y-33.787
X-404.071 Y-33.678
X-404.18 Y-33.574
X-404.292 Y-33.475
X-404.409 Y-33.381
X-404.529 Y-33.291
X-404.653 Y-33.206
X-404.78 Y-33.126
X-404.91 Y-33.051
X-405.042 Y-32.98
X-405.177 Y-32.915
X-405.314 Y-32.854
X-405.453 Y-32.798
X-405.594 Y-32.747
X-405.737 Y-32.701
X-405.881 Y-32.66
X-406.027 Y-32.624
X-406.173 Y-32.592
X-406.321 Y-32.566
X-406.47 Y-32.545
X-406.619 Y-32.53
X-406.769 Y-32.519
X-406.918 Y-32.514
X-407.068
X-407.218 Y-32.519
X-407.368 Y-32.53
X-407.517 Y-32.546
X-407.665 Y-32.569
X-407.813 Y-32.597
X-407.959 Y-32.631
X-408.103 Y-32.671
X-408.246 Y-32.717
X-408.387 Y-32.769
X-408.526 Y-32.826
X-408.921 Y-33.052
X-409.276 Y-33.338
X-409.579 Y-33.678
X-409.824 Y-34.062
X-410.004 Y-34.481
X-410.113 Y-34.923
X-410.15 Y-35.378
Y-35.84
G3 X-408.669 Y-37.048 I1.269 J0.044
G1 X-404.407 Y-36.326
G3 X-403.35 Y-35.118 I-0.212 J1.252
G1 Y-34.689
X-403.358 Y-34.539
X-403.382 Y-34.391
X-403.421 Y-34.246
X-403.473 Y-34.105
X-403.535 Y-33.969
X-403.606 Y-33.837
X-403.685 Y-33.709
X-403.771 Y-33.586
X-403.863 Y-33.468
X-404.187 Y-33.141
X-404.555 Y-32.864
X-404.959 Y-32.643
X-405.39 Y-32.481
X-405.84 Y-32.383
X-406.3 Y-32.35
G3 X-408.299 Y-35.864 I0.083 J-2.373
X-403.35 Y-34.689 I2.313 J1.268
G1 Y-34.257
X-403.358 Y-34.108
X-403.38 Y-33.959
X-403.419 Y-33.815
X-403.472 Y-33.674
X-403.535 Y-33.538
X-403.766 Y-33.199
X-404.053 Y-32.907
X-404.388 Y-32.669
X-404.758 Y-32.494
X-405.154 Y-32.386
X-405.563 Y-32.35
G3 X-407.228 Y-35.004 I0.066 J-1.891
X-403.35 Y-34.257 I1.853 J0.817
G1 Y-33.836
X-403.358 Y-33.686
X-403.384 Y-33.538
X-403.43 Y-33.396
X-403.489 Y-33.257
X-403.661 Y-32.999
X-403.876 Y-32.776
X-404.127 Y-32.594
X-404.407 Y-32.46
X-404.706 Y-32.378
X-405.015 Y-32.35
G3 X-406.323 Y-34.351 I0.051 J-1.461
X-403.35 Y-33.836 I1.432 J0.569
G1 X-403.352 Y-33.569
X-403.375 Y-33.379
X-403.426 Y-33.197
X-403.518 Y-33
X-403.637 Y-32.827
X-403.714 Y-32.741
X-403.807 Y-32.655
X-403.85 Y-32.62
X-404.019 Y-32.508
X-404.188 Y-32.431
X-404.379 Y-32.376
X-404.569 Y-32.352
X-404.95 Y-32.35
X-407.68
X-407.83 Y-32.357
X-407.979 Y-32.371
X-408.128 Y-32.393
X-408.274 Y-32.424
X-408.665 Y-32.567
X-409.026 Y-32.772
X-409.35 Y-33.033
X-409.628 Y-33.342
X-409.852 Y-33.693
X-410.016 Y-34.075
X-410.116 Y-34.478
X-410.15 Y-34.893
G3 X-407.082 Y-37.108 I2.394 J0.084
X-407.68 Y-32.35 I-0.683 J2.331
G1 X-408.301
X-408.451 Y-32.357
X-408.6 Y-32.374
X-408.746 Y-32.408
X-408.89 Y-32.452
X-409.194 Y-32.609
X-409.469 Y-32.814
X-409.704 Y-33.062
X-409.895 Y-33.346
X-410.035 Y-33.659
X-410.121 Y-33.99
X-410.15 Y-34.332
G3 X-407.762 Y-35.975 I1.803 J0.063
X-408.301 Y-32.35 I-0.604 J1.763
G1 X-408.759
X-408.909 Y-32.36
X-409.057 Y-32.385
X-409.201 Y-32.427
X-409.467 Y-32.57
X-409.7 Y-32.762
X-409.891 Y-32.996
X-410.033 Y-33.262
X-410.12 Y-33.551
X-410.15 Y-33.852
G3 X-408.341 Y-35.086 I1.358 J0.047
X-408.759 Y-32.35 I-0.467 J1.329
G1 X-408.95 Y-32.353
X-409.14 Y-32.379
X-409.331 Y-32.437
X-409.521 Y-32.53
X-409.652 Y-32.62
X-409.793 Y-32.749
X-409.902 Y-32.877
X-409.982 Y-33
X-410.071 Y-33.19
X-410.125 Y-33.379
X-410.148 Y-33.569
X-410.15 Y-33.759
Y-35.378
X-410.133 Y-35.485 Z-25.492
X-410.116 Y-35.59 Z-25.47
X-410.099 Y-35.691 Z-25.433
X-410.063 Y-35.775 Z-25.385
X-410.029 Y-35.852 Z-25.325
X-409.999 Y-35.921 Z-25.255
X-409.973 Y-35.982 Z-25.175
X-409.943 Y-36.025 Z-25.092
X-409.92 Y-36.06 Z-25.003
X-409.903 Y-36.085 Z-24.909
X-409.893 Y-36.1 Z-24.813
X-409.889 Y-36.105 Z-24.715
G0 Z5
X-245.81 Y-50.605
Z3.82
G1 Z2.55 F849.6
Z-25.5 F283.3
X-245.724 Y-50.583 F849.6
X-245.593 Y-50.53
X-245.462 Y-50.458
X-245.343 Y-50.375
X-245.262 Y-50.299
X-245.235 Y-50.27
X-245.372 Y-50.21
X-245.513 Y-50.158
X-245.655 Y-50.11
X-245.825 Y-50.059
X-246.033 Y-50.002
X-246.287 Y-49.941
X-246.599 Y-49.875
X-246.988 Y-49.805
X-247.481 Y-49.729
X-248.127 Y-49.65
X-249.016 Y-49.565
X-250.347 Y-49.477
X-250.544 Y-49.497
X-250.723 Y-49.581
X-250.864 Y-49.72
X-250.951 Y-49.897
X-250.974 Y-50.094
X-250.931 Y-50.287
X-250.827 Y-50.455
X-250.672 Y-50.579
X-250.486 Y-50.644
X-249.7 Y-50.639
X-246.091 Y-50.614
G3 X-245.262 Y-50.299 I-0.009 J1.27
G1 X-245.186 Y-50.227
X-245.113 Y-50.134
X-245.098 Y-50.114
X-245.22 Y-50.027
X-245.346 Y-49.946
X-245.476 Y-49.87
X-245.608 Y-49.799
X-245.75 Y-49.729
X-245.897 Y-49.661
X-246.075 Y-49.585
X-246.269 Y-49.509
X-246.489 Y-49.429
X-246.757 Y-49.341
X-247.033 Y-49.258
X-247.372 Y-49.168
X-247.79 Y-49.068
X-248.127 Y-48.998
X-248.374 Y-48.954
X-248.6 Y-48.92
X-248.797 Y-48.896
X-248.963 Y-48.881
X-249.113 Y-48.872
X-249.263 Y-48.867
X-249.413
X-249.659 Y-48.912
X-249.883 Y-49.024
X-250.067 Y-49.194
X-250.197 Y-49.409
X-250.261 Y-49.651
X-250.256 Y-49.902
X-250.182 Y-50.141
X-250.043 Y-50.35
X-249.852 Y-50.512
X-249.624 Y-50.615
X-249.376 Y-50.65
G3 X-245.144 Y-50.153 I-0.907 J25.984
G1 X-245.127 Y-50.146
X-245.113 Y-50.134
X-245.069 Y-50.079
X-244.962 Y-49.889
X-244.952 Y-49.853
X-245.065 Y-49.755
X-245.181 Y-49.661
X-245.302 Y-49.571
X-245.425 Y-49.485
X-245.55 Y-49.402
X-245.691 Y-49.316
X-245.848 Y-49.225
X-246.016 Y-49.134
X-246.202 Y-49.041
X-246.395 Y-48.95
X-246.593 Y-48.864
X-246.794 Y-48.783
X-246.995 Y-48.709
X-247.193 Y-48.642
X-247.387 Y-48.583
X-247.576 Y-48.531
X-247.741 Y-48.49
X-247.888 Y-48.459
X-248.035 Y-48.431
X-248.184 Y-48.409
X-248.333 Y-48.392
X-248.482 Y-48.379
X-248.632 Y-48.373
X-248.782 Y-48.374
X-249.068 Y-48.429
X-249.331 Y-48.555
X-249.553 Y-48.744
X-249.72 Y-48.983
X-249.821 Y-49.256
X-249.849 Y-49.546
X-249.803 Y-49.834
X-249.685 Y-50.101
X-249.504 Y-50.329
X-249.27 Y-50.503
X-249 Y-50.613
X-248.711 Y-50.65
G3 X-245.01 Y-49.928 I-0.419 J11.993
G1 X-244.983 Y-49.913
X-244.962 Y-49.889
X-244.894 Y-49.699
X-244.876 Y-49.602
X-244.871 Y-49.567
X-244.972 Y-49.456
X-245.077 Y-49.349
X-245.186 Y-49.246
X-245.299 Y-49.147
X-245.415 Y-49.052
X-245.534 Y-48.961
X-245.656 Y-48.873
X-245.783 Y-48.787
X-245.916 Y-48.701
X-246.054 Y-48.619
X-246.195 Y-48.54
X-246.337 Y-48.465
X-246.48 Y-48.396
X-246.623 Y-48.33
X-246.766 Y-48.27
X-246.906 Y-48.216
X-247.048 Y-48.166
X-247.191 Y-48.12
X-247.335 Y-48.078
X-247.48 Y-48.041
X-247.627 Y-48.009
X-247.774 Y-47.984
X-247.923 Y-47.964
X-248.073 Y-47.952
X-248.223 Y-47.946
X-248.372 Y-47.95
X-248.522 Y-47.963
X-248.67 Y-47.984
X-248.817 Y-48.016
X-249.51 Y-48.225
X-249.779 Y-48.342
X-250.013 Y-48.519
X-250.198 Y-48.747
X-250.325 Y-49.011
X-250.386 Y-49.298
X-250.378 Y-49.592
X-250.302 Y-49.875
X-250.16 Y-50.132
X-249.962 Y-50.349
X-249.719 Y-50.513
X-249.444 Y-50.615
X-249.153 Y-50.65
G3 X-244.9 Y-49.632 I-0.384 J10.993
G1 X-244.884 Y-49.62
X-244.876 Y-49.602
X-244.858 Y-49.51
X-244.85 Y-49.32
Y-49.285
X-244.852 Y-49.243
X-244.94 Y-49.122
X-245.034 Y-49.004
X-245.133 Y-48.892
X-245.236 Y-48.783
X-245.344 Y-48.679
X-245.455 Y-48.579
X-245.571 Y-48.482
X-245.689 Y-48.39
X-245.811 Y-48.302
X-245.935 Y-48.218
X-246.062 Y-48.139
X-246.191 Y-48.063
X-246.324 Y-47.992
X-246.458 Y-47.925
X-246.594 Y-47.863
X-246.733 Y-47.806
X-246.874 Y-47.754
X-247.016 Y-47.707
X-247.16 Y-47.665
X-247.306 Y-47.629
X-247.453 Y-47.598
X-247.601 Y-47.574
X-247.75 Y-47.557
X-247.899 Y-47.546
X-248.049 Y-47.541
X-248.199 Y-47.54
X-248.349 Y-47.544
X-248.499 Y-47.554
X-248.648 Y-47.57
X-248.797 Y-47.59
X-248.944 Y-47.617
X-249.09 Y-47.652
X-249.234 Y-47.694
X-249.376 Y-47.744
X-249.66 Y-47.891
X-249.906 Y-48.095
X-250.104 Y-48.346
X-250.244 Y-48.634
X-250.321 Y-48.945
X-250.329 Y-49.264
X-250.27 Y-49.579
X-250.146 Y-49.874
X-249.962 Y-50.136
X-249.727 Y-50.353
X-249.451 Y-50.515
X-249.148 Y-50.616
X-248.83 Y-50.65
G3 X-244.981 Y-49.508 I-0.279 J7.995
X-244.85 Y-49.285 I-0.14 J0.232
G1 Y-48.906
X-244.852 Y-48.872
X-244.931 Y-48.744
X-245.016 Y-48.621
X-245.108 Y-48.503
X-245.206 Y-48.389
X-245.308 Y-48.279
X-245.416 Y-48.174
X-245.527 Y-48.074
X-245.642 Y-47.978
X-245.762 Y-47.887
X-245.884 Y-47.8
X-246.01 Y-47.719
X-246.139 Y-47.642
X-246.27 Y-47.57
X-246.405 Y-47.503
X-246.541 Y-47.442
X-246.68 Y-47.385
X-246.822 Y-47.334
X-246.964 Y-47.288
X-247.109 Y-47.248
X-247.254 Y-47.212
X-247.401 Y-47.182
X-247.549 Y-47.156
X-247.698 Y-47.136
X-247.847 Y-47.122
X-247.997 Y-47.113
X-248.147 Y-47.11
X-248.297 Y-47.112
X-248.447 Y-47.121
X-248.596 Y-47.137
X-248.744 Y-47.16
X-248.891 Y-47.189
X-249.036 Y-47.227
X-249.179 Y-47.273
X-249.319 Y-47.326
X-250.541 Y-47.881
X-250.548 Y-47.883
X-250.863 Y-48.035
X-251.138 Y-48.249
X-251.362 Y-48.517
X-251.525 Y-48.825
X-251.62 Y-49.161
X-251.642 Y-49.51
G3 X-250.295 Y-50.493 I1.238 J0.282
G1 X-246.011 Y-50.127
G3 X-244.85 Y-48.906 I-0.108 J1.265
G1 Y-48.561
X-244.855 Y-48.469
X-244.929 Y-48.339
X-245.01 Y-48.213
X-245.099 Y-48.092
X-245.193 Y-47.975
X-245.294 Y-47.864
X-245.399 Y-47.757
X-245.509 Y-47.655
X-245.624 Y-47.558
X-245.742 Y-47.467
X-245.864 Y-47.38
X-245.99 Y-47.298
X-246.119 Y-47.221
X-246.25 Y-47.149
X-246.385 Y-47.082
X-246.521 Y-47.02
X-246.66 Y-46.963
X-246.801 Y-46.911
X-246.943 Y-46.864
X-247.088 Y-46.823
X-247.233 Y-46.787
X-247.38 Y-46.756
X-247.528 Y-46.731
X-247.677 Y-46.711
X-247.826 Y-46.698
X-247.976 Y-46.69
X-248.126 Y-46.688
X-248.276 Y-46.692
X-248.425 Y-46.703
X-248.575 Y-46.719
X-248.755 Y-46.744
X-248.964 Y-46.778
X-249.183 Y-46.821
X-249.386 Y-46.867
X-249.553 Y-46.909
X-249.697 Y-46.95
X-249.84 Y-46.996
X-249.974 Y-47.043
X-250.338 Y-47.205
X-250.671 Y-47.422
X-250.966 Y-47.69
X-251.215 Y-48.001
X-251.411 Y-48.348
X-251.549 Y-48.721
X-251.627 Y-49.112
X-251.642 Y-49.51
G3 X-250.196 Y-50.48 I1.238 J0.282
G1 X-245.911 Y-49.769
G3 X-244.85 Y-48.561 I-0.208 J1.253
G1 Y-48.181
X-244.854 Y-48.093
X-244.922 Y-47.959
X-244.999 Y-47.83
X-245.083 Y-47.706
X-245.174 Y-47.587
X-245.272 Y-47.473
X-245.375 Y-47.364
X-245.483 Y-47.26
X-245.595 Y-47.161
X-245.712 Y-47.067
X-245.833 Y-46.978
X-245.958 Y-46.894
X-246.085 Y-46.816
X-246.216 Y-46.742
X-246.349 Y-46.673
X-246.485 Y-46.61
X-246.624 Y-46.552
X-246.764 Y-46.499
X-246.906 Y-46.451
X-247.05 Y-46.409
X-247.196 Y-46.373
X-247.342 Y-46.341
X-247.49 Y-46.315
X-247.638 Y-46.294
X-247.788 Y-46.277
X-247.937 Y-46.265
X-248.088 Y-46.257
X-248.24 Y-46.253
X-248.393 Y-46.254
X-248.544 Y-46.259
X-248.694 Y-46.268
X-248.843 Y-46.282
X-248.994 Y-46.301
X-249.142 Y-46.323
X-249.29 Y-46.351
X-249.436 Y-46.384
X-249.581 Y-46.422
X-249.725 Y-46.465
X-249.867 Y-46.513
X-250.007 Y-46.568
X-250.405 Y-46.783
X-250.763 Y-47.06
X-251.071 Y-47.393
X-251.319 Y-47.772
X-251.501 Y-48.186
X-251.613 Y-48.625
X-251.65 Y-49.077
G3 X-250.12 Y-50.275 I1.269 J0.044
G1 X-245.858 Y-49.38
G3 X-244.85 Y-48.181 I-0.261 J1.243
G1 Y-47.839
X-244.857 Y-47.689
X-244.923 Y-47.554
X-244.998 Y-47.424
X-245.081 Y-47.299
X-245.17 Y-47.179
X-245.266 Y-47.064
X-245.368 Y-46.954
X-245.475 Y-46.849
X-245.587 Y-46.749
X-245.704 Y-46.654
X-245.824 Y-46.564
X-245.948 Y-46.48
X-246.075 Y-46.4
X-246.205 Y-46.326
X-246.339 Y-46.257
X-246.474 Y-46.193
X-246.612 Y-46.134
X-246.752 Y-46.08
X-246.894 Y-46.031
X-247.037 Y-45.986
X-247.182 Y-45.946
X-247.327 Y-45.911
X-247.474 Y-45.881
X-247.622 Y-45.855
X-247.77 Y-45.833
X-247.919 Y-45.816
X-248.069 Y-45.804
X-248.219 Y-45.796
X-248.369 Y-45.793
X-248.519 Y-45.794
X-248.669 Y-45.801
X-248.818 Y-45.812
X-248.967 Y-45.828
X-249.116 Y-45.85
X-249.263 Y-45.877
X-249.41 Y-45.91
X-249.555 Y-45.948
X-249.698 Y-45.992
X-249.84 Y-46.042
X-249.979 Y-46.096
X-250.385 Y-46.318
X-250.749 Y-46.603
X-251.061 Y-46.944
X-251.314 Y-47.331
X-251.499 Y-47.755
X-251.612 Y-48.203
X-251.65 Y-48.664
G3 X-250.139 Y-49.866 I1.269 J0.044
G1 X-245.878 Y-49.041
G3 X-244.85 Y-47.839 I-0.241 J1.247
G1 Y-47.453
X-244.857 Y-47.303
X-244.919 Y-47.167
X-244.991 Y-47.035
X-245.071 Y-46.908
X-245.158 Y-46.786
X-245.252 Y-46.669
X-245.352 Y-46.558
X-245.458 Y-46.451
X-245.569 Y-46.35
X-245.684 Y-46.253
X-245.803 Y-46.162
X-245.925 Y-46.076
X-246.051 Y-45.994
X-246.18 Y-45.918
X-246.312 Y-45.846
X-246.446 Y-45.779
X-246.583 Y-45.717
X-246.721 Y-45.659
X-246.862 Y-45.607
X-247.004 Y-45.559
X-247.147 Y-45.515
X-247.292 Y-45.476
X-247.438 Y-45.442
X-247.585 Y-45.413
X-247.733 Y-45.388
X-247.882 Y-45.368
X-248.031 Y-45.353
X-248.181 Y-45.343
X-248.331 Y-45.338
X-248.481 Y-45.337
X-248.631 Y-45.342
X-248.78 Y-45.351
X-248.93 Y-45.366
X-249.078 Y-45.387
X-249.226 Y-45.413
X-249.373 Y-45.445
X-249.518 Y-45.481
X-249.662 Y-45.525
X-249.803 Y-45.574
X-249.943 Y-45.628
X-250.081 Y-45.688
X-250.465 Y-45.917
X-250.807 Y-46.204
X-251.1 Y-46.542
X-251.336 Y-46.922
X-251.509 Y-47.334
X-251.615 Y-47.769
X-251.65 Y-48.214
G3 X-250.158 Y-49.42 I1.269 J0.044
G1 X-245.896 Y-48.659
G3 X-244.85 Y-47.453 I-0.223 J1.25
G1 Y-47.112
X-244.857 Y-46.962
X-244.91 Y-46.822
X-244.975 Y-46.686
X-245.048 Y-46.556
X-245.131 Y-46.43
X-245.22 Y-46.31
X-245.316 Y-46.194
X-245.418 Y-46.084
X-245.525 Y-45.979
X-245.636 Y-45.879
X-245.752 Y-45.783
X-245.872 Y-45.693
X-245.995 Y-45.607
X-246.121 Y-45.527
X-246.251 Y-45.451
X-246.383 Y-45.38
X-246.517 Y-45.313
X-246.654 Y-45.252
X-246.793 Y-45.195
X-246.934 Y-45.143
X-247.076 Y-45.096
X-247.22 Y-45.053
X-247.365 Y-45.015
X-247.511 Y-44.982
X-247.659 Y-44.954
X-247.807 Y-44.931
X-247.956 Y-44.912
X-248.105 Y-44.899
X-248.255 Y-44.89
X-248.405 Y-44.887
X-248.555 Y-44.888
X-248.705 Y-44.895
X-248.854 Y-44.907
X-249.003 Y-44.924
X-249.151 Y-44.947
X-249.299 Y-44.976
X-249.445 Y-45.01
X-249.589 Y-45.049
X-249.732 Y-45.095
X-249.873 Y-45.147
X-250.251 Y-45.336
X-250.597 Y-45.578
X-250.904 Y-45.869
X-251.165 Y-46.202
X-251.373 Y-46.569
X-251.526 Y-46.964
X-251.619 Y-47.376
X-251.65 Y-47.798
G3 X-250.179 Y-49.007 I1.269 J0.044
G1 X-245.917 Y-48.321
G3 X-244.85 Y-47.112 I-0.202 J1.254
G1 Y-46.738
X-244.857 Y-46.588
X-244.906 Y-46.446
X-244.966 Y-46.309
X-245.036 Y-46.177
X-245.115 Y-46.049
X-245.201 Y-45.926
X-245.294 Y-45.808
X-245.393 Y-45.695
X-245.497 Y-45.588
X-245.606 Y-45.485
X-245.72 Y-45.387
X-245.837 Y-45.293
X-245.958 Y-45.205
X-246.083 Y-45.121
X-246.211 Y-45.043
X-246.341 Y-44.969
X-246.474 Y-44.9
X-246.61 Y-44.835
X-246.748 Y-44.776
X-246.887 Y-44.721
X-247.029 Y-44.671
X-247.172 Y-44.626
X-247.316 Y-44.586
X-247.462 Y-44.55
X-247.609 Y-44.519
X-247.757 Y-44.494
X-247.905 Y-44.473
X-248.054 Y-44.457
X-248.204 Y-44.446
X-248.354 Y-44.44
X-248.504
X-248.654 Y-44.444
X-248.803 Y-44.454
X-248.952 Y-44.47
X-249.101 Y-44.491
X-249.249 Y-44.517
X-249.395 Y-44.55
X-249.54 Y-44.589
X-249.683 Y-44.633
X-249.825 Y-44.682
X-250.213 Y-44.873
X-250.568 Y-45.12
X-250.883 Y-45.416
X-251.151 Y-45.756
X-251.366 Y-46.131
X-251.522 Y-46.534
X-251.618 Y-46.956
X-251.65 Y-47.387
G3 X-250.19 Y-48.598 I1.269 J0.044
G1 X-245.928 Y-47.949
G3 X-244.85 Y-46.738 I-0.191 J1.256
G1 Y-46.374
X-244.857 Y-46.224
X-244.899 Y-46.08
X-244.954 Y-45.94
X-245.019 Y-45.805
X-245.094 Y-45.675
X-245.176 Y-45.55
X-245.265 Y-45.429
X-245.361 Y-45.313
X-245.462 Y-45.202
X-245.568 Y-45.097
X-245.679 Y-44.996
X-245.794 Y-44.9
X-245.913 Y-44.808
X-246.036 Y-44.722
X-246.162 Y-44.64
X-246.291 Y-44.563
X-246.422 Y-44.491
X-246.556 Y-44.424
X-246.693 Y-44.362
X-246.831 Y-44.304
X-246.972 Y-44.252
X-247.114 Y-44.204
X-247.258 Y-44.161
X-247.403 Y-44.122
X-247.549 Y-44.089
X-247.696 Y-44.061
X-247.844 Y-44.038
X-247.993 Y-44.019
X-248.143 Y-44.006
X-248.292 Y-43.998
X-248.442 Y-43.995
X-248.592 Y-43.997
X-248.742 Y-44.005
X-248.892 Y-44.018
X-249.04 Y-44.038
X-249.188 Y-44.062
X-249.335 Y-44.092
X-249.481 Y-44.129
X-249.624 Y-44.172
X-249.767 Y-44.22
X-249.907 Y-44.274
X-250.279 Y-44.47
X-250.619 Y-44.718
X-250.92 Y-45.013
X-251.175 Y-45.348
X-251.38 Y-45.716
X-251.529 Y-46.11
X-251.62 Y-46.521
X-251.65 Y-46.941
G3 X-250.213 Y-48.156 I1.269 J0.044
G1 X-245.952 Y-47.588
G3 X-244.85 Y-46.374 I-0.168 J1.259
G1 Y-45.994
X-244.857 Y-45.844
X-244.894 Y-45.699
X-244.945 Y-45.558
X-245.006 Y-45.421
X-245.077 Y-45.289
X-245.156 Y-45.161
X-245.242 Y-45.039
X-245.335 Y-44.921
X-245.434 Y-44.808
X-245.538 Y-44.7
X-245.647 Y-44.596
X-245.76 Y-44.498
X-245.877 Y-44.404
X-245.998 Y-44.316
X-246.122 Y-44.232
X-246.25 Y-44.153
X-246.38 Y-44.078
X-246.513 Y-44.009
X-246.649 Y-43.944
X-246.786 Y-43.885
X-246.926 Y-43.83
X-247.067 Y-43.78
X-247.21 Y-43.735
X-247.355 Y-43.694
X-247.501 Y-43.659
X-247.647 Y-43.629
X-247.795 Y-43.604
X-247.944 Y-43.583
X-248.093 Y-43.568
X-248.243 Y-43.558
X-248.393 Y-43.554
X-248.543
X-248.693 Y-43.56
X-248.842 Y-43.571
X-248.991 Y-43.588
X-249.139 Y-43.611
X-249.287 Y-43.64
X-249.433 Y-43.674
X-249.577 Y-43.714
X-249.72 Y-43.761
X-249.861 Y-43.812
X-249.999 Y-43.87
X-250.402 Y-44.101
X-250.762 Y-44.393
X-251.07 Y-44.739
X-251.319 Y-45.131
X-251.501 Y-45.558
X-251.613 Y-46.008
X-251.65 Y-46.47
G3 X-250.24 Y-47.688 I1.269 J0.044
G1 X-245.978 Y-47.212
G3 X-244.85 Y-45.994 I-0.141 J1.262
G1 Y-45.593
X-244.857 Y-45.443
X-244.891 Y-45.297
X-244.939 Y-45.155
X-244.998 Y-45.017
X-245.067 Y-44.884
X-245.144 Y-44.755
X-245.229 Y-44.631
X-245.32 Y-44.512
X-245.417 Y-44.398
X-245.519 Y-44.288
X-245.627 Y-44.183
X-245.739 Y-44.084
X-245.855 Y-43.989
X-245.975 Y-43.898
X-246.098 Y-43.813
X-246.225 Y-43.732
X-246.354 Y-43.657
X-246.486 Y-43.586
X-246.621 Y-43.52
X-246.758 Y-43.459
X-246.897 Y-43.403
X-247.038 Y-43.351
X-247.181 Y-43.305
X-247.325 Y-43.263
X-247.47 Y-43.227
X-247.617 Y-43.195
X-247.764 Y-43.168
X-247.913 Y-43.147
X-248.062 Y-43.131
X-248.212 Y-43.119
X-248.361 Y-43.113
X-248.511 Y-43.112
X-248.661 Y-43.117
X-248.811 Y-43.127
X-248.96 Y-43.142
X-249.109 Y-43.163
X-249.256 Y-43.191
X-249.403 Y-43.223
X-249.548 Y-43.261
X-249.691 Y-43.306
X-249.832 Y-43.357
X-249.971 Y-43.412
X-250.108 Y-43.474
X-250.486 Y-43.706
X-250.823 Y-43.994
X-251.111 Y-44.331
X-251.342 Y-44.709
X-251.512 Y-45.118
X-251.615 Y-45.549
X-251.65 Y-45.991
G3 X-250.263 Y-47.212 I1.269 J0.044
G1 X-246.001 Y-46.813
G3 X-244.85 Y-45.593 I-0.118 J1.264
G1 Y-45.208
X-244.857 Y-45.059
X-244.886 Y-44.911
X-244.929 Y-44.768
X-244.984 Y-44.628
X-245.049 Y-44.493
X-245.123 Y-44.363
X-245.205 Y-44.237
X-245.294 Y-44.116
X-245.389 Y-44
X-245.489 Y-43.888
X-245.595 Y-43.782
X-245.705 Y-43.68
X-245.82 Y-43.583
X-245.938 Y-43.491
X-246.06 Y-43.404
X-246.185 Y-43.321
X-246.314 Y-43.244
X-246.445 Y-43.171
X-246.579 Y-43.103
X-246.715 Y-43.04
X-246.853 Y-42.982
X-246.993 Y-42.929
X-247.135 Y-42.881
X-247.279 Y-42.837
X-247.424 Y-42.799
X-247.57 Y-42.765
X-247.717 Y-42.737
X-247.866 Y-42.713
X-248.014 Y-42.695
X-248.164 Y-42.682
X-248.314 Y-42.674
X-248.464 Y-42.671
X-248.614 Y-42.673
X-248.763 Y-42.681
X-248.913 Y-42.694
X-249.062 Y-42.712
X-249.21 Y-42.737
X-249.357 Y-42.767
X-249.502 Y-42.803
X-249.646 Y-42.844
X-249.789 Y-42.892
X-249.929 Y-42.946
X-249.956 Y-42.958
X-250.367 Y-43.175
X-250.735 Y-43.458
X-251.052 Y-43.798
X-251.308 Y-44.186
X-251.496 Y-44.611
X-251.611 Y-45.061
X-251.65 Y-45.524
G3 X-250.287 Y-46.747 I1.269 J0.044
G1 X-246.025 Y-46.431
G3 X-244.85 Y-45.208 I-0.094 J1.267
G1 Y-44.794
X-244.857 Y-44.644
X-244.884 Y-44.496
X-244.925 Y-44.352
X-244.979 Y-44.212
X-245.043 Y-44.076
X-245.116 Y-43.945
X-245.196 Y-43.819
X-245.284 Y-43.697
X-245.378 Y-43.58
X-245.477 Y-43.468
X-245.582 Y-43.36
X-245.691 Y-43.258
X-245.805 Y-43.16
X-245.923 Y-43.067
X-246.044 Y-42.979
X-246.169 Y-42.896
X-246.297 Y-42.817
X-246.427 Y-42.743
X-246.561 Y-42.675
X-246.696 Y-42.611
X-246.834 Y-42.552
X-246.974 Y-42.498
X-247.116 Y-42.448
X-247.259 Y-42.404
X-247.404 Y-42.365
X-247.55 Y-42.33
X-247.697 Y-42.301
X-247.845 Y-42.276
X-247.994 Y-42.257
X-248.143 Y-42.242
X-248.293 Y-42.233
X-248.443 Y-42.229
X-248.593 Y-42.23
X-248.742 Y-42.236
X-248.892 Y-42.248
X-249.041 Y-42.266
X-249.189 Y-42.29
X-249.336 Y-42.319
X-249.482 Y-42.353
X-249.627 Y-42.394
X-249.769 Y-42.44
X-250.167 Y-42.622
X-250.532 Y-42.862
X-250.857 Y-43.155
X-251.133 Y-43.494
X-251.355 Y-43.87
X-251.518 Y-44.276
X-251.617 Y-44.702
X-251.65 Y-45.138
G3 X-250.279 Y-46.36 I1.269 J0.044
