%
(1001)
(origin stock bottom)
(T1  D=12.7 CR=0 - ZMIN=7 - flat end mill)
G90 G94
G17
G21

(2D Adaptive7)
M9
T1 M6
S6000 M3
G54
G0 X-290.812 Y-35.458
Z33
Z23
Z20.55
G3 X-302.699 Y-33.389 Z17.208 I-5.943 J1.034 F283.3
X-290.812 Y-35.458 Z13.867 I5.943 J-1.034
X-302.699 Y-33.389 Z10.525 I-5.943 J1.034
X-297.275 Y-40.434 Z8.762 I5.943 J-1.034
X-290.723 Y-34.424 Z7 I0.519 J6.01
X-302.788 I-6.033
X-290.723 I6.033
G1 X-290.719 Y-34.101 F849.6
X-290.608 Y-32.813
X-290.563 Y-32.67
X-290.528 Y-32.524
X-290.502 Y-32.377
X-290.485 Y-32.223
X-290.474 Y-32.056
X-290.473 Y-31.877
X-290.483 Y-31.686
X-290.503 Y-31.483
X-290.537 Y-31.271
X-290.584 Y-31.049
X-290.647 Y-30.819
X-290.725 Y-30.581
X-290.82 Y-30.338
X-290.933 Y-30.091
X-291.064 Y-29.841
X-291.213 Y-29.59
X-291.381 Y-29.339
X-291.568 Y-29.09
X-291.774 Y-28.845
X-291.998 Y-28.606
X-292.241 Y-28.373
X-292.502 Y-28.15
X-292.78 Y-27.936
X-293.075 Y-27.734
X-293.385 Y-27.545
X-293.71 Y-27.371
X-294.049 Y-27.212
X-294.401 Y-27.07
X-294.764 Y-26.946
X-295.137 Y-26.84
X-295.519 Y-26.754
X-295.908 Y-26.688
X-296.304 Y-26.643
X-296.705 Y-26.62
X-297.108 Y-26.618
X-297.514 Y-26.638
X-297.92 Y-26.681
X-298.325 Y-26.746
X-298.728 Y-26.832
X-299.127 Y-26.941
X-299.521 Y-27.072
X-299.909 Y-27.225
X-300.289 Y-27.399
X-300.659 Y-27.594
X-301.02 Y-27.809
X-301.369 Y-28.043
X-301.705 Y-28.297
X-302.028 Y-28.569
X-302.336 Y-28.859
X-302.628 Y-29.165
X-302.904 Y-29.487
X-303.161 Y-29.824
X-303.401 Y-30.175
X-303.621 Y-30.539
X-303.822 Y-30.914
X-304.002 Y-31.3
X-304.161 Y-31.695
X-304.298 Y-32.098
X-304.413 Y-32.509
X-304.506 Y-32.925
X-304.576 Y-33.346
X-304.624 Y-33.771
X-304.648 Y-34.197
X-304.649 Y-34.624
X-304.627 Y-35.051
X-304.582 Y-35.476
X-304.514 Y-35.898
X-304.423 Y-36.316
X-304.309 Y-36.728
X-304.174 Y-37.134
X-304.016 Y-37.532
X-303.838 Y-37.921
X-303.638 Y-38.299
X-303.418 Y-38.666
X-303.179 Y-39.021
X-302.92 Y-39.362
X-302.644 Y-39.689
X-302.35 Y-40
X-302.04 Y-40.295
X-301.714 Y-40.573
X-301.373 Y-40.833
X-301.019 Y-41.073
X-300.653 Y-41.295
X-300.275 Y-41.496
X-299.886 Y-41.676
X-299.489 Y-41.835
X-299.083 Y-41.972
X-298.671 Y-42.087
X-298.252 Y-42.18
X-297.83 Y-42.25
X-297.404 Y-42.296
X-296.977 Y-42.32
X-296.548
X-296.121 Y-42.298
X-295.695 Y-42.252
X-295.272 Y-42.183
X-294.854 Y-42.091
X-294.441 Y-41.977
X-294.035 Y-41.84
X-293.637 Y-41.682
X-293.248 Y-41.502
X-292.87 Y-41.301
X-292.503 Y-41.081
X-292.148 Y-40.84
X-291.807 Y-40.581
X-291.481 Y-40.304
X-291.17 Y-40.01
X-290.875 Y-39.699
X-290.598 Y-39.372
X-290.339 Y-39.031
X-290.099 Y-38.677
X-289.878 Y-38.309
X-289.677 Y-37.93
X-289.351 Y-37.225
X-289.027 Y-36.411
X-288.805 Y-35.752
X-288.642 Y-35.162
X-288.524 Y-34.626
X-288.441 Y-34.114
X-288.388 Y-33.626
X-288.363 Y-33.157
Y-32.701
X-288.388 Y-32.255
X-288.436 Y-31.817
X-288.507 Y-31.386
X-288.601 Y-30.962
X-288.717 Y-30.546
X-288.856 Y-30.137
X-289.016 Y-29.735
X-289.199 Y-29.341
X-289.404 Y-28.956
X-289.631 Y-28.58
X-289.88 Y-28.214
X-290.15 Y-27.86
X-290.441 Y-27.518
X-290.753 Y-27.19
X-291.086 Y-26.876
X-291.438 Y-26.578
X-291.808 Y-26.298
X-292.197 Y-26.035
X-292.602 Y-25.793
X-293.023 Y-25.571
X-293.459 Y-25.37
X-293.908 Y-25.192
X-294.37 Y-25.038
X-294.842 Y-24.908
X-295.324 Y-24.803
X-295.815 Y-24.724
X-296.311 Y-24.671
X-296.813 Y-24.645
X-297.319 Y-24.646
X-297.826 Y-24.675
X-298.333 Y-24.732
X-298.839 Y-24.816
X-299.342 Y-24.928
X-299.84 Y-25.068
X-300.331 Y-25.235
X-300.815 Y-25.43
X-301.288 Y-25.65
X-301.75 Y-25.897
X-302.199 Y-26.169
X-302.634 Y-26.466
X-303.053 Y-26.787
X-303.454 Y-27.13
X-303.837 Y-27.496
X-304.201 Y-27.882
X-304.543 Y-28.288
X-304.864 Y-28.713
X-305.161 Y-29.155
X-305.434 Y-29.613
X-305.682 Y-30.085
X-305.905 Y-30.571
X-306.101 Y-31.069
X-306.27 Y-31.577
X-306.411 Y-32.093
X-306.524 Y-32.617
X-306.608 Y-33.147
X-306.664 Y-33.68
X-306.691 Y-34.216
X-306.688 Y-34.753
X-306.657 Y-35.29
X-306.596 Y-35.824
X-306.507 Y-36.354
X-306.389 Y-36.879
X-306.243 Y-37.396
X-306.068 Y-37.905
X-305.867 Y-38.404
X-305.638 Y-38.892
X-305.384 Y-39.366
X-305.104 Y-39.826
X-304.799 Y-40.27
X-304.471 Y-40.697
X-304.12 Y-41.106
X-303.748 Y-41.495
X-303.355 Y-41.864
X-302.942 Y-42.211
X-302.511 Y-42.534
X-302.064 Y-42.834
X-301.6 Y-43.11
X-301.123 Y-43.36
X-300.632 Y-43.583
X-300.13 Y-43.78
X-299.618 Y-43.949
X-299.098 Y-44.09
X-298.571 Y-44.203
X-298.038 Y-44.287
X-297.502 Y-44.342
X-296.963 Y-44.368
X-296.424 Y-44.365
X-295.886 Y-44.332
X-295.35 Y-44.27
X-294.819 Y-44.18
X-294.293 Y-44.061
X-293.774 Y-43.913
X-293.264 Y-43.737
X-292.765 Y-43.535
X-292.277 Y-43.305
X-291.802 Y-43.049
X-291.342 Y-42.768
X-290.897 Y-42.462
X-290.47 Y-42.133
X-290.062 Y-41.781
X-289.643 Y-41.379
X-289.239 Y-40.946
X-288.825 Y-40.451
X-288.423 Y-39.915
X-288.046 Y-39.35
X-287.701 Y-38.767
X-287.39 Y-38.171
X-287.116 Y-37.567
X-286.88 Y-36.96
X-286.68 Y-36.351
X-286.516 Y-35.744
X-286.388 Y-35.139
X-286.294 Y-34.539
X-286.234 Y-33.944
X-286.207 Y-33.355
X-286.212 Y-32.772
X-286.247 Y-32.195
X-286.314 Y-31.625
X-286.411 Y-31.063
X-286.538 Y-30.508
X-286.694 Y-29.963
X-286.879 Y-29.428
X-287.093 Y-28.903
X-287.336 Y-28.391
X-287.606 Y-27.892
X-287.903 Y-27.407
X-288.227 Y-26.937
X-288.578 Y-26.484
X-288.954 Y-26.049
X-289.354 Y-25.634
X-289.778 Y-25.239
X-290.225 Y-24.867
X-290.694 Y-24.517
X-291.183 Y-24.191
X-291.692 Y-23.892
X-292.219 Y-23.618
X-292.762 Y-23.373
X-293.321 Y-23.156
X-293.894 Y-22.969
X-294.479 Y-22.813
X-295.074 Y-22.688
X-295.678 Y-22.594
X-296.289 Y-22.534
X-296.906 Y-22.506
X-297.525 Y-22.512
X-298.147 Y-22.552
X-298.767 Y-22.626
X-299.385 Y-22.733
X-299.999 Y-22.875
X-300.605 Y-23.05
X-301.204 Y-23.258
X-301.792 Y-23.499
X-302.367 Y-23.773
X-302.928 Y-24.078
X-303.474 Y-24.413
X-304.001 Y-24.779
X-304.509 Y-25.173
X-304.996 Y-25.596
X-305.46 Y-26.044
X-305.899 Y-26.518
X-306.313 Y-27.016
X-306.7 Y-27.536
X-307.058 Y-28.078
X-307.387 Y-28.638
X-307.686 Y-29.216
X-307.953 Y-29.81
X-308.187 Y-30.419
X-308.389 Y-31.039
X-308.557 Y-31.67
X-308.69 Y-32.31
X-308.788 Y-32.956
X-308.852 Y-33.607
X-308.88 Y-34.261
X-308.872 Y-34.916
X-308.829 Y-35.57
X-308.751 Y-36.221
X-308.637 Y-36.867
X-308.489 Y-37.505
X-308.306 Y-38.136
X-308.089 Y-38.755
X-307.839 Y-39.362
X-307.556 Y-39.955
X-307.241 Y-40.531
X-306.896 Y-41.09
X-306.521 Y-41.629
X-306.117 Y-42.148
X-305.685 Y-42.644
X-305.227 Y-43.115
X-304.744 Y-43.561
X-304.238 Y-43.981
X-303.709 Y-44.372
X-303.16 Y-44.735
X-302.593 Y-45.066
X-302.008 Y-45.367
X-301.407 Y-45.636
X-300.793 Y-45.872
X-300.167 Y-46.074
X-299.531 Y-46.241
X-298.886 Y-46.375
X-298.236 Y-46.473
X-297.581 Y-46.535
X-296.923 Y-46.562
X-296.265 Y-46.553
X-295.609 Y-46.509
X-294.955 Y-46.429
X-294.307 Y-46.314
X-293.667 Y-46.164
X-293.035 Y-45.979
X-292.414 Y-45.761
X-291.806 Y-45.509
X-291.207 Y-45.222
X-290.618 Y-44.899
X-290.036 Y-44.538
X-289.461 Y-44.137
X-288.899 Y-43.697
X-288.354 Y-43.22
X-287.829 Y-42.708
X-287.326 Y-42.163
X-286.85 Y-41.585
X-286.403 Y-40.98
X-285.988 Y-40.349
X-285.609 Y-39.698
X-285.266 Y-39.028
X-284.962 Y-38.345
X-284.697 Y-37.651
X-284.472 Y-36.949
X-284.287 Y-36.242
X-284.141 Y-35.531
X-284.035 Y-34.818
X-283.968 Y-34.105
X-283.94 Y-33.394
X-283.951 Y-32.687
X-284 Y-31.984
X-284.086 Y-31.287
X-284.21 Y-30.598
X-284.37 Y-29.918
X-284.567 Y-29.249
X-284.8 Y-28.592
X-285.068 Y-27.948
X-285.37 Y-27.32
X-285.706 Y-26.709
X-286.076 Y-26.116
X-286.477 Y-25.543
X-286.91 Y-24.992
X-287.373 Y-24.464
X-287.866 Y-23.96
X-288.386 Y-23.483
X-288.933 Y-23.033
X-289.506 Y-22.612
X-290.102 Y-22.221
X-290.721 Y-21.862
X-291.361 Y-21.536
X-292.02 Y-21.244
X-292.696 Y-20.987
X-293.388 Y-20.767
X-294.093 Y-20.583
X-294.81 Y-20.438
X-295.537 Y-20.331
X-296.27 Y-20.264
X-297.009 Y-20.236
X-297.751 Y-20.248
X-298.494 Y-20.301
X-299.235 Y-20.394
X-299.973 Y-20.528
X-300.704 Y-20.702
X-301.426 Y-20.916
X-302.138 Y-21.169
X-302.837 Y-21.462
X-303.521 Y-21.792
X-304.187 Y-22.161
X-304.834 Y-22.565
X-305.459 Y-23.005
X-306.061 Y-23.479
X-306.637 Y-23.986
X-307.186 Y-24.524
X-307.705 Y-25.092
X-308.194 Y-25.689
X-308.65 Y-26.311
X-309.072 Y-26.959
X-309.459 Y-27.629
X-309.809 Y-28.319
X-310.122 Y-29.028
X-310.396 Y-29.754
X-310.631 Y-30.495
X-310.825 Y-31.247
X-310.978 Y-32.01
X-311.09 Y-32.78
X-311.16 Y-33.555
X-311.188 Y-34.334
X-311.174 Y-35.113
X-311.117 Y-35.891
X-311.018 Y-36.665
X-310.878 Y-37.432
X-310.696 Y-38.192
X-310.473 Y-38.94
X-310.209 Y-39.676
X-309.906 Y-40.396
X-309.565 Y-41.099
X-309.186 Y-41.783
X-308.77 Y-42.445
X-308.319 Y-43.084
X-307.833 Y-43.697
X-307.315 Y-44.284
X-306.766 Y-44.841
X-306.188 Y-45.368
X-305.582 Y-45.863
X-304.949 Y-46.325
X-304.293 Y-46.751
X-303.614 Y-47.142
X-302.916 Y-47.495
X-302.199 Y-47.81
X-301.465 Y-48.085
X-300.718 Y-48.32
X-299.96 Y-48.515
X-299.192 Y-48.668
X-298.416 Y-48.779
X-297.636 Y-48.848
X-296.853 Y-48.875
X-296.07 Y-48.859
X-295.289 Y-48.801
X-294.512 Y-48.7
X-293.741 Y-48.557
X-292.976 Y-48.373
X-292.219 Y-48.145
X-291.469 Y-47.875
X-290.728 Y-47.562
X-289.998 Y-47.206
X-289.281 Y-46.807
X-288.58 Y-46.365
X-287.897 Y-45.881
X-287.235 Y-45.356
X-286.598 Y-44.791
X-285.989 Y-44.189
X-285.411 Y-43.552
X-284.866 Y-42.882
X-284.357 Y-42.183
X-283.887 Y-41.457
X-283.457 Y-40.707
X-283.07 Y-39.936
X-282.726 Y-39.148
X-282.426 Y-38.345
X-282.17 Y-37.53
X-281.96 Y-36.705
X-281.796 Y-35.873
X-281.678 Y-35.036
X-281.605 Y-34.197
X-281.578 Y-33.358
X-281.596 Y-32.522
X-281.66 Y-31.689
X-281.768 Y-30.864
X-281.921 Y-30.046
X-282.117 Y-29.239
X-282.357 Y-28.445
X-282.639 Y-27.666
X-282.963 Y-26.903
X-283.328 Y-26.158
X-283.733 Y-25.434
X-284.177 Y-24.733
X-284.659 Y-24.056
X-285.178 Y-23.404
X-285.732 Y-22.781
X-286.32 Y-22.188
X-286.941 Y-21.627
X-287.592 Y-21.098
X-288.274 Y-20.605
X-288.982 Y-20.148
X-289.717 Y-19.729
X-290.475 Y-19.349
X-291.255 Y-19.01
X-292.055 Y-18.713
X-292.872 Y-18.458
X-293.704 Y-18.248
X-294.548 Y-18.083
X-295.403 Y-17.964
X-296.266 Y-17.89
X-297.134 Y-17.864
X-298.005 Y-17.884
X-298.875 Y-17.952
X-299.743 Y-18.068
X-300.606 Y-18.231
X-301.46 Y-18.44
X-302.304 Y-18.697
X-303.135 Y-18.999
X-303.95 Y-19.347
X-304.747 Y-19.739
X-305.523 Y-20.175
X-306.275 Y-20.653
X-307.002 Y-21.172
X-307.701 Y-21.731
X-308.369 Y-22.327
X-309.005 Y-22.96
X-309.607 Y-23.627
X-310.172 Y-24.327
X-310.699 Y-25.058
X-311.187 Y-25.817
X-311.633 Y-26.601
X-312.036 Y-27.41
X-312.395 Y-28.24
X-312.709 Y-29.09
X-312.977 Y-29.955
X-313.197 Y-30.835
X-313.37 Y-31.726
X-313.494 Y-32.625
X-313.569 Y-33.53
X-313.595 Y-34.439
X-313.572 Y-35.348
X-313.5 Y-36.255
X-313.378 Y-37.157
X-313.208 Y-38.051
X-312.989 Y-38.936
X-312.723 Y-39.807
X-312.41 Y-40.663
X-312.05 Y-41.501
X-311.646 Y-42.318
X-311.198 Y-43.113
X-310.707 Y-43.882
X-310.176 Y-44.624
X-309.604 Y-45.336
X-308.995 Y-46.016
X-308.35 Y-46.662
X-307.671 Y-47.272
X-306.96 Y-47.845
X-306.218 Y-48.378
X-305.449 Y-48.87
X-304.654 Y-49.32
X-303.835 Y-49.726
X-302.996 Y-50.088
X-302.139 Y-50.403
X-301.265 Y-50.671
X-300.378 Y-50.892
X-299.481 Y-51.064
X-298.575 Y-51.188
X-297.664 Y-51.262
X-296.75 Y-51.286
X-295.835 Y-51.261
X-294.92 Y-51.187
X-294.009 Y-51.062
X-293.102 Y-50.888
X-292.202 Y-50.664
X-291.31 Y-50.389
X-290.43 Y-50.065
X-289.563 Y-49.692
X-288.712 Y-49.269
X-287.88 Y-48.798
X-287.069 Y-48.279
X-286.282 Y-47.713
X-285.523 Y-47.101
X-284.795 Y-46.447
X-284.1 Y-45.751
X-283.443 Y-45.016
X-282.825 Y-44.245
X-282.249 Y-43.441
X-281.717 Y-42.607
X-281.231 Y-41.746
X-280.793 Y-40.86
X-280.405 Y-39.953
X-280.067 Y-39.028
X-279.78 Y-38.088
X-279.545 Y-37.136
X-279.362 Y-36.175
X-279.232 Y-35.208
X-279.155 Y-34.237
X-279.13 Y-33.266
X-279.158 Y-32.296
X-279.239 Y-31.331
X-279.371 Y-30.373
X-279.555 Y-29.425
X-279.79 Y-28.489
X-280.075 Y-27.568
X-280.41 Y-26.664
X-280.793 Y-25.78
X-281.223 Y-24.917
X-281.7 Y-24.079
X-282.222 Y-23.267
X-282.787 Y-22.484
X-283.395 Y-21.732
X-284.044 Y-21.012
X-284.732 Y-20.328
X-285.457 Y-19.682
X-286.217 Y-19.074
X-287.011 Y-18.507
X-287.837 Y-17.983
X-288.691 Y-17.503
X-289.572 Y-17.07
X-290.478 Y-16.684
X-291.406 Y-16.346
X-292.352 Y-16.059
X-293.316 Y-15.823
X-294.293 Y-15.639
X-295.281 Y-15.508
X-296.278 Y-15.43
X-297.279 Y-15.407
X-298.283 Y-15.438
X-299.286 Y-15.523
X-300.285 Y-15.663
X-301.277 Y-15.857
X-302.26 Y-16.106
X-303.229 Y-16.408
X-304.183 Y-16.763
X-305.118 Y-17.169
X-306.031 Y-17.627
X-306.919 Y-18.134
X-307.78 Y-18.69
X-308.611 Y-19.292
X-309.41 Y-19.94
X-310.173 Y-20.631
X-310.898 Y-21.363
X-311.584 Y-22.134
X-312.228 Y-22.942
X-312.827 Y-23.785
X-313.381 Y-24.661
X-313.886 Y-25.565
X-314.343 Y-26.497
X-314.748 Y-27.453
X-315.102 Y-28.43
X-315.402 Y-29.426
X-315.648 Y-30.437
X-315.839 Y-31.461
X-315.974 Y-32.494
X-316.053 Y-33.533
X-316.076 Y-34.576
X-316.042 Y-35.619
X-315.951 Y-36.659
X-315.805 Y-37.693
X-315.602 Y-38.718
X-315.344 Y-39.731
X-315.031 Y-40.729
X-314.665 Y-41.708
X-314.246 Y-42.667
X-313.775 Y-43.601
X-313.255 Y-44.509
X-312.686 Y-45.388
X-312.07 Y-46.234
X-311.409 Y-47.046
X-310.704 Y-47.822
X-309.959 Y-48.558
X-309.175 Y-49.252
X-308.354 Y-49.903
X-307.499 Y-50.509
X-306.612 Y-51.068
X-305.697 Y-51.578
X-304.754 Y-52.037
X-303.789 Y-52.445
X-302.802 Y-52.8
X-301.798 Y-53.101
X-300.779 Y-53.347
X-299.747 Y-53.537
X-298.706 Y-53.671
X-297.659 Y-53.749
X-296.607 Y-53.77
X-295.553 Y-53.734
X-294.5 Y-53.641
X-293.45 Y-53.49
X-292.406 Y-53.282
X-291.371 Y-53.016
X-290.348 Y-52.693
X-289.338 Y-52.314
X-288.346 Y-51.878
X-287.373 Y-51.386
X-286.425 Y-50.84
X-285.503 Y-50.24
X-284.611 Y-49.589
X-283.752 Y-48.888
X-282.93 Y-48.138
X-282.148 Y-47.344
X-281.409 Y-46.506
X-280.716 Y-45.629
X-280.07 Y-44.714
X-279.475 Y-43.765
X-278.932 Y-42.786
X-278.443 Y-41.779
X-278.01 Y-40.748
X-277.633 Y-39.696
X-277.315 Y-38.627
X-277.055 Y-37.543
X-276.855 Y-36.449
X-276.715 Y-35.347
X-276.635 Y-34.24
X-276.615 Y-33.132
X-276.654 Y-32.026
X-276.754 Y-30.926
X-276.913 Y-29.833
X-277.131 Y-28.751
X-277.407 Y-27.684
X-277.74 Y-26.633
X-278.13 Y-25.602
X-278.575 Y-24.594
X-279.074 Y-23.611
X-279.626 Y-22.656
X-280.229 Y-21.732
X-280.882 Y-20.841
X-281.583 Y-19.987
X-282.33 Y-19.17
X-283.121 Y-18.394
X-283.955 Y-17.661
X-284.828 Y-16.973
X-285.739 Y-16.332
X-286.685 Y-15.741
X-287.664 Y-15.201
X-288.672 Y-14.713
X-289.708 Y-14.28
X-290.767 Y-13.904
X-291.848 Y-13.584
X-292.456 Y-13.439
X-292.708 Y-13.39
X-292.963 Y-13.36
X-293.219 Y-13.35
X-298.724
X-300.015 Y-13.415
X-300.884 Y-13.49
X-301.776 Y-13.617
X-302.683 Y-13.796
X-303.622 Y-14.035
X-304.583 Y-14.336
X-305.556 Y-14.7
X-306.53 Y-15.125
X-307.497 Y-15.612
X-308.452 Y-16.159
X-309.387 Y-16.764
X-310.296 Y-17.426
X-311.176 Y-18.142
X-312.021 Y-18.909
X-312.827 Y-19.726
X-313.592 Y-20.589
X-314.311 Y-21.496
X-314.983 Y-22.443
X-315.604 Y-23.428
X-316.171 Y-24.448
X-316.684 Y-25.499
X-317.14 Y-26.578
X-317.537 Y-27.682
X-317.875 Y-28.808
X-318.151 Y-29.951
X-318.365 Y-31.109
X-318.516 Y-32.278
X-318.603 Y-33.454
X-318.627 Y-34.634
X-318.587 Y-35.814
X-318.482 Y-36.991
X-318.314 Y-38.161
X-318.083 Y-39.321
X-317.789 Y-40.467
X-317.433 Y-41.595
X-317.017 Y-42.704
X-316.541 Y-43.788
X-316.006 Y-44.845
X-315.416 Y-45.872
X-314.77 Y-46.865
X-314.071 Y-47.823
X-313.321 Y-48.741
X-312.522 Y-49.617
X-311.677 Y-50.449
X-310.788 Y-51.234
X-309.857 Y-51.97
X-308.888 Y-52.654
X-307.884 Y-53.285
X-306.846 Y-53.86
X-305.778 Y-54.378
X-305.194 Y-54.624
X-304.883 Y-54.737
X-304.563 Y-54.818
X-304.236 Y-54.866
X-296.059 Y-55.666
X-294.777 Y-55.727
X-293.986 Y-55.721
X-293.171 Y-55.672
X-292.289 Y-55.569
X-291.355 Y-55.41
X-290.384 Y-55.189
X-289.403 Y-54.909
X-288.414 Y-54.568
X-287.407 Y-54.158
X-286.392 Y-53.68
X-285.381 Y-53.134
X-284.381 Y-52.522
X-283.401 Y-51.847
X-282.448 Y-51.111
X-281.527 Y-50.317
X-280.643 Y-49.467
X-279.802 Y-48.565
X-279.008 Y-47.615
X-278.263 Y-46.619
X-277.571 Y-45.582
X-276.936 Y-44.506
X-276.359 Y-43.397
X-275.843 Y-42.257
X-275.389 Y-41.091
X-274.999 Y-39.902
X-274.675 Y-38.694
X-274.416 Y-37.471
X-274.224 Y-36.237
X-274.1 Y-34.995
X-274.043 Y-33.749
X-274.054 Y-32.503
X-274.132 Y-31.26
X-274.277 Y-30.024
X-274.489 Y-28.798
X-274.767 Y-27.586
X-274.917 Y-27.063
X-275.073 Y-26.633
X-275.288 Y-26.229
X-275.556 Y-25.858
X-275.872 Y-25.528
X-276.231 Y-25.245
X-276.626 Y-25.014
X-276.643 Y-25.005
X-277.024 Y-24.796
X-277.405 Y-24.547
X-277.785 Y-24.292
X-278.547 Y-23.585
X-278.594 Y-23.537
X-278.634 Y-23.49
X-279.197 Y-22.728
X-279.308 Y-22.566
X-279.425 Y-22.347
X-279.618 Y-21.966
X-279.689 Y-21.815
X-279.907 Y-21.204
X-280.014 Y-20.823
X-280.07 Y-20.561
X-280.216 Y-20.008
X-280.322 Y-19.682
X-280.464 Y-19.313
X-280.643 Y-18.914
X-280.862 Y-18.489
X-281.133 Y-18.028
X-281.456 Y-17.54
X-281.831 Y-17.034
X-282.288 Y-16.484
X-282.785 Y-15.948
X-283.365 Y-15.385
X-284.033 Y-14.806
X-284.76 Y-14.24
X-285.194 Y-13.939
X-285.625 Y-13.686
X-286.09 Y-13.501
X-286.577 Y-13.388
X-287.076 Y-13.35
X-293.219
G3 X-293.761 Y-15.746 I0.044 J-1.269
G1 X-281.906 Y-21.908
G3 X-280.07 Y-20.561 I0.586 J1.127
G1 X-280.095 Y-20.442
X-280.166 Y-20.061
X-280.192 Y-19.68
X-280.204 Y-19.299
X-280.167 Y-18.537
X-280.16 Y-18.387
X-280.17 Y-18.169
X-280.193 Y-17.931
X-280.234 Y-17.668
X-280.294 Y-17.382
X-280.377 Y-17.071
X-280.486 Y-16.736
X-280.627 Y-16.373
X-280.8 Y-15.99
X-281.017 Y-15.571
X-281.267 Y-15.146
X-281.544 Y-14.729
X-281.583 Y-14.677
X-281.867 Y-14.344
X-282.194 Y-14.052
X-282.556 Y-13.805
X-282.947 Y-13.609
X-283.362 Y-13.466
X-283.791 Y-13.379
X-284.228 Y-13.35
G3 X-285.207 Y-15.372 I0.044 J-1.269
G1 X-282.449 Y-19.121
G3 X-280.167 Y-18.537 I1.023 J0.752
G1 X-279.961 Y-16.422
X-279.946 Y-16.117
X-279.947 Y-15.933
X-279.96 Y-15.726
X-279.982 Y-15.533
X-280.016 Y-15.334
X-280.064 Y-15.125
X-280.203 Y-14.755
X-280.399 Y-14.413
X-280.648 Y-14.106
X-280.943 Y-13.843
X-281.276 Y-13.632
X-281.639 Y-13.477
X-282.022 Y-13.382
X-282.416 Y-13.35
G3 X-283.41 Y-15.351 I0.044 J-1.269
G1 X-282.258 Y-16.986
G3 X-279.961 Y-16.422 I1.038 J0.731
G1 X-279.803 Y-14.804
X-279.799 Y-14.761
X-279.795 Y-14.727
X-279.804 Y-14.55
X-279.806 Y-14.533
X-279.824 Y-14.405
X-279.851 Y-14.279
X-279.885 Y-14.155
G3 X-280.879 Y-13.67 I-0.843 J-0.467
X-280.584 Y-15.536 I0.147 J-0.933
X-279.795 Y-14.727 I-0.147 J0.933
G1 X-279.796 Y-14.536
X-279.825 Y-14.346
X-279.885 Y-14.155
X-279.982 Y-13.965
X-280.07 Y-13.841
X-280.205 Y-13.695
X-280.341 Y-13.584
X-280.45 Y-13.514
X-280.641 Y-13.427
X-280.831 Y-13.374
X-281.021 Y-13.351
X-281.212 Y-13.35
X-287.076
G3 X-288.271 Y-14.343 I0.044 J-1.269
G1 X-297.131 Y-54.131
G3 X-296.059 Y-55.666 I1.24 J-0.276
G1 X-290.035 Y-56.255
X-289.466 Y-56.282
X-289.014 Y-56.279
X-288.546 Y-56.25
X-287.996 Y-56.187
X-287.432 Y-56.09
X-286.789 Y-55.944
X-286.109 Y-55.75
X-285.389 Y-55.502
X-284.595 Y-55.179
X-283.785 Y-54.796
X-282.95 Y-54.346
X-282.07 Y-53.808
X-281.165 Y-53.184
X-280.252 Y-52.48
X-279.36 Y-51.71
X-278.49 Y-50.873
X-277.636 Y-49.957
X-276.811 Y-48.971
X-276.037 Y-47.936
X-275.319 Y-46.861
X-274.659 Y-45.751
X-274.057 Y-44.608
X-273.514 Y-43.435
X-273.032 Y-42.236
X-272.611 Y-41.015
X-272.252 Y-39.774
X-271.957 Y-38.516
X-271.725 Y-37.245
X-271.558 Y-35.963
X-271.457 Y-34.675
X-271.421 Y-33.384
X-271.451 Y-32.092
X-271.547 Y-30.804
X-271.674 Y-29.801
X-271.81 Y-29.05
X-271.956 Y-28.442
X-272.123 Y-27.877
X-272.197 Y-27.671
X-272.398 Y-27.22
X-272.666 Y-26.805
X-272.995 Y-26.437
X-273.376 Y-26.123
X-273.801 Y-25.872
X-274.259 Y-25.688
X-274.74 Y-25.578
G3 X-276.021 Y-26.241 I-0.16 J-1.26
G1 X-290.989 Y-54.4
G3 X-290.035 Y-56.255 I1.121 J-0.596
G1 X-285.78 Y-56.671
X-285.471 Y-56.686
X-285.119 Y-56.683
X-284.733 Y-56.66
X-284.298 Y-56.609
X-283.837 Y-56.53
X-283.317 Y-56.412
X-282.768 Y-56.255
X-282.168 Y-56.048
X-281.512 Y-55.782
X-280.848 Y-55.468
X-280.112 Y-55.071
X-279.348 Y-54.604
X-278.578 Y-54.074
X-277.761 Y-53.443
X-276.919 Y-52.716
X-276.075 Y-51.905
X-275.255 Y-51.025
X-274.445 Y-50.057
X-273.672 Y-49.023
X-272.954 Y-47.949
X-272.292 Y-46.839
X-271.685 Y-45.698
X-271.135 Y-44.529
X-270.641 Y-43.335
X-270.203 Y-42.12
X-269.823 Y-40.885
X-269.5 Y-39.634
X-269.235 Y-38.369
X-269.031 Y-37.093
X-268.887 Y-35.809
X-268.802 Y-34.52
X-268.778 Y-33.228
X-268.814 Y-32.06
X-268.903 Y-31.032
X-269.017 Y-30.217
X-269.142 Y-29.585
X-269.292 Y-28.994
X-269.442 Y-28.512
X-269.618 Y-28.041
X-269.79 Y-27.647
X-269.799 Y-27.628
X-270.042 Y-27.22
X-270.341 Y-26.851
X-270.69 Y-26.529
X-271.082 Y-26.26
X-271.508 Y-26.05
X-271.959 Y-25.904
X-272.427 Y-25.824
X-274.359 Y-25.635
X-274.74 Y-25.578
G3 X-276.074 Y-26.393 I-0.145 J-1.262
G1 X-286.802 Y-54.966
G3 X-285.78 Y-56.671 I1.189 J-0.446
G1 X-282.354 Y-57.006
X-281.969 Y-57.024
X-281.649 Y-57.022
X-281.309 Y-57.001
X-280.925 Y-56.957
X-280.515 Y-56.887
X-280.059 Y-56.783
X-279.576 Y-56.645
X-279.035 Y-56.459
X-278.482 Y-56.233
X-277.853 Y-55.937
X-277.227 Y-55.599
X-276.542 Y-55.18
X-275.808 Y-54.675
X-275.089 Y-54.119
X-274.324 Y-53.459
X-273.532 Y-52.698
X-272.731 Y-51.839
X-271.941 Y-50.894
X-271.167 Y-49.859
X-270.45 Y-48.784
X-269.79 Y-47.674
X-269.185 Y-46.532
X-268.634 Y-45.364
X-268.137 Y-44.171
X-267.694 Y-42.957
X-267.306 Y-41.725
X-266.971 Y-40.477
X-266.691 Y-39.215
X-266.465 Y-37.943
X-266.294 Y-36.663
X-266.18 Y-35.375
X-266.129 Y-34.084
X-266.146 Y-32.911
X-266.214 Y-31.905
X-266.327 Y-30.987
X-266.46 Y-30.245
X-266.614 Y-29.59
X-266.771 Y-29.055
X-266.946 Y-28.558
X-267.128 Y-28.12
X-267.323 Y-27.714
X-267.561 Y-27.344
X-267.849 Y-27.01
X-268.179 Y-26.718
X-268.547 Y-26.476
X-268.945 Y-26.287
X-269.365 Y-26.154
X-269.8 Y-26.081
X-272.427 Y-25.824
G3 X-273.71 Y-26.685 I-0.079 J-1.268
G1 X-283.39 Y-55.341
G3 X-282.354 Y-57.006 I1.203 J-0.406
G1 X-279.099 Y-57.324
X-278.74 Y-57.341
X-278.448 Y-57.339
X-278.129 Y-57.32
X-277.77 Y-57.278
X-277.39 Y-57.213
X-276.968 Y-57.117
X-276.518 Y-56.989
X-276.03 Y-56.821
X-275.501 Y-56.605
X-274.949 Y-56.345
X-274.332 Y-56.012
X-273.721 Y-55.638
X-273.047 Y-55.174
X-272.338 Y-54.626
X-271.637 Y-54.022
X-270.895 Y-53.308
X-270.131 Y-52.489
X-269.362 Y-51.57
X-268.602 Y-50.553
X-267.885 Y-49.478
X-267.225 Y-48.367
X-266.621 Y-47.225
X-266.071 Y-46.056
X-265.574 Y-44.864
X-265.129 Y-43.651
X-264.736 Y-42.42
X-264.395 Y-41.173
X-264.105 Y-39.914
X-263.867 Y-38.644
X-263.683 Y-37.365
X-263.557 Y-36.08
X-263.493 Y-34.789
X-263.498 Y-33.58
X-263.559 Y-32.533
X-263.666 Y-31.577
X-263.811 Y-30.718
X-263.964 Y-30.036
X-264.132 Y-29.44
X-264.31 Y-28.917
X-264.491 Y-28.47
X-264.693 Y-28.038
X-264.937 Y-27.651
X-265.232 Y-27.301
X-265.574 Y-26.997
X-265.954 Y-26.743
X-266.367 Y-26.545
X-266.803 Y-26.406
X-267.254 Y-26.33
X-269.8 Y-26.081
G3 X-271.09 Y-26.966 I-0.079 J-1.268
G1 X-280.143 Y-55.683
G3 X-279.099 Y-57.324 I1.211 J-0.382
G1 X-276.053 Y-57.622
X-275.664 Y-57.64
X-275.396 Y-57.639
X-275.08 Y-57.619
X-274.755 Y-57.582
X-274.376 Y-57.517
X-273.99 Y-57.429
X-273.546 Y-57.302
X-273.099 Y-57.148
X-272.587 Y-56.94
X-272.07 Y-56.696
X-271.499 Y-56.388
X-270.895 Y-56.019
X-270.275 Y-55.591
X-269.593 Y-55.065
X-268.914 Y-54.479
X-268.213 Y-53.804
X-267.48 Y-53.019
X-266.735 Y-52.128
X-265.99 Y-51.132
X-265.273 Y-50.056
X-264.614 Y-48.945
X-264.011 Y-47.803
X-263.461 Y-46.633
X-262.965 Y-45.44
X-262.52 Y-44.227
X-262.125 Y-42.997
X-261.781 Y-41.752
X-261.487 Y-40.494
X-261.245 Y-39.224
X-261.057 Y-37.946
X-260.925 Y-36.661
X-260.856 Y-35.371
X-260.853 Y-34.113
X-260.911 Y-33.019
X-261.017 Y-32.027
X-261.162 Y-31.131
X-261.316 Y-30.425
X-261.487 Y-29.806
X-261.666 Y-29.272
X-261.848 Y-28.812
X-262.051 Y-28.371
X-262.076 Y-28.325
X-262.321 Y-27.93
X-262.62 Y-27.574
X-262.966 Y-27.263
X-263.352 Y-27.004
X-263.771 Y-26.801
X-264.214 Y-26.66
X-264.672 Y-26.582
X-267.254 Y-26.33
G3 X-268.551 Y-27.235 I-0.079 J-1.268
G1 X-277.103 Y-56.001
G3 X-276.053 Y-57.622 I1.217 J-0.362
G1 X-273.008 Y-57.92
X-272.709 Y-57.934
X-272.445 Y-57.932
X-272.143 Y-57.914
X-271.825 Y-57.877
X-271.462 Y-57.815
X-271.085 Y-57.729
X-270.664 Y-57.609
X-270.221 Y-57.456
X-269.742 Y-57.261
X-269.225 Y-57.017
X-268.69 Y-56.729
X-268.093 Y-56.364
X-267.505 Y-55.958
X-266.858 Y-55.459
X-266.18 Y-54.874
X-265.511 Y-54.23
X-264.803 Y-53.472
X-264.077 Y-52.603
X-263.346 Y-51.626
X-262.629 Y-50.551
X-261.971 Y-49.439
X-261.369 Y-48.296
X-260.821 Y-47.126
X-260.325 Y-45.933
X-259.88 Y-44.72
X-259.486 Y-43.489
X-259.142 Y-42.244
X-258.848 Y-40.986
X-258.606 Y-39.717
X-258.418 Y-38.438
X-258.285 Y-37.153
X-258.213 Y-35.863
X-258.206 Y-34.574
X-258.261 Y-33.447
X-258.365 Y-32.434
X-258.511 Y-31.517
X-258.668 Y-30.786
X-258.843 Y-30.142
X-259.023 Y-29.598
X-259.209 Y-29.125
X-259.413 Y-28.678
X-259.459 Y-28.59
X-259.704 Y-28.193
X-260.003 Y-27.835
X-260.349 Y-27.522
X-260.736 Y-27.261
X-261.156 Y-27.058
X-261.601 Y-26.916
X-262.061 Y-26.837
X-264.672 Y-26.582
G3 X-265.975 Y-27.506 I-0.079 J-1.268
G1 X-274.063 Y-56.318
G3 X-273.008 Y-57.92 I1.223 J-0.343
G1 X-270.171 Y-58.197
X-269.813 Y-58.214
X-269.549 Y-58.212
X-269.262 Y-58.195
X-268.944 Y-58.158
X-268.6 Y-58.099
X-268.223 Y-58.013
X-267.82 Y-57.898
X-267.378 Y-57.746
X-266.922 Y-57.56
X-266.408 Y-57.318
X-265.897 Y-57.042
X-265.321 Y-56.69
X-264.738 Y-56.289
X-264.119 Y-55.811
X-263.449 Y-55.233
X-262.797 Y-54.606
X-262.11 Y-53.868
X-261.399 Y-53.018
X-260.679 Y-52.056
X-259.963 Y-50.982
X-259.306 Y-49.869
X-258.705 Y-48.725
X-258.158 Y-47.555
X-257.663 Y-46.361
X-257.221 Y-45.147
X-256.828 Y-43.916
X-256.486 Y-42.67
X-256.195 Y-41.411
X-255.955 Y-40.142
X-255.768 Y-38.863
X-255.636 Y-37.578
X-255.563 Y-36.288
X-255.554 Y-34.996
X-255.608 Y-33.839
X-255.712 Y-32.809
X-255.859 Y-31.872
X-256.019 Y-31.117
X-256.199 Y-30.453
X-256.38 Y-29.901
X-256.569 Y-29.417
X-256.774 Y-28.966
X-256.833 Y-28.853
X-257.078 Y-28.455
X-257.377 Y-28.095
X-257.723 Y-27.781
X-258.111 Y-27.519
X-258.532 Y-27.315
X-258.977 Y-27.172
X-259.438 Y-27.094
X-262.061 Y-26.837
G3 X-263.366 Y-27.771 I-0.079 J-1.268
G1 X-271.229 Y-56.604
G3 X-270.171 Y-58.197 I1.225 J-0.334
G1 X-267.297 Y-58.478
X-266.972 Y-58.494
X-266.708 Y-58.492
X-266.43 Y-58.475
X-266.112 Y-58.438
X-265.78 Y-58.381
X-265.403 Y-58.295
X-265.013 Y-58.184
X-264.573 Y-58.032
X-264.13 Y-57.852
X-263.627 Y-57.615
X-263.123 Y-57.343
X-262.566 Y-57.002
X-261.983 Y-56.601
X-261.384 Y-56.138
X-260.726 Y-55.571
X-260.08 Y-54.949
X-259.408 Y-54.229
X-258.709 Y-53.393
X-258 Y-52.445
X-257.292 Y-51.382
X-256.635 Y-50.27
X-256.034 Y-49.126
X-255.489 Y-47.955
X-254.996 Y-46.76
X-254.555 Y-45.546
X-254.165 Y-44.314
X-253.826 Y-43.067
X-253.536 Y-41.808
X-253.298 Y-40.538
X-253.113 Y-39.259
X-252.982 Y-37.974
X-252.909 Y-36.684
X-252.899 Y-35.392
X-252.953 Y-34.204
X-253.057 Y-33.16
X-253.205 Y-32.206
X-253.369 Y-31.431
X-253.551 Y-30.751
X-253.733 Y-30.193
X-253.925 Y-29.7
X-254.13 Y-29.246
X-254.199 Y-29.115
X-254.444 Y-28.715
X-254.742 Y-28.355
X-255.089 Y-28.04
X-255.477 Y-27.778
X-255.899 Y-27.573
X-256.344 Y-27.43
X-256.806 Y-27.351
X-259.438 Y-27.094
G3 X-260.745 Y-28.038 I-0.079 J-1.268
G1 X-268.357 Y-56.895
G3 X-267.297 Y-58.478 I1.228 J-0.324
G1 X-264.461 Y-58.755
X-264.165 Y-58.769
X-263.902 Y-58.768
X-263.628 Y-58.751
X-263.312 Y-58.714
X-262.987 Y-58.659
X-262.612 Y-58.573
X-262.231 Y-58.465
X-261.795 Y-58.314
X-261.358 Y-58.137
X-260.866 Y-57.904
X-260.363 Y-57.633
X-259.819 Y-57.301
X-259.237 Y-56.899
X-258.652 Y-56.448
X-258.009 Y-55.893
X-257.363 Y-55.272
X-256.704 Y-54.565
X-256.015 Y-53.742
X-255.315 Y-52.806
X-254.615 Y-51.756
X-253.958 Y-50.643
X-253.359 Y-49.499
X-252.814 Y-48.327
X-252.323 Y-47.132
X-251.884 Y-45.917
X-251.497 Y-44.684
X-251.159 Y-43.437
X-250.873 Y-42.177
X-250.637 Y-40.907
X-250.453 Y-39.628
X-250.324 Y-38.342
X-250.251 Y-37.052
X-250.242 Y-35.76
X-250.295 Y-34.548
X-250.4 Y-33.49
X-250.549 Y-32.523
X-250.715 Y-31.731
X-250.9 Y-31.04
X-251.083 Y-30.477
X-251.277 Y-29.977
X-251.483 Y-29.521
X-251.558 Y-29.375
X-251.803 Y-28.975
X-252.102 Y-28.614
X-252.449 Y-28.299
X-252.837 Y-28.036
X-253.259 Y-27.831
X-253.705 Y-27.688
X-254.167 Y-27.609
X-256.806 Y-27.351
G3 X-258.116 Y-28.303 I-0.079 J-1.268
G1 X-265.523 Y-57.181
G3 X-264.461 Y-58.755 I1.23 J-0.316
G1 X-261.796 Y-59.016
X-261.372 Y-59.036
X-261.11 Y-59.034
X-260.841 Y-59.018
X-260.527 Y-58.982
X-260.207 Y-58.927
X-259.835 Y-58.842
X-259.459 Y-58.735
X-259.029 Y-58.587
X-258.595 Y-58.41
X-258.113 Y-58.183
X-257.609 Y-57.911
X-257.078 Y-57.586
X-256.497 Y-57.185
X-255.923 Y-56.743
X-255.292 Y-56.198
X-254.646 Y-55.577
X-253.998 Y-54.883
X-253.32 Y-54.071
X-252.628 Y-53.146
X-251.935 Y-52.107
X-251.278 Y-50.995
X-250.679 Y-49.85
X-250.136 Y-48.678
X-249.647 Y-47.482
X-249.21 Y-46.266
X-248.825 Y-45.033
X-248.49 Y-43.785
X-248.205 Y-42.524
X-247.971 Y-41.254
X-247.79 Y-39.974
X-247.662 Y-38.689
X-247.59 Y-37.399
X-247.581 Y-36.107
X-247.635 Y-34.875
X-247.74 Y-33.805
X-247.89 Y-32.827
X-248.059 Y-32.021
X-248.245 Y-31.321
X-248.43 Y-30.755
X-248.626 Y-30.249
X-248.832 Y-29.791
X-248.915 Y-29.63
X-249.159 Y-29.231
X-249.457 Y-28.871
X-249.803 Y-28.557
X-250.19 Y-28.295
X-250.611 Y-28.09
X-251.056 Y-27.947
X-251.517 Y-27.868
X-254.167 Y-27.609
G3 X-255.477 Y-28.562 I-0.079 J-1.268
G1 X-262.859 Y-57.443
G3 X-261.796 Y-59.016 I1.23 J-0.314
G1 X-258.863 Y-59.303
X-258.62 Y-59.314
X-258.359 Y-59.313
X-258.09 Y-59.296
X-257.778 Y-59.26
X-257.459 Y-59.205
X-257.09 Y-59.121
X-256.716 Y-59.015
X-256.29 Y-58.868
X-255.856 Y-58.691
X-255.379 Y-58.466
X-254.876 Y-58.195
X-254.352 Y-57.874
X-253.773 Y-57.476
X-253.206 Y-57.037
X-252.583 Y-56.5
X-251.937 Y-55.879
X-251.298 Y-55.194
X-250.627 Y-54.391
X-249.942 Y-53.475
X-249.255 Y-52.446
X-248.598 Y-51.333
X-248 Y-50.188
X-247.458 Y-49.015
X-246.97 Y-47.819
X-246.535 Y-46.602
X-246.151 Y-45.368
X-245.818 Y-44.12
X-245.536 Y-42.859
X-245.304 Y-41.588
X-245.124 Y-40.309
X-244.997 Y-39.023
X-244.927 Y-37.733
X-244.917 Y-36.441
X-244.971 Y-35.192
X-245.077 Y-34.111
X-245.228 Y-33.125
X-245.4 Y-32.306
X-245.588 Y-31.598
X-245.774 Y-31.028
X-245.971 Y-30.517
X-246.178 Y-30.058
X-246.271 Y-29.878
X-246.513 Y-29.482
X-246.808 Y-29.124
X-247.152 Y-28.812
X-247.536 Y-28.552
X-247.953 Y-28.349
X-248.394 Y-28.207
X-248.852 Y-28.129
X-251.517 Y-27.868
G3 X-252.83 Y-28.833 I-0.079 J-1.268
G1 X-259.929 Y-57.741
G3 X-258.863 Y-59.303 I1.233 J-0.303
G1 X-256.085 Y-59.574
X-255.868 Y-59.585
X-255.609 Y-59.583
X-255.341 Y-59.567
X-255.031 Y-59.531
X-254.714 Y-59.476
X-254.348 Y-59.393
X-253.976 Y-59.287
X-253.554 Y-59.141
X-253.12 Y-58.965
X-252.65 Y-58.743
X-252.147 Y-58.472
X-251.63 Y-58.155
X-251.055 Y-57.76
X-250.491 Y-57.324
X-249.876 Y-56.794
X-249.231 Y-56.173
X-248.6 Y-55.496
X-247.935 Y-54.701
X-247.256 Y-53.793
X-246.575 Y-52.772
X-245.917 Y-51.659
X-245.32 Y-50.514
X-244.779 Y-49.34
X-244.292 Y-48.143
X-243.859 Y-46.926
X-243.477 Y-45.692
X-243.146 Y-44.443
X-242.865 Y-43.182
X-242.635 Y-41.91
X-242.456 Y-40.631
X-242.331 Y-39.345
X-242.261 Y-38.055
X-242.252 Y-36.763
X-242.306 Y-35.5
X-242.413 Y-34.408
X-242.564 Y-33.416
X-242.738 Y-32.583
X-242.929 Y-31.868
X-243.115 Y-31.294
X-243.314 Y-30.779
X-243.521 Y-30.319
X-243.619 Y-30.13
X-243.859 Y-29.736
X-244.153 Y-29.38
X-244.495 Y-29.07
X-244.877 Y-28.811
X-245.292 Y-28.608
X-245.732 Y-28.467
X-246.187 Y-28.39
X-248.852 Y-28.129
G3 X-250.166 Y-29.098 I-0.079 J-1.268
G1 X-257.152 Y-58.017
G3 X-256.085 Y-59.574 I1.234 J-0.298
G1 X-253.42 Y-59.835
X-253.122 Y-59.849
X-252.864 Y-59.847
X-252.598 Y-59.831
X-252.291 Y-59.796
X-251.974 Y-59.741
X-251.612 Y-59.659
X-251.241 Y-59.553
X-250.823 Y-59.409
X-250.39 Y-59.233
X-249.925 Y-59.013
X-249.422 Y-58.742
X-248.911 Y-58.43
X-248.341 Y-58.037
X-247.779 Y-57.603
X-247.171 Y-57.079
X-246.528 Y-56.46
X-245.902 Y-55.789
X-245.243 Y-55.001
X-244.569 Y-54.1
X-243.893 Y-53.086
X-243.236 Y-51.974
X-242.639 Y-50.828
X-242.099 Y-49.654
X-241.614 Y-48.457
X-241.181 Y-47.239
X-240.801 Y-46.004
X-240.471 Y-44.755
X-240.192 Y-43.493
X-239.964 Y-42.222
X-239.786 Y-40.942
X-239.662 Y-39.656
X-239.593 Y-38.366
X-239.584 Y-37.074
X-239.639 Y-35.798
X-239.746 Y-34.696
X-239.899 Y-33.698
X-240.075 Y-32.855
X-240.266 Y-32.135
X-240.453 Y-31.559
X-240.653 Y-31.041
X-240.86 Y-30.581
X-240.961 Y-30.386
X-241.201 Y-29.993
X-241.494 Y-29.638
X-241.835 Y-29.328
X-242.216 Y-29.07
X-242.63 Y-28.868
X-243.068 Y-28.727
X-243.522 Y-28.65
X-246.187 Y-28.39
G3 X-247.501 Y-29.359 I-0.079 J-1.268
G1 X-254.487 Y-58.278
G3 X-253.42 Y-59.835 I1.234 J-0.298
G1 X-250.755 Y-60.096
X-250.388 Y-60.113
X-250.132 Y-60.111
X-249.867 Y-60.095
X-249.561 Y-60.06
X-249.245 Y-60.006
X-248.886 Y-59.924
X-248.515 Y-59.818
X-248.101 Y-59.675
X-247.667 Y-59.499
X-247.206 Y-59.282
X-246.704 Y-59.01
X-246.198 Y-58.701
X-245.632 Y-58.311
X-245.072 Y-57.878
X-244.47 Y-57.359
X-243.828 Y-56.742
X-243.207 Y-56.076
X-242.553 Y-55.294
X-241.884 Y-54.399
X-241.212 Y-53.391
X-240.555 Y-52.279
X-239.958 Y-51.133
X-239.419 Y-49.959
X-238.934 Y-48.761
X-238.503 Y-47.543
X-238.124 Y-46.308
X-237.796 Y-45.058
X-237.518 Y-43.796
X-237.291 Y-42.524
X-237.115 Y-41.244
X-236.992 Y-39.958
X-236.924 Y-38.668
X-236.915 Y-37.376
X-236.97 Y-36.09
X-237.078 Y-34.98
X-237.231 Y-33.977
X-237.409 Y-33.125
X-237.601 Y-32.402
X-237.788 Y-31.825
X-237.989 Y-31.304
X-238.197 Y-30.843
X-238.299 Y-30.645
X-238.538 Y-30.252
X-238.831 Y-29.898
X-239.171 Y-29.588
X-239.552 Y-29.33
X-239.966 Y-29.129
X-240.404 Y-28.988
X-240.857 Y-28.911
X-243.522 Y-28.65
G3 X-244.836 Y-29.619 I-0.079 J-1.268
G1 X-251.822 Y-58.538
G3 X-250.755 Y-60.096 I1.234 J-0.298
G1 X-247.881 Y-60.377
X-247.678 Y-60.386
X-247.422 Y-60.384
X-247.157 Y-60.368
X-246.851 Y-60.333
X-246.536 Y-60.279
X-246.178 Y-60.198
X-245.806 Y-60.092
X-245.394 Y-59.949
X-244.96 Y-59.773
X-244.501 Y-59.557
X-243.999 Y-59.285
X-243.496 Y-58.978
X-242.933 Y-58.59
X-242.373 Y-58.157
X-241.775 Y-57.642
X-241.135 Y-57.026
X-240.516 Y-56.363
X-239.866 Y-55.586
X-239.2 Y-54.695
X-238.532 Y-53.692
X-237.874 Y-52.58
X-237.278 Y-51.433
X-236.739 Y-50.259
X-236.256 Y-49.061
X-235.826 Y-47.842
X-235.448 Y-46.607
X-235.121 Y-45.357
X-234.844 Y-44.095
X-234.618 Y-42.823
X-234.443 Y-41.543
X-234.321 Y-40.256
X-234.253 Y-38.966
X-234.244 Y-37.674
X-234.299 Y-36.383
X-234.408 Y-35.264
X-234.561 Y-34.258
X-234.74 Y-33.399
X-234.932 Y-32.672
X-235.12 Y-32.093
X-235.322 Y-31.57
X-235.529 Y-31.108
X-235.633 Y-30.907
X-235.873 Y-30.514
X-236.166 Y-30.159
X-236.506 Y-29.849
X-236.887 Y-29.591
X-237.3 Y-29.389
X-237.738 Y-29.249
X-238.192 Y-29.171
X-240.857 Y-28.911
G3 X-242.173 Y-29.889 I-0.079 J-1.268
G1 X-248.95 Y-58.828
G3 X-247.881 Y-60.377 I1.237 J-0.29
G1 X-245.216 Y-60.637
X-244.956 Y-60.649
X-244.702 Y-60.648
X-244.437 Y-60.632
X-244.134 Y-60.597
X-243.819 Y-60.543
X-243.464 Y-60.462
X-243.092 Y-60.356
X-242.683 Y-60.215
X-242.249 Y-60.038
X-241.794 Y-59.824
X-241.292 Y-59.553
X-240.792 Y-59.247
X-240.234 Y-58.862
X-239.673 Y-58.43
X-239.08 Y-57.918
X-238.442 Y-57.304
X-237.826 Y-56.643
X-237.18 Y-55.871
X-236.517 Y-54.984
X-235.851 Y-53.986
X-235.194 Y-52.874
X-234.598 Y-51.728
X-234.06 Y-50.553
X-233.577 Y-49.354
X-233.148 Y-48.136
X-232.771 Y-46.9
X-232.445 Y-45.65
X-232.17 Y-44.387
X-231.944 Y-43.115
X-231.77 Y-41.835
X-231.648 Y-40.549
X-231.581 Y-39.258
X-231.572 Y-37.966
X-231.627 Y-36.675
X-231.736 Y-35.548
X-231.889 Y-34.539
X-232.069 Y-33.673
X-232.262 Y-32.944
X-232.45 Y-32.363
X-232.652 Y-31.838
X-232.86 Y-31.375
X-232.965 Y-31.17
X-233.205 Y-30.777
X-233.498 Y-30.421
X-233.839 Y-30.111
X-234.22 Y-29.852
X-234.634 Y-29.65
X-235.073 Y-29.509
X-235.527 Y-29.432
X-238.192 Y-29.171
G3 X-239.508 Y-30.149 I-0.079 J-1.268
G1 X-246.285 Y-59.089
G3 X-245.216 Y-60.637 I1.237 J-0.29
G1 X-242.551 Y-60.898
X-242.243 Y-60.912
X-241.99 Y-60.911
X-241.726 Y-60.894
X-241.424 Y-60.86
X-241.109 Y-60.806
X-240.756 Y-60.725
X-240.384 Y-60.619
X-239.977 Y-60.479
X-239.544 Y-60.302
X-239.091 Y-60.089
X-238.59 Y-59.819
X-238.092 Y-59.514
X-237.537 Y-59.132
X-236.977 Y-58.699
X-236.387 Y-58.191
X-235.751 Y-57.579
X-235.137 Y-56.92
X-234.494 Y-56.151
X-233.834 Y-55.268
X-233.171 Y-54.274
X-232.516 Y-53.166
X-231.92 Y-52.02
X-231.382 Y-50.845
X-230.9 Y-49.646
X-230.471 Y-48.428
X-230.095 Y-47.192
X-229.77 Y-45.941
X-229.495 Y-44.679
X-229.27 Y-43.406
X-229.097 Y-42.126
X-228.975 Y-40.84
X-228.908 Y-39.549
X-228.899 Y-38.257
X-228.954 Y-36.966
X-229.062 Y-35.832
X-229.215 Y-34.82
X-229.396 Y-33.949
X-229.589 Y-33.217
X-229.778 Y-32.635
X-229.981 Y-32.106
X-230.188 Y-31.644
X-230.295 Y-31.435
X-230.535 Y-31.041
X-230.829 Y-30.684
X-231.17 Y-30.373
X-231.552 Y-30.114
X-231.967 Y-29.911
X-232.407 Y-29.77
X-232.862 Y-29.692
X-235.527 Y-29.432
G3 X-236.843 Y-30.41 I-0.079 J-1.268
G1 X-243.62 Y-59.349
G3 X-242.551 Y-60.898 I1.237 J-0.29
G1 X-239.886 Y-61.158
X-239.536 Y-61.175
X-239.284 Y-61.173
X-239.02 Y-61.157
X-238.72 Y-61.122
X-238.404 Y-61.068
X-238.053 Y-60.988
X-237.681 Y-60.882
X-237.276 Y-60.743
X-236.842 Y-60.566
X-236.392 Y-60.354
X-235.892 Y-60.084
X-235.396 Y-59.78
X-234.843 Y-59.4
X-234.283 Y-58.967
X-233.696 Y-58.461
X-233.062 Y-57.852
X-232.449 Y-57.194
X-231.809 Y-56.428
X-231.151 Y-55.549
X-230.49 Y-54.558
X-229.838 Y-53.454
X-229.242 Y-52.307
X-228.704 Y-51.132
X-228.222 Y-49.934
X-227.794 Y-48.714
X-227.418 Y-47.478
X-227.094 Y-46.228
X-226.819 Y-44.965
X-226.595 Y-43.693
X-226.422 Y-42.412
X-226.301 Y-41.126
X-226.234 Y-39.835
X-226.225 Y-38.543
X-226.279 Y-37.253
X-226.388 Y-36.113
X-226.541 Y-35.098
X-226.722 Y-34.223
X-226.916 Y-33.488
X-227.104 Y-32.905
X-227.308 Y-32.375
X-227.515 Y-31.911
X-227.623 Y-31.701
X-227.864 Y-31.306
X-228.158 Y-30.948
X-228.501 Y-30.636
X-228.884 Y-30.376
X-229.3 Y-30.173
X-229.741 Y-30.031
X-230.197 Y-29.953
X-232.862 Y-29.692
G3 X-234.178 Y-30.67 I-0.079 J-1.268
G1 X-240.955 Y-59.61
G3 X-239.886 Y-61.158 I1.237 J-0.29
G1 X-237.05 Y-61.436
X-236.846 Y-61.445
X-236.594 Y-61.444
X-236.329 Y-61.427
X-236.028 Y-61.393
X-235.713 Y-61.339
X-235.362 Y-61.259
X-234.99 Y-61.153
X-234.585 Y-61.013
X-234.152 Y-60.837
X-233.702 Y-60.624
X-233.202 Y-60.355
X-232.706 Y-60.052
X-232.155 Y-59.672
X-231.595 Y-59.239
X-231.01 Y-58.735
X-230.378 Y-58.127
X-229.765 Y-57.47
X-229.127 Y-56.706
X-228.471 Y-55.829
X-227.811 Y-54.84
X-227.16 Y-53.739
X-226.564 Y-52.592
X-226.027 Y-51.417
X-225.545 Y-50.218
X-225.117 Y-48.999
X-224.742 Y-47.763
X-224.418 Y-46.512
X-224.144 Y-45.249
X-223.92 Y-43.977
X-223.747 Y-42.696
X-223.627 Y-41.41
X-223.56 Y-40.12
X-223.551 Y-38.828
X-223.605 Y-37.537
X-223.714 Y-36.392
X-223.867 Y-35.375
X-224.048 Y-34.496
X-224.242 Y-33.76
X-224.43 Y-33.175
X-224.634 Y-32.643
X-224.842 Y-32.179
X-224.95 Y-31.968
X-225.192 Y-31.571
X-225.487 Y-31.212
X-225.83 Y-30.899
X-226.214 Y-30.638
X-226.632 Y-30.434
X-227.074 Y-30.292
X-227.532 Y-30.214
X-230.197 Y-29.953
G3 X-231.515 Y-30.938 I-0.079 J-1.268
G1 X-238.12 Y-59.894
G3 X-237.05 Y-61.436 I1.238 J-0.282
G1 X-234.385 Y-61.696
X-234.144 Y-61.708
X-233.893 Y-61.706
X-233.629 Y-61.69
X-233.329 Y-61.655
X-233.014 Y-61.601
X-232.664 Y-61.522
X-232.293 Y-61.416
X-231.89 Y-61.277
X-231.456 Y-61.1
X-231.008 Y-60.889
X-230.509 Y-60.62
X-230.015 Y-60.317
X-229.466 Y-59.939
X-228.906 Y-59.507
X-228.323 Y-59.004
X-227.693 Y-58.398
X-227.08 Y-57.741
X-226.444 Y-56.98
X-225.79 Y-56.105
X-225.132 Y-55.119
X-224.482 Y-54.019
X-223.886 Y-52.873
X-223.349 Y-51.698
X-222.868 Y-50.499
X-222.44 Y-49.28
X-222.065 Y-48.043
X-221.741 Y-46.792
X-221.468 Y-45.53
X-221.245 Y-44.257
X-221.072 Y-42.977
X-220.952 Y-41.69
X-220.885 Y-40.4
X-220.876 Y-39.108
X-220.93 Y-37.817
X-221.039 Y-36.669
X-221.192 Y-35.65
X-221.373 Y-34.768
X-221.567 Y-34.03
X-221.756 Y-33.445
X-221.96 Y-32.911
X-222.168 Y-32.447
X-222.277 Y-32.235
X-222.518 Y-31.837
X-222.815 Y-31.477
X-223.159 Y-31.162
X-223.545 Y-30.9
X-223.964 Y-30.695
X-224.408 Y-30.553
X-224.867 Y-30.474
X-227.532 Y-30.214
G3 X-228.85 Y-31.199 I-0.079 J-1.268
G1 X-235.456 Y-60.155
G3 X-234.385 Y-61.696 I1.238 J-0.282
G1 X-231.72 Y-61.957
X-231.447 Y-61.97
X-231.197 Y-61.968
X-230.933 Y-61.952
X-230.634 Y-61.917
X-230.319 Y-61.863
X-229.97 Y-61.784
X-229.599 Y-61.678
X-229.197 Y-61.54
X-228.764 Y-61.363
X-228.317 Y-61.153
X-227.819 Y-60.884
X-227.325 Y-60.582
X-226.778 Y-60.205
X-226.218 Y-59.772
X-225.638 Y-59.272
X-225.008 Y-58.667
X-224.396 Y-58.011
X-223.762 Y-57.252
X-223.109 Y-56.379
X-222.453 Y-55.394
X-221.804 Y-54.297
X-221.208 Y-53.151
X-220.671 Y-51.975
X-220.19 Y-50.776
X-219.763 Y-49.557
X-219.388 Y-48.32
X-219.064 Y-47.07
X-218.791 Y-45.807
X-218.568 Y-44.534
X-218.396 Y-43.253
X-218.276 Y-41.967
X-218.209 Y-40.677
X-218.2 Y-39.385
X-218.254 Y-38.094
X-218.363 Y-36.943
X-218.516 Y-35.922
X-218.698 Y-35.039
X-218.893 Y-34.3
X-219.081 Y-33.713
X-219.286 Y-33.178
X-219.494 Y-32.714
X-219.602 Y-32.503
X-219.845 Y-32.103
X-220.142 Y-31.741
X-220.488 Y-31.425
X-220.875 Y-31.162
X-221.295 Y-30.957
X-221.741 Y-30.813
X-222.202 Y-30.735
X-224.867 Y-30.474
G3 X-226.185 Y-31.459 I-0.079 J-1.268
G1 X-232.791 Y-60.415
G3 X-231.72 Y-61.957 I1.238 J-0.282
G1 X-229.055 Y-62.217
X-228.754 Y-62.232
X-228.504 Y-62.23
X-228.24 Y-62.214
X-227.942 Y-62.179
X-227.627 Y-62.125
X-227.279 Y-62.046
X-226.908 Y-61.94
X-226.507 Y-61.802
X-226.073 Y-61.626
X-225.628 Y-61.416
X-225.13 Y-61.147
X-224.637 Y-60.846
X-224.092 Y-60.47
X-223.531 Y-60.037
X-222.953 Y-59.538
X-222.325 Y-58.934
X-221.713 Y-58.278
X-221.08 Y-57.521
X-220.429 Y-56.65
X-219.773 Y-55.667
X-219.126 Y-54.572
X-218.53 Y-53.425
X-217.993 Y-52.25
X-217.512 Y-51.051
X-217.085 Y-49.831
X-216.71 Y-48.595
X-216.387 Y-47.344
X-216.115 Y-46.081
X-215.892 Y-44.808
X-215.72 Y-43.528
X-215.6 Y-42.241
X-215.533 Y-40.951
X-215.525 Y-39.659
X-215.578 Y-38.368
X-215.688 Y-37.215
X-215.841 Y-36.193
X-216.023 Y-35.308
X-216.217 Y-34.568
X-216.406 Y-33.981
X-216.611 Y-33.445
X-216.819 Y-32.98
X-216.927 Y-32.77
X-217.17 Y-32.369
X-217.469 Y-32.006
X-217.816 Y-31.689
X-218.205 Y-31.425
X-218.627 Y-31.218
X-219.074 Y-31.074
X-219.537 Y-30.995
X-222.202 Y-30.735
G3 X-223.52 Y-31.72 I-0.079 J-1.268
G1 X-230.126 Y-60.676
G3 X-229.055 Y-62.217 I1.238 J-0.282
G1 X-226.39 Y-62.478
X-226.063 Y-62.493
X-225.814 Y-62.492
X-225.55 Y-62.476
X-225.252 Y-62.441
X-224.937 Y-62.387
X-224.59 Y-62.308
X-224.218 Y-62.202
X-223.819 Y-62.064
X-223.385 Y-61.888
X-222.94 Y-61.678
X-222.443 Y-61.41
X-221.951 Y-61.109
X-221.406 Y-60.734
X-220.846 Y-60.301
X-220.269 Y-59.803
X-219.642 Y-59.201
X-219.031 Y-58.545
X-218.399 Y-57.79
X-217.748 Y-56.92
X-217.094 Y-55.938
X-216.448 Y-54.844
X-215.851 Y-53.698
X-215.314 Y-52.522
X-214.834 Y-51.323
X-214.407 Y-50.104
X-214.033 Y-48.867
X-213.71 Y-47.616
X-213.437 Y-46.353
X-213.215 Y-45.08
X-213.043 Y-43.8
X-212.924 Y-42.513
X-212.857 Y-41.223
X-212.849 Y-39.931
X-212.902 Y-38.64
X-213.012 Y-37.485
X-213.165 Y-36.462
X-213.347 Y-35.576
X-213.542 Y-34.836
X-213.731 Y-34.249
X-213.936 Y-33.712
X-214.144 Y-33.246
X-214.253 Y-33.034
X-214.497 Y-32.632
X-214.796 Y-32.268
X-215.144 Y-31.951
X-215.533 Y-31.686
X-215.956 Y-31.48
X-216.404 Y-31.335
X-216.868 Y-31.256
X-219.537 Y-30.995
G3 X-220.855 Y-31.98 I-0.079 J-1.268
G1 X-227.461 Y-60.937
G3 X-226.39 Y-62.478 I1.238 J-0.282
G1 X-223.725 Y-62.738
X-223.374 Y-62.755
X-223.125 Y-62.753
X-222.861 Y-62.737
X-222.564 Y-62.703
X-222.249 Y-62.649
X-221.903 Y-62.57
X-221.531 Y-62.464
X-221.132 Y-62.327
X-220.698 Y-62.15
X-220.254 Y-61.941
X-219.758 Y-61.673
X-219.266 Y-61.372
X-218.722 Y-60.997
X-218.162 Y-60.565
X-217.586 Y-60.068
X-216.96 Y-59.466
X-216.349 Y-58.811
X-215.718 Y-58.057
X-215.068 Y-57.188
X-214.415 Y-56.207
X-213.769 Y-55.115
X-213.173 Y-53.968
X-212.636 Y-52.793
X-212.156 Y-51.594
X-211.729 Y-50.374
X-211.355 Y-49.137
X-211.032 Y-47.886
X-210.76 Y-46.623
X-210.538 Y-45.35
X-210.367 Y-44.07
X-210.247 Y-42.783
X-210.181 Y-41.493
X-210.172 Y-40.201
X-210.226 Y-38.91
X-210.336 Y-37.754
X-210.489 Y-36.73
X-210.672 Y-35.843
X-210.867 Y-35.102
X-211.056 Y-34.514
X-211.262 Y-33.976
X-211.47 Y-33.51
X-211.58 Y-33.296
X-211.824 Y-32.893
X-212.123 Y-32.53
X-212.471 Y-32.212
X-212.86 Y-31.948
X-213.283 Y-31.741
X-213.731 Y-31.597
X-214.195 Y-31.518
X-216.868 Y-31.256
G3 X-218.186 Y-32.241 I-0.079 J-1.268
G1 X-224.796 Y-61.197
G3 X-223.725 Y-62.738 I1.238 J-0.283
G1 X-221.06 Y-62.999
X-220.687 Y-63.017
X-220.438 Y-63.015
X-220.175 Y-62.999
X-219.878 Y-62.965
X-219.562 Y-62.911
X-219.217 Y-62.832
X-218.845 Y-62.726
X-218.447 Y-62.589
X-218.013 Y-62.412
X-217.569 Y-62.203
X-217.074 Y-61.935
X-216.582 Y-61.635
X-216.039 Y-61.261
X-215.479 Y-60.828
X-214.904 Y-60.332
X-214.279 Y-59.731
X-213.668 Y-59.076
X-213.038 Y-58.323
X-212.389 Y-57.455
X-211.736 Y-56.476
X-211.091 Y-55.384
X-210.495 Y-54.237
X-209.958 Y-53.062
X-209.477 Y-51.863
X-209.051 Y-50.643
X-208.677 Y-49.406
X-208.355 Y-48.155
X-208.083 Y-46.892
X-207.861 Y-45.619
X-207.69 Y-44.339
X-207.57 Y-43.052
X-207.505 Y-41.762
X-207.496 Y-40.47
X-207.55 Y-39.179
X-207.66 Y-38.021
X-207.813 Y-36.997
X-207.996 Y-36.108
X-208.191 Y-35.366
X-208.381 Y-34.778
X-208.587 Y-34.239
X-208.795 Y-33.773
X-208.906 Y-33.557
X-209.15 Y-33.155
X-209.449 Y-32.791
X-209.797 Y-32.474
X-210.186 Y-32.209
X-210.609 Y-32.003
X-211.057 Y-31.858
X-211.521 Y-31.779
X-214.195 Y-31.518
G3 X-215.512 Y-32.502 I-0.079 J-1.268
G1 X-222.131 Y-61.457
G3 X-221.06 Y-62.999 I1.238 J-0.283
G1 X-218.395 Y-63.26
X-218.001 Y-63.278
X-217.753 Y-63.277
X-217.489 Y-63.261
X-217.192 Y-63.226
X-216.877 Y-63.172
X-216.532 Y-63.094
X-216.16 Y-62.988
X-215.762 Y-62.85
X-215.329 Y-62.674
X-214.886 Y-62.465
X-214.39 Y-62.198
X-213.899 Y-61.897
X-213.357 Y-61.524
X-212.797 Y-61.091
X-212.222 Y-60.596
X-211.598 Y-59.995
X-210.987 Y-59.34
X-210.358 Y-58.588
X-209.709 Y-57.721
X-209.057 Y-56.743
X-208.413 Y-55.652
X-207.816 Y-54.505
X-207.28 Y-53.33
X-206.799 Y-52.131
X-206.373 Y-50.911
X-205.999 Y-49.674
X-205.677 Y-48.423
X-205.405 Y-47.16
X-205.184 Y-45.887
X-205.013 Y-44.606
X-204.894 Y-43.32
X-204.828 Y-42.029
X-204.82 Y-40.737
X-204.874 Y-39.446
X-204.984 Y-38.287
X-205.137 Y-37.262
X-205.32 Y-36.372
X-205.516 Y-35.629
X-205.705 Y-35.04
X-205.912 Y-34.501
X-206.12 Y-34.035
X-206.231 Y-33.818
X-206.475 Y-33.416
X-206.774 Y-33.053
X-207.122 Y-32.735
X-207.511 Y-32.471
X-207.934 Y-32.264
X-208.382 Y-32.12
X-208.846 Y-32.041
X-211.521 Y-31.779
G3 X-212.838 Y-32.763 I-0.079 J-1.268
G1 X-219.466 Y-61.717
G3 X-218.395 Y-63.26 I1.238 J-0.283
G1 X-215.73 Y-63.52
X-215.317 Y-63.54
X-215.069 Y-63.538
X-214.805 Y-63.522
X-214.508 Y-63.488
X-214.193 Y-63.434
X-213.848 Y-63.355
X-213.477 Y-63.249
X-213.079 Y-63.112
X-212.645 Y-62.936
X-212.203 Y-62.727
X-211.708 Y-62.46
X-211.216 Y-62.159
X-210.675 Y-61.786
X-210.115 Y-61.354
X-209.541 Y-60.859
X-208.917 Y-60.259
X-208.306 Y-59.604
X-207.678 Y-58.853
X-207.03 Y-57.986
X-206.378 Y-57.009
X-205.734 Y-55.919
X-205.138 Y-54.772
X-204.601 Y-53.597
X-204.121 Y-52.398
X-203.695 Y-51.178
X-203.322 Y-49.941
X-203 Y-48.69
X-202.728 Y-47.426
X-202.507 Y-46.153
X-202.336 Y-44.873
X-202.217 Y-43.586
X-202.151 Y-42.296
X-202.143 Y-41.004
X-202.197 Y-39.713
X-202.307 Y-38.552
X-202.461 Y-37.527
X-202.645 Y-36.636
X-202.84 Y-35.892
X-203.03 Y-35.303
X-203.236 Y-34.763
X-203.445 Y-34.297
X-203.556 Y-34.08
X-203.8 Y-33.678
X-204.099 Y-33.314
X-204.447 Y-32.997
X-204.836 Y-32.732
X-205.259 Y-32.526
X-205.707 Y-32.381
X-206.171 Y-32.302
X-208.846 Y-32.041
G3 X-210.163 Y-33.024 I-0.079 J-1.268
G1 X-216.801 Y-61.978
G3 X-215.73 Y-63.52 I1.238 J-0.284
G1 X-212.856 Y-63.801
X-212.648 Y-63.811
X-212.398 Y-63.809
X-212.134 Y-63.793
X-211.837 Y-63.759
X-211.521 Y-63.705
X-211.175 Y-63.626
X-210.803 Y-63.52
X-210.405 Y-63.383
X-209.971 Y-63.206
X-209.528 Y-62.997
X-209.032 Y-62.73
X-208.54 Y-62.429
X-207.998 Y-62.055
X-207.438 Y-61.623
X-206.864 Y-61.128
X-206.24 Y-60.528
X-205.629 Y-59.872
X-205 Y-59.121
X-204.352 Y-58.255
X-203.701 Y-57.277
X-203.057 Y-56.187
X-202.461 Y-55.041
X-201.924 Y-53.866
X-201.444 Y-52.666
X-201.018 Y-51.446
X-200.644 Y-50.209
X-200.322 Y-48.958
X-200.051 Y-47.695
X-199.83 Y-46.422
X-199.659 Y-45.141
X-199.54 Y-43.855
X-199.474 Y-42.564
X-199.466 Y-41.272
X-199.52 Y-39.981
X-199.631 Y-38.819
X-199.784 Y-37.793
X-199.968 Y-36.9
X-200.164 Y-36.156
X-200.353 Y-35.566
X-200.56 Y-35.026
X-200.768 Y-34.56
X-200.88 Y-34.342
X-201.124 Y-33.939
X-201.423 Y-33.576
X-201.771 Y-33.259
X-202.16 Y-32.994
X-202.583 Y-32.787
X-203.031 Y-32.643
X-203.495 Y-32.564
X-206.171 Y-32.302
G3 X-207.49 Y-33.294 I-0.079 J-1.268
G1 X-213.928 Y-62.267
G3 X-212.856 Y-63.801 I1.24 J-0.276
G1 X-210.191 Y-64.062
X-209.96 Y-64.073
X-209.712 Y-64.071
X-209.448 Y-64.055
X-209.151 Y-64.021
X-208.836 Y-63.967
X-208.491 Y-63.888
X-208.119 Y-63.782
X-207.722 Y-63.645
X-207.288 Y-63.469
X-206.845 Y-63.26
X-206.35 Y-62.993
X-205.859 Y-62.692
X-205.318 Y-62.319
X-204.757 Y-61.887
X-204.184 Y-61.392
X-203.561 Y-60.793
X-202.95 Y-60.137
X-202.322 Y-59.386
X-201.674 Y-58.521
X-201.023 Y-57.544
X-200.379 Y-56.454
X-199.783 Y-55.308
X-199.246 Y-54.133
X-198.766 Y-52.933
X-198.34 Y-51.713
X-197.967 Y-50.476
X-197.645 Y-49.225
X-197.374 Y-47.962
X-197.153 Y-46.689
X-196.982 Y-45.408
X-196.863 Y-44.122
X-196.798 Y-42.831
X-196.789 Y-41.539
X-196.843 Y-40.248
X-196.954 Y-39.085
X-197.107 Y-38.058
X-197.291 Y-37.164
X-197.487 Y-36.419
X-197.677 Y-35.83
X-197.884 Y-35.289
X-198.092 Y-34.823
X-198.204 Y-34.604
X-198.448 Y-34.201
X-198.747 Y-33.838
X-199.095 Y-33.52
X-199.484 Y-33.256
X-199.907 Y-33.049
X-200.355 Y-32.905
X-200.819 Y-32.826
X-203.495 Y-32.564
G3 X-204.814 Y-33.555 I-0.079 J-1.268
G1 X-211.263 Y-62.527
G3 X-210.191 Y-64.062 I1.24 J-0.276
G1 X-207.526 Y-64.322
X-207.276 Y-64.334
X-207.028 Y-64.333
X-206.764 Y-64.316
X-206.468 Y-64.282
X-206.153 Y-64.228
X-205.808 Y-64.15
X-205.437 Y-64.044
X-205.039 Y-63.907
X-204.606 Y-63.73
X-204.164 Y-63.522
X-203.669 Y-63.255
X-203.178 Y-62.955
X-202.637 Y-62.582
X-202.077 Y-62.149
X-201.504 Y-61.655
X-200.881 Y-61.056
X-200.27 Y-60.401
X-199.643 Y-59.651
X-198.996 Y-58.786
X-198.345 Y-57.809
X-197.701 Y-56.721
X-197.105 Y-55.574
X-196.569 Y-54.399
X-196.088 Y-53.199
X-195.663 Y-51.979
X-195.289 Y-50.742
X-194.968 Y-49.491
X-194.696 Y-48.228
X-194.475 Y-46.955
X-194.305 Y-45.674
X-194.186 Y-44.388
X-194.12 Y-43.097
X-194.112 Y-41.805
X-194.166 Y-40.514
X-194.277 Y-39.349
X-194.43 Y-38.322
X-194.614 Y-37.428
X-194.81 Y-36.683
X-195 Y-36.093
X-195.207 Y-35.552
X-195.415 Y-35.085
X-195.528 Y-34.865
X-195.772 Y-34.463
X-196.071 Y-34.099
X-196.419 Y-33.782
X-196.808 Y-33.517
X-197.231 Y-33.311
X-197.679 Y-33.166
X-198.143 Y-33.087
X-200.819 Y-32.826
G3 X-202.138 Y-33.817 I-0.079 J-1.268
G1 X-208.598 Y-62.787
G3 X-207.526 Y-64.322 I1.24 J-0.276
G1 X-204.861 Y-64.583
X-204.594 Y-64.596
X-204.346 Y-64.594
X-204.082 Y-64.578
X-203.786 Y-64.544
X-203.471 Y-64.49
X-203.126 Y-64.411
X-202.755 Y-64.305
X-202.358 Y-64.168
X-201.924 Y-63.992
X-201.482 Y-63.784
X-200.988 Y-63.517
X-200.497 Y-63.217
X-199.957 Y-62.844
X-199.396 Y-62.412
X-198.824 Y-61.918
X-198.202 Y-61.32
X-197.591 Y-60.664
X-196.964 Y-59.915
X-196.317 Y-59.05
X-195.666 Y-58.074
X-195.023 Y-56.986
X-194.427 Y-55.839
X-193.891 Y-54.664
X-193.411 Y-53.465
X-192.985 Y-52.245
X-192.612 Y-51.008
X-192.29 Y-49.756
X-192.019 Y-48.493
X-191.798 Y-47.22
X-191.627 Y-45.939
X-191.509 Y-44.653
X-191.443 Y-43.362
X-191.435 Y-42.07
X-191.489 Y-40.779
X-191.6 Y-39.614
X-191.753 Y-38.586
X-191.937 Y-37.691
X-192.133 Y-36.945
X-192.323 Y-36.355
X-192.53 Y-35.814
X-192.738 Y-35.347
X-192.851 Y-35.127
X-193.096 Y-34.725
X-193.395 Y-34.361
X-193.742 Y-34.044
X-194.131 Y-33.779
X-194.554 Y-33.572
X-195.003 Y-33.428
X-195.467 Y-33.349
X-198.143 Y-33.087
G3 X-199.462 Y-34.078 I-0.079 J-1.268
G1 X-205.933 Y-63.047
G3 X-204.861 Y-64.583 I1.239 J-0.277
G1 X-202.196 Y-64.844
X-201.912 Y-64.857
X-201.664 Y-64.855
X-201.401 Y-64.839
X-201.105 Y-64.805
X-200.789 Y-64.751
X-200.445 Y-64.673
X-200.073 Y-64.567
X-199.677 Y-64.43
X-199.243 Y-64.254
X-198.802 Y-64.045
X-198.307 Y-63.779
X-197.817 Y-63.478
X-197.277 Y-63.106
X-196.717 Y-62.674
X-196.144 Y-62.18
X-195.523 Y-61.582
X-194.912 Y-60.927
X-194.285 Y-60.178
X-193.639 Y-59.314
X-192.988 Y-58.338
X-192.345 Y-57.25
X-191.749 Y-56.104
X-191.213 Y-54.929
X-190.733 Y-53.729
X-190.307 Y-52.509
X-189.934 Y-51.272
X-189.612 Y-50.021
X-189.341 Y-48.757
X-189.12 Y-47.484
X-188.95 Y-46.204
X-188.831 Y-44.917
X-188.766 Y-43.627
X-188.758 Y-42.335
X-188.812 Y-41.044
X-188.922 Y-39.877
X-189.076 Y-38.849
X-189.26 Y-37.954
X-189.456 Y-37.208
X-189.646 Y-36.618
X-189.853 Y-36.076
X-190.062 Y-35.609
X-190.175 Y-35.389
X-190.419 Y-34.987
X-190.718 Y-34.623
X-191.065 Y-34.305
X-191.455 Y-34.041
X-191.878 Y-33.834
X-192.326 Y-33.69
X-192.79 Y-33.611
X-195.467 Y-33.349
G3 X-196.785 Y-34.339 I-0.079 J-1.268
G1 X-203.268 Y-63.307
G3 X-202.196 Y-64.844 I1.239 J-0.277
G1 X-199.531 Y-65.104
X-199.231 Y-65.118
X-198.983 Y-65.117
X-198.72 Y-65.101
X-198.424 Y-65.066
X-198.109 Y-65.012
X-197.764 Y-64.934
X-197.393 Y-64.828
X-196.997 Y-64.691
X-196.563 Y-64.515
X-196.122 Y-64.307
X-195.627 Y-64.04
X-195.137 Y-63.74
X-194.597 Y-63.368
X-194.037 Y-62.936
X-193.465 Y-62.443
X-192.844 Y-61.845
X-192.233 Y-61.19
X-191.606 Y-60.441
X-190.96 Y-59.577
X-190.31 Y-58.602
X-189.668 Y-57.514
X-189.071 Y-56.368
X-188.535 Y-55.193
X-188.055 Y-53.993
X-187.629 Y-52.773
X-187.256 Y-51.536
X-186.935 Y-50.285
X-186.664 Y-49.021
X-186.443 Y-47.748
X-186.273 Y-46.467
X-186.154 Y-45.181
X-186.089 Y-43.89
X-186.081 Y-42.598
X-186.135 Y-41.307
X-186.245 Y-40.141
X-186.399 Y-39.112
X-186.583 Y-38.216
X-186.779 Y-37.47
X-186.969 Y-36.88
X-187.176 Y-36.338
X-187.385 Y-35.872
X-187.498 Y-35.651
X-187.742 Y-35.248
X-188.041 Y-34.885
X-188.389 Y-34.567
X-188.778 Y-34.302
X-189.201 Y-34.096
X-189.649 Y-33.951
X-190.113 Y-33.872
X-192.79 Y-33.611
G3 X-194.109 Y-34.6 I-0.079 J-1.268
G1 X-200.603 Y-63.567
G3 X-199.531 Y-65.104 I1.239 J-0.278
G1 X-196.866 Y-65.365
X-196.55 Y-65.38
X-196.303 Y-65.378
X-196.039 Y-65.362
X-195.743 Y-65.328
X-195.428 Y-65.274
X-195.084 Y-65.195
X-194.713 Y-65.089
X-194.317 Y-64.953
X-193.883 Y-64.776
X-193.442 Y-64.568
X-192.948 Y-64.302
X-192.457 Y-64.002
X-191.918 Y-63.63
X-191.358 Y-63.198
X-190.786 Y-62.705
X-190.165 Y-62.107
X-189.554 Y-61.452
X-188.928 Y-60.703
X-188.282 Y-59.84
X-187.632 Y-58.865
X-186.99 Y-57.778
X-186.394 Y-56.631
X-185.857 Y-55.456
X-185.377 Y-54.256
X-184.951 Y-53.037
X-184.579 Y-51.799
X-184.257 Y-50.548
X-183.986 Y-49.285
X-183.765 Y-48.012
X-183.595 Y-46.731
X-183.477 Y-45.444
X-183.411 Y-44.154
X-183.403 Y-42.862
X-183.458 Y-41.571
X-183.568 Y-40.403
X-183.722 Y-39.375
X-183.906 Y-38.479
X-184.102 Y-37.733
X-184.292 Y-37.142
X-184.499 Y-36.6
X-184.708 Y-36.134
X-184.821 Y-35.913
X-185.065 Y-35.51
X-185.364 Y-35.146
X-185.712 Y-34.829
X-186.101 Y-34.564
X-186.524 Y-34.358
X-186.972 Y-34.213
X-187.436 Y-34.134
X-190.113 Y-33.872
G3 X-191.432 Y-34.862 I-0.079 J-1.268
G1 X-197.938 Y-63.827
G3 X-196.866 Y-65.365 I1.239 J-0.278
G1 X-194.201 Y-65.625
X-193.87 Y-65.641
X-193.623 Y-65.639
X-193.359 Y-65.623
X-193.063 Y-65.589
X-192.748 Y-65.535
X-192.404 Y-65.457
X-192.033 Y-65.351
X-191.637 Y-65.214
X-191.203 Y-65.038
X-190.762 Y-64.83
X-190.268 Y-64.563
X-189.778 Y-64.263
X-189.239 Y-63.892
X-188.678 Y-63.459
X-188.107 Y-62.967
X-187.486 Y-62.369
X-186.875 Y-61.714
X-186.249 Y-60.966
X-185.604 Y-60.103
X-184.954 Y-59.128
X-184.312 Y-58.041
X-183.716 Y-56.895
X-183.179 Y-55.719
X-182.699 Y-54.52
X-182.274 Y-53.3
X-181.901 Y-52.063
X-181.579 Y-50.811
X-181.309 Y-49.548
X-181.088 Y-48.275
X-180.918 Y-46.994
X-180.799 Y-45.707
X-180.734 Y-44.417
X-180.726 Y-43.125
X-180.78 Y-41.834
X-180.891 Y-40.666
X-181.044 Y-39.638
X-181.229 Y-38.741
X-181.425 Y-37.995
X-181.615 Y-37.404
X-181.822 Y-36.862
X-182.031 Y-36.395
X-182.144 Y-36.174
X-182.388 Y-35.772
X-182.687 Y-35.408
X-183.035 Y-35.091
X-183.424 Y-34.826
X-183.847 Y-34.619
X-184.295 Y-34.475
X-184.759 Y-34.396
X-187.436 Y-34.134
G3 X-188.755 Y-35.123 I-0.079 J-1.268
G1 X-195.273 Y-64.088
G3 X-194.201 Y-65.625 I1.239 J-0.279
G1 X-191.537 Y-65.886
X-191.19 Y-65.902
X-190.943 Y-65.901
X-190.68 Y-65.884
X-190.384 Y-65.85
X-190.069 Y-65.796
X-189.725 Y-65.718
X-189.353 Y-65.612
X-188.958 Y-65.476
X-188.524 Y-65.299
X-188.083 Y-65.091
X-187.589 Y-64.825
X-187.099 Y-64.525
X-186.56 Y-64.153
X-185.999 Y-63.721
X-185.428 Y-63.228
X-184.808 Y-62.631
X-184.197 Y-61.976
X-183.571 Y-61.228
X-182.925 Y-60.365
X-182.276 Y-59.39
X-181.634 Y-58.304
X-181.038 Y-57.158
X-180.501 Y-55.982
X-180.021 Y-54.783
X-179.596 Y-53.563
X-179.223 Y-52.325
X-178.902 Y-51.074
X-178.631 Y-49.811
X-178.41 Y-48.538
X-178.24 Y-47.257
X-178.122 Y-45.97
X-178.057 Y-44.68
X-178.049 Y-43.388
X-178.103 Y-42.097
X-178.213 Y-40.929
X-178.367 Y-39.9
X-178.551 Y-39.003
X-178.748 Y-38.257
X-178.938 Y-37.666
X-179.145 Y-37.124
X-179.353 Y-36.657
X-179.467 Y-36.436
X-179.711 Y-36.034
X-180.01 Y-35.67
X-180.358 Y-35.352
X-180.747 Y-35.088
X-181.17 Y-34.881
X-181.618 Y-34.737
X-182.082 Y-34.658
X-184.759 Y-34.396
G3 X-186.077 Y-35.384 I-0.079 J-1.268
G1 X-192.608 Y-64.348
G3 X-191.537 Y-65.886 I1.239 J-0.279
G1 X-188.726 Y-66.161
X-188.521 Y-66.17
X-188.273 Y-66.169
X-188.009 Y-66.153
X-187.712 Y-66.118
X-187.397 Y-66.064
X-187.052 Y-65.986
X-186.681 Y-65.88
X-186.284 Y-65.743
X-185.85 Y-65.567
X-185.409 Y-65.358
X-184.914 Y-65.092
X-184.424 Y-64.791
X-183.884 Y-64.42
X-183.324 Y-63.987
X-182.752 Y-63.494
X-182.131 Y-62.897
X-181.52 Y-62.242
X-180.894 Y-61.493
X-180.248 Y-60.63
X-179.599 Y-59.655
X-178.956 Y-58.568
X-178.36 Y-57.422
X-177.824 Y-56.247
X-177.344 Y-55.047
X-176.918 Y-53.827
X-176.546 Y-52.59
X-176.224 Y-51.338
X-175.953 Y-50.075
X-175.733 Y-48.802
X-175.563 Y-47.521
X-175.444 Y-46.235
X-175.379 Y-44.944
X-175.371 Y-43.652
X-175.425 Y-42.361
X-175.536 Y-41.192
X-175.689 Y-40.164
X-175.874 Y-39.266
X-176.07 Y-38.52
X-176.26 Y-37.929
X-176.467 Y-37.387
X-176.676 Y-36.92
X-176.789 Y-36.698
X-177.034 Y-36.295
X-177.333 Y-35.932
X-177.68 Y-35.614
X-178.069 Y-35.35
X-178.493 Y-35.143
X-178.941 Y-34.999
X-179.405 Y-34.919
X-182.082 Y-34.658
G3 X-183.402 Y-35.651 I-0.079 J-1.268
G1 X-189.798 Y-64.628
G3 X-188.726 Y-66.161 I1.24 J-0.274
G1 X-186.207 Y-66.407
X-185.828 Y-66.425
X-185.582 Y-66.423
X-185.318 Y-66.407
X-185.023 Y-66.373
X-184.708 Y-66.319
X-184.365 Y-66.241
X-183.994 Y-66.135
X-183.599 Y-65.999
X-183.165 Y-65.822
X-182.725 Y-65.615
X-182.231 Y-65.348
X-181.741 Y-65.049
X-181.202 Y-64.677
X-180.642 Y-64.245
X-180.072 Y-63.753
X-179.451 Y-63.156
X-178.84 Y-62.501
X-178.215 Y-61.753
X-177.57 Y-60.891
X-176.92 Y-59.916
X-176.278 Y-58.83
X-175.682 Y-57.684
X-175.146 Y-56.509
X-174.666 Y-55.309
X-174.24 Y-54.089
X-173.868 Y-52.852
X-173.546 Y-51.6
X-173.276 Y-50.337
X-173.055 Y-49.064
X-172.885 Y-47.783
X-172.767 Y-46.496
X-172.702 Y-45.206
X-172.694 Y-43.914
X-172.748 Y-42.623
X-172.858 Y-41.454
X-173.012 Y-40.425
X-173.197 Y-39.528
X-173.393 Y-38.781
X-173.583 Y-38.19
X-173.79 Y-37.648
X-173.998 Y-37.181
X-174.112 Y-36.96
X-174.356 Y-36.557
X-174.655 Y-36.194
X-175.003 Y-35.876
X-175.392 Y-35.611
X-175.815 Y-35.405
X-176.263 Y-35.26
X-176.727 Y-35.181
X-179.405 Y-34.919
G3 X-180.723 Y-35.907 I-0.079 J-1.268
G1 X-187.278 Y-64.868
G3 X-186.207 Y-66.407 I1.239 J-0.28
G1 X-183.37 Y-66.684
X-183.163 Y-66.694
X-182.915 Y-66.692
X-182.651 Y-66.676
X-182.355 Y-66.642
X-182.039 Y-66.588
X-181.695 Y-66.51
X-181.323 Y-66.404
X-180.927 Y-66.267
X-180.493 Y-66.091
X-180.051 Y-65.882
X-179.557 Y-65.616
X-179.067 Y-65.315
X-178.527 Y-64.944
X-177.967 Y-64.511
X-177.396 Y-64.019
X-176.775 Y-63.421
X-176.164 Y-62.766
X-175.538 Y-62.018
X-174.893 Y-61.155
X-174.243 Y-60.181
X-173.601 Y-59.094
X-173.005 Y-57.948
X-172.468 Y-56.772
X-171.989 Y-55.573
X-171.563 Y-54.353
X-171.19 Y-53.116
X-170.869 Y-51.864
X-170.598 Y-50.601
X-170.378 Y-49.328
X-170.208 Y-48.047
X-170.089 Y-46.76
X-170.024 Y-45.47
X-170.016 Y-44.178
X-170.07 Y-42.887
X-170.181 Y-41.718
X-170.334 Y-40.689
X-170.519 Y-39.791
X-170.715 Y-39.044
X-170.905 Y-38.453
X-171.113 Y-37.911
X-171.321 Y-37.444
X-171.435 Y-37.222
X-171.679 Y-36.819
X-171.978 Y-36.455
X-172.325 Y-36.138
X-172.715 Y-35.873
X-173.138 Y-35.666
X-173.586 Y-35.522
X-174.05 Y-35.443
X-176.727 Y-35.181
G3 X-178.047 Y-36.175 I-0.079 J-1.268
G1 X-184.443 Y-65.152
G3 X-183.37 Y-66.684 I1.24 J-0.274
G1 X-180.705 Y-66.945
X-180.481 Y-66.956
X-180.233 Y-66.954
X-179.97 Y-66.938
X-179.674 Y-66.903
X-179.359 Y-66.85
X-179.015 Y-66.771
X-178.643 Y-66.665
X-178.247 Y-66.529
X-177.814 Y-66.352
X-177.372 Y-66.144
X-176.878 Y-65.878
X-176.388 Y-65.578
X-175.849 Y-65.206
X-175.289 Y-64.774
X-174.718 Y-64.281
X-174.097 Y-63.684
X-173.486 Y-63.029
X-172.86 Y-62.281
X-172.215 Y-61.418
X-171.565 Y-60.444
X-170.923 Y-59.357
X-170.327 Y-58.211
X-169.791 Y-57.036
X-169.311 Y-55.836
X-168.886 Y-54.616
X-168.513 Y-53.379
X-168.192 Y-52.127
X-167.921 Y-50.864
X-167.7 Y-49.591
X-167.53 Y-48.31
X-167.412 Y-47.024
X-167.346 Y-45.733
X-167.338 Y-44.441
X-167.392 Y-43.15
X-167.503 Y-41.981
X-167.657 Y-40.951
X-167.841 Y-40.054
X-168.037 Y-39.306
X-168.228 Y-38.715
X-168.435 Y-38.173
X-168.643 Y-37.706
X-168.757 Y-37.484
X-169.001 Y-37.081
X-169.3 Y-36.717
X-169.648 Y-36.4
X-170.037 Y-36.135
X-170.46 Y-35.928
X-170.908 Y-35.784
X-171.373 Y-35.705
X-174.05 Y-35.443
G3 X-175.369 Y-36.436 I-0.079 J-1.268
G1 X-181.778 Y-65.412
G3 X-180.705 Y-66.945 I1.24 J-0.274
G1 X-178.041 Y-67.205
X-177.801 Y-67.217
X-177.554 Y-67.215
X-177.29 Y-67.199
X-176.994 Y-67.165
X-176.679 Y-67.111
X-176.335 Y-67.033
X-175.964 Y-66.927
X-175.568 Y-66.79
X-175.134 Y-66.614
X-174.693 Y-66.406
X-174.2 Y-66.139
X-173.709 Y-65.839
X-173.17 Y-65.468
X-172.61 Y-65.036
X-172.039 Y-64.543
X-171.419 Y-63.946
X-170.808 Y-63.291
X-170.182 Y-62.543
X-169.537 Y-61.681
X-168.888 Y-60.706
X-168.246 Y-59.62
X-167.65 Y-58.474
X-167.113 Y-57.299
X-166.633 Y-56.099
X-166.208 Y-54.879
X-165.835 Y-53.642
X-165.514 Y-52.39
X-165.243 Y-51.127
X-165.022 Y-49.854
X-164.852 Y-48.573
X-164.734 Y-47.286
X-164.669 Y-45.996
X-164.661 Y-44.704
X-164.715 Y-43.413
X-164.825 Y-42.243
X-164.979 Y-41.214
X-165.164 Y-40.316
X-165.36 Y-39.569
X-165.55 Y-38.977
X-165.757 Y-38.435
X-165.966 Y-37.968
X-166.08 Y-37.745
X-166.324 Y-37.343
X-166.623 Y-36.979
X-166.97 Y-36.662
X-167.36 Y-36.397
X-167.783 Y-36.19
X-168.231 Y-36.046
X-168.695 Y-35.967
X-171.373 Y-35.705
G3 X-172.692 Y-36.698 I-0.079 J-1.268
G1 X-179.113 Y-65.672
G3 X-178.041 Y-67.205 I1.24 J-0.275
G1 X-175.376 Y-67.466
X-175.121 Y-67.478
X-174.874 Y-67.476
X-174.611 Y-67.46
X-174.315 Y-67.426
X-174 Y-67.372
X-173.656 Y-67.294
X-173.285 Y-67.188
X-172.889 Y-67.052
X-172.455 Y-66.875
X-172.015 Y-66.667
X-171.521 Y-66.401
X-171.031 Y-66.101
X-170.492 Y-65.73
X-169.932 Y-65.297
X-169.361 Y-64.805
X-168.741 Y-64.208
X-168.129 Y-63.553
X-167.504 Y-62.805
X-166.859 Y-61.943
X-166.21 Y-60.969
X-165.568 Y-59.883
X-164.972 Y-58.736
X-164.435 Y-57.561
X-163.956 Y-56.361
X-163.53 Y-55.141
X-163.157 Y-53.904
X-162.836 Y-52.653
X-162.565 Y-51.389
X-162.345 Y-50.116
X-162.175 Y-48.835
X-162.056 Y-47.549
X-161.991 Y-46.258
X-161.983 Y-44.966
X-162.037 Y-43.675
X-162.148 Y-42.506
X-162.301 Y-41.476
X-162.486 Y-40.578
X-162.682 Y-39.831
X-162.872 Y-39.239
X-163.08 Y-38.697
X-163.288 Y-38.23
X-163.402 Y-38.007
X-163.646 Y-37.605
X-163.945 Y-37.241
X-164.293 Y-36.923
X-164.682 Y-36.659
X-165.105 Y-36.452
X-165.554 Y-36.308
X-166.018 Y-36.228
X-168.695 Y-35.967
G3 X-170.014 Y-36.959 I-0.079 J-1.268
G1 X-176.448 Y-65.932
G3 X-175.376 Y-67.466 I1.24 J-0.275
G1 X-172.711 Y-67.727
X-172.442 Y-67.739
X-172.195 Y-67.738
X-171.932 Y-67.722
X-171.636 Y-67.687
X-171.321 Y-67.633
X-170.977 Y-67.555
X-170.606 Y-67.449
X-170.21 Y-67.313
X-169.777 Y-67.136
X-169.336 Y-66.929
X-168.842 Y-66.662
X-168.352 Y-66.362
X-167.813 Y-65.991
X-167.253 Y-65.559
X-166.683 Y-65.067
X-166.062 Y-64.47
X-165.451 Y-63.815
X-164.826 Y-63.067
X-164.181 Y-62.205
X-163.532 Y-61.231
X-162.89 Y-60.145
X-162.294 Y-58.999
X-161.758 Y-57.823
X-161.278 Y-56.624
X-160.852 Y-55.404
X-160.48 Y-54.166
X-160.158 Y-52.915
X-159.888 Y-51.652
X-159.667 Y-50.378
X-159.497 Y-49.098
X-159.379 Y-47.811
X-159.314 Y-46.521
X-159.306 Y-45.229
X-159.36 Y-43.938
X-159.47 Y-42.768
X-159.624 Y-41.738
X-159.808 Y-40.84
X-160.005 Y-40.093
X-160.195 Y-39.501
X-160.402 Y-38.959
X-160.611 Y-38.492
X-160.725 Y-38.269
X-160.969 Y-37.866
X-161.268 Y-37.503
X-161.615 Y-37.185
X-162.005 Y-36.92
X-162.428 Y-36.714
X-162.876 Y-36.569
X-163.34 Y-36.49
X-166.018 Y-36.228
G3 X-167.337 Y-37.22 I-0.079 J-1.268
G1 X-173.783 Y-66.192
G3 X-172.711 Y-67.727 I1.24 J-0.276
G1 X-170.046 Y-67.987
X-169.764 Y-68.001
X-169.517 Y-67.999
X-169.253 Y-67.983
X-168.957 Y-67.949
X-168.642 Y-67.895
X-168.299 Y-67.816
X-167.927 Y-67.71
X-167.532 Y-67.574
X-167.098 Y-67.398
X-166.657 Y-67.19
X-166.164 Y-66.924
X-165.674 Y-66.624
X-165.135 Y-66.253
X-164.575 Y-65.82
X-164.004 Y-65.328
X-163.384 Y-64.732
X-162.773 Y-64.077
X-162.148 Y-63.329
X-161.503 Y-62.467
X-160.854 Y-61.493
X-160.212 Y-60.407
X-159.616 Y-59.261
X-159.08 Y-58.085
X-158.6 Y-56.886
X-158.174 Y-55.666
X-157.802 Y-54.428
X-157.481 Y-53.177
X-157.21 Y-51.913
X-156.989 Y-50.64
X-156.819 Y-49.36
X-156.701 Y-48.073
X-156.636 Y-46.783
X-156.628 Y-45.491
X-156.682 Y-44.2
X-156.792 Y-43.029
X-156.946 Y-42
X-157.131 Y-41.102
X-157.327 Y-40.354
X-157.517 Y-39.763
X-157.725 Y-39.221
X-157.933 Y-38.754
X-158.047 Y-38.531
X-158.291 Y-38.128
X-158.59 Y-37.765
X-158.938 Y-37.447
X-159.327 Y-37.182
X-159.75 Y-36.976
X-160.198 Y-36.831
X-160.663 Y-36.752
X-163.34 Y-36.49
G3 X-164.659 Y-37.481 I-0.079 J-1.268
G1 X-171.118 Y-66.452
G3 X-170.046 Y-67.987 I1.24 J-0.276
G1 X-167.381 Y-68.248
X-167.085 Y-68.262
X-166.838 Y-68.26
X-166.574 Y-68.244
X-166.279 Y-68.21
X-165.964 Y-68.156
X-165.62 Y-68.078
X-165.249 Y-67.972
X-164.853 Y-67.835
X-164.42 Y-67.659
X-163.979 Y-67.451
X-163.485 Y-67.185
X-162.995 Y-66.885
X-162.457 Y-66.514
X-161.897 Y-66.082
X-161.326 Y-65.59
X-160.706 Y-64.993
X-160.095 Y-64.338
X-159.47 Y-63.591
X-158.825 Y-62.728
X-158.176 Y-61.755
X-157.534 Y-60.669
X-156.938 Y-59.522
X-156.402 Y-58.347
X-155.922 Y-57.147
X-155.497 Y-55.927
X-155.124 Y-54.69
X-154.803 Y-53.439
X-154.532 Y-52.175
X-154.312 Y-50.902
X-154.142 Y-49.621
X-154.023 Y-48.335
X-153.958 Y-47.044
X-153.95 Y-45.752
X-154.004 Y-44.461
X-154.115 Y-43.291
X-154.269 Y-42.262
X-154.453 Y-41.364
X-154.649 Y-40.616
X-154.84 Y-40.025
X-155.047 Y-39.482
X-155.255 Y-39.015
X-155.37 Y-38.793
X-155.614 Y-38.39
X-155.913 Y-38.026
X-156.26 Y-37.709
X-156.65 Y-37.444
X-157.073 Y-37.237
X-157.521 Y-37.093
X-157.985 Y-37.014
X-160.663 Y-36.752
G3 X-161.981 Y-37.743 I-0.079 J-1.268
G1 X-168.453 Y-66.712
G3 X-167.381 Y-68.248 I1.239 J-0.277
G1 X-164.716 Y-68.508
X-164.406 Y-68.523
X-164.159 Y-68.521
X-163.896 Y-68.505
X-163.6 Y-68.471
X-163.285 Y-68.417
X-162.942 Y-68.339
X-162.57 Y-68.233
X-162.175 Y-68.097
X-161.741 Y-67.92
X-161.301 Y-67.713
X-160.807 Y-67.446
X-160.317 Y-67.146
X-159.779 Y-66.775
X-159.218 Y-66.343
X-158.648 Y-65.851
X-158.028 Y-65.255
X-157.417 Y-64.599
X-156.792 Y-63.852
X-156.147 Y-62.99
X-155.498 Y-62.016
X-154.857 Y-60.931
X-154.261 Y-59.784
X-153.724 Y-58.609
X-153.244 Y-57.409
X-152.819 Y-56.189
X-152.446 Y-54.952
X-152.125 Y-53.7
X-151.854 Y-52.437
X-151.634 Y-51.164
X-151.464 Y-49.883
X-151.345 Y-48.597
X-151.281 Y-47.306
X-151.273 Y-46.014
X-151.327 Y-44.723
X-151.437 Y-43.553
X-151.591 Y-42.523
X-151.776 Y-41.625
X-151.972 Y-40.878
X-152.162 Y-40.287
X-152.369 Y-39.744
X-152.578 Y-39.277
X-152.692 Y-39.054
X-152.936 Y-38.652
X-153.235 Y-38.288
X-153.583 Y-37.971
X-153.972 Y-37.706
X-154.395 Y-37.499
X-154.843 Y-37.355
X-155.307 Y-37.276
X-157.985 Y-37.014
G3 X-159.304 Y-38.004 I-0.079 J-1.268
G1 X-165.788 Y-66.972
G3 X-164.716 Y-68.508 I1.239 J-0.277
G1 X-162.051 Y-68.769
X-161.728 Y-68.784
X-161.481 Y-68.783
X-161.217 Y-68.766
X-160.922 Y-68.732
X-160.607 Y-68.678
X-160.263 Y-68.6
X-159.892 Y-68.494
X-159.497 Y-68.358
X-159.063 Y-68.181
X-158.623 Y-67.974
X-158.129 Y-67.707
X-157.639 Y-67.408
X-157.1 Y-67.037
X-156.54 Y-66.604
X-155.97 Y-66.112
X-155.35 Y-65.516
X-154.739 Y-64.861
X-154.114 Y-64.114
X-153.469 Y-63.251
X-152.82 Y-62.278
X-152.179 Y-61.192
X-151.583 Y-60.046
X-151.046 Y-58.87
X-150.566 Y-57.671
X-150.141 Y-56.451
X-149.768 Y-55.214
X-149.447 Y-53.962
X-149.177 Y-52.699
X-148.956 Y-51.426
X-148.786 Y-50.145
X-148.668 Y-48.858
X-148.603 Y-47.568
X-148.595 Y-46.276
X-148.649 Y-44.985
X-148.759 Y-43.815
X-148.913 Y-42.785
X-149.098 Y-41.887
X-149.294 Y-41.14
X-149.484 Y-40.548
X-149.692 Y-40.006
X-149.9 Y-39.539
X-150.117 Y-39.116
X-150.359 Y-38.759
X-150.647 Y-38.437
X-150.976 Y-38.157
X-151.34 Y-37.924
X-151.732 Y-37.742
X-152.144 Y-37.614
X-152.57 Y-37.543
X-155.307 Y-37.276
G3 X-156.626 Y-38.265 I-0.079 J-1.268
G1 X-163.122 Y-67.232
G3 X-162.051 Y-68.769 I1.239 J-0.278
G1 X-159.386 Y-69.029
X-159.05 Y-69.045
X-158.803 Y-69.044
X-158.539 Y-69.028
X-158.244 Y-68.993
X-157.928 Y-68.939
X-157.585 Y-68.861
X-157.214 Y-68.755
X-156.818 Y-68.619
X-156.385 Y-68.443
X-155.944 Y-68.235
X-155.451 Y-67.969
X-154.961 Y-67.669
X-154.422 Y-67.298
X-153.862 Y-66.865
X-153.292 Y-66.374
X-152.672 Y-65.777
X-152.061 Y-65.122
X-151.436 Y-64.375
X-150.791 Y-63.513
X-150.142 Y-62.539
X-149.501 Y-61.454
X-148.905 Y-60.307
X-148.368 Y-59.132
X-147.889 Y-57.932
X-147.463 Y-56.712
X-147.091 Y-55.475
X-146.769 Y-54.224
X-146.499 Y-52.96
X-146.278 Y-51.687
X-146.108 Y-50.406
X-145.99 Y-49.12
X-145.925 Y-47.829
X-145.917 Y-46.537
X-145.971 Y-45.246
X-146.082 Y-44.076
X-146.236 Y-43.047
X-146.427 Y-42.116
X-146.617 Y-41.391
X-146.816 Y-40.774
X-147.022 Y-40.235
X-147.223 Y-39.784
X-147.328 Y-39.579
X-147.573 Y-39.176
X-147.872 Y-38.812
X-148.219 Y-38.495
X-148.609 Y-38.23
X-149.032 Y-38.024
X-149.48 Y-37.879
X-149.944 Y-37.8
X-152.57 Y-37.543
G3 X-153.888 Y-38.53 I-0.079 J-1.268
G1 X-160.457 Y-67.49
G3 X-159.386 Y-69.029 I1.239 J-0.281
G1 X-156.721 Y-69.29
X-156.372 Y-69.307
X-156.125 Y-69.305
X-155.861 Y-69.289
X-155.566 Y-69.255
X-155.25 Y-69.201
X-154.907 Y-69.123
X-154.535 Y-69.017
X-154.14 Y-68.88
X-153.707 Y-68.704
X-153.266 Y-68.496
X-152.773 Y-68.23
X-152.283 Y-67.93
X-151.744 Y-67.559
X-151.184 Y-67.127
X-150.614 Y-66.635
X-149.994 Y-66.039
X-149.383 Y-65.384
X-148.758 Y-64.637
X-148.114 Y-63.774
X-147.465 Y-62.801
X-146.823 Y-61.715
X-146.227 Y-60.569
X-145.691 Y-59.394
X-145.211 Y-58.194
X-144.785 Y-56.974
X-144.413 Y-55.737
X-144.092 Y-54.485
X-143.821 Y-53.222
X-143.601 Y-51.949
X-143.431 Y-50.668
X-143.312 Y-49.381
X-143.247 Y-48.091
X-143.24 Y-46.799
X-143.294 Y-45.508
X-143.405 Y-44.33
X-143.559 Y-43.296
X-143.742 Y-42.401
X-143.937 Y-41.657
X-144.127 Y-41.068
X-144.333 Y-40.527
X-144.541 Y-40.061
X-144.757 Y-39.64
X-144.999 Y-39.282
X-145.287 Y-38.961
X-145.615 Y-38.681
X-145.979 Y-38.448
X-146.37 Y-38.266
X-146.782 Y-38.138
X-147.208 Y-38.068
X-149.944 Y-37.8
G3 X-151.262 Y-38.788 I-0.079 J-1.268
G1 X-157.792 Y-67.752
G3 X-156.721 Y-69.29 I1.239 J-0.279
G1 X-154.056 Y-69.551
X-153.693 Y-69.568
X-153.447 Y-69.566
X-153.183 Y-69.55
X-152.887 Y-69.516
X-152.572 Y-69.462
X-152.229 Y-69.384
X-151.857 Y-69.278
X-151.462 Y-69.141
X-151.029 Y-68.965
X-150.588 Y-68.757
X-150.095 Y-68.491
X-149.605 Y-68.191
X-149.066 Y-67.82
X-148.506 Y-67.388
X-147.936 Y-66.896
X-147.316 Y-66.3
X-146.705 Y-65.645
X-146.08 Y-64.898
X-145.436 Y-64.036
X-144.787 Y-63.062
X-144.145 Y-61.977
X-143.549 Y-60.831
X-143.013 Y-59.655
X-142.533 Y-58.455
X-142.108 Y-57.235
X-141.735 Y-55.998
X-141.414 Y-54.747
X-141.143 Y-53.483
X-140.923 Y-52.21
X-140.753 Y-50.929
X-140.635 Y-49.643
X-140.57 Y-48.352
X-140.562 Y-47.06
X-140.615 Y-45.769
X-140.725 Y-44.598
X-140.879 Y-43.569
X-141.069 Y-42.639
X-141.259 Y-41.915
X-141.457 Y-41.298
X-141.663 Y-40.76
X-141.864 Y-40.308
X-141.99 Y-40.062
X-142.228 Y-39.67
X-142.519 Y-39.316
X-142.858 Y-39.006
X-143.237 Y-38.748
X-143.649 Y-38.546
X-144.086 Y-38.406
X-144.538 Y-38.329
X-147.208 Y-38.068
G3 X-148.526 Y-39.053 I-0.079 J-1.268
G1 X-155.127 Y-68.009
G3 X-154.056 Y-69.551 I1.238 J-0.282
G1 X-151.391 Y-69.811
X-151.015 Y-69.829
X-150.768 Y-69.827
X-150.505 Y-69.811
X-150.209 Y-69.777
X-149.894 Y-69.723
X-149.551 Y-69.645
X-149.179 Y-69.539
X-148.784 Y-69.403
X-148.351 Y-69.226
X-147.91 Y-69.019
X-147.417 Y-68.752
X-146.927 Y-68.453
X-146.388 Y-68.082
X-145.828 Y-67.649
X-145.258 Y-67.158
X-144.638 Y-66.561
X-144.027 Y-65.906
X-143.403 Y-65.159
X-142.758 Y-64.297
X-142.109 Y-63.324
X-141.467 Y-62.238
X-140.871 Y-61.092
X-140.335 Y-59.917
X-139.855 Y-58.717
X-139.43 Y-57.497
X-139.057 Y-56.26
X-138.736 Y-55.008
X-138.466 Y-53.745
X-138.245 Y-52.472
X-138.075 Y-51.191
X-137.957 Y-49.904
X-137.892 Y-48.614
X-137.883 Y-47.322
X-137.937 Y-46.031
X-138.048 Y-44.853
X-138.202 Y-43.82
X-138.386 Y-42.917
X-138.583 Y-42.167
X-138.773 Y-41.574
X-138.98 Y-41.033
X-139.187 Y-40.567
X-139.305 Y-40.337
X-139.544 Y-39.942
X-139.838 Y-39.584
X-140.179 Y-39.272
X-140.562 Y-39.012
X-140.977 Y-38.809
X-141.418 Y-38.667
X-141.873 Y-38.589
X-144.538 Y-38.329
G3 X-145.856 Y-39.314 I-0.079 J-1.268
G1 X-152.462 Y-68.27
G3 X-151.391 Y-69.811 I1.238 J-0.282
G1 X-148.726 Y-70.072
X-148.337 Y-70.09
X-148.09 Y-70.089
X-147.827 Y-70.072
X-147.531 Y-70.038
X-147.216 Y-69.984
X-146.873 Y-69.906
X-146.501 Y-69.8
X-146.106 Y-69.664
X-145.673 Y-69.488
X-145.232 Y-69.28
X-144.739 Y-69.014
X-144.249 Y-68.714
X-143.71 Y-68.343
X-143.15 Y-67.91
X-142.58 Y-67.419
X-141.96 Y-66.823
X-141.349 Y-66.168
X-140.725 Y-65.421
X-140.08 Y-64.559
X-139.431 Y-63.585
X-138.79 Y-62.5
X-138.194 Y-61.353
X-137.657 Y-60.178
X-137.177 Y-58.978
X-136.752 Y-57.758
X-136.38 Y-56.521
X-136.058 Y-55.27
X-135.788 Y-54.006
X-135.567 Y-52.733
X-135.397 Y-51.452
X-135.279 Y-50.166
X-135.214 Y-48.875
X-135.205 Y-47.583
X-135.259 Y-46.292
X-135.369 Y-45.115
X-135.523 Y-44.084
X-135.707 Y-43.182
X-135.903 Y-42.434
X-136.093 Y-41.842
X-136.299 Y-41.301
X-136.507 Y-40.835
X-136.622 Y-40.61
X-136.863 Y-40.212
X-137.159 Y-39.852
X-137.503 Y-39.538
X-137.888 Y-39.276
X-138.306 Y-39.071
X-138.749 Y-38.928
X-139.209 Y-38.85
X-141.873 Y-38.589
G3 X-143.191 Y-39.574 I-0.079 J-1.268
G1 X-149.797 Y-68.53
G3 X-148.726 Y-70.072 I1.238 J-0.282
G1 X-146.061 Y-70.332
X-145.659 Y-70.351
X-145.412 Y-70.35
X-145.149 Y-70.334
X-144.853 Y-70.299
X-144.538 Y-70.245
X-144.195 Y-70.167
X-143.823 Y-70.061
X-143.428 Y-69.925
X-142.995 Y-69.749
X-142.554 Y-69.541
X-142.061 Y-69.275
X-141.571 Y-68.975
X-141.032 Y-68.604
X-140.472 Y-68.172
X-139.902 Y-67.68
X-139.282 Y-67.084
X-138.671 Y-66.429
X-138.047 Y-65.682
X-137.402 Y-64.82
X-136.753 Y-63.847
X-136.112 Y-62.761
X-135.516 Y-61.615
X-134.979 Y-60.439
X-134.5 Y-59.24
X-134.074 Y-58.02
X-133.702 Y-56.783
X-133.381 Y-55.531
X-133.11 Y-54.268
X-132.889 Y-52.995
X-132.719 Y-51.714
X-132.601 Y-50.427
X-132.535 Y-49.137
X-132.527 Y-47.845
X-132.58 Y-46.554
X-132.69 Y-45.379
X-132.844 Y-44.349
X-133.028 Y-43.449
X-133.224 Y-42.701
X-133.413 Y-42.11
X-133.62 Y-41.569
X-133.827 Y-41.103
X-133.94 Y-40.882
X-134.183 Y-40.481
X-134.481 Y-40.119
X-134.827 Y-39.803
X-135.214 Y-39.539
X-135.635 Y-39.333
X-136.082 Y-39.189
X-136.544 Y-39.11
X-139.209 Y-38.85
G3 X-140.526 Y-39.835 I-0.079 J-1.268
G1 X-147.132 Y-68.791
G3 X-146.061 Y-70.332 I1.238 J-0.282
G1 X-143.396 Y-70.593
X-142.981 Y-70.613
X-142.734 Y-70.611
X-142.471 Y-70.595
X-142.175 Y-70.561
X-141.86 Y-70.507
X-141.517 Y-70.429
X-141.145 Y-70.323
X-140.75 Y-70.186
X-140.317 Y-70.01
X-139.876 Y-69.802
X-139.383 Y-69.536
X-138.893 Y-69.236
X-138.354 Y-68.865
X-137.794 Y-68.433
X-137.224 Y-67.941
X-136.605 Y-67.345
X-135.994 Y-66.69
X-135.369 Y-65.943
X-134.724 Y-65.081
X-134.075 Y-64.108
X-133.434 Y-63.022
X-132.838 Y-61.876
X-132.302 Y-60.701
X-131.822 Y-59.501
X-131.396 Y-58.281
X-131.024 Y-57.044
X-130.703 Y-55.792
X-130.432 Y-54.529
X-130.211 Y-53.256
X-130.041 Y-51.975
X-129.923 Y-50.688
X-129.857 Y-49.398
X-129.849 Y-48.106
X-129.902 Y-46.815
X-130.012 Y-45.643
X-130.165 Y-44.613
X-130.349 Y-43.715
X-130.545 Y-42.968
X-130.735 Y-42.378
X-130.941 Y-41.836
X-131.149 Y-41.37
X-131.261 Y-41.152
X-131.505 Y-40.749
X-131.804 Y-40.385
X-132.151 Y-40.067
X-132.541 Y-39.802
X-132.964 Y-39.595
X-133.412 Y-39.45
X-133.877 Y-39.371
X-136.544 Y-39.11
G3 X-137.861 Y-40.095 I-0.079 J-1.268
G1 X-144.467 Y-69.052
G3 X-143.396 Y-70.593 I1.238 J-0.282
G1 X-140.522 Y-70.874
X-140.318 Y-70.884
X-140.069 Y-70.882
X-139.805 Y-70.866
X-139.509 Y-70.831
X-139.193 Y-70.778
X-138.849 Y-70.699
X-138.477 Y-70.593
X-138.08 Y-70.456
X-137.647 Y-70.28
X-137.205 Y-70.072
X-136.711 Y-69.805
X-136.22 Y-69.505
X-135.681 Y-69.133
X-135.121 Y-68.701
X-134.55 Y-68.208
X-133.929 Y-67.611
X-133.318 Y-66.956
X-132.693 Y-66.209
X-132.048 Y-65.346
X-131.399 Y-64.372
X-130.757 Y-63.286
X-130.161 Y-62.14
X-129.624 Y-60.964
X-129.145 Y-59.765
X-128.719 Y-58.545
X-128.346 Y-57.308
X-128.025 Y-56.056
X-127.754 Y-54.793
X-127.534 Y-53.52
X-127.363 Y-52.239
X-127.245 Y-50.952
X-127.179 Y-49.662
X-127.171 Y-48.37
X-127.224 Y-47.079
X-127.334 Y-45.908
X-127.487 Y-44.879
X-127.671 Y-43.982
X-127.867 Y-43.235
X-128.056 Y-42.645
X-128.263 Y-42.103
X-128.471 Y-41.636
X-128.585 Y-41.413
X-128.829 Y-41.01
X-129.128 Y-40.646
X-129.476 Y-40.328
X-129.865 Y-40.063
X-130.288 Y-39.856
X-130.737 Y-39.712
X-131.201 Y-39.633
X-133.877 Y-39.371
G3 X-135.196 Y-40.365 I-0.079 J-1.268
G1 X-141.594 Y-69.341
G3 X-140.522 Y-70.874 I1.24 J-0.274
G1 X-137.857 Y-71.134
X-137.635 Y-71.145
X-137.387 Y-71.143
X-137.124 Y-71.127
X-136.828 Y-71.093
X-136.513 Y-71.039
X-136.169 Y-70.961
X-135.797 Y-70.855
X-135.401 Y-70.718
X-134.968 Y-70.542
X-134.527 Y-70.334
X-134.033 Y-70.067
X-133.542 Y-69.767
X-133.003 Y-69.396
X-132.443 Y-68.964
X-131.872 Y-68.471
X-131.252 Y-67.875
X-130.641 Y-67.219
X-130.016 Y-66.472
X-129.37 Y-65.609
X-128.721 Y-64.635
X-128.079 Y-63.549
X-127.483 Y-62.403
X-126.947 Y-61.227
X-126.467 Y-60.028
X-126.042 Y-58.808
X-125.669 Y-57.571
X-125.348 Y-56.319
X-125.077 Y-55.056
X-124.856 Y-53.783
X-124.685 Y-52.502
X-124.567 Y-51.215
X-124.501 Y-49.925
X-124.493 Y-48.633
X-124.546 Y-47.342
X-124.656 Y-46.173
X-124.809 Y-45.143
X-124.993 Y-44.246
X-125.189 Y-43.499
X-125.379 Y-42.908
X-125.586 Y-42.365
X-125.794 Y-41.898
X-125.909 Y-41.675
X-126.153 Y-41.272
X-126.452 Y-40.908
X-126.799 Y-40.59
X-127.189 Y-40.325
X-127.612 Y-40.118
X-128.06 Y-39.974
X-128.525 Y-39.894
X-131.201 Y-39.633
G3 X-132.521 Y-40.626 I-0.079 J-1.268
G1 X-138.929 Y-69.601
G3 X-137.857 Y-71.134 I1.24 J-0.274
G1 X-135.192 Y-71.395
X-134.955 Y-71.406
X-134.708 Y-71.405
X-134.444 Y-71.389
X-134.148 Y-71.354
X-133.833 Y-71.3
X-133.489 Y-71.222
X-133.118 Y-71.116
X-132.722 Y-70.98
X-132.289 Y-70.803
X-131.848 Y-70.596
X-131.354 Y-70.329
X-130.864 Y-70.029
X-130.325 Y-69.658
X-129.765 Y-69.225
X-129.194 Y-68.733
X-128.574 Y-68.137
X-127.963 Y-67.482
X-127.338 Y-66.734
X-126.693 Y-65.871
X-126.043 Y-64.897
X-125.402 Y-63.811
X-124.806 Y-62.665
X-124.269 Y-61.49
X-123.789 Y-60.29
X-123.364 Y-59.07
X-122.991 Y-57.833
X-122.67 Y-56.581
X-122.399 Y-55.318
X-122.178 Y-54.045
X-122.008 Y-52.764
X-121.889 Y-51.478
X-121.823 Y-50.187
X-121.815 Y-48.895
X-121.869 Y-47.604
X-121.979 Y-46.435
X-122.132 Y-45.406
X-122.316 Y-44.508
X-122.512 Y-43.76
X-122.702 Y-43.169
X-122.909 Y-42.627
X-123.117 Y-42.16
X-123.232 Y-41.936
X-123.476 Y-41.533
X-123.775 Y-41.169
X-124.123 Y-40.852
X-124.512 Y-40.587
X-124.935 Y-40.38
X-125.384 Y-40.235
X-125.848 Y-40.156
X-128.525 Y-39.894
G3 X-129.844 Y-40.887 I-0.079 J-1.268
G1 X-136.264 Y-69.861
G3 X-135.192 Y-71.395 I1.24 J-0.275
G1 X-132.527 Y-71.656
X-132.276 Y-71.668
X-132.029 Y-71.666
X-131.765 Y-71.65
X-131.469 Y-71.616
X-131.154 Y-71.562
X-130.811 Y-71.483
X-130.439 Y-71.377
X-130.044 Y-71.241
X-129.61 Y-71.065
X-129.169 Y-70.857
X-128.676 Y-70.591
X-128.185 Y-70.291
X-127.647 Y-69.92
X-127.087 Y-69.487
X-126.516 Y-68.995
X-125.896 Y-68.398
X-125.285 Y-67.743
X-124.66 Y-66.996
X-124.015 Y-66.133
X-123.365 Y-65.159
X-122.724 Y-64.073
X-122.128 Y-62.927
X-121.591 Y-61.752
X-121.111 Y-60.552
X-120.686 Y-59.332
X-120.313 Y-58.095
X-119.992 Y-56.843
X-119.721 Y-55.58
X-119.5 Y-54.307
X-119.33 Y-53.026
X-119.211 Y-51.74
X-119.146 Y-50.449
X-119.137 Y-49.157
X-119.191 Y-47.866
X-119.301 Y-46.697
X-119.455 Y-45.667
X-119.639 Y-44.769
X-119.835 Y-44.022
X-120.025 Y-43.43
X-120.232 Y-42.888
X-120.441 Y-42.421
X-120.555 Y-42.197
X-120.799 Y-41.795
X-121.098 Y-41.431
X-121.446 Y-41.113
X-121.835 Y-40.848
X-122.258 Y-40.641
X-122.707 Y-40.497
X-123.171 Y-40.418
X-125.848 Y-40.156
G3 X-127.167 Y-41.148 I-0.079 J-1.268
G1 X-133.599 Y-70.121
G3 X-132.527 Y-71.656 I1.24 J-0.275
G1 X-129.862 Y-71.916
X-129.597 Y-71.929
X-129.35 Y-71.927
X-129.086 Y-71.911
X-128.791 Y-71.877
X-128.475 Y-71.823
X-128.132 Y-71.745
X-127.76 Y-71.639
X-127.365 Y-71.502
X-126.932 Y-71.326
X-126.491 Y-71.118
X-125.997 Y-70.852
X-125.507 Y-70.552
X-124.968 Y-70.181
X-124.408 Y-69.748
X-123.838 Y-69.256
X-123.218 Y-68.66
X-122.607 Y-68.005
X-121.982 Y-67.257
X-121.337 Y-66.395
X-120.687 Y-65.421
X-120.046 Y-64.335
X-119.45 Y-63.189
X-118.913 Y-62.013
X-118.433 Y-60.814
X-118.008 Y-59.594
X-117.635 Y-58.356
X-117.314 Y-57.105
X-117.043 Y-55.842
X-116.822 Y-54.569
X-116.652 Y-53.288
X-116.533 Y-52.001
X-116.468 Y-50.711
X-116.46 Y-49.419
X-116.513 Y-48.128
X-116.624 Y-46.958
X-116.777 Y-45.929
X-116.962 Y-45.031
X-117.158 Y-44.283
X-117.348 Y-43.692
X-117.555 Y-43.149
X-117.763 Y-42.682
X-117.878 Y-42.459
X-118.122 Y-42.056
X-118.421 Y-41.692
X-118.769 Y-41.375
X-119.158 Y-41.11
X-119.581 Y-40.903
X-120.029 Y-40.759
X-120.494 Y-40.68
X-123.171 Y-40.418
G3 X-124.49 Y-41.41 I-0.079 J-1.268
G1 X-130.934 Y-70.382
G3 X-129.862 Y-71.916 I1.24 J-0.276
G1 X-127.197 Y-72.177
X-126.918 Y-72.19
X-126.671 Y-72.188
X-126.408 Y-72.172
X-126.112 Y-72.138
X-125.797 Y-72.084
X-125.454 Y-72.006
X-125.082 Y-71.9
X-124.687 Y-71.764
X-124.253 Y-71.587
X-123.813 Y-71.38
X-123.319 Y-71.113
X-122.829 Y-70.813
X-122.29 Y-70.442
X-121.73 Y-70.01
X-121.16 Y-69.518
X-120.54 Y-68.921
X-119.928 Y-68.266
X-119.303 Y-67.519
X-118.658 Y-66.656
X-118.009 Y-65.682
X-117.367 Y-64.596
X-116.771 Y-63.45
X-116.235 Y-62.275
X-115.755 Y-61.075
X-115.33 Y-59.855
X-114.957 Y-58.618
X-114.636 Y-57.366
X-114.365 Y-56.103
X-114.144 Y-54.83
X-113.974 Y-53.549
X-113.855 Y-52.263
X-113.79 Y-50.972
X-113.782 Y-49.68
X-113.836 Y-48.389
X-113.946 Y-47.22
X-114.1 Y-46.19
X-114.284 Y-45.292
X-114.481 Y-44.544
X-114.671 Y-43.953
X-114.878 Y-43.411
X-115.086 Y-42.944
X-115.201 Y-42.721
X-115.445 Y-42.318
X-115.744 Y-41.954
X-116.091 Y-41.637
X-116.481 Y-41.372
X-116.904 Y-41.165
X-117.352 Y-41.021
X-117.816 Y-40.941
X-120.494 Y-40.68
G3 X-121.813 Y-41.671 I-0.079 J-1.268
G1 X-128.269 Y-70.642
G3 X-127.197 Y-72.177 I1.24 J-0.276
G1 X-124.532 Y-72.437
X-124.24 Y-72.451
X-123.993 Y-72.45
X-123.729 Y-72.433
X-123.434 Y-72.399
X-123.119 Y-72.345
X-122.775 Y-72.267
X-122.404 Y-72.161
X-122.008 Y-72.025
X-121.575 Y-71.848
X-121.134 Y-71.641
X-120.641 Y-71.374
X-120.15 Y-71.075
X-119.612 Y-70.704
X-119.052 Y-70.271
X-118.481 Y-69.779
X-117.861 Y-69.183
X-117.25 Y-68.528
X-116.625 Y-67.78
X-115.98 Y-66.918
X-115.331 Y-65.944
X-114.689 Y-64.858
X-114.093 Y-63.712
X-113.557 Y-62.536
X-113.077 Y-61.337
X-112.652 Y-60.117
X-112.279 Y-58.879
X-111.958 Y-57.628
X-111.687 Y-56.365
X-111.466 Y-55.092
X-111.296 Y-53.811
X-111.178 Y-52.524
X-111.112 Y-51.234
X-111.104 Y-49.942
X-111.158 Y-48.651
X-111.269 Y-47.481
X-111.423 Y-46.451
X-111.607 Y-45.553
X-111.803 Y-44.806
X-111.993 Y-44.215
X-112.201 Y-43.672
X-112.409 Y-43.205
X-112.523 Y-42.982
X-112.767 Y-42.58
X-113.066 Y-42.216
X-113.414 Y-41.898
X-113.803 Y-41.633
X-114.226 Y-41.427
X-114.675 Y-41.282
X-115.139 Y-41.203
X-117.816 Y-40.941
G3 X-119.135 Y-41.932 I-0.079 J-1.268
G1 X-125.604 Y-70.902
G3 X-124.532 Y-72.437 I1.239 J-0.277
G1 X-121.867 Y-72.698
X-121.561 Y-72.712
X-121.315 Y-72.711
X-121.051 Y-72.695
X-120.755 Y-72.66
X-120.44 Y-72.607
X-120.097 Y-72.528
X-119.725 Y-72.422
X-119.33 Y-72.286
X-118.896 Y-72.11
X-118.456 Y-71.902
X-117.962 Y-71.636
X-117.472 Y-71.336
X-116.934 Y-70.965
X-116.374 Y-70.532
X-115.803 Y-70.04
X-115.183 Y-69.444
X-114.572 Y-68.789
X-113.947 Y-68.042
X-113.302 Y-67.179
X-112.653 Y-66.205
X-112.011 Y-65.12
X-111.415 Y-63.973
X-110.879 Y-62.798
X-110.399 Y-61.598
X-109.974 Y-60.378
X-109.601 Y-59.141
X-109.28 Y-57.89
X-109.009 Y-56.626
X-108.788 Y-55.353
X-108.618 Y-54.072
X-108.5 Y-52.786
X-108.435 Y-51.495
X-108.427 Y-50.203
X-108.481 Y-48.912
X-108.591 Y-47.742
X-108.745 Y-46.713
X-108.929 Y-45.815
X-109.126 Y-45.067
X-109.316 Y-44.476
X-109.523 Y-43.934
X-109.732 Y-43.467
X-109.846 Y-43.244
X-110.09 Y-42.841
X-110.389 Y-42.478
X-110.736 Y-42.16
X-111.126 Y-41.895
X-111.549 Y-41.689
X-111.997 Y-41.544
X-112.461 Y-41.465
X-115.139 Y-41.203
G3 X-116.457 Y-42.193 I-0.079 J-1.268
G1 X-122.939 Y-71.162
G3 X-121.867 Y-72.698 I1.239 J-0.277
G1 X-119.202 Y-72.958
X-118.883 Y-72.974
X-118.636 Y-72.972
X-118.373 Y-72.956
X-118.077 Y-72.922
X-117.762 Y-72.868
X-117.418 Y-72.79
X-117.047 Y-72.684
X-116.652 Y-72.547
X-116.218 Y-72.371
X-115.778 Y-72.163
X-115.284 Y-71.897
X-114.794 Y-71.597
X-114.255 Y-71.226
X-113.695 Y-70.794
X-113.125 Y-70.302
X-112.505 Y-69.705
X-111.894 Y-69.05
X-111.269 Y-68.303
X-110.624 Y-67.441
X-109.975 Y-66.467
X-109.333 Y-65.381
X-108.737 Y-64.235
X-108.201 Y-63.059
X-107.721 Y-61.86
X-107.296 Y-60.64
X-106.923 Y-59.403
X-106.602 Y-58.151
X-106.331 Y-56.888
X-106.111 Y-55.615
X-105.94 Y-54.334
X-105.822 Y-53.047
X-105.757 Y-51.757
X-105.749 Y-50.465
X-105.803 Y-49.174
X-105.914 Y-48.004
X-106.067 Y-46.974
X-106.252 Y-46.076
X-106.448 Y-45.329
X-106.638 Y-44.738
X-106.846 Y-44.195
X-107.054 Y-43.728
X-107.168 Y-43.506
X-107.412 Y-43.103
X-107.711 Y-42.739
X-108.059 Y-42.422
X-108.448 Y-42.157
X-108.871 Y-41.95
X-109.32 Y-41.806
X-109.784 Y-41.727
X-112.461 Y-41.465
G3 X-113.78 Y-42.455 I-0.079 J-1.268
G1 X-120.274 Y-71.422
G3 X-119.202 Y-72.958 I1.239 J-0.278
G1 X-116.538 Y-73.219
X-116.205 Y-73.235
X-115.958 Y-73.233
X-115.694 Y-73.217
X-115.399 Y-73.183
X-115.084 Y-73.129
X-114.74 Y-73.051
X-114.369 Y-72.945
X-113.973 Y-72.809
X-113.54 Y-72.632
X-113.099 Y-72.424
X-112.606 Y-72.158
X-112.116 Y-71.858
X-111.577 Y-71.487
X-111.017 Y-71.055
X-110.447 Y-70.563
X-109.827 Y-69.967
X-109.216 Y-69.312
X-108.591 Y-68.564
X-107.946 Y-67.702
X-107.297 Y-66.728
X-106.656 Y-65.643
X-106.059 Y-64.496
X-105.523 Y-63.321
X-105.043 Y-62.121
X-104.618 Y-60.901
X-104.245 Y-59.664
X-103.924 Y-58.413
X-103.653 Y-57.149
X-103.433 Y-55.876
X-103.263 Y-54.595
X-103.144 Y-53.309
X-103.079 Y-52.018
X-103.071 Y-50.726
X-103.125 Y-49.435
X-103.236 Y-48.265
X-103.39 Y-47.236
X-103.574 Y-46.338
X-103.771 Y-45.591
X-103.961 Y-44.999
X-104.168 Y-44.457
X-104.377 Y-43.99
X-104.491 Y-43.767
X-104.735 Y-43.365
X-105.034 Y-43.001
X-105.381 Y-42.684
X-105.771 Y-42.419
X-106.194 Y-42.212
X-106.642 Y-42.068
X-107.106 Y-41.989
X-109.784 Y-41.727
G3 X-111.102 Y-42.716 I-0.079 J-1.268
G1 X-117.609 Y-71.682
G3 X-116.538 Y-73.219 I1.239 J-0.278
G1 X-113.873 Y-73.48
X-113.527 Y-73.496
X-113.28 Y-73.494
X-113.016 Y-73.478
X-112.721 Y-73.444
X-112.405 Y-73.39
X-112.062 Y-73.312
X-111.69 Y-73.206
X-111.295 Y-73.07
X-110.862 Y-72.893
X-110.421 Y-72.686
X-109.928 Y-72.419
X-109.438 Y-72.12
X-108.899 Y-71.749
X-108.339 Y-71.316
X-107.769 Y-70.824
X-107.149 Y-70.228
X-106.538 Y-69.573
X-105.913 Y-68.826
X-105.268 Y-67.964
X-104.619 Y-66.99
X-103.978 Y-65.904
X-103.382 Y-64.758
X-102.845 Y-63.583
X-102.365 Y-62.383
X-101.94 Y-61.163
X-101.567 Y-59.926
X-101.246 Y-58.674
X-100.975 Y-57.411
X-100.755 Y-56.138
X-100.585 Y-54.857
X-100.467 Y-53.57
X-100.402 Y-52.28
X-100.394 Y-50.988
X-100.448 Y-49.697
X-100.558 Y-48.527
X-100.712 Y-47.497
X-100.897 Y-46.599
X-101.093 Y-45.852
X-101.283 Y-45.261
X-101.491 Y-44.719
X-101.699 Y-44.251
X-101.813 Y-44.029
X-102.057 Y-43.627
X-102.356 Y-43.263
X-102.704 Y-42.945
X-103.093 Y-42.681
X-103.516 Y-42.474
X-103.964 Y-42.33
X-104.428 Y-42.25
X-107.106 Y-41.989
G3 X-108.424 Y-42.977 I-0.079 J-1.268
G1 X-114.944 Y-71.942
G3 X-113.873 Y-73.48 I1.239 J-0.279
G1 X-111.208 Y-73.74
X-110.848 Y-73.757
X-110.602 Y-73.756
X-110.338 Y-73.739
X-110.042 Y-73.705
X-109.727 Y-73.651
X-109.384 Y-73.573
X-109.012 Y-73.467
X-108.617 Y-73.331
X-108.184 Y-73.155
X-107.743 Y-72.947
X-107.25 Y-72.681
X-106.759 Y-72.381
X-106.221 Y-72.01
X-105.661 Y-71.577
X-105.091 Y-71.086
X-104.471 Y-70.489
X-103.86 Y-69.834
X-103.235 Y-69.087
X-102.59 Y-68.225
X-101.941 Y-67.251
X-101.3 Y-66.166
X-100.704 Y-65.019
X-100.167 Y-63.844
X-99.687 Y-62.644
X-99.262 Y-61.424
X-98.889 Y-60.187
X-98.568 Y-58.936
X-98.298 Y-57.672
X-98.077 Y-56.399
X-97.907 Y-55.118
X-97.789 Y-53.832
X-97.724 Y-52.541
X-97.716 Y-51.249
X-97.77 Y-49.958
X-97.881 Y-48.788
X-98.035 Y-47.759
X-98.219 Y-46.861
X-98.416 Y-46.114
X-98.606 Y-45.523
X-98.813 Y-44.98
X-99.022 Y-44.513
X-99.136 Y-44.291
X-99.38 Y-43.888
X-99.679 Y-43.525
X-100.026 Y-43.207
X-100.416 Y-42.942
X-100.839 Y-42.736
X-101.287 Y-42.591
X-101.751 Y-42.512
X-104.428 Y-42.25
G3 X-105.747 Y-43.239 I-0.079 J-1.268
G1 X-112.279 Y-72.202
G3 X-111.208 Y-73.74 I1.239 J-0.279
G1 X-108.543 Y-74.001
X-108.17 Y-74.018
X-107.923 Y-74.017
X-107.66 Y-74.001
X-107.364 Y-73.966
X-107.049 Y-73.913
X-106.706 Y-73.834
X-106.334 Y-73.728
X-105.939 Y-73.592
X-105.505 Y-73.416
X-105.065 Y-73.208
X-104.572 Y-72.942
X-104.081 Y-72.642
X-103.543 Y-72.271
X-102.983 Y-71.839
X-102.413 Y-71.347
X-101.793 Y-70.751
X-101.182 Y-70.096
X-100.557 Y-69.348
X-99.912 Y-68.486
X-99.263 Y-67.513
X-98.622 Y-66.427
X-98.026 Y-65.281
X-97.489 Y-64.106
X-97.01 Y-62.906
X-96.584 Y-61.686
X-96.212 Y-60.449
X-95.891 Y-59.197
X-95.62 Y-57.934
X-95.399 Y-56.661
X-95.23 Y-55.38
X-95.111 Y-54.093
X-95.046 Y-52.803
X-95.038 Y-51.511
X-95.093 Y-50.22
X-95.203 Y-49.05
X-95.357 Y-48.021
X-95.542 Y-47.123
X-95.738 Y-46.375
X-95.928 Y-45.784
X-96.136 Y-45.242
X-96.344 Y-44.775
X-96.458 Y-44.553
X-96.702 Y-44.15
X-97.001 Y-43.786
X-97.349 Y-43.469
X-97.738 Y-43.204
X-98.161 Y-42.998
X-98.609 Y-42.853
X-99.073 Y-42.774
X-101.751 Y-42.512
G3 X-103.069 Y-43.5 I-0.079 J-1.268
G1 X-109.614 Y-72.462
G3 X-108.543 Y-74.001 I1.239 J-0.28
G1 X-105.706 Y-74.278
X-105.504 Y-74.288
X-105.256 Y-74.286
X-104.992 Y-74.27
X-104.695 Y-74.236
X-104.38 Y-74.182
X-104.036 Y-74.103
X-103.664 Y-73.997
X-103.268 Y-73.861
X-102.834 Y-73.684
X-102.393 Y-73.476
X-101.898 Y-73.209
X-101.408 Y-72.909
X-100.869 Y-72.538
X-100.309 Y-72.105
X-99.738 Y-71.613
X-99.117 Y-71.016
X-98.506 Y-70.361
X-97.881 Y-69.613
X-97.236 Y-68.751
X-96.586 Y-67.777
X-95.945 Y-66.691
X-95.349 Y-65.544
X-94.812 Y-64.369
X-94.332 Y-63.169
X-93.907 Y-61.949
X-93.534 Y-60.712
X-93.213 Y-59.461
X-92.943 Y-58.197
X-92.722 Y-56.924
X-92.552 Y-55.643
X-92.434 Y-54.357
X-92.369 Y-53.066
X-92.361 Y-51.774
X-92.415 Y-50.483
X-92.525 Y-49.313
X-92.679 Y-48.284
X-92.864 Y-47.385
X-93.06 Y-46.638
X-93.25 Y-46.047
X-93.458 Y-45.504
X-93.666 Y-45.037
X-93.78 Y-44.815
X-94.024 Y-44.412
X-94.323 Y-44.048
X-94.671 Y-43.731
X-95.06 Y-43.466
X-95.483 Y-43.259
X-95.931 Y-43.115
X-96.396 Y-43.036
X-99.073 Y-42.774
G3 X-100.393 Y-43.768 I-0.079 J-1.268
G1 X-106.779 Y-72.746
G3 X-105.706 Y-74.278 I1.24 J-0.273
G1 X-103.041 Y-74.539
X-102.822 Y-74.549
X-102.574 Y-74.547
X-102.311 Y-74.531
X-102.015 Y-74.497
X-101.7 Y-74.443
X-101.356 Y-74.365
X-100.984 Y-74.259
X-100.588 Y-74.122
X-100.155 Y-73.946
X-99.714 Y-73.738
X-99.22 Y-73.472
X-98.73 Y-73.172
X-98.191 Y-72.8
X-97.631 Y-72.368
X-97.06 Y-71.876
X-96.44 Y-71.279
X-95.828 Y-70.624
X-95.203 Y-69.876
X-94.558 Y-69.014
X-93.909 Y-68.04
X-93.267 Y-66.954
X-92.671 Y-65.807
X-92.135 Y-64.632
X-91.655 Y-63.432
X-91.23 Y-62.212
X-90.857 Y-60.975
X-90.536 Y-59.724
X-90.265 Y-58.46
X-90.044 Y-57.187
X-89.874 Y-55.906
X-89.756 Y-54.62
X-89.691 Y-53.329
X-89.683 Y-52.037
X-89.737 Y-50.746
X-89.848 Y-49.576
X-90.001 Y-48.546
X-90.186 Y-47.648
X-90.382 Y-46.9
X-90.572 Y-46.309
X-90.78 Y-45.767
X-90.988 Y-45.299
X-91.118 Y-45.045
X-91.358 Y-44.651
X-91.651 Y-44.294
X-91.992 Y-43.983
X-92.374 Y-43.723
X-92.788 Y-43.52
X-93.228 Y-43.379
X-93.683 Y-43.301
X-96.396 Y-43.036
G3 X-97.715 Y-44.03 I-0.079 J-1.268
G1 X-104.114 Y-73.006
G3 X-103.041 Y-74.539 I1.24 J-0.274
G1 X-100.377 Y-74.799
X-100.142 Y-74.81
X-99.895 Y-74.809
X-99.631 Y-74.793
X-99.336 Y-74.758
X-99.02 Y-74.704
X-98.677 Y-74.626
X-98.305 Y-74.52
X-97.91 Y-74.384
X-97.476 Y-74.207
X-97.035 Y-74
X-96.542 Y-73.733
X-96.051 Y-73.433
X-95.513 Y-73.062
X-94.952 Y-72.63
X-94.382 Y-72.138
X-93.762 Y-71.541
X-93.151 Y-70.886
X-92.525 Y-70.138
X-91.88 Y-69.276
X-91.231 Y-68.302
X-90.59 Y-67.216
X-89.994 Y-66.07
X-89.457 Y-64.894
X-88.977 Y-63.695
X-88.552 Y-62.475
X-88.179 Y-61.238
X-87.858 Y-59.986
X-87.587 Y-58.723
X-87.367 Y-57.45
X-87.197 Y-56.169
X-87.078 Y-54.882
X-87.013 Y-53.592
X-87.005 Y-52.3
X-87.059 Y-51.009
X-87.17 Y-49.838
X-87.324 Y-48.809
X-87.51 Y-47.904
X-87.707 Y-47.151
X-87.898 Y-46.557
X-88.106 Y-46.014
X-88.314 Y-45.547
X-88.421 Y-45.339
X-88.665 Y-44.936
X-88.964 Y-44.572
X-89.312 Y-44.255
X-89.701 Y-43.99
X-90.124 Y-43.783
X-90.572 Y-43.639
X-91.036 Y-43.56
X-93.683 Y-43.301
G3 X-95.002 Y-44.293 I-0.079 J-1.268
G1 X-101.449 Y-73.265
G3 X-100.377 Y-74.799 I1.24 J-0.276
G1 X-97.712 Y-75.06
X-97.463 Y-75.072
X-97.216 Y-75.07
X-96.952 Y-75.054
X-96.657 Y-75.02
X-96.341 Y-74.966
X-95.998 Y-74.888
X-95.626 Y-74.782
X-95.231 Y-74.645
X-94.797 Y-74.469
X-94.357 Y-74.261
X-93.863 Y-73.995
X-93.373 Y-73.695
X-92.834 Y-73.324
X-92.274 Y-72.891
X-91.704 Y-72.399
X-91.084 Y-71.803
X-90.473 Y-71.148
X-89.848 Y-70.4
X-89.203 Y-69.538
X-88.554 Y-68.564
X-87.912 Y-67.478
X-87.316 Y-66.332
X-86.779 Y-65.157
X-86.3 Y-63.957
X-85.874 Y-62.737
X-85.502 Y-61.5
X-85.18 Y-60.248
X-84.91 Y-58.985
X-84.689 Y-57.712
X-84.519 Y-56.431
X-84.401 Y-55.144
X-84.336 Y-53.854
X-84.328 Y-52.562
X-84.382 Y-51.271
X-84.493 Y-50.095
X-84.647 Y-49.064
X-84.831 Y-48.166
X-85.027 Y-47.42
X-85.216 Y-46.83
X-85.423 Y-46.289
X-85.631 Y-45.822
X-85.745 Y-45.601
X-85.989 Y-45.198
X-86.288 Y-44.834
X-86.636 Y-44.517
X-87.025 Y-44.252
X-87.448 Y-44.045
X-87.896 Y-43.901
X-88.36 Y-43.822
X-91.036 Y-43.56
G3 X-92.356 Y-44.552 I-0.079 J-1.268
G1 X-98.784 Y-73.526
G3 X-97.712 Y-75.06 I1.24 J-0.275
G1 X-95.047 Y-75.32
X-94.784 Y-75.333
X-94.537 Y-75.331
X-94.274 Y-75.315
X-93.978 Y-75.281
X-93.663 Y-75.227
X-93.319 Y-75.149
X-92.948 Y-75.043
X-92.553 Y-74.906
X-92.119 Y-74.73
X-91.678 Y-74.522
X-91.185 Y-74.256
X-90.695 Y-73.956
X-90.156 Y-73.585
X-89.596 Y-73.153
X-89.026 Y-72.661
X-88.406 Y-72.064
X-87.795 Y-71.409
X-87.17 Y-70.662
X-86.525 Y-69.8
X-85.876 Y-68.826
X-85.234 Y-67.74
X-84.638 Y-66.594
X-84.102 Y-65.418
X-83.622 Y-64.219
X-83.196 Y-62.999
X-82.824 Y-61.762
X-82.503 Y-60.51
X-82.232 Y-59.247
X-82.011 Y-57.974
X-81.841 Y-56.693
X-81.723 Y-55.406
X-81.658 Y-54.116
X-81.65 Y-52.824
X-81.704 Y-51.533
X-81.814 Y-50.361
X-81.968 Y-49.332
X-82.152 Y-48.434
X-82.348 Y-47.687
X-82.538 Y-47.095
X-82.745 Y-46.553
X-82.953 Y-46.086
X-83.068 Y-45.863
X-83.312 Y-45.46
X-83.611 Y-45.096
X-83.958 Y-44.779
X-84.348 Y-44.514
X-84.771 Y-44.307
X-85.219 Y-44.162
X-85.683 Y-44.083
X-88.36 Y-43.822
G3 X-89.68 Y-44.814 I-0.079 J-1.268
G1 X-96.119 Y-73.786
G3 X-95.047 Y-75.32 I1.24 J-0.276
G1 X-92.382 Y-75.581
X-92.106 Y-75.594
X-91.859 Y-75.592
X-91.595 Y-75.576
X-91.3 Y-75.542
X-90.984 Y-75.488
X-90.641 Y-75.41
X-90.27 Y-75.304
X-89.874 Y-75.168
X-89.441 Y-74.991
X-89 Y-74.784
X-88.507 Y-74.517
X-88.016 Y-74.217
X-87.478 Y-73.846
X-86.918 Y-73.414
X-86.348 Y-72.922
X-85.728 Y-72.326
X-85.117 Y-71.671
X-84.492 Y-70.923
X-83.847 Y-70.061
X-83.198 Y-69.088
X-82.556 Y-68.002
X-81.96 Y-66.856
X-81.424 Y-65.68
X-80.944 Y-64.481
X-80.519 Y-63.261
X-80.146 Y-62.023
X-79.825 Y-60.772
X-79.554 Y-59.508
X-79.334 Y-58.235
X-79.164 Y-56.955
X-79.045 Y-55.668
X-78.98 Y-54.378
X-78.972 Y-53.086
X-79.026 Y-51.795
X-79.136 Y-50.624
X-79.29 Y-49.595
X-79.474 Y-48.696
X-79.67 Y-47.949
X-79.86 Y-47.357
X-80.068 Y-46.815
X-80.276 Y-46.348
X-80.39 Y-46.124
X-80.634 Y-45.722
X-80.933 Y-45.358
X-81.281 Y-45.04
X-81.671 Y-44.775
X-82.094 Y-44.569
X-82.542 Y-44.424
X-83.006 Y-44.345
X-85.683 Y-44.083
G3 X-87.002 Y-45.075 I-0.079 J-1.268
G1 X-93.454 Y-74.046
G3 X-92.382 Y-75.581 I1.24 J-0.276
G1 X-89.717 Y-75.842
X-89.427 Y-75.855
X-89.181 Y-75.854
X-88.917 Y-75.837
X-88.621 Y-75.803
X-88.306 Y-75.749
X-87.963 Y-75.671
X-87.591 Y-75.565
X-87.196 Y-75.429
X-86.762 Y-75.253
X-86.322 Y-75.045
X-85.828 Y-74.779
X-85.338 Y-74.479
X-84.8 Y-74.108
X-84.24 Y-73.675
X-83.67 Y-73.183
X-83.05 Y-72.587
X-82.439 Y-71.932
X-81.814 Y-71.185
X-81.169 Y-70.323
X-80.52 Y-69.349
X-79.878 Y-68.264
X-79.282 Y-67.117
X-78.746 Y-65.942
X-78.266 Y-64.742
X-77.841 Y-63.522
X-77.468 Y-62.285
X-77.147 Y-61.033
X-76.876 Y-59.77
X-76.656 Y-58.497
X-76.486 Y-57.216
X-76.367 Y-55.93
X-76.302 Y-54.639
X-76.294 Y-53.347
X-76.348 Y-52.056
X-76.458 Y-50.886
X-76.612 Y-49.856
X-76.797 Y-48.958
X-76.993 Y-48.21
X-77.183 Y-47.619
X-77.39 Y-47.076
X-77.599 Y-46.609
X-77.713 Y-46.386
X-77.957 Y-45.983
X-78.256 Y-45.62
X-78.604 Y-45.302
X-78.993 Y-45.037
X-79.416 Y-44.83
X-79.864 Y-44.686
X-80.329 Y-44.607
X-83.006 Y-44.345
G3 X-84.325 Y-45.336 I-0.079 J-1.268
G1 X-90.789 Y-74.306
G3 X-89.717 Y-75.842 I1.24 J-0.277
G1 X-87.052 Y-76.102
X-86.749 Y-76.116
X-86.502 Y-76.115
X-86.239 Y-76.099
X-85.943 Y-76.065
X-85.628 Y-76.011
X-85.285 Y-75.932
X-84.913 Y-75.826
X-84.518 Y-75.69
X-84.084 Y-75.514
X-83.644 Y-75.306
X-83.15 Y-75.04
X-82.66 Y-74.74
X-82.122 Y-74.369
X-81.562 Y-73.937
X-80.992 Y-73.445
X-80.372 Y-72.849
X-79.761 Y-72.193
X-79.136 Y-71.446
X-78.491 Y-70.584
X-77.842 Y-69.611
X-77.201 Y-68.525
X-76.605 Y-67.379
X-76.068 Y-66.203
X-75.588 Y-65.004
X-75.163 Y-63.784
X-74.79 Y-62.547
X-74.469 Y-61.295
X-74.198 Y-60.032
X-73.978 Y-58.759
X-73.808 Y-57.478
X-73.689 Y-56.191
X-73.624 Y-54.901
X-73.616 Y-53.609
X-73.67 Y-52.318
X-73.781 Y-51.147
X-73.935 Y-50.118
X-74.119 Y-49.219
X-74.315 Y-48.472
X-74.505 Y-47.88
X-74.713 Y-47.338
X-74.921 Y-46.871
X-75.035 Y-46.648
X-75.28 Y-46.245
X-75.579 Y-45.881
X-75.926 Y-45.564
X-76.316 Y-45.299
X-76.739 Y-45.092
X-77.187 Y-44.948
X-77.651 Y-44.869
X-80.329 Y-44.607
G3 X-81.647 Y-45.597 I-0.079 J-1.268
G1 X-88.124 Y-74.566
G3 X-87.052 Y-76.102 I1.239 J-0.277
G1 X-84.387 Y-76.363
X-84.071 Y-76.378
X-83.824 Y-76.376
X-83.56 Y-76.36
X-83.265 Y-76.326
X-82.95 Y-76.272
X-82.606 Y-76.194
X-82.235 Y-76.088
X-81.84 Y-75.951
X-81.406 Y-75.775
X-80.966 Y-75.567
X-80.472 Y-75.301
X-79.982 Y-75.001
X-79.444 Y-74.63
X-78.884 Y-74.198
X-78.314 Y-73.706
X-77.694 Y-73.11
X-77.083 Y-72.455
X-76.458 Y-71.708
X-75.813 Y-70.846
X-75.164 Y-69.872
X-74.523 Y-68.787
X-73.927 Y-67.64
X-73.39 Y-66.465
X-72.91 Y-65.265
X-72.485 Y-64.045
X-72.112 Y-62.808
X-71.791 Y-61.556
X-71.521 Y-60.293
X-71.3 Y-59.02
X-71.13 Y-57.739
X-71.012 Y-56.453
X-70.947 Y-55.162
X-70.939 Y-53.87
X-70.993 Y-52.579
X-71.103 Y-51.409
X-71.257 Y-50.379
X-71.442 Y-49.481
X-71.638 Y-48.733
X-71.828 Y-48.142
X-72.035 Y-47.6
X-72.244 Y-47.132
X-72.46 Y-46.71
X-72.703 Y-46.352
X-72.991 Y-46.03
X-73.32 Y-45.75
X-73.684 Y-45.517
X-74.075 Y-45.335
X-74.488 Y-45.207
X-74.914 Y-45.136
X-77.651 Y-44.869
G3 X-78.97 Y-45.859 I-0.079 J-1.268
G1 X-85.459 Y-74.826
G3 X-84.387 Y-76.363 I1.239 J-0.278
G1 X-81.722 Y-76.623
X-81.393 Y-76.639
X-81.146 Y-76.637
X-80.882 Y-76.621
X-80.587 Y-76.587
X-80.272 Y-76.533
X-79.928 Y-76.455
X-79.557 Y-76.349
X-79.162 Y-76.213
X-78.728 Y-76.036
X-78.288 Y-75.829
X-77.794 Y-75.562
X-77.304 Y-75.262
X-76.766 Y-74.892
X-76.206 Y-74.459
X-75.636 Y-73.967
X-75.016 Y-73.371
X-74.405 Y-72.716
X-73.78 Y-71.969
X-73.135 Y-71.107
X-72.486 Y-70.133
X-71.845 Y-69.048
X-71.249 Y-67.902
X-70.712 Y-66.726
X-70.233 Y-65.527
X-69.807 Y-64.307
X-69.435 Y-63.069
X-69.113 Y-61.818
X-68.843 Y-60.554
X-68.622 Y-59.281
X-68.452 Y-58.001
X-68.334 Y-56.714
X-68.269 Y-55.424
X-68.261 Y-54.131
X-68.315 Y-52.841
X-68.426 Y-51.67
X-68.579 Y-50.641
X-68.771 Y-49.71
X-68.961 Y-48.985
X-69.159 Y-48.368
X-69.365 Y-47.829
X-69.567 Y-47.377
X-69.672 Y-47.172
X-69.916 Y-46.769
X-70.215 Y-46.406
X-70.563 Y-46.088
X-70.952 Y-45.823
X-71.375 Y-45.617
X-71.824 Y-45.472
X-72.288 Y-45.393
X-74.914 Y-45.136
G3 X-76.232 Y-46.123 I-0.079 J-1.268
G1 X-82.793 Y-75.084
G3 X-81.722 Y-76.623 I1.239 J-0.281
G1 X-79.057 Y-76.884
X-78.715 Y-76.9
X-78.468 Y-76.898
X-78.204 Y-76.882
X-77.909 Y-76.848
X-77.594 Y-76.794
X-77.25 Y-76.716
X-76.879 Y-76.61
X-76.484 Y-76.474
X-76.05 Y-76.297
X-75.61 Y-76.09
X-75.116 Y-75.824
X-74.626 Y-75.524
X-74.088 Y-75.153
X-73.528 Y-74.72
X-72.958 Y-74.229
X-72.338 Y-73.632
X-71.727 Y-72.977
X-71.102 Y-72.23
X-70.457 Y-71.368
X-69.808 Y-70.395
X-69.167 Y-69.309
X-68.571 Y-68.163
X-68.035 Y-66.988
X-67.555 Y-65.788
X-67.129 Y-64.568
X-66.757 Y-63.331
X-66.436 Y-62.079
X-66.165 Y-60.816
X-65.944 Y-59.543
X-65.775 Y-58.262
X-65.656 Y-56.975
X-65.591 Y-55.685
X-65.583 Y-54.393
X-65.637 Y-53.102
X-65.748 Y-51.923
X-65.902 Y-50.89
X-66.086 Y-49.995
X-66.281 Y-49.251
X-66.47 Y-48.661
X-66.677 Y-48.121
X-66.885 Y-47.655
X-67.1 Y-47.233
X-67.342 Y-46.876
X-67.63 Y-46.554
X-67.959 Y-46.274
X-68.322 Y-46.041
X-68.714 Y-45.859
X-69.126 Y-45.732
X-69.552 Y-45.661
X-72.288 Y-45.393
G3 X-73.606 Y-46.382 I-0.079 J-1.268
G1 X-80.128 Y-75.346
G3 X-79.057 Y-76.884 I1.239 J-0.279
G1 X-76.392 Y-77.144
X-76.037 Y-77.161
X-75.79 Y-77.16
X-75.526 Y-77.143
X-75.231 Y-77.109
X-74.916 Y-77.055
