%
(1001)
(origin stock bottom)
(T1  D=6.15 CR=0 - ZMIN=0.5 - flat end mill)
G90 G94
G17
G21

(2D Contour9)
M9
T1 M6
S6000 M3
G54
M8
G0 X-190.897 Y-223.575
Z33
Z23
G1 Z20.75 F333.3
Z20.5
X-215 Z16.25 F350
X-427.5 F850
G2 X-431.075 Y-220 J3.575
G1 Y-20
G2 X-427.5 Y-16.425 I3.575
G1 X-2.5
G2 X1.075 Y-20 J-3.575
G1 Y-220
G2 X-2.5 Y-223.575 I-3.575
G1 X-215
X-326.34 Z14.5 F350
X-427.5 F850
G2 X-431.075 Y-220 J3.575
G1 Y-20
G2 X-427.5 Y-16.425 I3.575
G1 X-2.5
G2 X1.075 Y-20 J-3.575
G1 Y-220
G2 X-2.5 Y-223.575 I-3.575
G1 X-215
X-326.34
X-427.5 Z12.91 F350
G2 X-431.075 Y-220 Z12.822 J3.575
G1 Y-215.435 Z12.75
Y-20 F850
G2 X-427.5 Y-16.425 I3.575
G1 X-2.5
G2 X1.075 Y-20 J-3.575
G1 Y-220
G2 X-2.5 Y-223.575 I-3.575
G1 X-326.34
X-427.5
G2 X-431.075 Y-220 J3.575
G1 Y-215.435
Y-104.094 Z11 F350
Y-20 F850
G2 X-427.5 Y-16.425 I3.575
G1 X-2.5
G2 X1.075 Y-20 J-3.575
G1 Y-220
G2 X-2.5 Y-223.575 I-3.575
G1 X-427.5
G2 X-431.075 Y-220 J3.575
G1 Y-104.094
Y-20 Z9.678 F350
G2 X-427.5 Y-16.425 Z9.59 I3.575
G1 X-405.869 Z9.25
X-2.5 F850
G2 X1.075 Y-20 J-3.575
G1 Y-220
G2 X-2.5 Y-223.575 I-3.575
G1 X-427.5
G2 X-431.075 Y-220 J3.575
G1 Y-104.094
Y-20
G2 X-427.5 Y-16.425 I3.575
G1 X-405.869
X-294.529 Z7.5 F350
X-2.5 F850
G2 X1.075 Y-20 J-3.575
G1 Y-220
G2 X-2.5 Y-223.575 I-3.575
G1 X-427.5
G2 X-431.075 Y-220 J3.575
G1 Y-20
G2 X-427.5 Y-16.425 I3.575
G1 X-294.529
X-183.188 Z5.75 F350
X-2.5 F850
G2 X1.075 Y-20 J-3.575
G1 Y-220
G2 X-2.5 Y-223.575 I-3.575
G1 X-427.5
G2 X-431.075 Y-220 J3.575
G1 Y-20
G2 X-427.5 Y-16.425 I3.575
G1 X-294.529
X-183.188
X-71.848 Z4 F350
X-2.5 F850
G2 X1.075 Y-20 J-3.575
G1 Y-220
G2 X-2.5 Y-223.575 I-3.575
G1 X-427.5
G2 X-431.075 Y-220 J3.575
G1 Y-20
G2 X-427.5 Y-16.425 I3.575
G1 X-183.188
X-71.848
X-2.5 Z2.91 F350
G2 X1.075 Y-20 Z2.822 J-3.575
G1 Y-56.377 Z2.25
Y-113.85 F850
Z3
Y-126.15
Z2.25 F333.3
Y-220 F850
G2 X-2.5 Y-223.575 I-3.575
G1 X-49.475
Z3
X-61.775
Z2.25 F333.3
X-155.725 F850
Z3
X-168.025
Z2.25 F333.3
X-261.975 F850
Z3
X-274.275
Z2.25 F333.3
X-368.225 F850
Z3
X-380.525
Z2.25 F333.3
X-427.5 F850
G2 X-431.075 Y-220 J3.575
G1 Y-126.15
Z3
Y-113.85
Z2.25 F333.3
Y-20 F850
G2 X-427.5 Y-16.425 I3.575
G1 X-380.525
Z3
X-368.225
Z2.25 F333.3
X-274.275 F850
Z3
X-261.975
Z2.25 F333.3
X-168.025 F850
Z3
X-155.725
Z2.25 F333.3
X-61.775 F850
Z3
X-49.475
Z2.25 F333.3
X-2.5 F850
G2 X1.075 Y-20 J-3.575
G1 Y-56.377
Y-113.85 Z1.347 F350
Z3
Y-126.15
Z1.153 F333.3
Y-167.717 Z0.5 F350
Y-220 F850
G2 X-2.5 Y-223.575 I-3.575
G1 X-49.475
Z3
X-61.775
Z0.5 F333.3
X-155.725 F850
Z3
X-168.025
Z0.5 F333.3
X-261.975 F850
Z3
X-274.275
Z0.5 F333.3
X-368.225 F850
Z3
X-380.525
Z0.5 F333.3
X-427.5 F850
G2 X-431.075 Y-220 J3.575
G1 Y-126.15
Z3
Y-113.85
Z0.5 F333.3
Y-20 F850
G2 X-427.5 Y-16.425 I3.575
G1 X-380.525
Z3
X-368.225
Z0.5 F333.3
X-274.275 F850
Z3
X-261.975
Z0.5 F333.3
X-168.025 F850
Z3
X-155.725
Z0.5 F333.3
X-61.775 F850
Z3
X-49.475
Z0.5 F333.3
X-2.5 F850
G2 X1.075 Y-20 J-3.575
G1 Y-113.85
Z3
Y-126.15
Z0.5 F333.3
Y-167.717 F850
G0 Z33

(2D Contour10)
S9000 M3
X-2.5 Y-223.075
Z33
Z23
G1 Z19 F333.3
Z3
X-427.5 F850
G2 X-430.575 Y-220 J3.075
G1 Y-20
G2 X-427.5 Y-16.925 I3.075
G1 X-2.5
G2 X0.575 Y-20 J-3.075
G1 Y-220
G2 X-2.5 Y-223.075 I-3.075
G0 Z33
M9
M30
%
