%
(1001)
(origin stock bottom)
(T1  D=12.7 CR=0 - ZMIN=10 - flat end mill)
G90 G94
G17
G21

(2D Adaptive2)
M9
T1 M6
S6000 M3
G54
G0 X-330.035 Y-101.677
Z33
Z23
Z20.55
G3 X-319.965 Y-108.323 Z19.888 I5.035 J-3.323 F283.3
X-330.035 Y-101.677 Z19.226 I-5.035 J3.323
X-319.965 Y-108.323 Z18.565 I5.035 J-3.323
X-330.035 Y-101.677 Z17.903 I-5.035 J3.323
X-319.965 Y-108.323 Z17.241 I5.035 J-3.323
X-330.035 Y-101.677 Z16.579 I-5.035 J3.323
X-319.965 Y-108.323 Z15.917 I5.035 J-3.323
X-330.035 Y-101.677 Z15.256 I-5.035 J3.323
X-319.965 Y-108.323 Z14.594 I5.035 J-3.323
X-330.035 Y-101.677 Z13.932 I-5.035 J3.323
X-319.965 Y-108.323 Z13.27 I5.035 J-3.323
X-330.035 Y-101.677 Z12.608 I-5.035 J3.323
X-319.965 Y-108.323 Z11.947 I5.035 J-3.323
X-330.035 Y-101.677 Z11.285 I-5.035 J3.323
X-319.965 Y-108.323 Z10.623 I5.035 J-3.323
X-318.967 Y-105 Z10.5 I-5.035 J3.323
X-331.033 I-6.033
X-318.967 I6.033
G1 X-318.964 Y-104.664 F849.6
X-318.852 Y-103.327
X-318.836 Y-103.245
X-318.813 Y-103.096
X-318.798 Y-102.947
X-318.792 Y-102.797
X-318.794 Y-102.642
X-318.803 Y-102.477
X-318.822 Y-102.302
X-318.85 Y-102.119
X-318.889 Y-101.927
X-318.94 Y-101.729
X-319.003 Y-101.524
X-319.079 Y-101.314
X-319.169 Y-101.099
X-319.272 Y-100.882
X-319.389 Y-100.662
X-319.522 Y-100.441
X-319.668 Y-100.221
X-319.83 Y-100.002
X-320.006 Y-99.786
X-320.197 Y-99.574
X-320.402 Y-99.367
X-320.621 Y-99.166
X-320.854 Y-98.972
X-321.1 Y-98.787
X-321.358 Y-98.611
X-321.628 Y-98.446
X-321.909 Y-98.291
X-322.201 Y-98.149
X-322.503 Y-98.02
X-322.813 Y-97.905
X-323.132 Y-97.803
X-323.457 Y-97.716
X-323.789 Y-97.645
X-324.126 Y-97.589
X-324.467 Y-97.55
X-324.812 Y-97.526
X-325.159 Y-97.52
X-325.507 Y-97.53
X-325.856 Y-97.557
X-326.205 Y-97.601
X-326.552 Y-97.662
X-326.897 Y-97.739
X-327.239 Y-97.834
X-327.576 Y-97.945
X-327.909 Y-98.073
X-328.235 Y-98.216
X-328.555 Y-98.376
X-328.867 Y-98.551
X-329.171 Y-98.741
X-329.466 Y-98.946
X-329.751 Y-99.165
X-330.026 Y-99.398
X-330.289 Y-99.644
X-330.54 Y-99.903
X-330.778 Y-100.173
X-331.004 Y-100.455
X-331.215 Y-100.748
X-331.413 Y-101.05
X-331.595 Y-101.362
X-331.763 Y-101.683
X-331.915 Y-102.012
X-332.051 Y-102.347
X-332.171 Y-102.689
X-332.274 Y-103.036
X-332.36 Y-103.388
X-332.429 Y-103.744
X-332.482 Y-104.103
X-332.516 Y-104.464
X-332.534 Y-104.826
X-332.533 Y-105.189
X-332.516 Y-105.551
X-332.481 Y-105.912
X-332.428 Y-106.271
X-332.359 Y-106.627
X-332.272 Y-106.98
X-332.168 Y-107.327
X-332.048 Y-107.67
X-331.911 Y-108.006
X-331.759 Y-108.336
X-331.59 Y-108.657
X-331.406 Y-108.97
X-331.208 Y-109.274
X-330.995 Y-109.568
X-330.768 Y-109.852
X-330.528 Y-110.124
X-330.274 Y-110.384
X-330.009 Y-110.632
X-329.732 Y-110.867
X-329.444 Y-111.088
X-329.145 Y-111.295
X-328.837 Y-111.488
X-328.52 Y-111.665
X-328.195 Y-111.827
X-327.863 Y-111.973
X-327.523 Y-112.103
X-327.178 Y-112.216
X-326.828 Y-112.312
X-326.474 Y-112.392
X-326.116 Y-112.454
X-325.756 Y-112.5
X-325.393 Y-112.527
X-325.03 Y-112.537
X-324.667 Y-112.53
X-324.305 Y-112.505
X-323.944 Y-112.463
X-323.586 Y-112.404
X-323.231 Y-112.327
X-322.88 Y-112.233
X-322.534 Y-112.123
X-322.193 Y-111.996
X-321.86 Y-111.852
X-321.533 Y-111.693
X-321.215 Y-111.518
X-320.905 Y-111.328
X-320.605 Y-111.124
X-320.315 Y-110.905
X-320.036 Y-110.672
X-319.769 Y-110.427
X-319.513 Y-110.168
X-319.271 Y-109.898
X-319.041 Y-109.616
X-318.826 Y-109.324
X-318.625 Y-109.021
X-318.438 Y-108.71
X-318.267 Y-108.389
X-318.101 Y-108.038
X-317.865 Y-107.47
X-317.61 Y-106.762
X-317.434 Y-106.188
X-317.304 Y-105.68
X-317.21 Y-105.22
X-317.143 Y-104.785
X-317.099 Y-104.369
X-317.077 Y-103.971
X-317.074 Y-103.586
X-317.088 Y-103.21
X-317.121 Y-102.841
X-317.171 Y-102.479
X-317.237 Y-102.123
X-317.32 Y-101.772
X-317.42 Y-101.426
X-317.536 Y-101.086
X-317.668 Y-100.752
X-317.817 Y-100.423
X-317.982 Y-100.101
X-318.164 Y-99.785
X-318.362 Y-99.476
X-318.575 Y-99.175
X-318.805 Y-98.883
X-319.051 Y-98.6
X-319.312 Y-98.327
X-319.588 Y-98.064
X-319.878 Y-97.814
X-320.183 Y-97.576
X-320.501 Y-97.351
X-320.831 Y-97.14
X-321.174 Y-96.944
X-321.529 Y-96.764
X-321.893 Y-96.6
X-322.268 Y-96.453
X-322.652 Y-96.323
X-323.044 Y-96.211
X-323.443 Y-96.118
X-323.848 Y-96.043
X-324.258 Y-95.988
X-324.673 Y-95.953
X-325.09 Y-95.937
X-325.51 Y-95.942
X-325.931 Y-95.967
X-326.352 Y-96.012
X-326.771 Y-96.078
X-327.188 Y-96.165
X-327.602 Y-96.271
X-328.011 Y-96.398
X-328.415 Y-96.545
X-328.812 Y-96.711
X-329.202 Y-96.897
X-329.583 Y-97.101
X-329.954 Y-97.325
X-330.315 Y-97.566
X-330.664 Y-97.825
X-331.001 Y-98.101
X-331.325 Y-98.393
X-331.635 Y-98.7
X-331.929 Y-99.023
X-332.208 Y-99.359
X-332.471 Y-99.71
X-332.717 Y-100.072
X-332.945 Y-100.447
X-333.155 Y-100.832
X-333.347 Y-101.227
X-333.519 Y-101.631
X-333.672 Y-102.043
X-333.805 Y-102.463
X-333.917 Y-102.888
X-334.009 Y-103.319
X-334.08 Y-103.753
X-334.13 Y-104.191
X-334.159 Y-104.63
X-334.166 Y-105.071
X-334.153 Y-105.512
X-334.118 Y-105.951
X-334.062 Y-106.389
X-333.985 Y-106.823
X-333.887 Y-107.253
X-333.769 Y-107.678
X-333.63 Y-108.097
X-333.471 Y-108.509
X-333.293 Y-108.913
X-333.095 Y-109.308
X-332.878 Y-109.692
X-332.643 Y-110.066
X-332.391 Y-110.429
X-332.121 Y-110.778
X-331.834 Y-111.114
X-331.532 Y-111.437
X-331.215 Y-111.744
X-330.883 Y-112.035
X-330.537 Y-112.31
X-330.179 Y-112.569
X-329.808 Y-112.809
X-329.426 Y-113.032
X-329.034 Y-113.236
X-328.633 Y-113.421
X-328.223 Y-113.586
X-327.806 Y-113.731
X-327.382 Y-113.856
X-326.953 Y-113.961
X-326.519 Y-114.045
X-326.081 Y-114.107
X-325.641 Y-114.149
X-325.2 Y-114.169
X-324.758 Y-114.168
X-324.317 Y-114.146
X-323.877 Y-114.102
X-323.44 Y-114.038
X-323.006 Y-113.952
X-322.577 Y-113.846
X-322.154 Y-113.719
X-321.737 Y-113.571
X-321.328 Y-113.404
X-320.927 Y-113.218
X-320.536 Y-113.012
X-320.156 Y-112.787
X-319.786 Y-112.545
X-319.429 Y-112.285
X-319.084 Y-112.008
X-318.753 Y-111.715
X-318.435 Y-111.404
X-318.111 Y-111.056
X-317.796 Y-110.683
X-317.478 Y-110.267
X-317.167 Y-109.818
X-316.875 Y-109.347
X-316.605 Y-108.862
X-316.36 Y-108.369
X-316.142 Y-107.87
X-315.952 Y-107.369
X-315.788 Y-106.868
X-315.652 Y-106.369
X-315.541 Y-105.874
X-315.456 Y-105.383
X-315.396 Y-104.897
X-315.361 Y-104.415
X-315.348 Y-103.938
X-315.358 Y-103.466
X-315.391 Y-103
X-315.446 Y-102.538
X-315.522 Y-102.083
X-315.621 Y-101.633
X-315.74 Y-101.19
X-315.88 Y-100.754
X-316.041 Y-100.325
X-316.222 Y-99.905
X-316.424 Y-99.494
X-316.645 Y-99.092
X-316.886 Y-98.701
X-317.146 Y-98.321
X-317.426 Y-97.952
X-317.723 Y-97.597
X-318.039 Y-97.254
X-318.372 Y-96.926
X-318.721 Y-96.614
X-319.087 Y-96.317
X-319.469 Y-96.037
X-319.865 Y-95.774
X-320.275 Y-95.53
X-320.699 Y-95.305
X-321.134 Y-95.1
X-321.581 Y-94.915
X-322.038 Y-94.751
X-322.505 Y-94.609
X-322.98 Y-94.489
X-323.462 Y-94.392
X-323.95 Y-94.317
X-324.443 Y-94.266
X-324.94 Y-94.239
X-325.439 Y-94.236
X-325.939 Y-94.256
X-326.44 Y-94.301
X-326.939 Y-94.371
X-327.436 Y-94.464
X-327.929 Y-94.582
X-328.418 Y-94.724
X-328.9 Y-94.889
X-329.374 Y-95.078
X-329.84 Y-95.29
X-330.297 Y-95.525
X-330.742 Y-95.782
X-331.175 Y-96.061
X-331.595 Y-96.361
X-332.001 Y-96.681
X-332.391 Y-97.02
X-332.765 Y-97.379
X-333.122 Y-97.756
X-333.46 Y-98.15
X-333.78 Y-98.56
X-334.079 Y-98.985
X-334.358 Y-99.425
X-334.616 Y-99.878
X-334.852 Y-100.343
X-335.065 Y-100.82
X-335.255 Y-101.306
X-335.422 Y-101.802
X-335.564 Y-102.305
X-335.683 Y-102.815
X-335.776 Y-103.33
X-335.845 Y-103.849
X-335.889 Y-104.371
X-335.907 Y-104.895
X-335.9 Y-105.419
X-335.868 Y-105.942
X-335.811 Y-106.464
X-335.729 Y-106.982
X-335.621 Y-107.496
X-335.489 Y-108.004
X-335.333 Y-108.505
X-335.153 Y-108.998
X-334.949 Y-109.482
X-334.722 Y-109.956
X-334.473 Y-110.418
X-334.201 Y-110.868
X-333.908 Y-111.304
X-333.595 Y-111.726
X-333.261 Y-112.132
X-332.908 Y-112.521
X-332.537 Y-112.894
X-332.148 Y-113.247
X-331.743 Y-113.582
X-331.322 Y-113.897
X-330.886 Y-114.191
X-330.437 Y-114.464
X-329.975 Y-114.715
X-329.501 Y-114.943
X-329.017 Y-115.149
X-328.524 Y-115.331
X-328.022 Y-115.488
X-327.513 Y-115.622
X-326.999 Y-115.731
X-326.48 Y-115.814
X-325.957 Y-115.873
X-325.432 Y-115.907
X-324.906 Y-115.915
X-324.381 Y-115.898
X-323.856 Y-115.855
X-323.335 Y-115.788
X-322.817 Y-115.695
X-322.304 Y-115.577
X-321.798 Y-115.435
X-321.299 Y-115.269
X-320.809 Y-115.079
X-320.328 Y-114.865
X-319.858 Y-114.628
X-319.395 Y-114.367
X-318.941 Y-114.081
X-318.494 Y-113.767
X-318.052 Y-113.425
X-317.619 Y-113.055
X-317.197 Y-112.657
X-316.79 Y-112.235
X-316.4 Y-111.789
X-316.029 Y-111.321
X-315.679 Y-110.834
X-315.353 Y-110.33
X-315.051 Y-109.81
X-314.775 Y-109.277
X-314.527 Y-108.735
X-314.306 Y-108.185
X-314.113 Y-107.628
X-313.949 Y-107.067
X-313.813 Y-106.503
X-313.705 Y-105.937
X-313.624 Y-105.371
X-313.572 Y-104.804
X-313.547 Y-104.24
X-313.549 Y-103.677
X-313.579 Y-103.118
X-313.635 Y-102.563
X-313.717 Y-102.014
X-313.825 Y-101.47
X-313.959 Y-100.934
X-314.119 Y-100.405
X-314.304 Y-99.886
X-314.513 Y-99.376
X-314.747 Y-98.877
X-315.004 Y-98.39
X-315.285 Y-97.915
X-315.589 Y-97.453
X-315.915 Y-97.006
X-316.263 Y-96.575
X-316.632 Y-96.16
X-317.022 Y-95.762
X-317.431 Y-95.383
X-317.86 Y-95.022
X-318.307 Y-94.682
X-318.77 Y-94.363
X-319.251 Y-94.065
X-319.746 Y-93.791
X-320.256 Y-93.539
X-320.779 Y-93.312
X-321.314 Y-93.109
X-321.861 Y-92.932
X-322.417 Y-92.781
X-322.981 Y-92.656
X-323.552 Y-92.559
X-324.129 Y-92.489
X-324.711 Y-92.446
X-325.295 Y-92.432
X-325.882 Y-92.446
X-326.468 Y-92.488
X-327.053 Y-92.559
X-327.636 Y-92.658
X-328.215 Y-92.785
X-328.788 Y-92.94
X-329.354 Y-93.124
X-329.912 Y-93.334
X-330.461 Y-93.572
X-330.998 Y-93.837
X-331.523 Y-94.127
X-332.034 Y-94.443
X-332.53 Y-94.784
X-333.01 Y-95.149
X-333.472 Y-95.537
X-333.916 Y-95.948
X-334.34 Y-96.38
X-334.743 Y-96.832
X-335.124 Y-97.304
X-335.482 Y-97.794
X-335.817 Y-98.302
X-336.127 Y-98.825
X-336.412 Y-99.363
X-336.671 Y-99.915
X-336.903 Y-100.479
X-337.108 Y-101.054
X-337.285 Y-101.638
X-337.433 Y-102.23
X-337.553 Y-102.83
X-337.644 Y-103.434
X-337.706 Y-104.043
X-337.738 Y-104.654
X-337.741 Y-105.266
X-337.715 Y-105.878
X-337.659 Y-106.488
X-337.574 Y-107.095
X-337.459 Y-107.697
X-337.316 Y-108.293
X-337.144 Y-108.882
X-336.943 Y-109.461
X-336.715 Y-110.031
X-336.46 Y-110.589
X-336.178 Y-111.134
X-335.871 Y-111.665
X-335.538 Y-112.18
X-335.18 Y-112.679
X-334.799 Y-113.161
X-334.395 Y-113.623
X-333.969 Y-114.066
X-333.522 Y-114.487
X-333.056 Y-114.886
X-332.57 Y-115.263
X-332.068 Y-115.616
X-331.548 Y-115.944
X-331.014 Y-116.247
X-330.465 Y-116.523
X-329.904 Y-116.773
X-329.331 Y-116.996
X-328.749 Y-117.191
X-328.157 Y-117.357
X-327.558 Y-117.495
X-326.953 Y-117.604
X-326.344 Y-117.683
X-325.732 Y-117.733
X-325.117 Y-117.754
X-324.503 Y-117.745
X-323.89 Y-117.706
X-323.279 Y-117.638
X-322.672 Y-117.54
X-322.07 Y-117.414
X-321.475 Y-117.258
X-320.886 Y-117.073
X-320.303 Y-116.859
X-319.729 Y-116.616
X-319.161 Y-116.343
X-318.602 Y-116.04
X-318.053 Y-115.707
X-317.515 Y-115.344
X-316.99 Y-114.952
X-316.481 Y-114.532
X-315.988 Y-114.085
X-315.515 Y-113.611
X-315.063 Y-113.113
X-314.634 Y-112.591
X-314.23 Y-112.048
X-313.852 Y-111.487
X-313.502 Y-110.907
X-313.18 Y-110.313
X-312.888 Y-109.704
X-312.627 Y-109.085
X-312.396 Y-108.455
X-312.197 Y-107.817
X-312.029 Y-107.172
X-311.893 Y-106.523
X-311.789 Y-105.87
X-311.716 Y-105.215
X-311.675 Y-104.56
X-311.666 Y-103.906
X-311.689 Y-103.254
X-311.743 Y-102.605
X-311.827 Y-101.962
X-311.943 Y-101.324
X-312.088 Y-100.694
X-312.264 Y-100.072
X-312.469 Y-99.461
X-312.704 Y-98.86
X-312.967 Y-98.271
X-313.258 Y-97.695
X-313.576 Y-97.134
X-313.922 Y-96.589
X-314.294 Y-96.06
X-314.691 Y-95.549
X-315.113 Y-95.057
X-315.559 Y-94.585
X-316.028 Y-94.135
X-316.519 Y-93.707
X-317.032 Y-93.302
X-317.564 Y-92.921
X-318.116 Y-92.566
X-318.685 Y-92.236
X-319.271 Y-91.934
X-319.873 Y-91.66
X-320.488 Y-91.414
X-321.117 Y-91.198
X-321.757 Y-91.012
X-322.406 Y-90.856
X-323.064 Y-90.732
X-323.729 Y-90.639
X-324.4 Y-90.578
X-325.074 Y-90.55
X-325.75 Y-90.554
X-326.427 Y-90.59
X-327.103 Y-90.66
X-327.776 Y-90.762
X-328.445 Y-90.896
X-329.109 Y-91.063
X-329.764 Y-91.263
X-330.411 Y-91.494
X-331.046 Y-91.756
X-331.67 Y-92.049
X-332.279 Y-92.373
X-332.874 Y-92.726
X-333.451 Y-93.108
X-334.01 Y-93.517
X-334.549 Y-93.954
X-335.068 Y-94.417
X-335.564 Y-94.905
X-336.037 Y-95.417
X-336.484 Y-95.951
X-336.906 Y-96.507
X-337.301 Y-97.084
X-337.669 Y-97.679
X-338.007 Y-98.291
X-338.316 Y-98.92
X-338.594 Y-99.563
X-338.841 Y-100.22
X-339.056 Y-100.888
X-339.239 Y-101.566
X-339.389 Y-102.252
X-339.506 Y-102.945
X-339.59 Y-103.643
X-339.64 Y-104.345
X-339.656 Y-105.048
X-339.638 Y-105.752
X-339.586 Y-106.455
X-339.5 Y-107.154
X-339.381 Y-107.848
X-339.228 Y-108.537
X-339.042 Y-109.217
X-338.824 Y-109.887
X-338.574 Y-110.547
X-338.292 Y-111.193
X-337.979 Y-111.826
X-337.636 Y-112.443
X-337.264 Y-113.042
X-336.863 Y-113.623
X-336.434 Y-114.185
X-335.979 Y-114.724
X-335.499 Y-115.242
X-334.994 Y-115.736
X-334.465 Y-116.204
X-333.915 Y-116.647
X-333.344 Y-117.063
X-332.754 Y-117.451
X-332.145 Y-117.81
X-331.52 Y-118.14
X-330.88 Y-118.439
X-330.226 Y-118.706
X-329.56 Y-118.942
X-328.883 Y-119.146
X-328.197 Y-119.316
X-327.504 Y-119.454
X-326.805 Y-119.558
X-326.102 Y-119.628
X-325.396 Y-119.664
X-324.689 Y-119.666
X-323.982 Y-119.634
X-323.277 Y-119.568
X-322.575 Y-119.468
X-321.876 Y-119.334
X-321.182 Y-119.165
X-320.493 Y-118.963
X-319.812 Y-118.726
X-319.139 Y-118.455
X-318.475 Y-118.151
X-317.824 Y-117.812
X-317.186 Y-117.441
X-316.563 Y-117.037
X-315.956 Y-116.601
X-315.369 Y-116.134
X-314.803 Y-115.637
X-314.258 Y-115.111
X-313.739 Y-114.558
X-313.245 Y-113.98
X-312.779 Y-113.377
X-312.342 Y-112.752
X-311.936 Y-112.106
X-311.561 Y-111.441
X-311.219 Y-110.76
X-310.911 Y-110.064
X-310.637 Y-109.355
X-310.397 Y-108.635
X-310.194 Y-107.906
X-310.026 Y-107.17
X-309.894 Y-106.428
X-309.798 Y-105.682
X-309.738 Y-104.934
X-309.714 Y-104.186
X-309.727 Y-103.439
X-309.775 Y-102.695
X-309.859 Y-101.955
X-309.978 Y-101.221
X-310.133 Y-100.494
X-310.322 Y-99.776
X-310.545 Y-99.069
X-310.802 Y-98.374
X-311.092 Y-97.692
X-311.415 Y-97.024
X-311.77 Y-96.373
X-312.155 Y-95.739
X-312.572 Y-95.125
X-313.017 Y-94.53
X-313.491 Y-93.957
X-313.993 Y-93.407
X-314.522 Y-92.881
X-315.076 Y-92.38
X-315.655 Y-91.906
X-316.257 Y-91.459
X-316.88 Y-91.041
X-317.525 Y-90.653
X-318.189 Y-90.296
X-318.87 Y-89.97
X-319.568 Y-89.677
X-320.281 Y-89.417
X-321.007 Y-89.192
X-321.744 Y-89.001
X-322.492 Y-88.846
X-323.248 Y-88.727
X-324.01 Y-88.644
X-324.777 Y-88.598
X-325.546 Y-88.589
X-326.317 Y-88.617
X-327.087 Y-88.682
X-327.855 Y-88.785
X-328.618 Y-88.924
X-329.375 Y-89.101
X-330.124 Y-89.314
X-330.864 Y-89.563
X-331.591 Y-89.848
X-332.305 Y-90.169
X-333.004 Y-90.524
X-333.686 Y-90.913
X-334.349 Y-91.335
X-334.992 Y-91.788
X-335.613 Y-92.273
X-336.211 Y-92.788
X-336.784 Y-93.332
X-337.331 Y-93.903
X-337.85 Y-94.501
X-338.34 Y-95.124
X-338.8 Y-95.77
X-339.229 Y-96.438
X-339.625 Y-97.126
X-339.988 Y-97.833
X-340.317 Y-98.558
X-340.61 Y-99.297
X-340.868 Y-100.051
X-341.09 Y-100.816
X-341.274 Y-101.592
X-341.421 Y-102.376
X-341.53 Y-103.167
X-341.6 Y-103.962
X-341.633 Y-104.76
X-341.626 Y-105.559
X-341.582 Y-106.357
X-341.499 Y-107.153
X-341.377 Y-107.943
X-341.218 Y-108.727
X-341.021 Y-109.503
X-340.787 Y-110.268
X-340.516 Y-111.021
X-340.209 Y-111.761
X-339.867 Y-112.485
X-339.49 Y-113.192
X-339.08 Y-113.88
X-338.637 Y-114.547
X-338.162 Y-115.193
X-337.656 Y-115.815
X-337.121 Y-116.411
X-336.558 Y-116.982
X-335.968 Y-117.525
X-335.353 Y-118.038
X-334.713 Y-118.522
X-334.051 Y-118.974
X-333.368 Y-119.394
X-332.665 Y-119.78
X-331.944 Y-120.133
X-331.208 Y-120.45
X-330.457 Y-120.731
X-329.693 Y-120.975
X-328.918 Y-121.183
X-328.134 Y-121.353
X-327.343 Y-121.485
X-326.545 Y-121.579
X-325.744 Y-121.634
X-324.941 Y-121.651
X-324.136 Y-121.629
X-323.332 Y-121.568
X-322.529 Y-121.468
X-321.731 Y-121.33
X-320.937 Y-121.152
X-320.149 Y-120.935
X-319.37 Y-120.68
X-318.6 Y-120.386
X-317.843 Y-120.054
X-317.099 Y-119.685
X-316.37 Y-119.278
X-315.659 Y-118.835
X-314.968 Y-118.356
X-314.298 Y-117.842
X-313.651 Y-117.295
X-313.03 Y-116.716
X-312.436 Y-116.106
X-311.871 Y-115.467
X-311.337 Y-114.801
X-310.835 Y-114.109
X-310.367 Y-113.394
X-309.933 Y-112.657
X-309.536 Y-111.899
X-309.176 Y-111.124
X-308.854 Y-110.334
X-308.571 Y-109.529
X-308.327 Y-108.713
X-308.123 Y-107.888
X-307.959 Y-107.054
X-307.836 Y-106.215
X-307.754 Y-105.372
X-307.712 Y-104.528
X-307.711 Y-103.683
X-307.751 Y-102.841
X-307.831 Y-102.002
X-307.951 Y-101.169
X-308.111 Y-100.344
X-308.311 Y-99.528
X-308.549 Y-98.722
X-308.826 Y-97.93
X-309.141 Y-97.151
X-309.493 Y-96.389
X-309.881 Y-95.645
X-310.305 Y-94.92
X-310.764 Y-94.215
X-311.256 Y-93.534
X-311.781 Y-92.876
X-312.338 Y-92.243
X-312.925 Y-91.638
X-313.541 Y-91.061
X-314.185 Y-90.513
X-314.856 Y-89.996
X-315.552 Y-89.512
X-316.272 Y-89.061
X-317.014 Y-88.644
X-317.776 Y-88.263
X-318.558 Y-87.919
X-319.356 Y-87.612
X-320.17 Y-87.343
X-320.997 Y-87.113
X-321.836 Y-86.924
X-322.684 Y-86.774
X-323.541 Y-86.666
X-324.403 Y-86.598
X-325.269 Y-86.573
X-326.137 Y-86.589
X-327.004 Y-86.647
X-327.869 Y-86.746
X-328.73 Y-86.888
X-329.585 Y-87.071
X-330.43 Y-87.296
X-331.266 Y-87.561
X-332.089 Y-87.867
X-332.897 Y-88.213
X-333.689 Y-88.597
X-334.462 Y-89.02
X-335.216 Y-89.481
X-335.947 Y-89.978
X-336.654 Y-90.509
X-337.335 Y-91.076
X-337.989 Y-91.674
X-338.614 Y-92.305
X-339.209 Y-92.965
X-339.771 Y-93.654
X-340.3 Y-94.369
X-340.795 Y-95.11
X-341.253 Y-95.875
X-341.674 Y-96.661
X-342.058 Y-97.467
X-342.402 Y-98.292
X-342.706 Y-99.132
X-342.97 Y-99.986
X-343.192 Y-100.853
X-343.373 Y-101.73
X-343.511 Y-102.615
X-343.606 Y-103.506
X-343.658 Y-104.4
X-343.667 Y-105.297
X-343.633 Y-106.193
X-343.555 Y-107.087
X-343.435 Y-107.977
X-343.272 Y-108.859
X-343.066 Y-109.733
X-342.819 Y-110.597
X-342.53 Y-111.447
X-342.201 Y-112.283
X-341.831 Y-113.103
X-341.423 Y-113.903
X-340.976 Y-114.683
X-340.492 Y-115.441
X-339.972 Y-116.175
X-339.417 Y-116.883
X-338.829 Y-117.563
X-338.209 Y-118.215
X-337.558 Y-118.835
X-336.877 Y-119.424
X-336.169 Y-119.98
X-335.435 Y-120.5
X-334.677 Y-120.985
X-333.896 Y-121.433
X-333.095 Y-121.842
X-332.274 Y-122.213
X-331.437 Y-122.543
X-330.585 Y-122.833
X-329.719 Y-123.081
X-328.842 Y-123.288
X-327.956 Y-123.452
X-327.063 Y-123.574
X-326.163 Y-123.652
X-325.26 Y-123.687
X-324.355 Y-123.678
X-323.449 Y-123.626
X-322.545 Y-123.53
X-321.644 Y-123.39
X-320.748 Y-123.206
X-319.86 Y-122.978
X-318.98 Y-122.708
X-318.112 Y-122.394
X-317.257 Y-122.037
X-316.417 Y-121.638
X-315.595 Y-121.198
X-314.793 Y-120.717
X-314.012 Y-120.197
X-313.255 Y-119.638
X-312.524 Y-119.042
X-311.821 Y-118.41
X-311.149 Y-117.743
X-310.508 Y-117.044
X-309.901 Y-116.314
X-309.329 Y-115.555
X-308.794 Y-114.769
X-308.298 Y-113.957
X-307.841 Y-113.123
X-307.425 Y-112.268
X-307.051 Y-111.394
X-306.719 Y-110.503
X-306.431 Y-109.599
X-306.187 Y-108.682
X-305.988 Y-107.755
X-305.834 Y-106.821
X-305.725 Y-105.882
X-305.662 Y-104.939
X-305.644 Y-103.995
X-305.671 Y-103.052
X-305.744 Y-102.113
X-305.862 Y-101.178
X-306.025 Y-100.251
X-306.232 Y-99.334
X-306.483 Y-98.427
X-306.777 Y-97.535
X-307.114 Y-96.657
X-307.493 Y-95.797
X-307.913 Y-94.955
X-308.373 Y-94.135
X-308.873 Y-93.338
X-309.41 Y-92.565
X-309.984 Y-91.818
X-310.595 Y-91.099
X-311.239 Y-90.41
X-311.917 Y-89.752
X-312.627 Y-89.127
X-313.367 Y-88.536
X-314.135 Y-87.981
X-314.93 Y-87.462
X-315.75 Y-86.982
X-316.594 Y-86.542
X-317.46 Y-86.141
X-318.344 Y-85.783
X-319.247 Y-85.467
X-320.165 Y-85.195
X-321.097 Y-84.966
X-322.04 Y-84.783
X-322.993 Y-84.645
X-323.952 Y-84.553
X-324.917 Y-84.507
X-325.884
X-326.851 Y-84.555
X-327.816 Y-84.649
X-328.778 Y-84.789
X-329.732 Y-84.976
X-330.678 Y-85.209
X-331.613 Y-85.488
X-332.535 Y-85.812
X-333.441 Y-86.181
X-334.33 Y-86.593
X-335.199 Y-87.048
X-336.046 Y-87.545
X-336.868 Y-88.083
X-337.665 Y-88.661
X-338.434 Y-89.277
X-339.173 Y-89.93
X-339.881 Y-90.618
X-340.555 Y-91.341
X-341.194 Y-92.095
X-341.796 Y-92.881
X-342.361 Y-93.695
X-342.885 Y-94.535
X-343.369 Y-95.401
X-343.811 Y-96.29
X-344.211 Y-97.199
X-344.565 Y-98.127
X-344.875 Y-99.072
X-345.14 Y-100.031
X-345.357 Y-101.002
X-345.528 Y-101.983
X-345.652 Y-102.971
X-345.728 Y-103.965
X-345.755 Y-104.961
X-345.735 Y-105.958
X-345.667 Y-106.953
X-345.551 Y-107.944
X-345.387 Y-108.929
X-345.176 Y-109.904
X-344.918 Y-110.869
X-344.614 Y-111.82
X-344.264 Y-112.756
X-343.869 Y-113.674
X-343.431 Y-114.572
X-342.95 Y-115.448
X-342.427 Y-116.3
X-341.864 Y-117.126
X-341.261 Y-117.923
X-340.621 Y-118.691
X-339.944 Y-119.428
X-339.232 Y-120.131
X-338.488 Y-120.799
X-337.712 Y-121.43
X-336.906 Y-122.023
X-336.073 Y-122.577
X-335.214 Y-123.09
X-334.331 Y-123.561
X-333.427 Y-123.989
X-332.502 Y-124.373
X-331.56 Y-124.713
X-330.603 Y-125.006
X-329.632 Y-125.253
X-328.649 Y-125.453
X-327.658 Y-125.606
X-326.659 Y-125.711
X-325.654 Y-125.768
X-324.647 Y-125.776
X-323.639 Y-125.736
X-322.632 Y-125.647
X-321.628 Y-125.509
X-320.629 Y-125.323
X-319.638 Y-125.088
X-318.657 Y-124.805
X-317.688 Y-124.474
X-316.733 Y-124.095
X-315.795 Y-123.67
X-314.876 Y-123.199
X-313.979 Y-122.683
X-313.105 Y-122.123
X-312.257 Y-121.52
X-311.438 Y-120.875
X-310.649 Y-120.191
X-309.893 Y-119.468
X-309.172 Y-118.708
X-308.487 Y-117.914
X-307.84 Y-117.087
X-307.234 Y-116.229
X-306.67 Y-115.343
X-306.149 Y-114.43
X-305.673 Y-113.493
X-305.242 Y-112.535
X-304.858 Y-111.557
X-304.522 Y-110.563
X-304.234 Y-109.554
X-303.995 Y-108.532
X-303.806 Y-107.502
X-303.667 Y-106.464
X-303.578 Y-105.421
X-303.54 Y-104.376
X-303.552 Y-103.331
X-303.614 Y-102.289
X-303.726 Y-101.251
X-303.889 Y-100.221
X-304.1 Y-99.199
X-304.36 Y-98.19
X-304.669 Y-97.194
X-305.025 Y-96.215
X-305.428 Y-95.254
X-305.877 Y-94.313
X-306.371 Y-93.395
X-306.908 Y-92.501
X-307.489 Y-91.634
X-308.11 Y-90.795
X-308.772 Y-89.987
X-309.473 Y-89.211
X-310.211 Y-88.469
X-310.984 Y-87.762
X-311.792 Y-87.093
X-312.631 Y-86.463
X-313.501 Y-85.874
X-314.399 Y-85.326
X-315.324 Y-84.822
X-316.274 Y-84.363
X-317.245 Y-83.949
X-318.237 Y-83.582
X-319.247 Y-83.262
X-320.273 Y-82.991
X-321.311 Y-82.77
X-322.361 Y-82.599
X-323.419 Y-82.478
X-324.484 Y-82.409
X-325.552 Y-82.39
X-326.621 Y-82.423
X-327.689 Y-82.508
X-328.753 Y-82.645
X-329.81 Y-82.832
X-330.859 Y-83.071
X-331.896 Y-83.36
X-332.92 Y-83.7
X-333.927 Y-84.088
X-334.915 Y-84.526
X-335.883 Y-85.011
X-336.826 Y-85.543
X-337.745 Y-86.12
X-338.635 Y-86.741
X-339.495 Y-87.405
X-340.322 Y-88.111
X-341.116 Y-88.856
X-341.873 Y-89.639
X-342.593 Y-90.458
X-343.272 Y-91.312
X-343.91 Y-92.198
X-344.505 Y-93.115
X-345.056 Y-94.06
X-345.561 Y-95.031
X-346.018 Y-96.025
X-346.428 Y-97.041
X-346.788 Y-98.076
X-347.098 Y-99.128
X-347.357 Y-100.194
X-347.565 Y-101.272
X-347.72 Y-102.359
X-347.823 Y-103.452
X-347.873 Y-104.55
X-347.871 Y-105.649
X-347.815 Y-106.747
X-347.706 Y-107.842
X-347.545 Y-108.93
X-347.332 Y-110.009
X-347.066 Y-111.077
X-346.75 Y-112.132
X-346.383 Y-113.17
X-345.966 Y-114.189
X-345.501 Y-115.188
X-344.988 Y-116.162
X-344.428 Y-117.112
X-343.823 Y-118.033
X-343.175 Y-118.924
X-342.484 Y-119.783
X-341.753 Y-120.608
X-340.983 Y-121.396
X-340.175 Y-122.147
X-339.332 Y-122.858
X-338.456 Y-123.528
X-337.549 Y-124.155
X-336.612 Y-124.737
X-335.648 Y-125.273
X-334.659 Y-125.763
X-333.648 Y-126.205
X-332.616 Y-126.597
X-331.566 Y-126.939
X-330.501 Y-127.231
X-329.421 Y-127.471
X-328.331 Y-127.659
X-327.231 Y-127.794
X-326.125 Y-127.876
X-325.015 Y-127.905
X-323.903 Y-127.881
X-322.791 Y-127.802
X-321.682 Y-127.67
X-320.579 Y-127.485
X-319.483 Y-127.245
X-318.398 Y-126.953
X-317.326 Y-126.608
X-316.269 Y-126.211
X-315.23 Y-125.762
X-314.211 Y-125.262
X-313.215 Y-124.713
X-312.245 Y-124.116
X-311.303 Y-123.47
X-310.392 Y-122.779
X-309.513 Y-122.044
X-308.67 Y-121.266
X-307.864 Y-120.448
X-307.098 Y-119.59
X-306.373 Y-118.696
X-305.692 Y-117.768
X-305.056 Y-116.807
X-304.467 Y-115.816
X-303.926 Y-114.798
X-303.435 Y-113.756
X-302.995 Y-112.691
X-302.607 Y-111.606
X-302.271 Y-110.504
X-301.989 Y-109.388
X-301.761 Y-108.26
X-301.588 Y-107.123
X-301.47 Y-105.979
X-301.408 Y-104.832
X-301.4 Y-103.684
X-301.448 Y-102.537
X-301.551 Y-101.394
X-301.709 Y-100.258
X-301.922 Y-99.132
X-302.188 Y-98.017
X-302.508 Y-96.916
X-302.88 Y-95.832
X-303.305 Y-94.768
X-303.78 Y-93.725
X-304.305 Y-92.705
X-304.878 Y-91.712
X-305.499 Y-90.748
X-306.166 Y-89.814
X-306.878 Y-88.912
X-307.632 Y-88.046
X-308.429 Y-87.216
X-309.265 Y-86.425
X-310.138 Y-85.674
X-311.048 Y-84.966
X-311.992 Y-84.302
X-312.968 Y-83.683
X-313.973 Y-83.111
X-315.006 Y-82.588
X-316.065 Y-82.115
X-317.146 Y-81.693
X-318.248 Y-81.322
X-319.367 Y-81.005
X-320.502 Y-80.742
X-321.65 Y-80.534
X-322.809 Y-80.381
X-323.974 Y-80.284
X-325.145 Y-80.243
X-326.317 Y-80.258
X-327.489 Y-80.331
X-328.658 Y-80.459
X-329.82 Y-80.644
X-330.974 Y-80.885
X-332.116 Y-81.182
X-333.243 Y-81.534
X-334.354 Y-81.94
X-335.445 Y-82.4
X-336.514 Y-82.912
X-337.557 Y-83.476
X-338.574 Y-84.09
X-339.56 Y-84.753
X-340.515 Y-85.463
X-341.435 Y-86.219
X-342.318 Y-87.019
X-343.162 Y-87.862
X-343.966 Y-88.745
X-344.726 Y-89.666
X-345.442 Y-90.623
X-346.111 Y-91.615
X-346.732 Y-92.638
X-347.303 Y-93.691
X-347.823 Y-94.77
X-348.291 Y-95.874
X-348.706 Y-97
X-349.065 Y-98.145
X-349.37 Y-99.306
X-349.618 Y-100.481
X-349.809 Y-101.668
X-349.943 Y-102.862
X-350.019 Y-104.062
X-350.038 Y-105.265
X-349.998 Y-106.468
X-349.901 Y-107.667
X-349.746 Y-108.861
X-349.533 Y-110.046
X-349.264 Y-111.22
X-348.938 Y-112.38
X-348.556 Y-113.523
X-348.12 Y-114.647
X-347.63 Y-115.748
X-347.088 Y-116.825
X-346.494 Y-117.874
X-345.851 Y-118.894
X-345.158 Y-119.882
X-344.419 Y-120.835
X-343.635 Y-121.752
X-342.808 Y-122.63
X-341.939 Y-123.467
X-341.03 Y-124.262
X-340.085 Y-125.012
X-339.104 Y-125.715
X-338.09 Y-126.37
X-337.046 Y-126.976
X-335.974 Y-127.532
X-334.875 Y-128.035
X-333.754 Y-128.484
X-332.611 Y-128.879
X-331.45 Y-129.219
X-330.273 Y-129.503
X-329.083 Y-129.73
X-327.882 Y-129.9
X-326.673 Y-130.011
X-325.459 Y-130.064
X-324.242 Y-130.059
X-323.024 Y-129.995
X-321.809 Y-129.872
X-320.599 Y-129.691
X-319.397 Y-129.451
X-318.205 Y-129.152
X-317.027 Y-128.796
X-315.865 Y-128.383
X-314.722 Y-127.913
X-313.6 Y-127.388
X-312.504 Y-126.808
X-311.434 Y-126.175
X-310.395 Y-125.49
X-309.388 Y-124.755
X-308.416 Y-123.97
X-307.482 Y-123.139
X-306.588 Y-122.263
X-305.737 Y-121.344
X-304.93 Y-120.384
X-304.17 Y-119.385
X-303.458 Y-118.351
X-302.797 Y-117.283
X-302.188 Y-116.184
X-301.632 Y-115.057
X-301.132 Y-113.905
X-300.687 Y-112.73
X-300.3 Y-111.535
X-299.971 Y-110.324
X-299.701 Y-109.098
X-299.49 Y-107.861
X-299.339 Y-106.615
X-299.248 Y-105.365
X-299.218 Y-104.112
X-299.248 Y-102.859
X-299.338 Y-101.61
X-299.489 Y-100.367
X-299.699 Y-99.133
X-299.968 Y-97.91
X-300.296 Y-96.702
X-300.681 Y-95.512
X-301.124 Y-94.341
X-301.622 Y-93.193
X-302.175 Y-92.07
X-302.782 Y-90.974
X-303.441 Y-89.909
X-304.151 Y-88.876
X-304.911 Y-87.878
X-305.718 Y-86.918
X-306.571 Y-85.997
X-307.467 Y-85.117
X-308.406 Y-84.281
X-309.385 Y-83.491
X-310.402 Y-82.748
X-311.454 Y-82.054
X-312.54 Y-81.411
X-313.657 Y-80.82
X-314.801 Y-80.283
X-315.252 Y-80.098
X-315.659 Y-79.961
X-316.08 Y-79.878
X-316.508 Y-79.85
X-331.858
X-332.503 Y-79.882
X-333.025 Y-79.934
X-333.636 Y-80.024
X-334.256 Y-80.146
X-334.97 Y-80.323
X-335.719 Y-80.547
X-336.503 Y-80.824
X-337.355 Y-81.171
X-338.252 Y-81.589
X-339.153 Y-82.062
X-340.063 Y-82.598
X-340.993 Y-83.208
X-341.928 Y-83.887
X-342.856 Y-84.632
X-343.766 Y-85.438
X-344.65 Y-86.3
X-345.502 Y-87.216
X-346.317 Y-88.18
X-347.091 Y-89.191
X-347.819 Y-90.243
X-348.498 Y-91.335
X-349.127 Y-92.462
X-349.701 Y-93.621
X-350.221 Y-94.809
X-350.684 Y-96.023
X-351.088 Y-97.259
X-351.432 Y-98.516
X-351.716 Y-99.788
X-351.939 Y-101.074
X-352.099 Y-102.37
X-352.197 Y-103.673
X-352.232 Y-104.98
X-352.204 Y-106.288
X-352.113 Y-107.593
X-351.959 Y-108.893
X-351.742 Y-110.185
X-351.464 Y-111.465
X-351.124 Y-112.73
X-350.724 Y-113.978
X-350.263 Y-115.205
X-349.744 Y-116.409
X-349.168 Y-117.586
X-348.535 Y-118.735
X-347.848 Y-119.852
X-347.107 Y-120.935
X-346.316 Y-121.981
X-345.474 Y-122.987
X-344.585 Y-123.952
X-343.65 Y-124.874
X-342.672 Y-125.749
X-341.653 Y-126.576
X-340.595 Y-127.353
X-339.501 Y-128.079
X-338.372 Y-128.751
X-337.213 Y-129.368
X-336.224 Y-129.835
X-335.772 Y-130.009
X-335.299 Y-130.114
X-334.816 Y-130.15
X-317.762
X-316.967 Y-130.11
X-316.449 Y-130.059
X-315.914 Y-129.98
X-315.283 Y-129.856
X-314.644 Y-129.698
X-313.907 Y-129.477
X-313.136 Y-129.205
X-312.327 Y-128.875
X-311.45 Y-128.467
X-310.526 Y-127.981
X-309.601 Y-127.437
X-308.67 Y-126.827
X-307.721 Y-126.137
X-306.771 Y-125.374
X-305.833 Y-124.543
X-304.917 Y-123.65
X-304.031 Y-122.698
X-303.182 Y-121.694
X-302.376 Y-120.64
X-301.616 Y-119.542
X-300.907 Y-118.402
X-300.253 Y-117.23
X-299.656 Y-116.028
X-299.118 Y-114.798
X-298.639 Y-113.545
X-298.22 Y-112.27
X-297.862 Y-110.976
X-297.566 Y-109.667
X-297.332 Y-108.345
X-297.162 Y-107.014
X-297.056 Y-105.676
X-297.013 Y-104.335
X-297.034 Y-102.993
X-297.118 Y-101.653
X-297.267 Y-100.319
X-297.478 Y-98.994
X-297.753 Y-97.68
X-298.09 Y-96.381
X-298.488 Y-95.099
X-298.947 Y-93.838
X-299.465 Y-92.6
X-300.042 Y-91.388
X-300.676 Y-90.205
X-301.365 Y-89.053
X-302.108 Y-87.936
X-302.904 Y-86.855
X-303.75 Y-85.813
X-304.645 Y-84.813
X-305.586 Y-83.856
X-306.572 Y-82.945
X-307.6 Y-82.082
X-308.668 Y-81.269
X-309.772 Y-80.507
X-310.028 Y-80.348
X-310.434 Y-80.133
X-310.865 Y-79.977
X-311.313 Y-79.882
X-311.771 Y-79.85
X-316.508
G3 X-317.733 Y-81.086 I0.044 J-1.269
G1 X-318.987 Y-128.847
G3 X-317.762 Y-130.15 I1.27 J-0.033
G1 X-313.19
X-312.724 Y-130.127
X-312.37 Y-130.092
X-311.949 Y-130.03
X-311.521 Y-129.945
X-311.015 Y-129.82
X-310.504 Y-129.667
X-309.906 Y-129.456
X-309.301 Y-129.209
X-308.626 Y-128.895
X-307.893 Y-128.51
X-307.16 Y-128.078
X-306.36 Y-127.554
X-305.514 Y-126.94
X-304.665 Y-126.257
X-303.82 Y-125.509
X-302.958 Y-124.669
X-302.097 Y-123.744
X-301.252 Y-122.744
X-300.437 Y-121.678
X-299.673 Y-120.574
X-298.962 Y-119.436
X-298.304 Y-118.266
X-297.7 Y-117.067
X-297.151 Y-115.843
X-296.657 Y-114.595
X-296.22 Y-113.326
X-295.841 Y-112.038
X-295.52 Y-110.735
X-295.256 Y-109.419
X-295.052 Y-108.092
X-294.906 Y-106.758
X-294.818 Y-105.419
X-294.79 Y-104.077
X-294.821 Y-102.735
X-294.91 Y-101.396
X-295.058 Y-100.062
X-295.265 Y-98.736
X-295.529 Y-97.42
X-295.852 Y-96.117
X-296.233 Y-94.83
X-296.671 Y-93.562
X-297.164 Y-92.314
X-297.712 Y-91.089
X-298.314 Y-89.889
X-298.968 Y-88.717
X-299.673 Y-87.575
X-300.427 Y-86.464
X-301.23 Y-85.388
X-302.078 Y-84.349
X-302.972 Y-83.347
X-303.908 Y-82.385
X-304.886 Y-81.466
X-305.779 Y-80.698
X-305.972 Y-80.547
X-306.333 Y-80.302
X-306.724 Y-80.107
X-307.137 Y-79.965
X-307.565 Y-79.879
X-308.001 Y-79.85
X-311.771
G3 X-312.996 Y-81.082 I0.044 J-1.269
G1 X-314.415 Y-128.843
G3 X-313.19 Y-130.15 I1.269 J-0.038
G1 X-309.552
X-309.207 Y-130.133
X-308.911 Y-130.104
X-308.559 Y-130.052
X-308.196 Y-129.98
X-307.778 Y-129.877
X-307.338 Y-129.745
X-306.841 Y-129.57
X-306.329 Y-129.361
X-305.744 Y-129.089
X-305.162 Y-128.782
X-304.509 Y-128.398
X-303.816 Y-127.944
X-303.116 Y-127.436
X-302.357 Y-126.826
X-301.558 Y-126.118
X-300.776 Y-125.356
X-299.982 Y-124.503
X-299.179 Y-123.552
X-298.382 Y-122.511
X-297.619 Y-121.407
X-296.908 Y-120.268
X-296.251 Y-119.099
X-295.646 Y-117.901
X-295.093 Y-116.677
X-294.594 Y-115.431
X-294.149 Y-114.165
X-293.757 Y-112.882
X-293.42 Y-111.583
X-293.137 Y-110.27
X-292.911 Y-108.948
X-292.739 Y-107.616
X-292.622 Y-106.279
X-292.561 Y-104.939
X-292.554 Y-103.596
X-292.603 Y-102.255
X-292.706 Y-100.917
X-292.863 Y-99.584
X-293.075 Y-98.259
X-293.342 Y-96.943
X-293.662 Y-95.64
X-294.035 Y-94.351
X-294.461 Y-93.078
X-294.94 Y-91.824
X-295.471 Y-90.591
X-296.052 Y-89.382
X-296.683 Y-88.197
X-297.361 Y-87.039
X-298.087 Y-85.91
X-298.858 Y-84.811
X-299.673 Y-83.745
X-300.531 Y-82.713
X-301.43 Y-81.716
X-302.111 Y-81.025
X-302.437 Y-80.724
X-302.822 Y-80.419
X-303.248 Y-80.174
X-303.705 Y-79.995
X-304.184 Y-79.887
X-304.674 Y-79.85
X-308.001
G3 X-309.226 Y-81.078 I0.044 J-1.269
G1 X-310.777 Y-128.84
G3 X-309.552 Y-130.15 I1.269 J-0.041
G1 X-306.332
X-306.071 Y-130.137
X-305.782 Y-130.108
X-305.486 Y-130.065
X-305.139 Y-129.996
X-304.785 Y-129.909
X-304.373 Y-129.785
X-303.956 Y-129.638
X-303.471 Y-129.44
X-302.985 Y-129.214
X-302.43 Y-128.923
X-301.867 Y-128.591
X-301.258 Y-128.192
X-300.592 Y-127.708
X-299.939 Y-127.183
X-299.229 Y-126.555
X-298.479 Y-125.824
X-297.733 Y-125.022
X-296.988 Y-124.14
X-296.231 Y-123.151
X-295.478 Y-122.063
X-294.769 Y-120.924
X-294.113 Y-119.753
X-293.51 Y-118.553
X-292.959 Y-117.33
X-292.459 Y-116.084
X-292.012 Y-114.819
X-291.615 Y-113.536
X-291.271 Y-112.239
X-290.978 Y-110.929
X-290.737 Y-109.609
X-290.548 Y-108.28
X-290.411 Y-106.945
X-290.327 Y-105.606
X-290.295 Y-104.264
X-290.315 Y-102.922
X-290.386 Y-101.582
X-290.508 Y-100.245
X-290.682 Y-98.914
X-290.907 Y-97.591
X-291.182 Y-96.277
X-291.507 Y-94.975
X-291.882 Y-93.686
X-292.306 Y-92.413
X-292.779 Y-91.157
X-293.3 Y-89.92
X-293.868 Y-88.704
X-294.484 Y-87.511
X-295.145 Y-86.343
X-295.85 Y-85.202
X-296.599 Y-84.088
X-297.39 Y-83.004
X-298.189 Y-81.993
X-298.783 Y-81.312
X-299.244 Y-80.832
X-299.33 Y-80.752
X-299.717 Y-80.437
X-300.148 Y-80.185
X-300.612 Y-80
X-301.099 Y-79.888
X-301.596 Y-79.85
X-304.674
G3 X-305.899 Y-81.075 I0.044 J-1.269
G1 X-307.557 Y-128.837
G3 X-306.332 Y-130.15 I1.269 J-0.044
G1 X-303.456
X-303.13 Y-130.134
X-302.879 Y-130.109
X-302.588 Y-130.066
X-302.28 Y-130.005
X-301.935 Y-129.92
X-301.574 Y-129.812
X-301.168 Y-129.668
X-300.748 Y-129.497
X-300.271 Y-129.275
X-299.791 Y-129.023
X-299.244 Y-128.701
X-298.698 Y-128.343
X-298.103 Y-127.911
X-297.46 Y-127.394
X-296.829 Y-126.836
X-296.145 Y-126.169
X-295.427 Y-125.398
X-294.716 Y-124.556
X-294.005 Y-123.627
X-293.284 Y-122.584
X-292.575 Y-121.445
X-291.921 Y-120.273
X-291.32 Y-119.073
X-290.771 Y-117.848
X-290.274 Y-116.601
X-289.827 Y-115.336
X-289.429 Y-114.054
X-289.082 Y-112.757
X-288.784 Y-111.449
X-288.535 Y-110.13
X-288.336 Y-108.803
X-288.186 Y-107.469
X-288.085 Y-106.131
X-288.034 Y-104.789
X-288.032 Y-103.447
X-288.08 Y-102.106
X-288.176 Y-100.767
X-288.32 Y-99.433
X-288.513 Y-98.105
X-288.753 Y-96.784
X-289.041 Y-95.473
X-289.375 Y-94.173
X-289.757 Y-92.886
X-290.184 Y-91.614
X-290.657 Y-90.358
X-291.175 Y-89.12
X-291.737 Y-87.901
X-292.343 Y-86.704
X-292.992 Y-85.529
X-293.683 Y-84.378
X-294.416 Y-83.254
X-295.129 Y-82.253
X-295.658 Y-81.581
X-296.067 Y-81.111
X-296.299 Y-80.868
X-296.626 Y-80.569
X-296.991 Y-80.317
X-297.386 Y-80.115
X-297.805 Y-79.969
X-298.24 Y-79.88
X-298.683 Y-79.85
X-301.596
G3 X-302.821 Y-81.07 I0.044 J-1.269
G1 X-304.681 Y-128.831
G3 X-303.456 Y-130.15 I1.269 J-0.049
G1 X-300.618
X-300.359 Y-130.137
X-300.117 Y-130.113
X-299.84 Y-130.072
X-299.551 Y-130.016
X-299.22 Y-129.933
X-298.879 Y-129.831
X-298.496 Y-129.696
X-298.097 Y-129.534
X-297.659 Y-129.33
X-297.193 Y-129.085
X-296.7 Y-128.794
X-296.156 Y-128.438
X-295.617 Y-128.046
X-295.021 Y-127.568
X-294.401 Y-127.019
X-293.776 Y-126.409
X-293.104 Y-125.687
X-292.409 Y-124.865
X-291.73 Y-123.977
X-291.042 Y-122.982
X-290.35 Y-121.871
X-289.696 Y-120.699
X-289.097 Y-119.498
X-288.551 Y-118.272
X-288.055 Y-117.024
X-287.61 Y-115.758
X-287.213 Y-114.476
X-286.865 Y-113.18
X-286.564 Y-111.872
X-286.311 Y-110.554
X-286.105 Y-109.228
X-285.946 Y-107.895
X-285.834 Y-106.557
X-285.769 Y-105.217
X-285.75 Y-103.875
X-285.778 Y-102.533
X-285.853 Y-101.193
X-285.975 Y-99.856
X-286.141 Y-98.524
X-286.354 Y-97.199
X-286.611 Y-95.882
X-286.913 Y-94.574
X-287.259 Y-93.277
X-287.649 Y-91.993
X-288.082 Y-90.723
X-288.558 Y-89.468
X-289.076 Y-88.23
X-289.636 Y-87.01
X-290.237 Y-85.81
X-290.878 Y-84.631
X-291.563 Y-83.476
X-292.199 Y-82.502
X-292.699 Y-81.812
X-293.104 Y-81.306
X-293.457 Y-80.907
X-293.513 Y-80.849
X-293.84 Y-80.555
X-294.202 Y-80.307
X-294.595 Y-80.11
X-295.01 Y-79.966
X-295.44 Y-79.879
X-295.879 Y-79.85
X-298.683
G3 X-299.907 Y-81.068 I0.044 J-1.269
G1 X-301.842 Y-128.829
G3 X-300.618 Y-130.15 I1.269 J-0.051
G1 X-297.951
X-297.686 Y-130.137
X-297.444 Y-130.113
X-297.189 Y-130.075
X-296.9 Y-130.018
X-296.596 Y-129.943
X-296.256 Y-129.841
X-295.901 Y-129.716
X-295.503 Y-129.553
X-295.101 Y-129.366
X-294.641 Y-129.125
X-294.184 Y-128.856
X-293.67 Y-128.519
X-293.141 Y-128.135
X-292.589 Y-127.691
X-291.984 Y-127.156
X-291.39 Y-126.576
X-290.76 Y-125.899
X-290.095 Y-125.112
X-289.425 Y-124.237
X-288.767 Y-123.285
X-288.097 Y-122.21
X-287.444 Y-121.038
X-286.846 Y-119.836
X-286.302 Y-118.609
X-285.809 Y-117.361
X-285.366 Y-116.094
X-284.971 Y-114.811
X-284.623 Y-113.515
X-284.321 Y-112.207
X-284.066 Y-110.89
X-283.856 Y-109.564
X-283.691 Y-108.232
X-283.571 Y-106.895
X-283.496 Y-105.555
X-283.465 Y-104.213
X-283.479 Y-102.871
X-283.537 Y-101.53
X-283.639 Y-100.192
X-283.785 Y-98.858
X-283.975 Y-97.529
X-284.207 Y-96.207
X-284.482 Y-94.894
X-284.799 Y-93.589
X-285.158 Y-92.296
X-285.558 Y-91.015
X-285.999 Y-89.747
X-286.48 Y-88.494
X-287.001 Y-87.257
X-287.562 Y-86.038
X-288.163 Y-84.838
X-288.808 Y-83.661
X-289.404 Y-82.681
X-289.863 Y-82
X-290.237 Y-81.501
X-290.599 Y-81.063
X-290.722 Y-80.928
X-291.053 Y-80.612
X-291.424 Y-80.345
X-291.828 Y-80.131
X-292.258 Y-79.976
X-292.706 Y-79.882
X-293.162 Y-79.85
X-295.879
G3 X-297.103 Y-81.064 I0.044 J-1.269
G1 X-299.175 Y-128.826
G3 X-297.951 Y-130.15 I1.269 J-0.055
G1 X-295.456
X-295.081 Y-130.131
X-294.843 Y-130.108
X-294.598 Y-130.072
X-294.314 Y-130.016
X-294.026 Y-129.944
X-293.691 Y-129.844
X-293.352 Y-129.725
X-292.968 Y-129.568
X-292.577 Y-129.386
X-292.145 Y-129.159
X-291.691 Y-128.891
X-291.21 Y-128.577
X-290.683 Y-128.194
X-290.163 Y-127.776
X-289.591 Y-127.269
X-288.998 Y-126.691
X-288.404 Y-126.053
X-287.767 Y-125.298
X-287.111 Y-124.442
X-286.469 Y-123.514
X-285.821 Y-122.473
X-285.171 Y-121.307
X-284.574 Y-120.104
X-284.032 Y-118.876
X-283.542 Y-117.627
X-283.101 Y-116.359
X-282.708 Y-115.076
X-282.361 Y-113.779
X-282.06 Y-112.471
X-281.804 Y-111.154
X-281.592 Y-109.829
X-281.424 Y-108.497
X-281.298 Y-107.161
X-281.216 Y-105.821
X-281.176 Y-104.48
X-281.179 Y-103.138
X-281.223 Y-101.796
X-281.31 Y-100.457
X-281.438 Y-99.121
X-281.609 Y-97.79
X-281.82 Y-96.464
X-282.073 Y-95.146
X-282.365 Y-93.836
X-282.698 Y-92.536
X-283.07 Y-91.246
X-283.481 Y-89.969
X-283.931 Y-88.704
X-284.419 Y-87.454
X-284.946 Y-86.22
X-285.514 Y-85.003
X-286.127 Y-83.809
X-286.674 Y-82.853
X-287.118 Y-82.158
X-287.477 Y-81.651
X-287.83 Y-81.2
X-288.01 Y-80.992
X-288.343 Y-80.658
X-288.72 Y-80.375
X-289.134 Y-80.149
X-289.576 Y-79.984
X-290.037 Y-79.884
X-290.507 Y-79.85
X-293.162
G3 X-294.386 Y-81.058 I0.044 J-1.269
G1 X-296.68 Y-128.82
G3 X-295.456 Y-130.15 I1.269 J-0.061
G1 X-292.789
X-292.551 Y-130.138
X-292.318 Y-130.115
X-292.077 Y-130.08
X-291.801 Y-130.025
X-291.516 Y-129.955
X-291.193 Y-129.858
X-290.858 Y-129.74
X-290.489 Y-129.589
X-290.098 Y-129.407
X-289.686 Y-129.191
X-289.232 Y-128.924
X-288.776 Y-128.625
X-288.263 Y-128.252
X-287.753 Y-127.842
X-287.206 Y-127.358
X-286.618 Y-126.784
X-286.047 Y-126.171
X-285.433 Y-125.444
X-284.794 Y-124.61
X-284.161 Y-123.693
X-283.531 Y-122.682
X-282.894 Y-121.54
X-282.298 Y-120.338
X-281.756 Y-119.11
X-281.267 Y-117.86
X-280.828 Y-116.591
X-280.436 Y-115.308
X-280.091 Y-114.011
X-279.79 Y-112.703
X-279.533 Y-111.385
X-279.319 Y-110.06
X-279.147 Y-108.729
X-279.018 Y-107.394
X-278.929 Y-106.054
X-278.881 Y-104.713
X-278.874 Y-103.371
X-278.908 Y-102.029
X-278.981 Y-100.689
X-279.095 Y-99.352
X-279.248 Y-98.018
X-279.441 Y-96.69
X-279.673 Y-95.368
X-279.945 Y-94.054
X-280.254 Y-92.748
X-280.602 Y-91.451
X-280.986 Y-90.166
X-281.409 Y-88.892
X-281.868 Y-87.631
X-282.367 Y-86.384
X-282.906 Y-85.155
X-283.491 Y-83.947
X-284.013 Y-82.99
X-284.444 Y-82.283
X-284.792 Y-81.77
X-285.136 Y-81.311
X-285.434 Y-80.952
X-285.459 Y-80.924
X-285.79 Y-80.609
X-286.16 Y-80.343
X-286.564 Y-80.13
X-286.994 Y-79.976
X-287.44 Y-79.882
X-287.896 Y-79.85
X-290.507
G3 X-291.731 Y-81.059 I0.044 J-1.269
G1 X-294.013 Y-128.82
G3 X-292.789 Y-130.15 I1.269 J-0.061
G1 X-290.332
X-290.048 Y-130.136
X-289.823 Y-130.114
X-289.583 Y-130.078
X-289.317 Y-130.026
X-289.032 Y-129.955
X-288.722 Y-129.863
X-288.387 Y-129.744
X-288.031 Y-129.599
X-287.641 Y-129.417
X-287.245 Y-129.209
X-286.798 Y-128.946
X-286.355 Y-128.656
X-285.861 Y-128.297
X-285.352 Y-127.888
X-284.826 Y-127.422
X-284.252 Y-126.863
X-283.688 Y-126.256
X-283.096 Y-125.556
X-282.473 Y-124.742
X-281.845 Y-123.833
X-281.229 Y-122.844
X-280.605 Y-121.725
X-280.008 Y-120.523
X-279.468 Y-119.294
X-278.98 Y-118.044
X-278.542 Y-116.775
X-278.152 Y-115.491
X-277.808 Y-114.194
X-277.508 Y-112.885
X-277.25 Y-111.568
X-277.035 Y-110.243
X-276.861 Y-108.912
X-276.728 Y-107.577
X-276.635 Y-106.238
X-276.581 Y-104.897
X-276.566 Y-103.555
X-276.591 Y-102.213
X-276.653 Y-100.872
X-276.754 Y-99.534
X-276.894 Y-98.199
X-277.071 Y-96.869
X-277.286 Y-95.544
X-277.538 Y-94.226
X-277.827 Y-92.915
X-278.153 Y-91.613
X-278.516 Y-90.321
X-278.914 Y-89.039
X-279.35 Y-87.77
X-279.824 Y-86.514
X-280.339 Y-85.275
X-280.89 Y-84.082
X-281.399 Y-83.107
X-281.803 Y-82.416
X-282.165 Y-81.861
X-282.489 Y-81.412
X-282.785 Y-81.042
X-282.849 Y-80.969
X-283.181 Y-80.642
X-283.556 Y-80.364
X-283.967 Y-80.143
X-284.404 Y-79.981
X-284.86 Y-79.883
X-285.326 Y-79.85
X-287.896
G3 X-289.12 Y-81.055 I0.044 J-1.269
G1 X-291.556 Y-128.816
G3 X-290.332 Y-130.15 I1.268 J-0.065
G1 X-287.836
X-287.586 Y-130.137
X-287.368 Y-130.116
X-287.127 Y-130.081
X-286.868 Y-130.029
X-286.583 Y-129.959
X-286.283 Y-129.869
X-285.948 Y-129.751
X-285.603 Y-129.61
X-285.215 Y-129.43
X-284.828 Y-129.226
X-284.392 Y-128.97
X-283.952 Y-128.681
X-283.474 Y-128.334
X-282.965 Y-127.925
X-282.454 Y-127.473
X-281.897 Y-126.929
X-281.332 Y-126.323
X-280.758 Y-125.643
X-280.148 Y-124.846
X-279.527 Y-123.948
X-278.92 Y-122.973
X-278.306 Y-121.873
X-277.71 Y-120.671
X-277.17 Y-119.442
X-276.684 Y-118.191
X-276.248 Y-116.921
X-275.859 Y-115.637
X-275.516 Y-114.339
X-275.216 Y-113.031
X-274.959 Y-111.714
X-274.743 Y-110.389
X-274.567 Y-109.058
X-274.431 Y-107.723
X-274.334 Y-106.385
X-274.275 Y-105.044
X-274.254 Y-103.702
X-274.271 Y-102.36
X-274.325 Y-101.019
X-274.415 Y-99.68
X-274.542 Y-98.343
X-274.706 Y-97.011
X-274.905 Y-95.684
X-275.141 Y-94.363
X-275.413 Y-93.048
X-275.72 Y-91.742
X-276.062 Y-90.444
X-276.44 Y-89.156
X-276.855 Y-87.88
X-277.309 Y-86.617
X-277.804 Y-85.369
X-278.324 Y-84.198
X-278.814 Y-83.223
X-279.208 Y-82.525
X-279.565 Y-81.957
X-279.883 Y-81.503
X-280.176 Y-81.124
X-280.276 Y-81.007
X-280.609 Y-80.669
X-280.988 Y-80.383
X-281.404 Y-80.153
X-281.848 Y-79.986
X-282.312 Y-79.884
X-282.786 Y-79.85
X-285.326
G3 X-286.549 Y-81.053 I0.044 J-1.269
G1 X-289.06 Y-128.814
G3 X-287.836 Y-130.15 I1.268 J-0.067
G1 X-285.379
X-285.15 Y-130.139
X-284.937 Y-130.118
X-284.696 Y-130.082
X-284.442 Y-130.032
X-284.157 Y-129.961
X-283.864 Y-129.874
X-283.53 Y-129.756
X-283.193 Y-129.618
X-282.81 Y-129.44
X-282.427 Y-129.239
X-282.002 Y-128.989
X-281.561 Y-128.7
X-281.096 Y-128.362
X-280.589 Y-127.954
X-280.09 Y-127.513
X-279.545 Y-126.981
X-278.98 Y-126.375
X-278.42 Y-125.712
X-277.822 Y-124.93
X-277.208 Y-124.042
X-276.607 Y-123.076
X-276.002 Y-121.992
X-275.406 Y-120.79
X-274.867 Y-119.56
X-274.381 Y-118.309
X-273.946 Y-117.039
X-273.559 Y-115.754
X-273.216 Y-114.457
X-272.917 Y-113.148
X-272.66 Y-111.831
X-272.444 Y-110.506
X-272.267 Y-109.176
X-272.129 Y-107.841
X-272.028 Y-106.502
X-271.965 Y-105.162
X-271.939 Y-103.82
X-271.948 Y-102.478
X-271.994 Y-101.136
X-272.075 Y-99.797
X-272.192 Y-98.46
X-272.344 Y-97.126
X-272.53 Y-95.797
X-272.751 Y-94.473
X-273.007 Y-93.156
X-273.297 Y-91.845
X-273.622 Y-90.543
X-273.983 Y-89.25
X-274.38 Y-87.968
X-274.815 Y-86.699
X-275.294 Y-85.445
X-275.79 Y-84.29
X-276.262 Y-83.319
X-276.65 Y-82.613
X-277.003 Y-82.036
X-277.315 Y-81.577
X-277.607 Y-81.19
X-277.733 Y-81.039
X-278.067 Y-80.692
X-278.449 Y-80.398
X-278.869 Y-80.162
X-279.319 Y-79.99
X-279.789 Y-79.885
X-280.269 Y-79.85
X-282.786
G3 X-284.009 Y-81.05 I0.044 J-1.269
G1 X-286.603 Y-128.812
G3 X-285.379 Y-130.15 I1.268 J-0.069
G1 X-283.093
X-282.724 Y-130.132
X-282.516 Y-130.111
X-282.276 Y-130.076
X-282.027 Y-130.027
X-281.743 Y-129.956
X-281.455 Y-129.87
X-281.125 Y-129.754
X-280.793 Y-129.618
X-280.416 Y-129.442
X-280.034 Y-129.242
X-279.618 Y-128.997
X-279.178 Y-128.709
X-278.724 Y-128.379
X-278.221 Y-127.975
X-277.729 Y-127.539
X-277.195 Y-127.018
X-276.631 Y-126.412
X-276.082 Y-125.763
X-275.493 Y-124.993
X-274.887 Y-124.116
X-274.289 Y-123.156
X-273.692 Y-122.086
X-273.096 Y-120.884
X-272.557 Y-119.654
X-272.073 Y-118.402
X-271.639 Y-117.132
X-271.252 Y-115.847
X-270.911 Y-114.549
X-270.613 Y-113.241
X-270.356 Y-111.923
X-270.139 Y-110.599
X-269.96 Y-109.269
X-269.82 Y-107.934
X-269.717 Y-106.596
X-269.65 Y-105.255
X-269.619 Y-103.913
X-269.623 Y-102.571
X-269.661 Y-101.23
X-269.735 Y-99.889
X-269.842 Y-98.552
X-269.983 Y-97.217
X-270.158 Y-95.886
X-270.366 Y-94.56
X-270.608 Y-93.24
X-270.883 Y-91.926
X-271.193 Y-90.621
X-271.538 Y-89.323
X-271.92 Y-88.037
X-272.341 Y-86.762
X-272.806 Y-85.503
X-273.285 Y-84.355
X-273.741 Y-83.393
X-274.123 Y-82.68
X-274.472 Y-82.097
X-274.78 Y-81.635
X-275.069 Y-81.243
X-275.215 Y-81.064
X-275.55 Y-80.711
X-275.933 Y-80.41
X-276.357 Y-80.169
X-276.811 Y-79.993
X-277.286 Y-79.886
X-277.772 Y-79.85
X-280.269
G3 X-281.493 Y-81.044 I0.044 J-1.269
G1 X-284.316 Y-128.806
G3 X-283.093 Y-130.15 I1.268 J-0.075
G1 X-280.598
X-280.336 Y-130.137
X-280.129 Y-130.117
X-279.89 Y-130.081
X-279.643 Y-130.033
X-279.36 Y-129.963
X-279.074 Y-129.877
X-278.746 Y-129.761
X-278.416 Y-129.626
X-278.043 Y-129.453
X-277.661 Y-129.252
X-277.252 Y-129.011
X-276.811 Y-128.723
X-276.365 Y-128.398
X-275.867 Y-127.999
X-275.377 Y-127.565
X-274.851 Y-127.051
X-274.29 Y-126.448
X-273.747 Y-125.807
X-273.166 Y-125.046
X-272.565 Y-124.178
X-271.97 Y-123.223
X-271.379 Y-122.163
X-270.783 Y-120.96
X-270.245 Y-119.731
X-269.761 Y-118.479
X-269.328 Y-117.208
X-268.942 Y-115.923
X-268.602 Y-114.625
X-268.303 Y-113.316
X-268.046 Y-111.999
X-267.829 Y-110.674
X-267.649 Y-109.344
X-267.507 Y-108.01
X-267.401 Y-106.672
X-267.331 Y-105.331
X-267.295 Y-103.99
X-267.294 Y-102.648
X-267.326 Y-101.306
X-267.392 Y-99.965
X-267.491 Y-98.627
X-267.623 Y-97.291
X-267.787 Y-95.959
X-267.984 Y-94.631
X-268.213 Y-93.309
X-268.476 Y-91.993
X-268.772 Y-90.684
X-269.104 Y-89.383
X-269.472 Y-88.093
X-269.88 Y-86.814
X-270.333 Y-85.551
X-270.8 Y-84.404
X-271.243 Y-83.452
X-271.62 Y-82.733
X-271.965 Y-82.146
X-272.269 Y-81.682
X-272.556 Y-81.286
X-272.717 Y-81.085
X-273.052 Y-80.726
X-273.437 Y-80.42
X-273.863 Y-80.175
X-274.321 Y-79.996
X-274.801 Y-79.887
X-275.291 Y-79.85
X-277.772
G3 X-278.996 Y-81.044 I0.044 J-1.269
G1 X-281.821 Y-128.806
G3 X-280.598 Y-130.15 I1.268 J-0.075
G1 X-278.312
X-277.944 Y-130.132
X-277.74 Y-130.111
X-277.501 Y-130.076
X-277.257 Y-130.028
X-276.977 Y-129.959
X-276.693 Y-129.874
X-276.369 Y-129.759
X-276.04 Y-129.625
X-275.672 Y-129.454
X-275.291 Y-129.254
X-274.887 Y-129.016
X-274.447 Y-128.728
X-274.007 Y-128.408
X-273.516 Y-128.014
X-273.027 Y-127.581
X-272.508 Y-127.074
X-271.95 Y-126.475
X-271.412 Y-125.838
X-270.837 Y-125.086
X-270.241 Y-124.225
X-269.649 Y-123.274
X-269.063 Y-122.223
X-268.47 Y-121.028
X-267.932 Y-119.798
X-267.449 Y-118.546
X-267.016 Y-117.275
X-266.63 Y-115.99
X-266.29 Y-114.692
X-265.992 Y-113.383
X-265.734 Y-112.066
X-265.516 Y-110.741
X-265.335 Y-109.412
X-265.191 Y-108.077
X-265.082 Y-106.739
X-265.008 Y-105.399
X-264.968 Y-104.058
X-264.962 Y-102.716
X-264.988 Y-101.374
X-265.047 Y-100.033
X-265.139 Y-98.694
X-265.262 Y-97.357
X-265.417 Y-96.024
X-265.603 Y-94.695
X-265.822 Y-93.371
X-266.072 Y-92.052
X-266.357 Y-90.741
X-266.676 Y-89.437
X-267.033 Y-88.143
X-267.43 Y-86.861
X-267.873 Y-85.594
X-268.33 Y-84.448
X-268.761 Y-83.503
X-269.134 Y-82.78
X-269.475 Y-82.189
X-269.775 Y-81.723
X-270.061 Y-81.324
X-270.234 Y-81.104
X-270.57 Y-80.739
X-270.956 Y-80.429
X-271.385 Y-80.18
X-271.846 Y-79.998
X-272.329 Y-79.887
X-272.823 Y-79.85
X-275.291
G3 X-276.514 Y-81.039 I0.044 J-1.269
G1 X-279.535 Y-128.801
G3 X-278.312 Y-130.15 I1.267 J-0.08
G1 X-275.855
X-275.58 Y-130.136
X-275.376 Y-130.116
X-275.138 Y-130.081
X-274.895 Y-130.033
X-274.616 Y-129.964
X-274.332 Y-129.879
X-274.01 Y-129.766
X-273.681 Y-129.631
X-273.316 Y-129.462
X-272.935 Y-129.261
X-272.535 Y-129.026
X-272.096 Y-128.738
X-271.66 Y-128.421
X-271.173 Y-128.03
X-270.684 Y-127.597
X-270.17 Y-127.096
X-269.616 Y-126.5
X-269.079 Y-125.865
X-268.51 Y-125.121
X-267.918 Y-124.265
X-267.327 Y-123.316
X-266.744 Y-122.271
X-266.154 Y-121.082
X-265.616 Y-119.852
X-265.133 Y-118.6
X-264.701 Y-117.329
X-264.315 Y-116.044
X-263.975 Y-114.745
X-263.676 Y-113.437
X-263.418 Y-112.12
X-263.199 Y-110.796
X-263.017 Y-109.466
X-262.871 Y-108.132
X-262.759 Y-106.794
X-262.682 Y-105.454
X-262.638 Y-104.113
X-262.627 Y-102.771
X-262.648 Y-101.429
X-262.701 Y-100.088
X-262.785 Y-98.748
X-262.9 Y-97.411
X-263.047 Y-96.077
X-263.224 Y-94.746
X-263.433 Y-93.421
X-263.674 Y-92.1
X-263.947 Y-90.786
X-264.256 Y-89.48
X-264.603 Y-88.184
X-264.99 Y-86.899
X-265.424 Y-85.629
X-265.874 Y-84.482
X-266.294 Y-83.545
X-266.663 Y-82.819
X-267.001 Y-82.225
X-267.298 Y-81.758
X-267.582 Y-81.355
X-267.853 Y-81.008
X-267.863 Y-80.997
X-268.196 Y-80.662
X-268.573 Y-80.378
X-268.988 Y-80.15
X-269.43 Y-79.985
X-269.892 Y-79.884
X-270.363 Y-79.85
X-272.823
G3 X-274.047 Y-81.039 I0.044 J-1.269
G1 X-277.078 Y-128.8
G3 X-275.855 Y-130.15 I1.267 J-0.08
G1 X-273.569
X-273.21 Y-130.132
X-273.007 Y-130.112
X-272.771 Y-130.077
X-272.529 Y-130.03
X-272.252 Y-129.961
X-271.969 Y-129.876
X-271.651 Y-129.764
X-271.322 Y-129.63
X-270.961 Y-129.462
X-270.579 Y-129.261
X-270.183 Y-129.028
X-269.746 Y-128.741
X-269.313 Y-128.427
X-268.831 Y-128.04
X-268.342 Y-127.607
X-267.832 Y-127.11
X-267.282 Y-126.518
X-266.746 Y-125.884
X-266.181 Y-125.146
X-265.593 Y-124.296
X-265.003 Y-123.348
X-264.423 Y-122.308
X-263.835 Y-121.123
X-263.298 Y-119.894
X-262.814 Y-118.641
X-262.382 Y-117.371
X-261.997 Y-116.085
X-261.656 Y-114.787
X-261.358 Y-113.478
X-261.099 Y-112.161
X-260.879 Y-110.837
X-260.695 Y-109.508
X-260.547 Y-108.174
X-260.433 Y-106.837
X-260.353 Y-105.497
X-260.305 Y-104.156
X-260.29 Y-102.813
X-260.306 Y-101.471
X-260.353 Y-100.13
X-260.431 Y-98.79
X-260.539 Y-97.452
X-260.678 Y-96.117
X-260.847 Y-94.786
X-261.047 Y-93.459
X-261.279 Y-92.137
X-261.544 Y-90.821
X-261.843 Y-89.513
X-262.181 Y-88.214
X-262.561 Y-86.926
X-262.987 Y-85.654
X-263.429 Y-84.509
X-263.84 Y-83.579
X-264.215 Y-82.83
X-264.546 Y-82.244
X-264.828 Y-81.795
X-265.123 Y-81.372
X-265.38 Y-81.038
X-265.405 Y-81.01
X-265.738 Y-80.671
X-266.117 Y-80.384
X-266.533 Y-80.154
X-266.978 Y-79.986
X-267.443 Y-79.884
X-267.917 Y-79.85
X-270.363
G3 X-271.586 Y-81.034 I0.044 J-1.269
G1 X-274.792 Y-128.796
G3 X-273.569 Y-130.15 I1.267 J-0.085
G1 X-271.073
X-270.865 Y-130.14
X-270.662 Y-130.12
X-270.426 Y-130.085
X-270.185 Y-130.037
X-269.908 Y-129.969
X-269.625 Y-129.884
X-269.307 Y-129.772
X-268.979 Y-129.638
X-268.619 Y-129.47
X-268.238 Y-129.27
X-267.843 Y-129.038
X-267.406 Y-128.751
X-266.974 Y-128.438
X-266.495 Y-128.053
X-266.006 Y-127.62
X-265.5 Y-127.126
X-264.951 Y-126.537
X-264.416 Y-125.903
X-263.854 Y-125.169
X-263.268 Y-124.322
X-262.679 Y-123.376
X-262.101 Y-122.338
X-261.514 Y-121.156
X-260.977 Y-119.927
X-260.494 Y-118.675
X-260.061 Y-117.404
X-259.676 Y-116.118
X-259.335 Y-114.82
X-259.036 Y-113.512
X-258.777 Y-112.195
X-258.555 Y-110.871
X-258.37 Y-109.542
X-258.22 Y-108.208
X-258.104 Y-106.871
X-258.021 Y-105.531
X-257.97 Y-104.19
X-257.95 Y-102.848
X-257.961 Y-101.506
X-258.003 Y-100.165
X-258.075 Y-98.824
X-258.177 Y-97.486
X-258.309 Y-96.15
X-258.471 Y-94.818
X-258.663 Y-93.49
X-258.887 Y-92.166
X-259.144 Y-90.849
X-259.436 Y-89.539
X-259.766 Y-88.238
X-260.138 Y-86.949
X-260.558 Y-85.674
X-260.993 Y-84.53
X-261.396 Y-83.607
X-261.766 Y-82.86
X-262.094 Y-82.272
X-262.374 Y-81.822
X-262.667 Y-81.397
X-262.923 Y-81.062
X-262.957 Y-81.022
X-263.291 Y-80.68
X-263.671 Y-80.39
X-264.089 Y-80.157
X-264.536 Y-79.988
X-265.003 Y-79.885
X-265.479 Y-79.85
X-267.917
G3 X-269.14 Y-81.035 I0.044 J-1.269
G1 X-272.296 Y-128.797
G3 X-271.073 Y-130.15 I1.267 J-0.084
G1 X-268.788
X-268.507 Y-130.136
X-268.306 Y-130.116
X-268.071 Y-130.081
X-267.831 Y-130.034
X-267.555 Y-129.966
X-267.273 Y-129.881
X-266.958 Y-129.77
X-266.63 Y-129.636
X-266.273 Y-129.47
X-265.891 Y-129.27
X-265.5 Y-129.039
X-265.064 Y-128.754
X-264.634 Y-128.441
X-264.158 Y-128.059
X-263.669 Y-127.626
X-263.165 Y-127.135
X-262.62 Y-126.548
X-262.085 Y-125.915
X-261.526 Y-125.185
X-260.942 Y-124.341
X-260.354 Y-123.396
X-259.776 Y-122.36
X-259.191 Y-121.181
X-258.653 Y-119.951
X-258.17 Y-118.699
X-257.738 Y-117.428
X-257.353 Y-116.142
X-257.012 Y-114.844
X-256.712 Y-113.536
X-256.452 Y-112.219
X-256.229 Y-110.896
X-256.043 Y-109.567
X-255.891 Y-108.233
X-255.772 Y-106.896
X-255.686 Y-105.557
X-255.632 Y-104.216
X-255.608 Y-102.874
X-255.615 Y-101.532
X-255.652 Y-100.19
X-255.719 Y-98.85
X-255.815 Y-97.511
X-255.94 Y-96.175
X-256.096 Y-94.842
X-256.282 Y-93.512
X-256.499 Y-92.188
X-256.748 Y-90.869
X-257.033 Y-89.558
X-257.356 Y-88.255
X-257.723 Y-86.964
X-258.137 Y-85.687
X-258.565 Y-84.548
X-258.962 Y-83.63
X-259.327 Y-82.885
X-259.653 Y-82.294
X-259.931 Y-81.843
X-260.223 Y-81.418
X-260.478 Y-81.082
X-260.52 Y-81.031
X-260.854 Y-80.687
X-261.235 Y-80.394
X-261.654 Y-80.16
X-262.102 Y-79.989
X-262.571 Y-79.885
X-263.05 Y-79.85
X-265.479
G3 X-266.702 Y-81.031 I0.044 J-1.269
G1 X-270.01 Y-128.793
G3 X-268.788 Y-130.15 I1.267 J-0.088
G1 X-266.502
X-266.158 Y-130.133
X-265.957 Y-130.113
X-265.723 Y-130.078
X-265.483 Y-130.031
X-265.209 Y-129.963
X-264.927 Y-129.879
X-264.614 Y-129.768
X-264.285 Y-129.634
X-263.93 Y-129.469
X-263.549 Y-129.269
X-263.159 Y-129.039
X-262.725 Y-128.755
X-262.296 Y-128.443
X-261.822 Y-128.062
X-261.333 Y-127.629
X-260.832 Y-127.14
X-260.288 Y-126.556
X-259.753 Y-125.924
X-259.197 Y-125.196
X-258.614 Y-124.354
X-258.027 Y-123.41
X-257.45 Y-122.376
X-256.865 Y-121.197
X-256.327 Y-119.968
X-255.845 Y-118.715
X-255.412 Y-117.445
X-255.027 Y-116.159
X-254.685 Y-114.861
X-254.385 Y-113.553
X-254.124 Y-112.237
X-253.9 Y-110.913
X-253.712 Y-109.584
X-253.558 Y-108.251
X-253.437 Y-106.914
X-253.349 Y-105.575
X-253.291 Y-104.234
X-253.264 Y-102.892
X-253.267 Y-101.55
X-253.299 Y-100.208
X-253.361 Y-98.868
X-253.452 Y-97.529
X-253.572 Y-96.192
X-253.722 Y-94.858
X-253.902 Y-93.528
X-254.112 Y-92.202
X-254.356 Y-90.883
X-254.635 Y-89.57
X-254.952 Y-88.266
X-255.313 Y-86.973
X-255.722 Y-85.695
X-256.145 Y-84.56
X-256.536 Y-83.647
X-256.898 Y-82.904
X-257.222 Y-82.312
X-257.498 Y-81.861
X-257.788 Y-81.434
X-258.042 Y-81.098
X-258.09 Y-81.04
X-258.425 Y-80.693
X-258.806 Y-80.398
X-259.226 Y-80.162
X-259.676 Y-79.99
X-260.147 Y-79.885
X-260.627 Y-79.85
X-263.05
G3 X-264.272 Y-81.028 I0.044 J-1.269
G1 X-267.724 Y-128.789
G3 X-266.502 Y-130.15 I1.267 J-0.092
G1 X-264.044
X-263.826 Y-130.139
X-263.625 Y-130.119
X-263.391 Y-130.085
X-263.15 Y-130.037
X-262.876 Y-129.969
X-262.594 Y-129.885
X-262.281 Y-129.774
X-261.952 Y-129.64
X-261.597 Y-129.475
X-261.216 Y-129.275
X-260.826 Y-129.045
X-260.392 Y-128.761
X-259.964 Y-128.45
X-259.491 Y-128.07
X-259.002 Y-127.637
X-258.501 Y-127.149
X-257.959 Y-126.566
X-257.424 Y-125.933
X-256.868 Y-125.207
X-256.286 Y-124.366
X-255.699 Y-123.423
X-255.122 Y-122.388
X-254.538 Y-121.21
X-254 Y-119.98
X-253.517 Y-118.728
X-253.085 Y-117.457
X-252.699 Y-116.172
X-252.357 Y-114.874
X-252.056 Y-113.566
X-251.794 Y-112.25
X-251.569 Y-110.926
X-251.38 Y-109.598
X-251.224 Y-108.265
X-251.101 Y-106.928
X-251.009 Y-105.589
X-250.949 Y-104.248
X-250.918 Y-102.907
X-250.917 Y-101.564
X-250.946 Y-100.223
X-251.003 Y-98.882
X-251.089 Y-97.542
X-251.204 Y-96.205
X-251.348 Y-94.871
X-251.523 Y-93.54
X-251.728 Y-92.214
X-251.966 Y-90.893
X-252.24 Y-89.579
X-252.552 Y-88.273
X-252.908 Y-86.979
X-253.313 Y-85.7
X-253.73 Y-84.571
X-254.117 Y-83.661
X-254.475 Y-82.92
X-254.798 Y-82.327
X-255.073 Y-81.876
X-255.362 Y-81.448
X-255.614 Y-81.111
X-255.668 Y-81.047
X-256.002 Y-80.698
X-256.384 Y-80.401
X-256.805 Y-80.164
X-257.257 Y-79.991
X-257.728 Y-79.885
X-258.21 Y-79.85
X-260.627
G3 X-261.85 Y-81.029 I0.044 J-1.269
G1 X-265.267 Y-128.79
G3 X-264.044 Y-130.15 I1.267 J-0.091
G1 X-261.759
X-261.481 Y-130.136
X-261.281 Y-130.116
X-261.047 Y-130.082
X-260.808 Y-130.035
X-260.534 Y-129.967
X-260.253 Y-129.883
X-259.941 Y-129.773
X-259.612 Y-129.638
X-259.259 Y-129.474
X-258.878 Y-129.274
X-258.49 Y-129.045
X-258.057 Y-128.762
X-257.628 Y-128.45
X-257.157 Y-128.072
X-256.668 Y-127.639
X-256.169 Y-127.152
X-255.628 Y-126.571
X-255.093 Y-125.938
X-254.538 Y-125.213
X-253.957 Y-124.373
X-253.37 Y-123.43
X-252.793 Y-122.395
X-252.209 Y-121.217
X-251.671 Y-119.987
X-251.188 Y-118.735
X-250.755 Y-117.464
X-250.369 Y-116.179
X-250.027 Y-114.881
X-249.725 Y-113.573
X-249.462 Y-112.257
X-249.236 Y-110.934
X-249.045 Y-109.606
X-248.887 Y-108.273
X-248.762 Y-106.937
X-248.668 Y-105.598
X-248.604 Y-104.257
X-248.571 Y-102.915
X-248.566 Y-101.573
X-248.591 Y-100.231
X-248.644 Y-98.89
X-248.726 Y-97.55
X-248.836 Y-96.213
X-248.976 Y-94.878
X-249.145 Y-93.547
X-249.346 Y-92.22
X-249.579 Y-90.898
X-249.848 Y-89.583
X-250.156 Y-88.277
X-250.508 Y-86.981
X-250.91 Y-85.701
X-251.322 Y-84.577
X-251.705 Y-83.67
X-252.06 Y-82.933
X-252.381 Y-82.339
X-252.654 Y-81.887
X-252.942 Y-81.459
X-253.194 Y-81.122
X-253.251 Y-81.052
X-253.586 Y-80.702
X-253.968 Y-80.404
X-254.39 Y-80.166
X-254.842 Y-79.992
X-255.315 Y-79.886
X-255.799 Y-79.85
X-258.21
G3 X-259.433 Y-81.025 I0.044 J-1.269
G1 X-262.981 Y-128.787
G3 X-261.759 Y-130.15 I1.267 J-0.094
G1 X-259.473
X-259.142 Y-130.133
X-258.941 Y-130.114
X-258.708 Y-130.079
X-258.469 Y-130.032
X-258.196 Y-129.965
X-257.914 Y-129.88
X-257.603 Y-129.771
X-257.274 Y-129.636
X-256.922 Y-129.472
X-256.541 Y-129.272
X-256.154 Y-129.044
X-255.722 Y-128.761
X-255.294 Y-128.45
X-254.824 Y-128.072
X-254.335 Y-127.639
X-253.837 Y-127.154
X-253.296 Y-126.573
X-252.761 Y-125.94
X-252.207 Y-125.216
X-251.627 Y-124.376
X-251.04 Y-123.434
X-250.462 Y-122.399
X-249.877 Y-121.219
X-249.339 Y-119.989
X-248.856 Y-118.737
X-248.423 Y-117.467
X-248.037 Y-116.181
X-247.694 Y-114.884
X-247.392 Y-113.576
X-247.128 Y-112.26
X-246.9 Y-110.937
X-246.708 Y-109.609
X-246.548 Y-108.277
X-246.421 Y-106.94
X-246.324 Y-105.602
X-246.258 Y-104.261
X-246.222 Y-102.92
X-246.214 Y-101.577
X-246.235 Y-100.235
X-246.284 Y-98.894
X-246.362 Y-97.554
X-246.469 Y-96.216
X-246.604 Y-94.881
X-246.769 Y-93.549
X-246.966 Y-92.221
X-247.195 Y-90.899
X-247.46 Y-89.583
X-247.764 Y-88.276
X-248.112 Y-86.98
X-248.511 Y-85.698
X-248.919 Y-84.581
X-249.299 Y-83.677
X-249.65 Y-82.942
X-249.97 Y-82.348
X-250.242 Y-81.896
X-250.529 Y-81.468
X-250.78 Y-81.131
X-250.84 Y-81.057
X-251.175 Y-80.705
X-251.558 Y-80.406
X-251.98 Y-80.167
X-252.433 Y-79.992
X-252.907 Y-79.886
X-253.391 Y-79.85
X-255.799
G3 X-257.021 Y-81.022 I0.044 J-1.269
G1 X-260.695 Y-128.783
G3 X-259.473 Y-130.15 I1.266 J-0.097
G1 X-257.072
X-256.812 Y-130.137
X-256.611 Y-130.117
X-256.378 Y-130.083
X-256.139 Y-130.036
X-255.866 Y-129.968
X-255.584 Y-129.884
X-255.273 Y-129.774
X-254.944 Y-129.64
X-254.592 Y-129.476
X-254.21 Y-129.275
X-253.823 Y-129.047
X-253.391 Y-128.764
X-252.963 Y-128.453
X-252.493 Y-128.076
X-252.004 Y-127.643
X-251.506 Y-127.157
X-250.965 Y-126.576
X-250.43 Y-125.943
X-249.876 Y-125.219
X-249.295 Y-124.379
X-248.708 Y-123.436
X-248.13 Y-122.4
X-247.544 Y-121.219
X-247.007 Y-119.989
X-246.523 Y-118.737
X-246.09 Y-117.467
X-245.703 Y-116.181
X-245.36 Y-114.884
X-245.057 Y-113.576
X-244.792 Y-112.261
X-244.563 Y-110.938
X-244.369 Y-109.61
X-244.207 Y-108.278
X-244.078 Y-106.942
X-243.979 Y-105.603
X-243.911 Y-104.263
X-243.871 Y-102.921
X-243.861 Y-101.579
X-243.878 Y-100.237
X-243.924 Y-98.896
X-243.998 Y-97.556
X-244.101 Y-96.218
X-244.233 Y-94.882
X-244.394 Y-93.549
X-244.587 Y-92.221
X-244.812 Y-90.898
X-245.073 Y-89.582
X-245.374 Y-88.274
X-245.719 Y-86.977
X-246.116 Y-85.694
X-246.519 Y-84.582
X-246.896 Y-83.681
X-247.245 Y-82.949
X-247.564 Y-82.355
X-247.835 Y-81.904
X-248.121 Y-81.475
X-248.371 Y-81.138
X-248.433 Y-81.061
X-248.768 Y-80.708
X-249.151 Y-80.408
X-249.574 Y-80.168
X-250.028 Y-79.993
X-250.503 Y-79.886
X-250.988 Y-79.85
X-253.391
G3 X-254.613 Y-81.022 I0.044 J-1.269
G1 X-258.294 Y-128.783
G3 X-257.072 Y-130.15 I1.266 J-0.098
G1 X-254.692
X-254.48 Y-130.139
X-254.279 Y-130.12
X-254.046 Y-130.085
X-253.807 Y-130.038
X-253.534 Y-129.97
X-253.252 Y-129.886
X-252.941 Y-129.776
X-252.612 Y-129.642
X-252.26 Y-129.478
X-251.879 Y-129.278
X-251.492 Y-129.05
X-251.059 Y-128.767
X-250.631 Y-128.456
X-250.161 Y-128.078
X-249.672 Y-127.645
X-249.175 Y-127.16
X-248.634 Y-126.579
X-248.099 Y-125.946
X-247.544 Y-125.221
X-246.963 Y-124.381
X-246.376 Y-123.437
X-245.797 Y-122.4
X-245.21 Y-121.216
X-244.672 Y-119.986
X-244.189 Y-118.734
X-243.755 Y-117.464
X-243.368 Y-116.179
X-243.024 Y-114.882
X-242.72 Y-113.575
X-242.454 Y-112.259
X-242.224 Y-110.937
X-242.028 Y-109.609
X-241.865 Y-108.277
X-241.734 Y-106.941
X-241.633 Y-105.603
X-241.562 Y-104.262
X-241.52 Y-102.921
X-241.506 Y-101.579
X-241.521 Y-100.237
X-241.564 Y-98.895
X-241.635 Y-97.555
X-241.734 Y-96.216
X-241.862 Y-94.88
X-242.02 Y-93.548
X-242.209 Y-92.219
X-242.431 Y-90.895
X-242.689 Y-89.578
X-242.987 Y-88.269
X-243.33 Y-86.972
X-243.723 Y-85.692
X-244.123 Y-84.585
X-244.498 Y-83.686
X-244.844 Y-82.956
X-245.161 Y-82.362
X-245.431 Y-81.911
X-245.717 Y-81.482
X-245.966 Y-81.145
X-246.031 Y-81.065
X-246.366 Y-80.711
X-246.749 Y-80.41
X-247.173 Y-80.169
X-247.627 Y-79.993
X-248.102 Y-79.886
X-248.589 Y-79.85
X-250.988
G3 X-252.21 Y-81.021 I0.044 J-1.269
G1 X-255.913 Y-128.783
G3 X-254.692 Y-130.15 I1.266 J-0.098
G1 X-252.406
X-252.142 Y-130.137
X-251.942 Y-130.117
X-251.709 Y-130.083
X-251.47 Y-130.036
X-251.197 Y-129.968
X-250.916 Y-129.884
X-250.605 Y-129.774
X-250.276 Y-129.64
X-249.925 Y-129.477
X-249.544 Y-129.276
X-249.157 Y-129.049
X-248.725 Y-128.766
X-248.297 Y-128.455
X-247.828 Y-128.078
X-247.339 Y-127.645
X-246.841 Y-127.159
X-246.3 Y-126.578
X-245.766 Y-125.945
X-245.211 Y-125.22
X-244.629 Y-124.38
X-244.041 Y-123.435
X-243.462 Y-122.396
X-242.874 Y-121.211
X-242.336 Y-119.981
X-241.852 Y-118.729
X-241.419 Y-117.459
X-241.031 Y-116.174
X-240.686 Y-114.877
X-240.381 Y-113.57
X-240.114 Y-112.254
X-239.883 Y-110.932
X-239.686 Y-109.605
X-239.521 Y-108.273
X-239.388 Y-106.937
X-239.285 Y-105.599
X-239.212 Y-104.259
X-239.167 Y-102.917
X-239.151 Y-101.575
X-239.163 Y-100.233
X-239.203 Y-98.892
X-239.271 Y-97.551
X-239.367 Y-96.212
X-239.492 Y-94.876
X-239.647 Y-93.543
X-239.833 Y-92.214
X-240.052 Y-90.89
X-240.307 Y-89.572
X-240.602 Y-88.263
X-240.943 Y-86.964
X-241.333 Y-85.689
X-241.729 Y-84.587
X-242.102 Y-83.689
X-242.446 Y-82.962
X-242.762 Y-82.368
X-243.031 Y-81.917
X-243.316 Y-81.489
X-243.565 Y-81.151
X-243.631 Y-81.068
X-243.966 Y-80.714
X-244.35 Y-80.412
X-244.774 Y-80.17
X-245.229 Y-79.994
X-245.705 Y-79.886
X-246.192 Y-79.85
X-248.589
G3 X-249.81 Y-81.018 I0.044 J-1.269
G1 X-253.627 Y-128.78
G3 X-252.406 Y-130.15 I1.266 J-0.101
G1 X-250.12
X-249.806 Y-130.134
X-249.606 Y-130.115
X-249.374 Y-130.08
X-249.134 Y-130.033
X-248.862 Y-129.966
X-248.58 Y-129.881
X-248.27 Y-129.772
X-247.941 Y-129.638
X-247.59 Y-129.474
X-247.209 Y-129.274
X-246.823 Y-129.047
X-246.391 Y-128.764
X-245.963 Y-128.453
X-245.494 Y-128.076
X-245.005 Y-127.643
X-244.507 Y-127.157
X-243.966 Y-126.576
X-243.431 Y-125.943
X-242.876 Y-125.218
X-242.294 Y-124.376
X-241.706 Y-123.431
X-241.125 Y-122.391
X-240.536 Y-121.203
X-239.998 Y-119.973
X-239.514 Y-118.721
X-239.08 Y-117.451
X-238.692 Y-116.166
X-238.347 Y-114.869
X-238.041 Y-113.562
X-237.773 Y-112.247
X-237.541 Y-110.925
X-237.342 Y-109.598
X-237.176 Y-108.266
X-237.041 Y-106.931
X-236.936 Y-105.593
X-236.86 Y-104.253
X-236.814 Y-102.911
X-236.795 Y-101.569
X-236.804 Y-100.227
X-236.842 Y-98.886
X-236.907 Y-97.545
X-237 Y-96.206
X-237.122 Y-94.869
X-237.274 Y-93.536
X-237.458 Y-92.206
X-237.674 Y-90.882
X-237.927 Y-89.564
X-238.22 Y-88.254
X-238.559 Y-86.955
X-238.946 Y-85.684
X-239.339 Y-84.587
X-239.71 Y-83.691
X-240.052 Y-82.966
X-240.367 Y-82.372
X-240.635 Y-81.922
X-240.919 Y-81.493
X-241.168 Y-81.155
X-241.236 Y-81.071
X-241.571 Y-80.716
X-241.955 Y-80.413
X-242.379 Y-80.171
X-242.835 Y-79.994
X-243.311 Y-79.886
X-243.799 Y-79.85
X-246.192
G3 X-247.414 Y-81.015 I0.044 J-1.269
G1 X-251.341 Y-128.777
G3 X-250.12 Y-130.15 I1.266 J-0.104
G1 X-247.834
X-247.471 Y-130.132
X-247.271 Y-130.112
X-247.039 Y-130.078
X-246.799 Y-130.031
X-246.527 Y-129.963
X-246.246 Y-129.879
X-245.936 Y-129.77
X-245.607 Y-129.635
X-245.256 Y-129.472
X-244.874 Y-129.272
X-244.488 Y-129.044
X-244.056 Y-128.761
X-243.628 Y-128.45
X-243.159 Y-128.073
X-242.67 Y-127.64
X-242.172 Y-127.155
X-241.63 Y-126.573
X-241.096 Y-125.94
X-240.54 Y-125.214
X-239.957 Y-124.372
X-239.368 Y-123.426
X-238.787 Y-122.383
X-238.197 Y-121.193
X-237.659 Y-119.963
X-237.175 Y-118.711
X-236.74 Y-117.441
X-236.352 Y-116.156
X-236.006 Y-114.86
X-235.699 Y-113.553
X-235.43 Y-112.238
X-235.197 Y-110.916
X-234.997 Y-109.589
X-234.829 Y-108.258
X-234.692 Y-106.922
X-234.586 Y-105.585
X-234.508 Y-104.245
X-234.459 Y-102.903
X-234.438 Y-101.561
X-234.445 Y-100.219
X-234.48 Y-98.878
X-234.543 Y-97.537
X-234.633 Y-96.198
X-234.753 Y-94.861
X-234.903 Y-93.527
X-235.084 Y-92.197
X-235.298 Y-90.872
X-235.549 Y-89.554
X-235.84 Y-88.244
X-236.177 Y-86.944
X-236.562 Y-85.676
X-236.952 Y-84.585
X-237.321 Y-83.69
X-237.661 Y-82.968
X-237.976 Y-82.375
X-238.243 Y-81.925
X-238.526 Y-81.497
X-238.774 Y-81.159
X-238.843 Y-81.074
X-239.178 Y-80.717
X-239.562 Y-80.414
X-239.987 Y-80.172
X-240.443 Y-79.994
X-240.92 Y-79.886
X-241.408 Y-79.85
X-243.799
G3 X-245.02 Y-81.012 I0.044 J-1.269
G1 X-249.055 Y-128.774
G3 X-247.834 Y-130.15 I1.265 J-0.107
G1 X-245.377
X-245.148 Y-130.139
X-244.947 Y-130.119
X-244.714 Y-130.084
X-244.475 Y-130.037
X-244.201 Y-129.969
X-243.92 Y-129.885
X-243.608 Y-129.775
X-243.279 Y-129.641
X-242.927 Y-129.477
X-242.546 Y-129.277
X-242.158 Y-129.049
X-241.726 Y-128.765
X-241.298 Y-128.454
X-240.827 Y-128.076
X-240.338 Y-127.643
X-239.839 Y-127.156
X-239.296 Y-126.573
X-238.761 Y-125.94
X-238.204 Y-125.212
X-237.621 Y-124.369
X-237.031 Y-123.421
X-236.448 Y-122.377
X-235.856 Y-121.183
X-235.318 Y-119.953
X-234.834 Y-118.702
X-234.4 Y-117.432
X-234.011 Y-116.147
X-233.664 Y-114.851
X-233.356 Y-113.544
X-233.086 Y-112.229
X-232.852 Y-110.908
X-232.65 Y-109.581
X-232.481 Y-108.25
X-232.343 Y-106.915
X-232.234 Y-105.577
X-232.155 Y-104.237
X-232.104 Y-102.896
X-232.081 Y-101.554
X-232.086 Y-100.212
X-232.118 Y-98.87
X-232.179 Y-97.529
X-232.267 Y-96.19
X-232.384 Y-94.853
X-232.532 Y-93.519
X-232.711 Y-92.189
X-232.923 Y-90.863
X-233.171 Y-89.544
X-233.461 Y-88.234
X-233.797 Y-86.934
X-234.18 Y-85.67
X-234.567 Y-84.583
X-234.935 Y-83.69
X-235.273 Y-82.97
X-235.587 Y-82.377
X-235.853 Y-81.928
X-236.136 Y-81.499
X-236.383 Y-81.162
X-236.453 Y-81.076
X-236.788 Y-80.719
X-237.172 Y-80.415
X-237.597 Y-80.172
X-238.053 Y-79.994
X-238.531 Y-79.886
X-239.019 Y-79.85
X-241.408
G3 X-242.629 Y-81.014 I0.044 J-1.269
G1 X-246.598 Y-128.776
G3 X-245.377 Y-130.15 I1.266 J-0.105
G1 X-243.091
X-242.809 Y-130.136
X-242.609 Y-130.116
X-242.376 Y-130.082
X-242.137 Y-130.035
X-241.864 Y-129.967
X-241.583 Y-129.883
X-241.272 Y-129.773
X-240.943 Y-129.639
X-240.591 Y-129.475
X-240.209 Y-129.275
X-239.822 Y-129.047
X-239.39 Y-128.763
X-238.962 Y-128.452
X-238.491 Y-128.074
X-238.002 Y-127.641
X-237.502 Y-127.154
X-236.959 Y-126.57
X-236.424 Y-125.937
X-235.866 Y-125.208
X-235.282 Y-124.364
X-234.692 Y-123.415
X-234.108 Y-122.369
X-233.514 Y-121.172
X-232.977 Y-119.942
X-232.492 Y-118.69
X-232.057 Y-117.421
X-231.668 Y-116.136
X-231.32 Y-114.84
X-231.012 Y-113.534
X-230.741 Y-112.219
X-230.505 Y-110.898
X-230.303 Y-109.571
X-230.132 Y-108.24
X-229.992 Y-106.905
X-229.882 Y-105.567
X-229.801 Y-104.228
X-229.748 Y-102.887
X-229.723 Y-101.545
X-229.726 Y-100.203
X-229.756 Y-98.861
X-229.814 Y-97.52
X-229.901 Y-96.18
X-230.016 Y-94.843
X-230.162 Y-93.509
X-230.338 Y-92.179
X-230.549 Y-90.853
X-230.796 Y-89.534
X-231.084 Y-88.223
X-231.418 Y-86.923
X-231.8 Y-85.661
X-232.185 Y-84.579
X-232.551 Y-83.688
X-232.887 Y-82.971
X-233.2 Y-82.379
X-233.466 Y-81.93
X-233.748 Y-81.501
X-233.995 Y-81.164
X-234.065 Y-81.077
X-234.4 Y-80.72
X-234.785 Y-80.416
X-235.21 Y-80.173
X-235.666 Y-79.995
X-236.144 Y-79.886
X-236.633 Y-79.85
X-239.019
G3 X-240.24 Y-81.011 I0.044 J-1.269
G1 X-244.312 Y-128.773
G3 X-243.091 Y-130.15 I1.265 J-0.108
G1 X-240.805
X-240.472 Y-130.133
X-240.272 Y-130.114
X-240.039 Y-130.079
X-239.8 Y-130.032
X-239.528 Y-129.965
X-239.246 Y-129.88
X-238.935 Y-129.771
X-238.606 Y-129.636
X-238.254 Y-129.473
X-237.873 Y-129.272
X-237.486 Y-129.044
X-237.053 Y-128.761
X-236.625 Y-128.45
X-236.153 Y-128.071
X-235.664 Y-127.638
X-235.165 Y-127.151
X-234.621 Y-126.566
X-234.086 Y-125.933
X-233.527 Y-125.203
X-232.942 Y-124.357
X-232.351 Y-123.408
X-231.766 Y-122.36
X-231.171 Y-121.16
X-230.633 Y-119.93
X-230.149 Y-118.678
X-229.714 Y-117.409
X-229.324 Y-116.124
X-228.975 Y-114.828
X-228.667 Y-113.522
X-228.395 Y-112.208
X-228.158 Y-110.887
X-227.954 Y-109.56
X-227.782 Y-108.229
X-227.641 Y-106.894
X-227.529 Y-105.557
X-227.446 Y-104.217
X-227.392 Y-102.876
X-227.365 Y-101.534
X-227.366 Y-100.192
X-227.394 Y-98.85
X-227.451 Y-97.509
X-227.535 Y-96.17
X-227.648 Y-94.832
X-227.792 Y-93.498
X-227.967 Y-92.167
X-228.176 Y-90.841
X-228.421 Y-89.522
X-228.708 Y-88.211
X-229.042 Y-86.911
X-229.422 Y-85.652
X-229.804 Y-84.575
X-230.17 Y-83.685
X-230.504 Y-82.971
X-230.816 Y-82.379
X-231.081 Y-81.93
X-231.363 Y-81.503
X-231.609 Y-81.165
X-231.679 Y-81.078
X-232.015 Y-80.721
X-232.399 Y-80.417
X-232.824 Y-80.173
X-233.281 Y-79.995
X-233.759 Y-79.886
X-234.248 Y-79.85
X-236.633
G3 X-237.854 Y-81.009 I0.044 J-1.269
G1 X-242.026 Y-128.77
G3 X-240.805 Y-130.15 I1.265 J-0.111
G1 X-238.404
X-238.144 Y-130.137
X-237.943 Y-130.117
X-237.71 Y-130.083
X-237.47 Y-130.036
X-237.197 Y-129.968
X-236.915 Y-129.883
X-236.603 Y-129.774
X-236.274 Y-129.639
X-235.921 Y-129.475
X-235.54 Y-129.275
X-235.152 Y-129.046
X-234.719 Y-128.762
X-234.29 Y-128.451
X-233.817 Y-128.071
X-233.329 Y-127.638
X-232.828 Y-127.15
X-232.283 Y-126.564
X-231.748 Y-125.932
X-231.187 Y-125.199
X-230.602 Y-124.352
X-230.01 Y-123.402
X-229.424 Y-122.351
X-228.827 Y-121.148
X-228.29 Y-119.919
X-227.805 Y-118.667
X-227.369 Y-117.398
X-226.979 Y-116.114
X-226.63 Y-114.818
X-226.32 Y-113.512
X-226.047 Y-112.198
X-225.809 Y-110.877
X-225.604 Y-109.55
X-225.431 Y-108.219
X-225.289 Y-106.885
X-225.175 Y-105.547
X-225.091 Y-104.208
X-225.035 Y-102.867
X-225.006 Y-101.525
X-225.005 Y-100.183
X-225.032 Y-98.841
X-225.087 Y-97.5
X-225.169 Y-96.16
X-225.281 Y-94.823
X-225.423 Y-93.488
X-225.596 Y-92.157
X-225.804 Y-90.831
X-226.048 Y-89.512
X-226.333 Y-88.2
X-226.666 Y-86.9
X-227.044 Y-85.644
X-227.425 Y-84.571
X-227.789 Y-83.682
X-228.122 Y-82.97
X-228.434 Y-82.379
X-228.698 Y-81.931
X-228.98 Y-81.504
X-229.225 Y-81.167
X-229.296 Y-81.08
X-229.631 Y-80.722
X-230.015 Y-80.417
X-230.441 Y-80.173
X-230.898 Y-79.995
X-231.376 Y-79.886
X-231.865 Y-79.85
X-234.248
G3 X-235.469 Y-81.009 I0.044 J-1.269
G1 X-239.625 Y-128.771
G3 X-238.404 Y-130.15 I1.265 J-0.11
G1 X-236.024
X-235.81 Y-130.139
X-235.609 Y-130.12
X-235.376 Y-130.085
X-235.136 Y-130.038
X-234.863 Y-129.97
X-234.581 Y-129.886
X-234.269 Y-129.776
X-233.94 Y-129.641
X-233.586 Y-129.477
X-233.205 Y-129.276
X-232.816 Y-129.048
X-232.383 Y-128.763
X-231.954 Y-128.452
X-231.48 Y-128.072
X-230.991 Y-127.639
X-230.49 Y-127.149
X-229.944 Y-126.563
X-229.409 Y-125.93
X-228.847 Y-125.195
X-228.26 Y-124.347
X-227.667 Y-123.395
X-227.08 Y-122.342
X-226.484 Y-121.14
X-225.946 Y-119.91
X-225.461 Y-118.659
X-225.025 Y-117.389
X-224.634 Y-116.106
X-224.284 Y-114.81
X-223.974 Y-113.504
X-223.7 Y-112.19
X-223.461 Y-110.869
X-223.255 Y-109.543
X-223.08 Y-108.212
X-222.936 Y-106.878
X-222.821 Y-105.541
X-222.735 Y-104.201
X-222.677 Y-102.86
X-222.647 Y-101.519
X-222.645 Y-100.176
X-222.67 Y-98.835
X-222.723 Y-97.493
X-222.804 Y-96.154
X-222.914 Y-94.816
X-223.054 Y-93.481
X-223.226 Y-92.15
X-223.432 Y-90.824
X-223.674 Y-89.504
X-223.959 Y-88.192
X-224.291 Y-86.892
X-224.668 Y-85.638
X-225.047 Y-84.569
X-225.41 Y-83.681
X-225.741 Y-82.971
X-226.053 Y-82.38
X-226.317 Y-81.933
X-226.597 Y-81.506
X-226.843 Y-81.169
X-226.913 Y-81.081
X-227.249 Y-80.723
X-227.633 Y-80.418
X-228.059 Y-80.174
X-228.516 Y-79.995
X-228.995 Y-79.886
X-229.484 Y-79.85
X-231.865
G3 X-233.086 Y-81.009 I0.044 J-1.269
G1 X-237.245 Y-128.771
G3 X-236.024 Y-130.15 I1.265 J-0.11
G1 X-233.738
X-233.469 Y-130.137
X-233.268 Y-130.117
X-233.035 Y-130.082
X-232.796 Y-130.035
X-232.523 Y-129.968
X-232.241 Y-129.883
X-231.929 Y-129.773
X-231.6 Y-129.639
X-231.247 Y-129.474
X-230.865 Y-129.274
X-230.477 Y-129.045
X-230.043 Y-128.761
X-229.614 Y-128.449
X-229.14 Y-128.069
X-228.651 Y-127.636
X-228.149 Y-127.146
X-227.602 Y-126.559
X-227.068 Y-125.926
X-226.505 Y-125.19
X-225.917 Y-124.341
X-225.324 Y-123.388
X-224.735 Y-122.332
X-224.139 Y-121.13
X-223.601 Y-119.9
X-223.115 Y-118.649
X-222.679 Y-117.38
X-222.287 Y-116.096
X-221.937 Y-114.8
X-221.626 Y-113.495
X-221.351 Y-112.181
X-221.111 Y-110.861
X-220.904 Y-109.535
X-220.728 Y-108.204
X-220.582 Y-106.87
X-220.466 Y-105.533
X-220.379 Y-104.193
X-220.32 Y-102.852
X-220.288 Y-101.511
X-220.284 Y-100.169
X-220.307 Y-98.827
X-220.359 Y-97.485
X-220.438 Y-96.146
X-220.547 Y-94.808
X-220.685 Y-93.473
X-220.856 Y-92.142
X-221.061 Y-90.815
X-221.302 Y-89.495
X-221.586 Y-88.183
X-221.917 Y-86.882
X-222.293 Y-85.631
X-222.67 Y-84.565
X-223.032 Y-83.679
X-223.362 Y-82.971
X-223.673 Y-82.381
X-223.937 Y-81.934
X-224.217 Y-81.507
X-224.462 Y-81.17
X-224.533 Y-81.082
X-224.868 Y-80.723
X-225.253 Y-80.418
X-225.679 Y-80.174
X-226.136 Y-79.995
X-226.615 Y-79.887
X-227.104 Y-79.85
X-229.484
G3 X-230.705 Y-81.007 I0.044 J-1.269
G1 X-234.959 Y-128.768
G3 X-233.738 Y-130.15 I1.265 J-0.113
G1 X-231.452
X-231.129 Y-130.134
X-230.928 Y-130.114
X-230.695 Y-130.08
X-230.456 Y-130.032
X-230.183 Y-129.965
X-229.901 Y-129.88
X-229.589 Y-129.77
X-229.26 Y-129.636
X-228.906 Y-129.472
X-228.525 Y-129.271
X-228.136 Y-129.042
X-227.702 Y-128.758
X-227.273 Y-128.446
X-226.799 Y-128.066
X-226.31 Y-127.633
X-225.807 Y-127.142
X-225.26 Y-126.554
X-224.725 Y-125.921
X-224.161 Y-125.184
X-223.573 Y-124.334
X-222.979 Y-123.379
X-222.389 Y-122.322
X-221.793 Y-121.119
X-221.254 Y-119.89
X-220.769 Y-118.638
X-220.332 Y-117.369
X-219.94 Y-116.086
X-219.589 Y-114.79
X-219.277 Y-113.485
X-219.001 Y-112.171
X-218.76 Y-110.851
X-218.552 Y-109.525
X-218.375 Y-108.195
X-218.228 Y-106.861
X-218.111 Y-105.524
X-218.022 Y-104.184
X-217.962 Y-102.844
X-217.929 Y-101.502
X-217.923 Y-100.16
X-217.945 Y-98.818
X-217.995 Y-97.477
X-218.073 Y-96.137
X-218.18 Y-94.799
X-218.318 Y-93.464
X-218.487 Y-92.132
X-218.691 Y-90.806
X-218.931 Y-89.485
X-219.214 Y-88.173
X-219.545 Y-86.872
X-219.919 Y-85.623
X-220.295 Y-84.561
X-220.656 Y-83.676
X-220.985 Y-82.97
X-221.295 Y-82.38
X-221.558 Y-81.934
X-221.839 Y-81.507
X-222.083 Y-81.171
X-222.154 Y-81.083
X-222.489 Y-80.724
X-222.874 Y-80.419
X-223.3 Y-80.174
X-223.757 Y-79.995
X-224.236 Y-79.887
X-224.726 Y-79.85
X-227.104
G3 X-228.325 Y-81.004 I0.044 J-1.269
G1 X-232.673 Y-128.766
G3 X-231.452 Y-130.15 I1.265 J-0.115
G1 X-229.166
X-228.789 Y-130.131
X-228.588 Y-130.111
X-228.355 Y-130.077
X-228.115 Y-130.03
X-227.842 Y-129.962
X-227.56 Y-129.878
X-227.248 Y-129.768
X-226.92 Y-129.633
X-226.566 Y-129.469
X-226.184 Y-129.268
X-225.795 Y-129.039
X-225.361 Y-128.755
X-224.932 Y-128.443
X-224.457 Y-128.062
X-223.968 Y-127.629
X-223.465 Y-127.137
X-222.916 Y-126.549
X-222.381 Y-125.915
X-221.817 Y-125.178
X-221.228 Y-124.326
X-220.633 Y-123.37
X-220.042 Y-122.31
X-219.445 Y-121.108
X-218.907 Y-119.879
X-218.421 Y-118.627
X-217.984 Y-117.359
X-217.591 Y-116.075
X-217.24 Y-114.78
X-216.927 Y-113.475
X-216.65 Y-112.161
X-216.408 Y-110.841
X-216.199 Y-109.515
X-216.021 Y-108.185
X-215.874 Y-106.851
X-215.755 Y-105.514
X-215.665 Y-104.175
X-215.603 Y-102.834
X-215.569 Y-101.493
X-215.562 Y-100.15
X-215.583 Y-98.808
X-215.631 Y-97.467
X-215.708 Y-96.127
X-215.814 Y-94.789
X-215.95 Y-93.454
X-216.119 Y-92.122
X-216.321 Y-90.796
X-216.561 Y-89.475
X-216.843 Y-88.163
X-217.173 Y-86.862
X-217.547 Y-85.615
X-217.921 Y-84.557
X-218.282 Y-83.672
X-218.609 Y-82.969
X-218.919 Y-82.379
X-219.182 Y-81.934
X-219.461 Y-81.507
X-219.706 Y-81.171
X-219.776 Y-81.083
X-220.111 Y-80.724
X-220.496 Y-80.419
X-220.922 Y-80.174
X-221.38 Y-79.995
X-221.859 Y-79.887
X-222.349 Y-79.85
X-224.726
G3 X-225.946 Y-81.002 I0.044 J-1.269
G1 X-230.387 Y-128.763
G3 X-229.166 Y-130.15 I1.265 J-0.118
G1 X-226.709
X-226.46 Y-130.138
X-226.259 Y-130.118
X-226.025 Y-130.083
X-225.785 Y-130.036
X-225.51 Y-129.968
X-225.228 Y-129.883
X-224.915 Y-129.773
X-224.586 Y-129.639
X-224.23 Y-129.473
X-223.849 Y-129.273
X-223.459 Y-129.043
X-223.024 Y-128.758
X-222.594 Y-128.446
X-222.118 Y-128.063
X-221.629 Y-127.63
X-221.124 Y-127.138
X-220.574 Y-126.547
X-220.039 Y-125.914
X-219.473 Y-125.174
X-218.883 Y-124.321
X-218.287 Y-123.364
X-217.694 Y-122.301
X-217.098 Y-121.099
X-216.559 Y-119.87
X-216.073 Y-118.619
X-215.636 Y-117.35
X-215.242 Y-116.067
X-214.89 Y-114.771
X-214.577 Y-113.466
X-214.299 Y-112.153
X-214.057 Y-110.833
X-213.846 Y-109.508
X-213.667 Y-108.177
X-213.519 Y-106.844
X-213.399 Y-105.507
X-213.308 Y-104.168
X-213.245 Y-102.827
X-213.209 Y-101.485
X-213.201 Y-100.143
X-213.22 Y-98.801
X-213.268 Y-97.46
X-213.343 Y-96.12
X-213.448 Y-94.782
X-213.583 Y-93.446
X-213.75 Y-92.115
X-213.952 Y-90.788
X-214.191 Y-89.467
X-214.473 Y-88.155
X-214.802 Y-86.854
X-215.175 Y-85.609
X-215.547 Y-84.553
X-215.908 Y-83.67
X-216.234 Y-82.968
X-216.543 Y-82.379
X-216.806 Y-81.934
X-217.085 Y-81.508
X-217.329 Y-81.172
X-217.4 Y-81.084
X-217.735 Y-80.725
X-218.12 Y-80.419
X-218.546 Y-80.174
X-219.004 Y-79.996
X-219.483 Y-79.887
X-219.973 Y-79.85
X-222.349
G3 X-223.569 Y-81.004 I0.044 J-1.269
G1 X-227.93 Y-128.765
G3 X-226.709 Y-130.15 I1.265 J-0.115
G1 X-224.423
X-224.115 Y-130.135
X-223.914 Y-130.115
X-223.68 Y-130.08
X-223.44 Y-130.033
X-223.166 Y-129.965
X-222.884 Y-129.881
X-222.571 Y-129.77
X-222.242 Y-129.636
X-221.887 Y-129.471
X-221.506 Y-129.27
X-221.115 Y-129.041
X-220.68 Y-128.755
X-220.25 Y-128.443
X-219.774 Y-128.061
X-219.285 Y-127.628
X-218.779 Y-127.134
X-218.229 Y-126.543
X-217.694 Y-125.91
X-217.127 Y-125.169
X-216.536 Y-124.315
X-215.939 Y-123.356
X-215.346 Y-122.291
X-214.749 Y-121.089
X-214.21 Y-119.86
X-213.724 Y-118.609
X-213.286 Y-117.34
X-212.892 Y-116.057
X-212.54 Y-114.762
X-212.225 Y-113.457
X-211.947 Y-112.144
X-211.704 Y-110.824
X-211.493 Y-109.499
X-211.313 Y-108.169
X-211.163 Y-106.835
X-211.042 Y-105.498
X-210.95 Y-104.159
X-210.886 Y-102.819
X-210.849 Y-101.477
X-210.84 Y-100.135
X-210.858 Y-98.793
X-210.904 Y-97.452
X-210.979 Y-96.111
X-211.082 Y-94.773
X-211.217 Y-93.438
X-211.383 Y-92.106
X-211.584 Y-90.779
X-211.822 Y-89.458
X-212.103 Y-88.146
X-212.432 Y-86.845
X-212.804 Y-85.602
X-213.175 Y-84.549
X-213.535 Y-83.667
X-213.86 Y-82.967
X-214.169 Y-82.379
X-214.431 Y-81.934
X-214.71 Y-81.508
X-214.954 Y-81.172
X-215.024 Y-81.084
X-215.359 Y-80.725
X-215.744 Y-80.42
X-216.171 Y-80.175
X-216.628 Y-79.996
X-217.108 Y-79.887
X-217.598 Y-79.85
X-219.973
G3 X-221.193 Y-81.001 I0.044 J-1.269
G1 X-225.643 Y-128.763
G3 X-224.423 Y-130.15 I1.265 J-0.118
G1 X-222.137
X-221.771 Y-130.132
X-221.57 Y-130.112
X-221.336 Y-130.077
X-221.096 Y-130.03
X-220.822 Y-129.962
X-220.541 Y-129.878
X-220.227 Y-129.767
X-219.898 Y-129.633
X-219.543 Y-129.468
X-219.162 Y-129.267
X-218.771 Y-129.038
X-218.336 Y-128.752
X-217.906 Y-128.44
X-217.429 Y-128.057
X-216.94 Y-127.624
X-216.434 Y-127.13
X-215.883 Y-126.538
X-215.348 Y-125.905
X-214.78 Y-125.163
X-214.189 Y-124.308
X-213.591 Y-123.347
X-212.996 Y-122.281
X-212.399 Y-121.079
X-211.861 Y-119.849
X-211.374 Y-118.598
X-210.936 Y-117.33
X-210.541 Y-116.047
X-210.188 Y-114.752
X-209.873 Y-113.447
X-209.595 Y-112.135
X-209.35 Y-110.815
X-209.138 Y-109.49
X-208.958 Y-108.16
X-208.807 Y-106.826
X-208.685 Y-105.489
X-208.592 Y-104.15
X-208.527 Y-102.81
X-208.489 Y-101.468
X-208.478 Y-100.126
X-208.496 Y-98.784
X-208.541 Y-97.443
X-208.614 Y-96.103
X-208.717 Y-94.764
X-208.85 Y-93.429
X-209.016 Y-92.097
X-209.216 Y-90.77
X-209.454 Y-89.449
X-209.734 Y-88.136
X-210.063 Y-86.835
X-210.434 Y-85.594
X-210.804 Y-84.545
X-211.163 Y-83.663
X-211.488 Y-82.965
X-211.796 Y-82.377
X-212.058 Y-81.933
X-212.336 Y-81.507
X-212.58 Y-81.172
X-212.65 Y-81.085
X-212.985 Y-80.725
X-213.37 Y-80.42
X-213.796 Y-80.175
X-214.254 Y-79.996
X-214.733 Y-79.887
X-215.224 Y-79.85
X-217.598
G3 X-218.818 Y-80.999 I0.044 J-1.269
G1 X-223.357 Y-128.761
G3 X-222.137 Y-130.15 I1.264 J-0.12
G1 X-219.736
X-219.435 Y-130.135
X-219.234 Y-130.115
X-218.999 Y-130.081
X-218.759 Y-130.033
X-218.484 Y-129.965
X-218.202 Y-129.881
X-217.888 Y-129.77
X-217.559 Y-129.636
X-217.203 Y-129.47
X-216.821 Y-129.269
X-216.43 Y-129.039
X-215.994 Y-128.753
X-215.563 Y-128.44
X-215.086 Y-128.057
X-214.597 Y-127.624
X-214.089 Y-127.129
X-213.537 Y-126.536
X-213.002 Y-125.902
X-212.433 Y-125.159
X-211.841 Y-124.302
X-211.242 Y-123.34
X-210.646 Y-122.272
X-210.049 Y-121.069
X-209.51 Y-119.84
X-209.024 Y-118.59
X-208.585 Y-117.321
X-208.19 Y-116.038
X-207.836 Y-114.744
X-207.521 Y-113.439
X-207.242 Y-112.126
X-206.996 Y-110.807
X-206.784 Y-109.482
X-206.602 Y-108.152
X-206.45 Y-106.818
X-206.328 Y-105.482
X-206.234 Y-104.143
X-206.167 Y-102.802
X-206.128 Y-101.461
X-206.117 Y-100.119
X-206.133 Y-98.777
X-206.178 Y-97.435
X-206.25 Y-96.095
X-206.352 Y-94.757
X-206.484 Y-93.421
X-206.649 Y-92.089
X-206.849 Y-90.762
X-207.086 Y-89.441
X-207.365 Y-88.128
X-207.694 Y-86.827
X-208.064 Y-85.588
X-208.433 Y-84.541
X-208.792 Y-83.66
X-209.116 Y-82.964
X-209.424 Y-82.377
X-209.685 Y-81.932
X-209.963 Y-81.507
X-210.207 Y-81.172
X-210.276 Y-81.085
X-210.612 Y-80.726
X-210.997 Y-80.42
X-211.423 Y-80.175
X-211.881 Y-79.996
X-212.36 Y-79.887
X-212.85 Y-79.85
X-215.224
G3 X-216.444 Y-81 I0.044 J-1.269
G1 X-220.956 Y-128.761
G3 X-219.736 Y-130.15 I1.264 J-0.119
G1 X-217.356
X-217.094 Y-130.137
X-216.893 Y-130.117
X-216.658 Y-130.082
X-216.418 Y-130.035
X-216.143 Y-129.967
X-215.861 Y-129.883
X-215.546 Y-129.772
X-215.217 Y-129.637
X-214.86 Y-129.471
X-214.479 Y-129.271
X-214.087 Y-129.04
X-213.651 Y-128.754
X-213.22 Y-128.441
X-212.741 Y-128.057
X-212.252 Y-127.624
X-211.744 Y-127.128
X-211.191 Y-126.534
X-210.655 Y-125.9
X-210.085 Y-125.155
X-209.492 Y-124.297
X-208.892 Y-123.334
X-208.295 Y-122.263
X-207.699 Y-121.061
X-207.16 Y-119.832
X-206.673 Y-118.581
X-206.234 Y-117.313
X-205.838 Y-116.03
X-205.484 Y-114.736
X-205.168 Y-113.431
X-204.888 Y-112.119
X-204.642 Y-110.799
X-204.429 Y-109.474
X-204.246 Y-108.145
X-204.094 Y-106.811
X-203.97 Y-105.475
X-203.875 Y-104.136
X-203.808 Y-102.795
X-203.768 Y-101.454
X-203.756 Y-100.112
X-203.771 Y-98.77
X-203.814 Y-97.428
X-203.886 Y-96.088
X-203.987 Y-94.75
X-204.119 Y-93.414
X-204.283 Y-92.082
X-204.481 Y-90.755
X-204.718 Y-89.433
X-204.997 Y-88.121
X-205.325 Y-86.819
X-205.695 Y-85.582
X-206.063 Y-84.538
X-206.421 Y-83.657
X-206.744 Y-82.962
X-207.052 Y-82.376
X-207.313 Y-81.932
X-207.591 Y-81.507
X-207.834 Y-81.172
X-207.903 Y-81.085
X-208.239 Y-80.726
X-208.624 Y-80.42
X-209.05 Y-80.175
X-209.508 Y-79.996
X-209.988 Y-79.887
X-210.478 Y-79.85
X-212.85
G3 X-214.07 Y-81 I0.044 J-1.269
G1 X-218.576 Y-128.761
G3 X-217.356 Y-130.15 I1.264 J-0.119
G1 X-215.07
X-214.746 Y-130.134
X-214.544 Y-130.114
X-214.31 Y-130.079
X-214.07 Y-130.032
X-213.795 Y-129.964
X-213.513 Y-129.88
X-213.199 Y-129.769
X-212.87 Y-129.634
X-212.513 Y-129.468
X-212.132 Y-129.268
X-211.74 Y-129.037
X-211.304 Y-128.751
X-210.873 Y-128.438
X-210.394 Y-128.054
X-209.905 Y-127.621
X-209.396 Y-127.124
X-208.843 Y-126.53
X-208.307 Y-125.896
X-207.736 Y-125.15
X-207.142 Y-124.291
X-206.542 Y-123.327
X-205.944 Y-122.254
X-205.347 Y-121.052
X-204.808 Y-119.823
X-204.321 Y-118.572
X-203.881 Y-117.304
X-203.486 Y-116.022
X-203.131 Y-114.727
X-202.815 Y-113.423
X-202.534 Y-112.11
X-202.287 Y-110.791
X-202.073 Y-109.466
X-201.89 Y-108.137
X-201.736 Y-106.803
X-201.612 Y-105.467
X-201.516 Y-104.128
X-201.448 Y-102.788
X-201.408 Y-101.446
X-201.394 Y-100.104
X-201.409 Y-98.762
X-201.451 Y-97.42
X-201.522 Y-96.08
X-201.622 Y-94.742
X-201.753 Y-93.406
X-201.917 Y-92.074
X-202.115 Y-90.746
X-202.351 Y-89.425
X-202.63 Y-88.112
X-202.958 Y-86.811
X-203.327 Y-85.575
X-203.694 Y-84.533
X-204.052 Y-83.654
X-204.374 Y-82.961
X-204.681 Y-82.375
X-204.942 Y-81.931
X-205.22 Y-81.506
X-205.463 Y-81.171
X-205.532 Y-81.086
X-205.867 Y-80.726
X-206.252 Y-80.42
X-206.678 Y-80.175
X-207.136 Y-79.996
X-207.616 Y-79.887
X-208.106 Y-79.85
X-210.478
G3 X-211.698 Y-80.998 I0.044 J-1.269
G1 X-216.29 Y-128.759
G3 X-215.07 Y-130.15 I1.264 J-0.122
G1 X-212.613
X-212.41 Y-130.14
X-212.208 Y-130.12
X-211.973 Y-130.085
X-211.733 Y-130.038
X-211.457 Y-129.97
X-211.175 Y-129.885
X-210.859 Y-129.774
X-210.53 Y-129.64
X-210.172 Y-129.473
X-209.791 Y-129.272
X-209.397 Y-129.041
X-208.961 Y-128.755
X-208.529 Y-128.441
X-208.049 Y-128.055
X-207.56 Y-127.622
X-207.05 Y-127.125
X-206.496 Y-126.53
X-205.959 Y-125.895
X-205.387 Y-125.148
X-204.792 Y-124.287
X-204.191 Y-123.322
X-203.592 Y-122.247
X-202.996 Y-121.045
X-202.456 Y-119.816
X-201.969 Y-118.565
X-201.529 Y-117.297
X-201.133 Y-116.015
X-200.778 Y-114.721
X-200.461 Y-113.416
X-200.18 Y-112.104
X-199.932 Y-110.785
X-199.717 Y-109.46
X-199.533 Y-108.131
X-199.379 Y-106.797
X-199.254 Y-105.461
X-199.157 Y-104.122
X-199.088 Y-102.782
X-199.047 Y-101.44
X-199.033 Y-100.098
X-199.047 Y-98.756
X-199.088 Y-97.415
X-199.158 Y-96.074
X-199.258 Y-94.736
X-199.388 Y-93.4
X-199.551 Y-92.068
X-199.748 Y-90.74
X-199.984 Y-89.419
X-200.263 Y-88.106
X-200.59 Y-86.804
X-200.958 Y-85.571
X-201.324 Y-84.531
X-201.682 Y-83.652
X-202.004 Y-82.96
X-202.311 Y-82.374
X-202.571 Y-81.931
X-202.849 Y-81.506
X-203.092 Y-81.172
X-203.16 Y-81.086
X-203.496 Y-80.726
X-203.881 Y-80.42
X-204.307 Y-80.175
X-204.765 Y-79.996
X-205.245 Y-79.887
X-205.735 Y-79.85
X-208.106
G3 X-209.326 Y-81 I0.044 J-1.269
G1 X-213.833 Y-128.761
G3 X-212.613 Y-130.15 I1.264 J-0.119
G1 X-210.327
X-210.058 Y-130.137
X-209.857 Y-130.117
X-209.622 Y-130.082
X-209.382 Y-130.035
X-209.107 Y-129.967
X-208.825 Y-129.882
X-208.51 Y-129.771
X-208.181 Y-129.637
X-207.823 Y-129.47
X-207.442 Y-129.27
X-207.049 Y-129.038
X-206.612 Y-128.752
X-206.18 Y-128.439
X-205.7 Y-128.053
X-205.211 Y-127.62
X-204.7 Y-127.122
X-204.146 Y-126.526
X-203.609 Y-125.891
X-203.037 Y-125.143
X-202.441 Y-124.282
X-201.84 Y-123.315
X-201.239 Y-122.239
X-200.643 Y-121.037
X-200.103 Y-119.808
X-199.616 Y-118.557
X-199.176 Y-117.289
X-198.779 Y-116.007
X-198.424 Y-114.713
X-198.106 Y-113.409
X-197.824 Y-112.097
X-197.577 Y-110.778
X-197.361 Y-109.453
X-197.176 Y-108.123
X-197.021 Y-106.79
X-196.896 Y-105.454
X-196.798 Y-104.115
X-196.728 Y-102.775
X-196.686 Y-101.434
X-196.672 Y-100.091
X-196.685 Y-98.749
X-196.725 Y-97.408
X-196.795 Y-96.068
X-196.894 Y-94.729
X-197.023 Y-93.393
X-197.186 Y-92.061
X-197.383 Y-90.733
X-197.618 Y-89.412
X-197.896 Y-88.099
X-198.223 Y-86.797
X-198.591 Y-85.565
X-198.956 Y-84.527
X-199.314 Y-83.649
X-199.634 Y-82.958
X-199.941 Y-82.373
X-200.201 Y-81.93
X-200.479 Y-81.506
X-200.722 Y-81.171
X-200.79 Y-81.086
X-201.125 Y-80.726
X-201.51 Y-80.42
X-201.937 Y-80.175
X-202.395 Y-79.996
X-202.874 Y-79.887
X-203.365 Y-79.85
X-205.735
G3 X-206.955 Y-80.998 I0.044 J-1.269
G1 X-211.547 Y-128.759
G3 X-210.327 Y-130.15 I1.264 J-0.122
G1 X-208.041
X-207.709 Y-130.133
X-207.507 Y-130.114
X-207.273 Y-130.079
X-207.032 Y-130.032
X-206.758 Y-129.963
X-206.475 Y-129.879
X-206.16 Y-129.768
X-205.831 Y-129.634
X-205.474 Y-129.467
X-205.092 Y-129.267
X-204.699 Y-129.035
X-204.262 Y-128.749
X-203.83 Y-128.435
X-203.35 Y-128.049
X-202.861 Y-127.616
X-202.35 Y-127.118
X-201.795 Y-126.522
X-201.258 Y-125.886
X-200.685 Y-125.138
X-200.089 Y-124.276
X-199.487 Y-123.308
X-198.886 Y-122.231
X-198.289 Y-121.028
X-197.75 Y-119.799
X-197.262 Y-118.549
X-196.822 Y-117.281
X-196.425 Y-115.999
X-196.069 Y-114.705
X-195.751 Y-113.401
X-195.469 Y-112.089
X-195.22 Y-110.77
X-195.004 Y-109.445
X-194.819 Y-108.116
X-194.663 Y-106.783
X-194.537 Y-105.446
X-194.439 Y-104.108
X-194.368 Y-102.768
X-194.326 Y-101.426
X-194.31 Y-100.084
X-194.322 Y-98.742
X-194.363 Y-97.4
X-194.431 Y-96.06
X-194.53 Y-94.721
X-194.659 Y-93.386
X-194.821 Y-92.053
X-195.017 Y-90.726
X-195.252 Y-89.404
X-195.53 Y-88.091
X-195.857 Y-86.789
X-196.225 Y-85.558
X-196.589 Y-84.523
X-196.946 Y-83.645
X-197.266 Y-82.956
X-197.572 Y-82.372
X-197.832 Y-81.929
X-198.11 Y-81.505
X-198.352 Y-81.171
X-198.42 Y-81.086
X-198.756 Y-80.726
X-199.141 Y-80.42
X-199.567 Y-80.175
X-200.025 Y-79.996
X-200.505 Y-79.887
X-200.995 Y-79.85
X-203.365
G3 X-204.584 Y-80.995 I0.044 J-1.269
G1 X-209.261 Y-128.757
G3 X-208.041 Y-130.15 I1.264 J-0.124
G1 X-205.64
X-205.367 Y-130.136
X-205.165 Y-130.116
X-204.93 Y-130.082
X-204.69 Y-130.034
X-204.414 Y-129.966
X-204.132 Y-129.882
X-203.816 Y-129.77
X-203.487 Y-129.636
X-203.128 Y-129.469
X-202.747 Y-129.268
X-202.353 Y-129.037
X-201.915 Y-128.75
X-201.483 Y-128.436
X-201.001 Y-128.049
X-200.512 Y-127.616
X-200 Y-127.117
X-199.445 Y-126.52
X-198.908 Y-125.884
X-198.334 Y-125.135
X-197.737 Y-124.271
X-197.134 Y-123.303
X-196.532 Y-122.223
X-195.936 Y-121.021
X-195.396 Y-119.792
X-194.908 Y-118.542
X-194.467 Y-117.274
X-194.071 Y-115.992
X-193.714 Y-114.698
X-193.396 Y-113.394
X-193.113 Y-112.082
X-192.864 Y-110.763
X-192.647 Y-109.439
X-192.461 Y-108.109
X-192.305 Y-106.776
X-192.178 Y-105.44
X-192.079 Y-104.102
X-192.008 Y-102.762
X-191.965 Y-101.42
X-191.949 Y-100.078
X-191.96 Y-98.736
X-192 Y-97.394
X-192.068 Y-96.054
X-192.166 Y-94.715
X-192.295 Y-93.379
X-192.456 Y-92.047
X-192.652 Y-90.719
X-192.886 Y-89.398
X-193.164 Y-88.085
X-193.491 Y-86.783
X-193.858 Y-85.553
X-194.222 Y-84.52
X-194.578 Y-83.643
X-194.898 Y-82.955
X-195.204 Y-82.371
X-195.464 Y-81.929
X-195.741 Y-81.505
X-195.983 Y-81.171
X-196.051 Y-81.086
X-196.386 Y-80.726
X-196.771 Y-80.42
X-197.198 Y-80.175
X-197.656 Y-79.996
X-198.135 Y-79.887
X-198.626 Y-79.85
X-200.995
G3 X-202.215 Y-80.996 I0.044 J-1.269
G1 X-206.86 Y-128.758
G3 X-205.64 Y-130.15 I1.264 J-0.123
G1 X-203.26
X-203.021 Y-130.138
X-202.819 Y-130.118
X-202.584 Y-130.083
X-202.343 Y-130.036
X-202.067 Y-129.968
X-201.785 Y-129.883
X-201.469 Y-129.771
X-201.14 Y-129.637
X-200.78 Y-129.47
X-200.399 Y-129.27
X-200.005 Y-129.037
X-199.567 Y-128.751
X-199.134 Y-128.436
X-198.652 Y-128.049
X-198.163 Y-127.616
X-197.65 Y-127.116
X-197.094 Y-126.519
X-196.557 Y-125.882
X-195.982 Y-125.132
X-195.385 Y-124.268
X-194.781 Y-123.298
X-194.178 Y-122.217
X-193.582 Y-121.014
X-193.042 Y-119.786
X-192.554 Y-118.535
X-192.113 Y-117.268
X-191.716 Y-115.986
X-191.359 Y-114.692
X-191.04 Y-113.388
X-190.757 Y-112.076
X-190.507 Y-110.757
X-190.29 Y-109.433
X-190.104 Y-108.104
X-189.947 Y-106.771
X-189.819 Y-105.435
X-189.72 Y-104.096
X-189.648 Y-102.756
X-189.604 Y-101.415
X-189.587 Y-100.073
X-189.598 Y-98.731
X-189.637 Y-97.389
X-189.705 Y-96.049
X-189.802 Y-94.71
X-189.93 Y-93.374
X-190.091 Y-92.041
X-190.287 Y-90.714
X-190.521 Y-89.392
X-190.798 Y-88.079
X-191.125 Y-86.777
X-191.492 Y-85.549
X-191.855 Y-84.517
X-192.211 Y-83.641
X-192.53 Y-82.954
X-192.836 Y-82.37
X-193.095 Y-81.928
X-193.372 Y-81.505
X-193.615 Y-81.17
X-193.682 Y-81.086
X-194.017 Y-80.726
X-194.403 Y-80.42
X-194.829 Y-80.175
X-195.287 Y-79.996
X-195.767 Y-79.887
X-196.257 Y-79.85
X-198.626
G3 X-199.846 Y-80.997 I0.044 J-1.269
G1 X-204.48 Y-128.758
G3 X-203.26 Y-130.15 I1.264 J-0.123
G1 X-200.974
X-200.667 Y-130.135
X-200.466 Y-130.115
X-200.231 Y-130.08
X-199.99 Y-130.033
X-199.715 Y-129.964
X-199.433 Y-129.88
X-199.117 Y-129.768
X-198.788 Y-129.634
X-198.429 Y-129.467
X-198.047 Y-129.267
X-197.653 Y-129.035
X-197.215 Y-128.748
X-196.783 Y-128.433
X-196.3 Y-128.046
X-195.811 Y-127.613
X-195.298 Y-127.113
X-194.742 Y-126.515
X-194.204 Y-125.879
X-193.629 Y-125.127
X-193.031 Y-124.263
X-192.427 Y-123.292
X-191.823 Y-122.21
X-191.227 Y-121.007
X-190.687 Y-119.778
X-190.199 Y-118.528
X-189.758 Y-117.261
X-189.36 Y-115.979
X-189.003 Y-114.685
X-188.684 Y-113.381
X-188.4 Y-112.07
X-188.15 Y-110.751
X-187.932 Y-109.426
X-187.745 Y-108.097
X-187.588 Y-106.765
X-187.46 Y-105.428
X-187.36 Y-104.09
X-187.288 Y-102.75
X-187.243 Y-101.408
X-187.226 Y-100.066
X-187.236 Y-98.724
X-187.275 Y-97.383
X-187.342 Y-96.042
X-187.439 Y-94.704
X-187.566 Y-93.368
X-187.727 Y-92.035
X-187.922 Y-90.707
X-188.156 Y-89.385
X-188.433 Y-88.072
X-188.76 Y-86.77
X-189.126 Y-85.543
X-189.488 Y-84.513
X-189.845 Y-83.638
X-190.163 Y-82.952
X-190.469 Y-82.369
X-190.728 Y-81.927
X-191.005 Y-81.504
X-191.247 Y-81.17
X-191.314 Y-81.086
X-191.649 Y-80.726
X-192.034 Y-80.42
X-192.461 Y-80.175
X-192.919 Y-79.996
X-193.398 Y-79.887
X-193.889 Y-79.85
X-196.257
G3 X-197.477 Y-80.994 I0.044 J-1.269
G1 X-202.194 Y-128.756
G3 X-200.974 Y-130.15 I1.264 J-0.125
G1 X-198.689
X-198.315 Y-130.131
X-198.114 Y-130.111
X-197.879 Y-130.077
X-197.638 Y-130.029
X-197.363 Y-129.961
X-197.08 Y-129.877
X-196.764 Y-129.765
X-196.435 Y-129.631
X-196.076 Y-129.464
X-195.695 Y-129.263
X-195.3 Y-129.031
X-194.863 Y-128.744
X-194.43 Y-128.43
X-193.947 Y-128.042
X-193.459 Y-127.609
X-192.945 Y-127.109
X-192.389 Y-126.511
X-191.851 Y-125.874
X-191.275 Y-125.122
X-190.677 Y-124.257
X-190.072 Y-123.286
X-189.468 Y-122.202
X-188.871 Y-121
X-188.332 Y-119.771
X-187.843 Y-118.521
X-187.402 Y-117.253
X-187.004 Y-115.971
X-186.647 Y-114.678
X-186.327 Y-113.374
X-186.043 Y-112.062
X-185.793 Y-110.744
X-185.574 Y-109.42
X-185.387 Y-108.091
X-185.229 Y-106.758
X-185.101 Y-105.422
X-185 Y-104.083
X-184.927 Y-102.743
X-184.882 Y-101.402
X-184.864 Y-100.06
X-184.874 Y-98.718
X-184.912 Y-97.376
X-184.979 Y-96.036
X-185.075 Y-94.697
X-185.203 Y-93.361
X-185.363 Y-92.028
X-185.558 Y-90.7
X-185.791 Y-89.379
X-186.069 Y-88.065
X-186.395 Y-86.764
X-186.761 Y-85.538
X-187.123 Y-84.509
X-187.479 Y-83.634
X-187.796 Y-82.95
X-188.102 Y-82.367
X-188.361 Y-81.926
X-188.638 Y-81.503
X-188.88 Y-81.169
X-188.946 Y-81.086
X-189.282 Y-80.726
X-189.667 Y-80.42
X-190.093 Y-80.175
X-190.551 Y-79.996
X-191.031 Y-79.887
X-191.521 Y-79.85
X-193.889
G3 X-195.108 Y-80.992 I0.044 J-1.269
G1 X-199.908 Y-128.754
G3 X-198.689 Y-130.15 I1.264 J-0.127
G1 X-196.231
X-195.975 Y-130.137
X-195.773 Y-130.117
X-195.537 Y-130.082
X-195.296 Y-130.035
X-195.019 Y-129.966
X-194.737 Y-129.882
X-194.419 Y-129.77
X-194.09 Y-129.636
X-193.73 Y-129.468
X-193.349 Y-129.268
X-192.953 Y-129.035
X-192.515 Y-128.748
X-192.081 Y-128.433
X-191.598 Y-128.044
X-191.109 Y-127.611
X-190.594 Y-127.109
X-190.037 Y-126.511
X-189.499 Y-125.874
X-188.922 Y-125.12
X-188.323 Y-124.254
X-187.718 Y-123.282
X-187.113 Y-122.197
X-186.516 Y-120.994
X-185.976 Y-119.766
X-185.488 Y-118.516
X-185.046 Y-117.248
X-184.648 Y-115.966
X-184.29 Y-114.673
X-183.97 Y-113.369
X-183.686 Y-112.058
X-183.435 Y-110.739
X-183.217 Y-109.415
X-183.029 Y-108.086
X-182.87 Y-106.753
X-182.741 Y-105.417
X-182.64 Y-104.079
X-182.567 Y-102.739
X-182.521 Y-101.397
X-182.503 Y-100.055
X-182.512 Y-98.713
X-182.55 Y-97.372
X-182.616 Y-96.031
X-182.712 Y-94.692
X-182.839 Y-93.356
X-182.999 Y-92.024
X-183.193 Y-90.696
X-183.427 Y-89.374
X-183.704 Y-88.061
X-184.03 Y-86.759
X-184.396 Y-85.534
X-184.757 Y-84.507
X-185.112 Y-83.633
X-185.43 Y-82.949
X-185.735 Y-82.367
X-185.994 Y-81.926
X-186.271 Y-81.503
X-186.513 Y-81.169
X-186.579 Y-81.086
X-186.914 Y-80.727
X-187.299 Y-80.42
X-187.726 Y-80.175
X-188.184 Y-79.996
X-188.663 Y-79.887
X-189.154 Y-79.85
X-191.521
G3 X-192.741 Y-80.995 I0.044 J-1.269
G1 X-197.451 Y-128.756
G3 X-196.231 Y-130.15 I1.264 J-0.125
G1 X-193.945
X-193.618 Y-130.134
X-193.416 Y-130.114
X-193.181 Y-130.079
X-192.94 Y-130.032
X-192.664 Y-129.963
X-192.382 Y-129.879
X-192.065 Y-129.767
X-191.736 Y-129.633
X-191.376 Y-129.465
X-190.995 Y-129.265
X-190.6 Y-129.032
X-190.161 Y-128.745
X-189.728 Y-128.43
X-189.244 Y-128.042
X-188.755 Y-127.609
X-188.241 Y-127.107
X-187.683 Y-126.508
X-187.145 Y-125.87
X-186.568 Y-125.117
X-185.968 Y-124.25
X-185.363 Y-123.277
X-184.757 Y-122.19
X-184.16 Y-120.988
X-183.62 Y-119.759
X-183.132 Y-118.509
X-182.69 Y-117.242
X-182.292 Y-115.96
X-181.934 Y-114.667
X-181.613 Y-113.363
X-181.328 Y-112.052
X-181.077 Y-110.733
X-180.858 Y-109.409
X-180.67 Y-108.08
X-180.511 Y-106.748
X-180.382 Y-105.412
X-180.28 Y-104.073
X-180.206 Y-102.733
X-180.16 Y-101.392
X-180.142 Y-100.05
X-180.151 Y-98.708
X-180.188 Y-97.366
X-180.254 Y-96.026
X-180.349 Y-94.687
X-180.476 Y-93.351
X-180.635 Y-92.018
X-180.829 Y-90.69
X-181.062 Y-89.368
X-181.339 Y-88.055
X-181.666 Y-86.753
X-182.031 Y-85.529
X-182.391 Y-84.504
X-182.747 Y-83.63
X-183.064 Y-82.947
X-183.369 Y-82.365
X-183.628 Y-81.925
X-183.904 Y-81.502
X-184.146 Y-81.169
X-184.212 Y-81.086
X-184.547 Y-80.727
X-184.932 Y-80.42
X-185.359 Y-80.175
X-185.817 Y-79.996
X-186.296 Y-79.887
X-186.787 Y-79.85
X-189.154
G3 X-190.373 Y-80.992 I0.044 J-1.269
G1 X-195.165 Y-128.754
G3 X-193.945 Y-130.15 I1.264 J-0.127
G1 X-191.544
X-191.272 Y-130.136
X-191.07 Y-130.116
X-190.834 Y-130.082
X-190.592 Y-130.034
X-190.316 Y-129.966
X-190.034 Y-129.881
X-189.716 Y-129.769
X-189.387 Y-129.635
X-189.026 Y-129.467
X-188.645 Y-129.267
X-188.249 Y-129.033
X-187.811 Y-128.746
X-187.377 Y-128.431
X-186.892 Y-128.042
X-186.403 Y-127.609
X-185.888 Y-127.106
X-185.33 Y-126.507
X-184.791 Y-125.869
X-184.214 Y-125.114
X-183.613 Y-124.247
X-183.007 Y-123.273
X-182.401 Y-122.185
X-181.804 Y-120.983
X-181.264 Y-119.754
X-180.775 Y-118.504
X-180.333 Y-117.237
X-179.935 Y-115.955
X-179.577 Y-114.662
X-179.256 Y-113.359
X-178.971 Y-112.047
X-178.719 Y-110.729
X-178.5 Y-109.405
X-178.311 Y-108.076
X-178.152 Y-106.743
X-178.022 Y-105.407
X-177.92 Y-104.069
X-177.846 Y-102.729
X-177.799 Y-101.388
X-177.78 Y-100.046
X-177.789 Y-98.704
X-177.825 Y-97.362
X-177.891 Y-96.021
X-177.986 Y-94.683
X-178.112 Y-93.346
X-178.271 Y-92.014
X-178.465 Y-90.686
X-178.698 Y-89.364
X-178.975 Y-88.05
X-179.301 Y-86.749
X-179.666 Y-85.526
X-180.026 Y-84.502
X-180.382 Y-83.628
X-180.698 Y-82.946
X-181.003 Y-82.365
X-181.261 Y-81.924
X-181.538 Y-81.502
X-181.78 Y-81.168
X-181.845 Y-81.086
X-182.181 Y-80.727
X-182.566 Y-80.421
X-182.992 Y-80.175
X-183.45 Y-79.996
X-183.93 Y-79.887
X-184.42 Y-79.85
X-186.787
G3 X-188.006 Y-80.993 I0.044 J-1.269
G1 X-192.764 Y-128.755
G3 X-191.544 Y-130.15 I1.264 J-0.126
G1 X-189.164
X-188.921 Y-130.138
X-188.719 Y-130.118
X-188.483 Y-130.083
X-188.242 Y-130.036
X-187.965 Y-129.967
X-187.683 Y-129.882
X-187.365 Y-129.77
X-187.036 Y-129.636
X-186.675 Y-129.468
X-186.294 Y-129.268
X-185.897 Y-129.034
X-185.459 Y-128.747
X-185.025 Y-128.432
X-184.539 Y-128.042
X-184.051 Y-127.609
X-183.535 Y-127.106
X-182.976 Y-126.506
X-182.437 Y-125.868
X-181.859 Y-125.113
X-181.258 Y-124.244
X-180.652 Y-123.27
X-180.045 Y-122.181
X-179.448 Y-120.978
X-178.908 Y-119.75
X-178.419 Y-118.5
X-177.977 Y-117.233
X-177.578 Y-115.951
X-177.22 Y-114.658
X-176.899 Y-113.354
X-176.613 Y-112.043
X-176.361 Y-110.725
X-176.141 Y-109.401
X-175.952 Y-108.072
X-175.793 Y-106.739
X-175.662 Y-105.404
X-175.56 Y-104.065
X-175.485 Y-102.725
X-175.438 Y-101.384
X-175.419 Y-100.042
X-175.427 Y-98.7
X-175.463 Y-97.358
X-175.528 Y-96.018
X-175.623 Y-94.679
X-175.749 Y-93.342
X-175.908 Y-92.01
X-176.102 Y-90.682
X-176.334 Y-89.36
X-176.611 Y-88.046
X-176.937 Y-86.745
X-177.301 Y-85.522
X-177.661 Y-84.5
X-178.016 Y-83.627
X-178.332 Y-82.945
X-178.637 Y-82.364
X-178.896 Y-81.924
X-179.172 Y-81.502
X-179.413 Y-81.168
X-179.479 Y-81.087
X-179.814 Y-80.727
X-180.199 Y-80.421
X-180.626 Y-80.175
X-181.084 Y-79.996
X-181.564 Y-79.887
X-182.054 Y-79.85
X-184.42
G3 X-185.64 Y-80.994 I0.044 J-1.269
G1 X-190.384 Y-128.755
G3 X-189.164 Y-130.15 I1.264 J-0.126
G1 X-186.878
X-186.563 Y-130.134
X-186.362 Y-130.114
X-186.126 Y-130.08
X-185.885 Y-130.032
X-185.609 Y-129.964
X-185.326 Y-129.879
X-185.009 Y-129.767
X-184.68 Y-129.633
X-184.319 Y-129.465
X-183.938 Y-129.265
X-183.542 Y-129.032
X-183.103 Y-128.744
X-182.669 Y-128.429
X-182.184 Y-128.039
X-181.695 Y-127.606
X-181.179 Y-127.103
X-180.621 Y-126.503
X-180.082 Y-125.865
X-179.503 Y-125.109
X-178.902 Y-124.24
X-178.295 Y-123.265
X-177.688 Y-122.175
X-177.091 Y-120.973
X-176.551 Y-119.744
X-176.062 Y-118.495
X-175.62 Y-117.227
X-175.221 Y-115.946
X-174.862 Y-114.653
X-174.541 Y-113.349
X-174.255 Y-112.038
X-174.003 Y-110.72
X-173.783 Y-109.396
X-173.593 Y-108.067
X-173.433 Y-106.734
X-173.302 Y-105.399
X-173.2 Y-104.061
