%
(1001)
(origin stock bottom)
(T1  D=6.15 CR=0 - ZMIN=0.3 - flat end mill)
G90 G94
G17
G21

(2D Contour5)
M9
T1 M6
S6000 M3
G54
G0 X-325.125 Y-145.373
Z33
Z23
G1 Z20.5 F333.3
Y-155 Z17.921 F350
G2 X-328.5 Y-158.375 Z16.5 I-3.375
G1 X-590.5 F850
G2 X-593.875 Y-155 J3.375
G1 Y-55
G2 X-590.5 Y-51.625 I3.375
G1 X-328.5
G2 X-325.125 Y-55 J-3.375
G1 Y-155
G2 X-328.5 Y-158.375 I-3.375
G0 Z23
X-324.875 Y-64.627
G1 Z20.5 F333.3
Y-55 Z17.921 F350
G2 X-321.5 Y-51.625 Z16.5 I3.375
G1 X-59.5 F850
G2 X-56.125 Y-55 J-3.375
G1 Y-155
G2 X-59.5 Y-158.375 I-3.375
G1 X-321.5
G2 X-324.875 Y-155 J3.375
G1 Y-55
G2 X-321.5 Y-51.625 I3.375
G0 Z23
X-324.875 Y-64.627
G1 Z19 F333.3
Y-55 Z16.421 F350
G2 X-321.5 Y-51.625 Z15 I3.375
G1 X-59.5 F850
G2 X-56.125 Y-55 J-3.375
G1 Y-155
G2 X-59.5 Y-158.375 I-3.375
G1 X-321.5
G2 X-324.875 Y-155 J3.375
G1 Y-55
G2 X-321.5 Y-51.625 I3.375
G0 Z23
X-325.125 Y-145.373
G1 Z19 F333.3
Y-155 Z16.421 F350
G2 X-328.5 Y-158.375 Z15 I-3.375
G1 X-590.5 F850
G2 X-593.875 Y-155 J3.375
G1 Y-55
G2 X-590.5 Y-51.625 I3.375
G1 X-328.5
G2 X-325.125 Y-55 J-3.375
G1 Y-155
G2 X-328.5 Y-158.375 I-3.375
G1 X-384.39 Z13.5 F350
X-590.5 F850
G2 X-593.875 Y-155 J3.375
G1 Y-55
G2 X-590.5 Y-51.625 I3.375
G1 X-328.5
G2 X-325.125 Y-55 J-3.375
G1 Y-155
G2 X-328.5 Y-158.375 I-3.375
G1 X-384.39
G0 Z23
X-324.875 Y-64.627
G1 Z17.5 F333.3
Y-55 Z14.921 F350
G2 X-321.5 Y-51.625 Z13.5 I3.375
G1 X-59.5 F850
G2 X-56.125 Y-55 J-3.375
G1 Y-155
G2 X-59.5 Y-158.375 I-3.375
G1 X-321.5
G2 X-324.875 Y-155 J3.375
G1 Y-55
G2 X-321.5 Y-51.625 I3.375
G0 Z23
X-324.875 Y-64.627
G1 Z16 F333.3
Y-55 Z13.421 F350
G2 X-321.5 Y-51.625 Z12 I3.375
G1 X-59.5 F850
G2 X-56.125 Y-55 J-3.375
G1 Y-155
G2 X-59.5 Y-158.375 I-3.375
G1 X-321.5
G2 X-324.875 Y-155 J3.375
G1 Y-55
G2 X-321.5 Y-51.625 I3.375
G0 Z23
X-325.125 Y-145.373
G1 Z16 F333.3
Y-155 Z13.421 F350
G2 X-328.5 Y-158.375 Z12 I-3.375
G1 X-590.5 F850
G2 X-593.875 Y-155 J3.375
G1 Y-55
G2 X-590.5 Y-51.625 I3.375
G1 X-328.5
G2 X-325.125 Y-55 J-3.375
G1 Y-155
G2 X-328.5 Y-158.375 I-3.375
G1 X-384.39 Z10.5 F350
X-590.5 F850
G2 X-593.875 Y-155 J3.375
G1 Y-55
G2 X-590.5 Y-51.625 I3.375
G1 X-328.5
G2 X-325.125 Y-55 J-3.375
G1 Y-155
G2 X-328.5 Y-158.375 I-3.375
G1 X-384.39
G0 Z23
X-324.875 Y-64.627
G1 Z14.5 F333.3
Y-55 Z11.921 F350
G2 X-321.5 Y-51.625 Z10.5 I3.375
G1 X-59.5 F850
G2 X-56.125 Y-55 J-3.375
G1 Y-155
G2 X-59.5 Y-158.375 I-3.375
G1 X-321.5
G2 X-324.875 Y-155 J3.375
G1 Y-55
G2 X-321.5 Y-51.625 I3.375
G0 Z23
X-324.875 Y-64.627
G1 Z13 F333.3
Y-55 Z10.421 F350
G2 X-321.5 Y-51.625 Z9 I3.375
G1 X-59.5 F850
G2 X-56.125 Y-55 J-3.375
G1 Y-155
G2 X-59.5 Y-158.375 I-3.375
G1 X-321.5
G2 X-324.875 Y-155 J3.375
G1 Y-55
G2 X-321.5 Y-51.625 I3.375
G0 Z23
X-325.125 Y-145.373
G1 Z13 F333.3
Y-155 Z10.421 F350
G2 X-328.5 Y-158.375 Z9 I-3.375
G1 X-590.5 F850
G2 X-593.875 Y-155 J3.375
G1 Y-55
G2 X-590.5 Y-51.625 I3.375
G1 X-328.5
G2 X-325.125 Y-55 J-3.375
G1 Y-155
G2 X-328.5 Y-158.375 I-3.375
G1 X-384.39 Z7.5 F350
X-590.5 F850
G2 X-593.875 Y-155 J3.375
G1 Y-55
G2 X-590.5 Y-51.625 I3.375
G1 X-328.5
G2 X-325.125 Y-55 J-3.375
G1 Y-155
G2 X-328.5 Y-158.375 I-3.375
G1 X-384.39
G0 Z23
X-324.875 Y-64.627
G1 Z11.5 F333.3
Y-55 Z8.921 F350
G2 X-321.5 Y-51.625 Z7.5 I3.375
G1 X-59.5 F850
G2 X-56.125 Y-55 J-3.375
G1 Y-155
G2 X-59.5 Y-158.375 I-3.375
G1 X-321.5
G2 X-324.875 Y-155 J3.375
G1 Y-55
G2 X-321.5 Y-51.625 I3.375
G0 Z23
X-324.875 Y-64.627
G1 Z10 F333.3
Y-55 Z7.421 F350
G2 X-321.5 Y-51.625 Z6 I3.375
G1 X-59.5 F850
G2 X-56.125 Y-55 J-3.375
G1 Y-155
G2 X-59.5 Y-158.375 I-3.375
G1 X-321.5
G2 X-324.875 Y-155 J3.375
G1 Y-55
G2 X-321.5 Y-51.625 I3.375
G0 Z23
X-325.125 Y-145.373
G1 Z10 F333.3
Y-155 Z7.421 F350
G2 X-328.5 Y-158.375 Z6 I-3.375
G1 X-590.5 F850
G2 X-593.875 Y-155 J3.375
G1 Y-55
G2 X-590.5 Y-51.625 I3.375
G1 X-328.5
G2 X-325.125 Y-55 J-3.375
G1 Y-155
G2 X-328.5 Y-158.375 I-3.375
G1 X-384.39 Z4.5 F350
X-590.5 F850
G2 X-593.875 Y-155 J3.375
G1 Y-55
G2 X-590.5 Y-51.625 I3.375
G1 X-328.5
G2 X-325.125 Y-55 J-3.375
G1 Y-155
G2 X-328.5 Y-158.375 I-3.375
G1 X-384.39
G0 Z23
X-324.875 Y-64.627
G1 Z8.5 F333.3
Y-55 Z5.921 F350
G2 X-321.5 Y-51.625 Z4.5 I3.375
G1 X-59.5 F850
G2 X-56.125 Y-55 J-3.375
G1 Y-155
G2 X-59.5 Y-158.375 I-3.375
G1 X-321.5
G2 X-324.875 Y-155 J3.375
G1 Y-55
G2 X-321.5 Y-51.625 I3.375
G0 Z23
X-324.875 Y-64.627
G1 Z7 F333.3
Y-55 Z4.421 F350
G2 X-321.5 Y-51.625 Z3 I3.375
G1 X-59.5 F850
G2 X-56.125 Y-55 J-3.375
G1 Y-155
G2 X-59.5 Y-158.375 I-3.375
G1 X-321.5
G2 X-324.875 Y-155 J3.375
G1 Y-55
G2 X-321.5 Y-51.625 I3.375
G0 Z23
X-325.125 Y-145.373
G1 Z7 F333.3
Y-155 Z4.421 F350
G2 X-328.5 Y-158.375 Z3 I-3.375
G1 X-590.5 F850
G2 X-593.875 Y-155 J3.375
G1 Y-55
G2 X-590.5 Y-51.625 I3.375
G1 X-328.5
G2 X-325.125 Y-55 J-3.375
G1 Y-155
G2 X-328.5 Y-158.375 I-3.375
G1 X-384.39 Z1.5 F350
X-387.85 F850
Z3
X-400.15
Z1.5 F333.3
X-518.85 F850
Z3
X-531.15
Z1.5 F333.3
X-590.5 F850
G2 X-593.875 Y-155 J3.375
G1 Y-111.15
Z3
Y-98.85
Z1.5 F333.3
Y-55 F850
G2 X-590.5 Y-51.625 I3.375
G1 X-531.15
Z3
X-518.85
Z1.5 F333.3
X-400.15 F850
Z3
X-387.85
Z1.5 F333.3
X-328.5 F850
G2 X-325.125 Y-55 J-3.375
G1 Y-98.85
Z3
Y-111.15
Z1.5 F333.3
Y-155 F850
G2 X-328.5 Y-158.375 I-3.375
G1 X-384.39
G0 Z23
X-324.875 Y-64.627
G1 Z5.5 F333.3
Y-55 Z2.921 F350
G2 X-321.5 Y-51.625 Z1.5 I3.375
G1 X-262.15 F850
Z3
X-249.85
Z1.5 F333.3
X-131.15 F850
Z3
X-118.85
Z1.5 F333.3
X-59.5 F850
G2 X-56.125 Y-55 J-3.375
G1 Y-98.85
Z3
Y-111.15
Z1.5 F333.3
Y-155 F850
G2 X-59.5 Y-158.375 I-3.375
G1 X-118.85
Z3
X-131.15
Z1.5 F333.3
X-249.85 F850
Z3
X-262.15
Z1.5 F333.3
X-321.5 F850
G2 X-324.875 Y-155 J3.375
G1 Y-111.15
Z3
Y-98.85
Z1.5 F333.3
Y-55 F850
G2 X-321.5 Y-51.625 I3.375
G0 Z23
X-324.875 Y-63.507
G1 Z4 F333.3
Y-55 Z1.721 F350
G2 X-321.5 Y-51.625 Z0.3 I3.375
G1 X-262.15 F850
Z3
X-249.85
Z0.3 F333.3
X-131.15 F850
Z3
X-118.85
Z0.3 F333.3
X-59.5 F850
G2 X-56.125 Y-55 J-3.375
G1 Y-98.85
Z3
Y-111.15
Z0.3 F333.3
Y-155 F850
G2 X-59.5 Y-158.375 I-3.375
G1 X-118.85
Z3
X-131.15
Z0.3 F333.3
X-249.85 F850
Z3
X-262.15
Z0.3 F333.3
X-321.5 F850
G2 X-324.875 Y-155 J3.375
G1 Y-111.15
Z3
Y-98.85
Z0.3 F333.3
Y-55 F850
G2 X-321.5 Y-51.625 I3.375
G0 Z23
X-325.125 Y-146.493
G1 Z4 F333.3
Y-155 Z1.721 F350
G2 X-328.5 Y-158.375 Z0.3 I-3.375
G1 X-387.85 F850
Z3
X-400.15
Z0.3 F333.3
X-518.85 F850
Z3
X-531.15
Z0.3 F333.3
X-590.5 F850
G2 X-593.875 Y-155 J3.375
G1 Y-111.15
Z3
Y-98.85
Z0.3 F333.3
Y-55 F850
G2 X-590.5 Y-51.625 I3.375
G1 X-531.15
Z3
X-518.85
Z0.3 F333.3
X-400.15 F850
Z3
X-387.85
Z0.3 F333.3
X-328.5 F850
G2 X-325.125 Y-55 J-3.375
G1 Y-98.85
Z3
Y-111.15
Z0.3 F333.3
Y-155 F850
G2 X-328.5 Y-158.375 I-3.375
G0 Z33

(2D Contour6)
S10000 M3
X-325.425 Y-57.904
Z33
Z23
G1 Z19 F333.3
Z3
Y-155 F850
G2 X-328.5 Y-158.075 I-3.075
G1 X-590.5
G2 X-593.575 Y-155 J3.075
G1 Y-55
G2 X-590.5 Y-51.925 I3.075
G1 X-328.5
G2 X-325.425 Y-55 J-3.075
G1 Y-57.904
G0 Z23
X-324.575 Y-155
G1 Z19 F333.3
Z3
Y-55 F850
G2 X-321.5 Y-51.925 I3.075
G1 X-59.5
G2 X-56.425 Y-55 J-3.075
G1 Y-155
G2 X-59.5 Y-158.075 I-3.075
G1 X-321.5
G2 X-324.575 Y-155 J3.075
G0 Z33
M30
%
