%
(1001)
(origin stock bottom)
(T1  D=6.15 CR=0 - ZMIN=0.4 - flat end mill)
G90 G94
G17
G21

(2D Contour7)
M9
T1 M6
S7000 M3
G54
G0 X-610.025 Y-287.164
Z33
Z23
G1 Z21 F333.3
Z20.5
Y-298.5 Z17.463 F350
G2 X-613.5 Y-301.975 Z16 I-3.475
G1 X-1215.5 F850
G2 X-1218.975 Y-298.5 J3.475
G1 Y-36.5
G2 X-1215.5 Y-33.025 I3.475
G1 X-613.5
G2 X-610.025 Y-36.5 J-3.475
G1 Y-298.5
G2 X-613.5 Y-301.975 I-3.475
G0 Z23
X-609.975 Y-47.836
G1 Z21 F333.3
Z20.5
Y-36.5 Z17.463 F350
G2 X-606.5 Y-33.025 Z16 I3.475
G1 X-4.5 F850
G2 X-1.025 Y-36.5 J-3.475
G1 Y-298.5
G2 X-4.5 Y-301.975 I-3.475
G1 X-606.5
G2 X-609.975 Y-298.5 J3.475
G1 Y-36.5
G2 X-606.5 Y-33.025 I3.475
G0 Z23
X-609.975 Y-47.836
G1 Z19 F333.3
Z18.5
Y-36.5 Z15.463 F350
G2 X-606.5 Y-33.025 Z14 I3.475
G1 X-4.5 F850
G2 X-1.025 Y-36.5 J-3.475
G1 Y-298.5
G2 X-4.5 Y-301.975 I-3.475
G1 X-606.5
G2 X-609.975 Y-298.5 J3.475
G1 Y-36.5
G2 X-606.5 Y-33.025 I3.475
G0 Z23
X-630.294
G1 Z19 F333.3
Z18.5
X-613.5 Z14 F350
G2 X-610.025 Y-36.5 J-3.475 F850
G1 Y-298.5
G2 X-613.5 Y-301.975 I-3.475
G1 X-1215.5
G2 X-1218.975 Y-298.5 J3.475
G1 Y-36.5
G2 X-1215.5 Y-33.025 I3.475
G1 X-613.5
G2 X-610.025 Y-36.5 Z13.938 J-3.475 F350
G1 Y-206.025 Z12
Y-298.5 F850
G2 X-613.5 Y-301.975 I-3.475
G1 X-1215.5
G2 X-1218.975 Y-298.5 J3.475
G1 Y-36.5
G2 X-1215.5 Y-33.025 I3.475
G1 X-613.5
G2 X-610.025 Y-36.5 J-3.475
G1 Y-206.025
G0 Z23
X-609.975 Y-47.836
G1 Z17 F333.3
Z16.5
Y-36.5 Z13.463 F350
G2 X-606.5 Y-33.025 Z12 I3.475
G1 X-4.5 F850
G2 X-1.025 Y-36.5 J-3.475
G1 Y-298.5
G2 X-4.5 Y-301.975 I-3.475
G1 X-606.5
G2 X-609.975 Y-298.5 J3.475
G1 Y-36.5
G2 X-606.5 Y-33.025 I3.475
G0 Z23
X-609.975 Y-47.836
G1 Z15 F333.3
Z14.5
Y-36.5 Z11.463 F350
G2 X-606.5 Y-33.025 Z10 I3.475
G1 X-4.5 F850
G2 X-1.025 Y-36.5 J-3.475
G1 Y-298.5
G2 X-4.5 Y-301.975 I-3.475
G1 X-606.5
G2 X-609.975 Y-298.5 J3.475
G1 Y-36.5
G2 X-606.5 Y-33.025 I3.475
G0 Z23
X-630.294
G1 Z15 F333.3
Z14.5
X-613.5 Z10 F350
G2 X-610.025 Y-36.5 J-3.475 F850
G1 Y-298.5
G2 X-613.5 Y-301.975 I-3.475
G1 X-1215.5
G2 X-1218.975 Y-298.5 J3.475
G1 Y-36.5
G2 X-1215.5 Y-33.025 I3.475
G1 X-613.5
G2 X-610.025 Y-36.5 Z9.938 J-3.475 F350
G1 Y-206.025 Z8
Y-298.5 F850
G2 X-613.5 Y-301.975 I-3.475
G1 X-1215.5
G2 X-1218.975 Y-298.5 J3.475
G1 Y-36.5
G2 X-1215.5 Y-33.025 I3.475
G1 X-613.5
G2 X-610.025 Y-36.5 J-3.475
G1 Y-206.025
G0 Z23
X-609.975 Y-47.836
G1 Z13 F333.3
Z12.5
Y-36.5 Z9.463 F350
G2 X-606.5 Y-33.025 Z8 I3.475
G1 X-4.5 F850
G2 X-1.025 Y-36.5 J-3.475
G1 Y-298.5
G2 X-4.5 Y-301.975 I-3.475
G1 X-606.5
G2 X-609.975 Y-298.5 J3.475
G1 Y-36.5
G2 X-606.5 Y-33.025 I3.475
G0 Z23
X-609.975 Y-47.836
G1 Z11 F333.3
Z10.5
Y-36.5 Z7.463 F350
G2 X-606.5 Y-33.025 Z6 I3.475
G1 X-4.5 F850
G2 X-1.025 Y-36.5 J-3.475
G1 Y-298.5
G2 X-4.5 Y-301.975 I-3.475
G1 X-606.5
G2 X-609.975 Y-298.5 J3.475
G1 Y-36.5
G2 X-606.5 Y-33.025 I3.475
G0 Z23
X-630.294
G1 Z11 F333.3
Z10.5
X-613.5 Z6 F350
G2 X-610.025 Y-36.5 J-3.475 F850
G1 Y-298.5
G2 X-613.5 Y-301.975 I-3.475
G1 X-1215.5
G2 X-1218.975 Y-298.5 J3.475
G1 Y-36.5
G2 X-1215.5 Y-33.025 I3.475
G1 X-613.5
G2 X-610.025 Y-36.5 Z5.938 J-3.475 F350
G1 Y-206.025 Z4
Y-298.5 F850
G2 X-613.5 Y-301.975 I-3.475
G1 X-1215.5
G2 X-1218.975 Y-298.5 J3.475
G1 Y-36.5
G2 X-1215.5 Y-33.025 I3.475
G1 X-613.5
G2 X-610.025 Y-36.5 J-3.475
G1 Y-206.025
G0 Z23
X-609.975 Y-47.836
G1 Z9 F333.3
Z8.5
Y-36.5 Z5.463 F350
G2 X-606.5 Y-33.025 Z4 I3.475
G1 X-4.5 F850
G2 X-1.025 Y-36.5 J-3.475
G1 Y-298.5
G2 X-4.5 Y-301.975 I-3.475
G1 X-606.5
G2 X-609.975 Y-298.5 J3.475
G1 Y-36.5
G2 X-606.5 Y-33.025 I3.475
G0 Z23
X-609.975 Y-47.836
G1 Z7 F333.3
Z6.5
Y-36.5 Z3.463 F350
G2 X-606.5 Y-33.025 Z2 I3.475
G1 X-562.483 F850
Z3
X-550.183
Z2 F333.3
X-462.15 F850
Z3
X-449.85
Z2 F333.3
X-361.817 F850
Z3
X-349.517
Z2 F333.3
X-261.483 F850
Z3
X-249.183
Z2 F333.3
X-161.15 F850
Z3
X-148.85
Z2 F333.3
X-60.817 F850
Z3
X-48.517
Z2 F333.3
X-4.5 F850
G2 X-1.025 Y-36.5 J-3.475
G1 Y-95.85
Z3
Y-108.15
Z2 F333.3
Y-226.85 F850
Z3
Y-239.15
Z2 F333.3
Y-298.5 F850
G2 X-4.5 Y-301.975 I-3.475
G1 X-48.517
Z3
X-60.817
Z2 F333.3
X-148.85 F850
Z3
X-161.15
Z2 F333.3
X-249.183 F850
Z3
X-261.483
Z2 F333.3
X-349.517 F850
Z3
X-361.817
Z2 F333.3
X-449.85 F850
Z3
X-462.15
Z2 F333.3
X-550.183 F850
Z3
X-562.483
Z2 F333.3
X-606.5 F850
G2 X-609.975 Y-298.5 J3.475
G1 Y-239.15
Z3
Y-226.85
Z2 F333.3
Y-108.15 F850
Z3
Y-95.85
Z2 F333.3
Y-36.5 F850
G2 X-606.5 Y-33.025 I3.475
G0 Z23
X-630.294
G1 Z7 F333.3
Z6.5
X-613.5 Z2 F350
G2 X-610.025 Y-36.5 J-3.475 F850
G1 Y-95.85
Z3
Y-108.15
Z2 F333.3
Y-226.85 F850
Z3
Y-239.15
Z2 F333.3
Y-298.5 F850
G2 X-613.5 Y-301.975 I-3.475
G1 X-657.517
Z3
X-669.817
Z2 F333.3
X-757.85 F850
Z3
X-770.15
Z2 F333.3
X-858.183 F850
Z3
X-870.483
Z2 F333.3
X-958.517 F850
Z3
X-970.817
Z2 F333.3
X-1058.85 F850
Z3
X-1071.15
Z2 F333.3
X-1159.18 F850
Z3
X-1171.48
Z2 F333.3
X-1215.5 F850
G2 X-1218.975 Y-298.5 J3.475
G1 Y-239.15
Z3
Y-226.85
Z2 F333.3
Y-108.15 F850
Z3
Y-95.85
Z2 F333.3
Y-36.5 F850
G2 X-1215.5 Y-33.025 I3.475
G1 X-1171.48
Z3
X-1159.18
Z2 F333.3
X-1071.15 F850
Z3
X-1058.85
Z2 F333.3
X-970.817 F850
Z3
X-958.517
Z2 F333.3
X-870.483 F850
Z3
X-858.183
Z2 F333.3
X-770.15 F850
Z3
X-757.85
Z2 F333.3
X-669.817 F850
Z3
X-657.517
Z2 F333.3
X-613.5 F850
G2 X-610.025 Y-36.5 Z1.938 J-3.475 F350
G1 Y-95.85 Z1.259
Z3
Y-108.15
Z1.119 F333.3
Y-171.028 Z0.4 F350
Y-226.85 F850
Z3
Y-239.15
Z0.4 F333.3
Y-298.5 F850
G2 X-613.5 Y-301.975 I-3.475
G1 X-657.517
Z3
X-669.817
Z0.4 F333.3
X-757.85 F850
Z3
X-770.15
Z0.4 F333.3
X-858.183 F850
Z3
X-870.483
Z0.4 F333.3
X-958.517 F850
Z3
X-970.817
Z0.4 F333.3
X-1058.85 F850
Z3
X-1071.15
Z0.4 F333.3
X-1159.18 F850
Z3
X-1171.48
Z0.4 F333.3
X-1215.5 F850
G2 X-1218.975 Y-298.5 J3.475
G1 Y-239.15
Z3
Y-226.85
Z0.4 F333.3
Y-108.15 F850
Z3
Y-95.85
Z0.4 F333.3
Y-36.5 F850
G2 X-1215.5 Y-33.025 I3.475
G1 X-1171.48
Z3
X-1159.18
Z0.4 F333.3
X-1071.15 F850
Z3
X-1058.85
Z0.4 F333.3
X-970.817 F850
Z3
X-958.517
Z0.4 F333.3
X-870.483 F850
Z3
X-858.183
Z0.4 F333.3
X-770.15 F850
Z3
X-757.85
Z0.4 F333.3
X-669.817 F850
Z3
X-657.517
Z0.4 F333.3
X-613.5 F850
G2 X-610.025 Y-36.5 J-3.475
G1 Y-95.85
Z3
Y-108.15
Z0.4 F333.3
Y-171.028 F850
G0 Z23
X-609.975 Y-46.343
G1 Z5 F333.3
Z4.5
Y-36.5 Z1.863 F350
G2 X-606.5 Y-33.025 Z0.4 I3.475
G1 X-562.483 F850
Z3
X-550.183
Z0.4 F333.3
X-462.15 F850
Z3
X-449.85
Z0.4 F333.3
X-361.817 F850
Z3
X-349.517
Z0.4 F333.3
X-261.483 F850
Z3
X-249.183
Z0.4 F333.3
X-161.15 F850
Z3
X-148.85
Z0.4 F333.3
X-60.817 F850
Z3
X-48.517
Z0.4 F333.3
X-4.5 F850
G2 X-1.025 Y-36.5 J-3.475
G1 Y-95.85
Z3
Y-108.15
Z0.4 F333.3
Y-226.85 F850
Z3
Y-239.15
Z0.4 F333.3
Y-298.5 F850
G2 X-4.5 Y-301.975 I-3.475
G1 X-48.517
Z3
X-60.817
Z0.4 F333.3
X-148.85 F850
Z3
X-161.15
Z0.4 F333.3
X-249.183 F850
Z3
X-261.483
Z0.4 F333.3
X-349.517 F850
Z3
X-361.817
Z0.4 F333.3
X-449.85 F850
Z3
X-462.15
Z0.4 F333.3
X-550.183 F850
Z3
X-562.483
Z0.4 F333.3
X-606.5 F850
G2 X-609.975 Y-298.5 J3.475
G1 Y-239.15
Z3
Y-226.85
Z0.4 F333.3
Y-108.15 F850
Z3
Y-95.85
Z0.4 F333.3
Y-36.5 F850
G2 X-606.5 Y-33.025 I3.475
G0 Z33

(2D Contour8)
S10000 M3
X-1215.5 Y-33.425
Z33
Z23
G1 Z19 F333.3
Z3
X-613.5 F850
G2 X-610.425 Y-36.5 J-3.075
G1 Y-298.5
G2 X-613.5 Y-301.575 I-3.075
G1 X-1215.5
G2 X-1218.575 Y-298.5 J3.075
G1 Y-36.5
G2 X-1215.5 Y-33.425 I3.075
G0 Z23
X-4.5 Y-301.575
G1 Z19 F333.3
Z3
X-606.5 F850
G2 X-609.575 Y-298.5 J3.075
G1 Y-36.5
G2 X-606.5 Y-33.425 I3.075
G1 X-4.5
G2 X-1.425 Y-36.5 J-3.075
G1 Y-298.5
G2 X-4.5 Y-301.575 I-3.075
G0 Z33
M30
%
