%
(1001)
(origin stock bottom)
(T1  D=6.15 CR=0 - ZMIN=0 - flat end mill)
G90 G94
G17
G21

(2D Contour1)
M9
T1 M6
S7000 M3
G54
M8
G0 X-248.763 Y-22.935
Z27
Z17
G1 Z15 F333.3
Z14.5
G2 X-219.476 Y-11.928 Z10 I28.763 J-32.065 F350
X-220 Y-98.075 I-0.524 J-43.072 F850
X-262.379 Y-62.712 J43.075
X-263.075 Y-55 I42.379 J7.712
X-219.476 Y-11.928 I43.075
G0 Z17
X-138.121 Y-208.075
G1 Z15 F333.3
Z14.5
X-170 Z10.02 F350
X-170.141 Y-208.072 Z10
G2 X-173.075 Y-205 I0.141 J3.072 F850
G1 Y-15
G2 X-170 Y-11.925 I3.075
G1 X-30
G2 X-26.925 Y-15 J-3.075
G1 Y-205
G2 X-30 Y-208.075 I-3.075
G1 X-170
X-170.141 Y-208.072
G2 X-173.075 Y-205 Z9.862 I0.141 J3.072 F350
G1 Y-141.758 Z8
Y-15 F850
G2 X-170 Y-11.925 I3.075
G1 X-30
G2 X-26.925 Y-15 J-3.075
G1 Y-205
G2 X-30 Y-208.075 I-3.075
G1 X-170
G2 X-173.075 Y-205 J3.075
G1 Y-141.758
G0 Z17
X-354.699 Y-17.777
G1 Z15 F333.3
Z14.5
G2 X-328.167 Y-11.925 Z10.651 I26.532 J-57.223 F350
X-323.536 Y-12.095 Z10 J-63.075
X-266.166 Y-63.406 I-4.631 J-62.905 F850
X-265.092 Y-75 I-62.001 J-11.591
X-391.242 I-63.075
X-328.167 Y-11.925 I63.075
X-323.536 Y-12.095 J-63.075
G0 Z17
X-354.699 Y-17.777
G1 Z13 F333.3
Z12.5
G2 X-328.167 Y-11.925 Z8.651 I26.532 J-57.223 F350
X-323.536 Y-12.095 Z8 J-63.075
X-266.166 Y-63.406 I-4.631 J-62.905 F850
X-265.092 Y-75 I-62.001 J-11.591
X-391.242 I-63.075
X-328.167 Y-11.925 I63.075
X-323.536 Y-12.095 J-63.075
G0 Z17
X-248.763 Y-22.935
G1 Z13 F333.3
Z12.5
G2 X-219.476 Y-11.928 Z8 I28.763 J-32.065 F350
X-220 Y-98.075 I-0.524 J-43.072 F850
X-262.379 Y-62.712 J43.075
X-263.075 Y-55 I42.379 J7.712
X-219.476 Y-11.928 I43.075
G0 Z17
X-248.763 Y-22.935
G1 Z11 F333.3
Z10.5
G2 X-219.476 Y-11.928 Z6 I28.763 J-32.065 F350
X-220 Y-98.075 I-0.524 J-43.072 F850
X-262.379 Y-62.712 J43.075
X-263.075 Y-55 I42.379 J7.712
X-219.476 Y-11.928 I43.075
G0 Z17
X-138.121 Y-208.075
G1 Z11 F333.3
Z10.5
X-170 Z6.02 F350
X-170.141 Y-208.072 Z6
G2 X-173.075 Y-205 I0.141 J3.072 F850
G1 Y-15
G2 X-170 Y-11.925 I3.075
G1 X-30
G2 X-26.925 Y-15 J-3.075
G1 Y-205
G2 X-30 Y-208.075 I-3.075
G1 X-170
X-170.141 Y-208.072
G2 X-173.075 Y-205 Z5.862 I0.141 J3.072 F350
G1 Y-141.758 Z4
Y-15 F850
G2 X-170 Y-11.925 I3.075
G1 X-30
G2 X-26.925 Y-15 J-3.075
G1 Y-205
G2 X-30 Y-208.075 I-3.075
G1 X-170
G2 X-173.075 Y-205 J3.075
G1 Y-141.758
G0 Z17
X-354.699 Y-17.777
G1 Z11 F333.3
Z10.5
G2 X-328.167 Y-11.925 Z6.651 I26.532 J-57.223 F350
X-323.536 Y-12.095 Z6 J-63.075
X-266.166 Y-63.406 I-4.631 J-62.905 F850
X-265.092 Y-75 I-62.001 J-11.591
X-391.242 I-63.075
X-328.167 Y-11.925 I63.075
X-323.536 Y-12.095 J-63.075
G0 Z17
X-354.699 Y-17.777
G1 Z9 F333.3
Z8.5
G2 X-328.167 Y-11.925 Z4.651 I26.532 J-57.223 F350
X-323.536 Y-12.095 Z4 J-63.075
X-266.166 Y-63.406 I-4.631 J-62.905 F850
X-265.092 Y-75 I-62.001 J-11.591
X-391.242 I-63.075
X-328.167 Y-11.925 I63.075
X-323.536 Y-12.095 J-63.075
G0 Z17
X-248.763 Y-22.935
G1 Z9 F333.3
Z8.5
G2 X-219.476 Y-11.928 Z4 I28.763 J-32.065 F350
X-220 Y-98.075 I-0.524 J-43.072 F850
X-262.379 Y-62.712 J43.075
X-263.075 Y-55 I42.379 J7.712
X-219.476 Y-11.928 I43.075
G0 Z17
X-248.763 Y-22.935
G1 Z7 F333.3
Z6.5
G2 X-219.476 Y-11.928 Z2 I28.763 J-32.065 F350
X-220 Y-98.075 I-0.524 J-43.072 F850
X-262.379 Y-62.712 J43.075
X-263.075 Y-55 I42.379 J7.712
X-219.476 Y-11.928 I43.075
G0 Z17
X-138.121 Y-208.075
G1 Z7 F333.3
Z6.5
X-170 Z2.02 F350
X-170.141 Y-208.072 Z2
G2 X-173.075 Y-205 I0.141 J3.072 F850
G1 Y-15
G2 X-170 Y-11.925 I3.075
G1 X-30
G2 X-26.925 Y-15 J-3.075
G1 Y-205
G2 X-30 Y-208.075 I-3.075
G1 X-170
X-170.141 Y-208.072
G2 X-173.075 Y-205 Z1.862 I0.141 J3.072 F350
G1 Y-179.483 Z1.111
Z1.538
Y-167.183
Z0.749 F333.3
Y-141.758 Z0 F350
Y-116.15 F850
Z1.538
Y-103.85
Z0 F333.3
Y-52.817 F850
Z1.538
Y-40.517
Z0 F333.3
Y-15 F850
G2 X-170 Y-11.925 I3.075
G1 X-141.15
Z1.538
X-128.85
Z0 F333.3
X-71.15 F850
Z1.538
X-58.85
Z0 F333.3
X-30 F850
G2 X-26.925 Y-15 J-3.075
G1 Y-40.517
Z1.538
Y-52.817
Z0 F333.3
Y-103.85 F850
Z1.538
Y-116.15
Z0 F333.3
Y-167.183 F850
Z1.538
Y-179.483
Z0 F333.3
Y-205 F850
G2 X-30 Y-208.075 I-3.075
G1 X-58.85
Z1.538
X-71.15
Z0 F333.3
X-128.85 F850
Z1.538
X-141.15
Z0 F333.3
X-170 F850
G2 X-173.075 Y-205 J3.075
G1 Y-179.483
Z1.538
Y-167.183
Z0 F333.3
Y-141.758 F850
G0 Z17
X-354.699 Y-17.777
G1 Z7 F333.3
Z6.5
G2 X-328.167 Y-11.925 Z2.651 I26.532 J-57.223 F350
X-323.536 Y-12.095 Z2 J-63.075
X-266.166 Y-63.406 I-4.631 J-62.905 F850
X-265.092 Y-75 I-62.001 J-11.591
X-391.242 I-63.075
X-328.167 Y-11.925 I63.075
X-323.536 Y-12.095 J-63.075
G0 Z17
X-354.699 Y-17.777
G1 Z5 F333.3
Z4.5
G2 X-328.167 Y-11.925 Z0.651 I26.532 J-57.223 F350
X-323.536 Y-12.095 Z0 J-63.075
X-293.836 Y-22.087 I-4.631 J-62.905 F850
G1 Z1.538
G2 X-284.219 Y-29.756 I-34.331 J-52.914
G1 Z0 F333.3
G2 X-266.166 Y-63.406 I-43.948 J-45.245 F850
X-265.392 Y-68.85 I-62.001 J-11.591
G1 Z1.538
G2 X-265.092 Y-75 I-62.775 J-6.147
X-265.393 Y-81.15 I-63.075
G1 Z0 F333.3
G2 X-284.219 Y-120.244 I-62.774 J6.15 F850
G1 Z1.538
G2 X-293.836 Y-127.913 I-43.948 J45.244
G1 Z0 F333.3
G2 X-336.139 Y-137.569 I-34.331 J52.913 F850
G1 Z1.538
G2 X-348.131 Y-134.832 I7.973 J62.569
G1 Z0 F333.3
G2 X-382.056 Y-107.778 I19.964 J59.832 F850
G1 Z1.538
G2 X-387.393 Y-96.696 I53.889 J32.778
G1 Z0 F333.3
G2 Y-53.304 I59.226 J21.696 F850
G1 Z1.538
G2 X-382.056 Y-42.222 I59.226 J-21.696
G1 Z0 F333.3
G2 X-348.131 Y-15.168 I53.889 J-32.778 F850
G1 Z1.538
G2 X-336.14 Y-12.431 I19.964 J-59.832
G1 Z0 F333.3
G2 X-328.167 Y-11.925 I7.973 J-62.569 F850
X-323.536 Y-12.095 J-63.075
G0 Z17
X-248.763 Y-22.935
G1 Z5 F333.3
Z4.5
G2 X-219.476 Y-11.928 Z0 I28.763 J-32.065 F350
X-212.674 Y-12.553 I-0.524 J-43.072 F850
G1 Z1.538
G2 X-200.976 Y-16.354 I-7.326 J-42.447
G1 Z0 F333.3
G2 X-177.366 Y-48.85 I-19.024 J-38.646 F850
G1 Z1.538
G2 Y-61.15 I-42.634 J-6.15
G1 Z0 F333.3
G2 X-200.976 Y-93.646 I-42.634 J6.15 F850
G1 Z1.538
G2 X-212.674 Y-97.447 I-19.024 J38.646
G1 Z0 F333.3
G2 X-220 Y-98.075 I-7.326 J42.447 F850
X-250.877 Y-85.035 J43.075
G1 Z1.538
G2 X-258.106 Y-75.084 I30.877 J30.035
G1 Z0 F333.3
G2 X-262.379 Y-62.712 I38.106 J20.084 F850
X-263.075 Y-55 I42.379 J7.712
X-258.106 Y-34.916 I43.075
G1 Z1.538
G2 X-250.877 Y-24.965 I38.106 J-20.084
G1 Z0 F333.3
G2 X-219.476 Y-11.928 I30.877 J-30.035 F850
G0 Z27
M9
M30
%
