%
(1001)
(z0 bottom)
(T1  D=6 CR=0 - ZMIN=6 - flat end mill)
G90 G94
G17
G21

(2D Contour4)
M9
T1 M6
S6500 M3
G54
M9
G0 X-431.2 Y-9.432
Z30
Z20
G1 Z18.156 F283.3
G18 G3 X-431.8 Z17.556 I-0.6
G1 X-432.4 F850
G17 G2 X-433 Y-8.832 J0.6
G1 Y-0.254 Z13.556 F283.3
G19 G3 Y0 Z13.5 J0.254 K0.544
G1 Y-145 F850
G17 G3 X-421 Y-157 I12
G1 X-401
G3 X-389 Y-145 J12
G1 Y0
Y-145 Z12.874 F283.3
G2 X-401 Y-157 Z12.793 I-12
G1 X-421 Z12.707
G2 X-433 Y-145 Z12.626 J12
G1 Y0 Z12
Y-145 F850
G3 X-421 Y-157 I12
G1 X-401
G3 X-389 Y-145 J12
G1 Y0
Y-145 Z11.374 F283.3
G2 X-401 Y-157 Z11.293 I-12
G1 X-421 Z11.207
G2 X-433 Y-145 Z11.126 J12
G1 Y0 Z10.5
Y-145 F850
G3 X-421 Y-157 I12
G1 X-401
G3 X-389 Y-145 J12
G1 Y0
Y-145 Z9.874 F283.3
G2 X-401 Y-157 Z9.793 I-12
G1 X-421 Z9.707
G2 X-433 Y-145 Z9.626 J12
G1 Y0 Z9
Y-145 F850
G3 X-421 Y-157 I12
G1 X-401
G3 X-389 Y-145 J12
G1 Y0
Y-145 Z8.374 F283.3
G2 X-401 Y-157 Z8.293 I-12
G1 X-421 Z8.207
G2 X-433 Y-145 Z8.126 J12
G1 Y0 Z7.5
Y-145 F850
G3 X-421 Y-157 I12
G1 X-401
G3 X-389 Y-145 J12
G1 Y0
Y-145 Z6.874 F283.3
G2 X-401 Y-157 Z6.793 I-12
G1 X-421 Z6.707
G2 X-433 Y-145 Z6.626 J12
G1 Y0 Z6
Y-145 F850
G3 X-421 Y-157 I12
G1 X-401
G3 X-389 Y-145 J12
G1 Y0
G3 X-389.6 Y0.6 I-0.6
G1 X-390.2
G18 G3 X-390.8 Z6.6 K0.6
G0 Z20
X-341.352 Y4.08
G1 Z18.156 F283.3
X-341.353 Y4.073 Z18.062
X-341.356 Y4.051 Z17.971
X-341.361 Y4.016 Z17.884
X-341.368 Y3.967 Z17.804
X-341.376 Y3.906 Z17.732
X-341.386 Y3.836 Z17.671
X-341.397 Y3.756 Z17.622
X-341.41 Y3.67 Z17.586
X-341.422 Y3.579 Z17.564
X-341.436 Y3.486 Z17.556
X-341.519 Y2.892 F850
G17 G2 X-342.197 Y2.382 I-0.594 J0.084
G3 X-350.746 Y2.999 Z13.556 I-8.803 J-62.382 F283.3
X-350.807 Y3 Z13.532 I-0.254 J-62.999
X-350.87 Z13.514 I-0.193 J-63
X-350.935 Z13.504 I-0.13 J-63
X-351 Z13.5 I-0.065 J-63
G2 X-288 Y-60 J-63 F850
G1 Y-220
Y-60 Z12.573 F283.3
G3 X-351 Y3 Z12 I-63
G2 X-288 Y-60 J-63 F850
G1 Y-220
Y-60 Z11.073 F283.3
G3 X-351 Y3 Z10.5 I-63
G2 X-288 Y-60 J-63 F850
G1 Y-220
Y-60 Z9.573 F283.3
G3 X-351 Y3 Z9 I-63
G2 X-288 Y-60 J-63 F850
G1 Y-220
Y-60 Z8.073 F283.3
G3 X-351 Y3 Z7.5 I-63
G2 X-288 Y-60 J-63 F850
G1 Y-220
Y-60 Z6.573 F283.3
G3 X-351 Y3 Z6 I-63
G2 X-288 Y-60 J-63 F850
G1 Y-220
G3 X-287.4 Y-220.6 I0.6
G1 X-286.8
G18 G2 X-286.2 Z6.6 K0.6
G0 Z20
X-279.8 Y-210.568
G1 Z18.156 F283.3
G2 X-279.2 Z17.556 I0.6
G1 X-278.6 F850
G17 G2 X-278 Y-211.168 J-0.6
G1 Y-219.746 Z13.556 F283.3
G19 G2 Y-220 Z13.5 J-0.254 K0.544
G1 Y-70 F850
G17 G2 X-275 Y-67 I3
G1 X-225
G2 X-222 Y-70 J-3
G1 Y-220
G3 X-221.4 Y-220.6 I0.6
G1 X-220.8
G18 G2 X-220.2 Z14.1 K0.6
G0 Z20
X-219.8 Y-210.568
G1 Z18.156 F283.3
G2 X-219.2 Z17.556 I0.6
G1 X-218.6 F850
G17 G2 X-218 Y-211.168 J-0.6
G1 Y-219.746 Z13.556 F283.3
G19 G2 Y-220 Z13.5 J-0.254 K0.544
G1 Y-70 F850
G17 G2 X-215 Y-67 I3
G1 X-195
G2 X-162 Y-100 J-33
G1 Y-120
G3 X-115 Y-167 I47
G1 X-95
G2 X-62 Y-200 J-33
G1 Y-220
Y-200 Z13.427 F283.3
G3 X-95 Y-167 Z13.239 I-33
G1 X-115 Z13.166
G2 X-162 Y-120 Z12.897 J47
G1 Y-100 Z12.824
G3 X-195 Y-67 Z12.636 I-33
G1 X-215 Z12.563
G3 X-218 Y-70 Z12.546 J-3
G1 Y-220 Z12
Y-70 F850
G2 X-215 Y-67 I3
G1 X-195
G2 X-162 Y-100 J-33
G1 Y-120
G3 X-115 Y-167 I47
G1 X-95
G2 X-62 Y-200 J-33
G1 Y-220
G3 X-61.4 Y-220.6 I0.6
G1 X-60.8
G18 G2 X-60.2 Z12.6 K0.6
G0 Z20
X-29.781 Y-223.403
G1 Z18.156 F283.3
X-29.779 Y-223.395 Z18.062
X-29.773 Y-223.374 Z17.971
X-29.764 Y-223.339 Z17.884
X-29.751 Y-223.292 Z17.804
X-29.735 Y-223.233 Z17.732
X-29.716 Y-223.164 Z17.671
X-29.695 Y-223.087 Z17.622
X-29.672 Y-223.003 Z17.586
X-29.647 Y-222.914 Z17.564
X-29.623 Y-222.824 Z17.556
X-29.464 Y-222.245 F850
G17 G2 X-28.727 Y-221.825 I0.579 J-0.159
G3 X-20.254 Y-222.999 Z13.556 I8.727 J31.825 F283.3
X-20.193 Z13.532 I0.254 J32.999
X-20.13 Y-223 Z13.514 I0.193 J32.999
X-20.065 Z13.504 I0.13 J33
X-20 Z13.5 I0.065 J33
G2 X-53 Y-190 J33 F850
G1 Y-170
G3 X-100 Y-123 I-47
G1 X-120
G2 X-153 Y-90 J33
G1 Y-70
G2 X-150 Y-67 I3
G1 X0
G3 X0.6 Y-66.4 J0.6
G1 Y-65.8
G19 G3 Y-65.2 Z14.1 K0.6
G0 Z20
X-9.432 Y-64.8
G1 Z18.156 F283.3
G3 Y-64.2 Z17.556 J0.6
G1 Y-63.6 F850
G17 G2 X-8.832 Y-63 I0.6
G1 X-0.254 Z13.556 F283.3
G18 G2 X0 Z13.5 I0.254 K0.544
G1 X-150 F850
G17 G2 X-153 Y-60 J3
G1 Y-10
G2 X-150 Y-7 I3
G1 X0
X-150 Z12.874 F283.3
G3 X-153 Y-10 Z12.854 J-3
G1 Y-60 Z12.646
G3 X-150 Y-63 Z12.626 I3
G1 X0 Z12
X-150 F850
G2 X-153 Y-60 J3
G1 Y-10
G2 X-150 Y-7 I3
G1 X0
G3 X0.6 Y-6.4 J0.6
G1 Y-5.8
G19 G3 Y-5.2 Z12.6 K0.6
G0 Z20
X-29.781 Y-223.403
G1 Z16.656 F283.3
X-29.779 Y-223.395 Z16.562
X-29.773 Y-223.374 Z16.471
X-29.764 Y-223.339 Z16.384
X-29.751 Y-223.292 Z16.304
X-29.735 Y-223.233 Z16.232
X-29.716 Y-223.164 Z16.171
X-29.695 Y-223.087 Z16.122
X-29.672 Y-223.003 Z16.086
X-29.647 Y-222.914 Z16.064
X-29.623 Y-222.824 Z16.056
X-29.464 Y-222.245 F850
G17 G2 X-28.727 Y-221.825 I0.579 J-0.159
G3 X-20.254 Y-222.999 Z12.056 I8.727 J31.825 F283.3
X-20.193 Z12.032 I0.254 J32.999
X-20.13 Y-223 Z12.014 I0.193 J32.999
X-20.065 Z12.004 I0.13 J33
X-20 Z12 I0.065 J33
G2 X-53 Y-190 J33 F850
G1 Y-170
G3 X-100 Y-123 I-47
G1 X-120
G2 X-153 Y-90 J33
G1 Y-70
G2 X-150 Y-67 I3
G1 X0
G3 X0.6 Y-66.4 J0.6
G1 Y-65.8
G19 G3 Y-65.2 Z12.6 K0.6
G0 Z20
X-9.432 Y-64.8
G1 Z15.156 F283.3
G3 Y-64.2 Z14.556 J0.6
G1 Y-63.6 F850
G17 G2 X-8.832 Y-63 I0.6
G1 X-0.254 Z10.556 F283.3
G18 G2 X0 Z10.5 I0.254 K0.544
G1 X-150 F850
G17 G2 X-153 Y-60 J3
G1 Y-10
G2 X-150 Y-7 I3
G1 X0
G3 X0.6 Y-6.4 J0.6
G1 Y-5.8
G19 G3 Y-5.2 Z11.1 K0.6
G0 Z20
X-29.781 Y-223.403
G1 Z15.156 F283.3
X-29.779 Y-223.395 Z15.062
X-29.773 Y-223.374 Z14.971
X-29.764 Y-223.339 Z14.884
X-29.751 Y-223.292 Z14.804
X-29.735 Y-223.233 Z14.732
X-29.716 Y-223.164 Z14.671
X-29.695 Y-223.087 Z14.622
X-29.672 Y-223.003 Z14.586
X-29.647 Y-222.914 Z14.564
X-29.623 Y-222.824 Z14.556
X-29.464 Y-222.245 F850
G17 G2 X-28.727 Y-221.825 I0.579 J-0.159
G3 X-20.254 Y-222.999 Z10.556 I8.727 J31.825 F283.3
X-20.193 Z10.532 I0.254 J32.999
X-20.13 Y-223 Z10.514 I0.193 J32.999
X-20.065 Z10.504 I0.13 J33
X-20 Z10.5 I0.065 J33
G2 X-53 Y-190 J33 F850
G1 Y-170
G3 X-100 Y-123 I-47
G1 X-120
G2 X-153 Y-90 J33
G1 Y-70
G2 X-150 Y-67 I3
G1 X0
G3 X0.6 Y-66.4 J0.6
G1 Y-65.8
G19 G3 Y-65.2 Z11.1 K0.6
G0 Z20
X-9.432 Y-64.8
G1 Z13.656 F283.3
G3 Y-64.2 Z13.056 J0.6
G1 Y-63.6 F850
G17 G2 X-8.832 Y-63 I0.6
G1 X-0.254 Z9.056 F283.3
G18 G2 X0 Z9 I0.254 K0.544
G1 X-150 F850
G17 G2 X-153 Y-60 J3
G1 Y-10
G2 X-150 Y-7 I3
G1 X0
G3 X0.6 Y-6.4 J0.6
G1 Y-5.8
G19 G3 Y-5.2 Z9.6 K0.6
G0 Z20
X-29.781 Y-223.403
G1 Z13.656 F283.3
X-29.779 Y-223.395 Z13.562
X-29.773 Y-223.374 Z13.471
X-29.764 Y-223.339 Z13.384
X-29.751 Y-223.292 Z13.304
X-29.735 Y-223.233 Z13.232
X-29.716 Y-223.164 Z13.171
X-29.695 Y-223.087 Z13.122
X-29.672 Y-223.003 Z13.086
X-29.647 Y-222.914 Z13.064
X-29.623 Y-222.824 Z13.056
X-29.464 Y-222.245 F850
G17 G2 X-28.727 Y-221.825 I0.579 J-0.159
G3 X-20.254 Y-222.999 Z9.056 I8.727 J31.825 F283.3
X-20.193 Z9.032 I0.254 J32.999
X-20.13 Y-223 Z9.014 I0.193 J32.999
X-20.065 Z9.004 I0.13 J33
X-20 Z9 I0.065 J33
G2 X-53 Y-190 J33 F850
G1 Y-170
G3 X-100 Y-123 I-47
G1 X-120
G2 X-153 Y-90 J33
G1 Y-70
G2 X-150 Y-67 I3
G1 X0
G3 X0.6 Y-66.4 J0.6
G1 Y-65.8
G19 G3 Y-65.2 Z9.6 K0.6
G0 Z20
X-9.432 Y-64.8
G1 Z12.156 F283.3
G3 Y-64.2 Z11.556 J0.6
G1 Y-63.6 F850
G17 G2 X-8.832 Y-63 I0.6
G1 X-0.254 Z7.556 F283.3
G18 G2 X0 Z7.5 I0.254 K0.544
G1 X-150 F850
G17 G2 X-153 Y-60 J3
G1 Y-10
G2 X-150 Y-7 I3
G1 X0
G3 X0.6 Y-6.4 J0.6
G1 Y-5.8
G19 G3 Y-5.2 Z8.1 K0.6
G0 Z20
X-29.781 Y-223.403
G1 Z12.156 F283.3
X-29.779 Y-223.395 Z12.062
X-29.773 Y-223.374 Z11.971
X-29.764 Y-223.339 Z11.884
X-29.751 Y-223.292 Z11.804
X-29.735 Y-223.233 Z11.732
X-29.716 Y-223.164 Z11.671
X-29.695 Y-223.087 Z11.622
X-29.672 Y-223.003 Z11.586
X-29.647 Y-222.914 Z11.564
X-29.623 Y-222.824 Z11.556
X-29.464 Y-222.245 F850
G17 G2 X-28.727 Y-221.825 I0.579 J-0.159
G3 X-20.254 Y-222.999 Z7.556 I8.727 J31.825 F283.3
X-20.193 Z7.532 I0.254 J32.999
X-20.13 Y-223 Z7.514 I0.193 J32.999
X-20.065 Z7.504 I0.13 J33
X-20 Z7.5 I0.065 J33
G2 X-53 Y-190 J33 F850
G1 Y-170
G3 X-100 Y-123 I-47
G1 X-120
G2 X-153 Y-90 J33
G1 Y-70
G2 X-150 Y-67 I3
G1 X0
G3 X0.6 Y-66.4 J0.6
G1 Y-65.8
G19 G3 Y-65.2 Z8.1 K0.6
G0 Z20
X-9.432 Y-64.8
G1 Z10.656 F283.3
G3 Y-64.2 Z10.056 J0.6
G1 Y-63.6 F850
G17 G2 X-8.832 Y-63 I0.6
G1 X-0.254 Z6.056 F283.3
G18 G2 X0 Z6 I0.254 K0.544
G1 X-150 F850
G17 G2 X-153 Y-60 J3
G1 Y-10
G2 X-150 Y-7 I3
G1 X0
G3 X0.6 Y-6.4 J0.6
G1 Y-5.8
G19 G3 Y-5.2 Z6.6 K0.6
G0 Z20
X-29.781 Y-223.403
G1 Z10.656 F283.3
X-29.779 Y-223.395 Z10.562
X-29.773 Y-223.374 Z10.471
X-29.764 Y-223.339 Z10.384
X-29.751 Y-223.292 Z10.304
X-29.735 Y-223.233 Z10.232
X-29.716 Y-223.164 Z10.171
X-29.695 Y-223.087 Z10.122
X-29.672 Y-223.003 Z10.086
X-29.647 Y-222.914 Z10.064
X-29.623 Y-222.824 Z10.056
X-29.464 Y-222.245 F850
G17 G2 X-28.727 Y-221.825 I0.579 J-0.159
G3 X-20.254 Y-222.999 Z6.056 I8.727 J31.825 F283.3
X-20.193 Z6.032 I0.254 J32.999
X-20.13 Y-223 Z6.014 I0.193 J32.999
X-20.065 Z6.004 I0.13 J33
X-20 Z6 I0.065 J33
G2 X-53 Y-190 J33 F850
G1 Y-170
G3 X-100 Y-123 I-47
G1 X-120
G2 X-153 Y-90 J33
G1 Y-70
G2 X-150 Y-67 I3
G1 X0
G3 X0.6 Y-66.4 J0.6
G1 Y-65.8
G19 G3 Y-65.2 Z6.6 K0.6
G0 Z20
X-279.8 Y-210.568
G1 Z16.656 F283.3
G18 G2 X-279.2 Z16.056 I0.6
G1 X-278.6 F850
G17 G2 X-278 Y-211.168 J-0.6
G1 Y-219.746 Z12.056 F283.3
G19 G2 Y-220 Z12 J-0.254 K0.544
G1 Y-70 F850
G17 G2 X-275 Y-67 I3
G1 X-225
G2 X-222 Y-70 J-3
G1 Y-220
G3 X-221.4 Y-220.6 I0.6
G1 X-220.8
G18 G2 X-220.2 Z12.6 K0.6
G0 Z20
X-219.8 Y-210.568
G1 Z15.156 F283.3
G2 X-219.2 Z14.556 I0.6
G1 X-218.6 F850
G17 G2 X-218 Y-211.168 J-0.6
G1 Y-219.746 Z10.556 F283.3
G19 G2 Y-220 Z10.5 J-0.254 K0.544
G1 Y-70 F850
G17 G2 X-215 Y-67 I3
G1 X-195
G2 X-162 Y-100 J-33
G1 Y-120
G3 X-115 Y-167 I47
G1 X-95
G2 X-62 Y-200 J-33
G1 Y-220
G3 X-61.4 Y-220.6 I0.6
G1 X-60.8
G18 G2 X-60.2 Z11.1 K0.6
G0 Z20
X-279.8 Y-210.568
G1 Z15.156 F283.3
G2 X-279.2 Z14.556 I0.6
G1 X-278.6 F850
G17 G2 X-278 Y-211.168 J-0.6
G1 Y-219.746 Z10.556 F283.3
G19 G2 Y-220 Z10.5 J-0.254 K0.544
G1 Y-70 F850
G17 G2 X-275 Y-67 I3
G1 X-225
G2 X-222 Y-70 J-3
G1 Y-220
G3 X-221.4 Y-220.6 I0.6
G1 X-220.8
G18 G2 X-220.2 Z11.1 K0.6
G0 Z20
X-219.8 Y-210.568
G1 Z13.656 F283.3
G2 X-219.2 Z13.056 I0.6
G1 X-218.6 F850
G17 G2 X-218 Y-211.168 J-0.6
G1 Y-219.746 Z9.056 F283.3
G19 G2 Y-220 Z9 J-0.254 K0.544
G1 Y-70 F850
G17 G2 X-215 Y-67 I3
G1 X-195
G2 X-162 Y-100 J-33
G1 Y-120
G3 X-115 Y-167 I47
G1 X-95
G2 X-62 Y-200 J-33
G1 Y-220
G3 X-61.4 Y-220.6 I0.6
G1 X-60.8
G18 G2 X-60.2 Z9.6 K0.6
G0 Z20
X-279.8 Y-210.568
G1 Z13.656 F283.3
G2 X-279.2 Z13.056 I0.6
G1 X-278.6 F850
G17 G2 X-278 Y-211.168 J-0.6
G1 Y-219.746 Z9.056 F283.3
G19 G2 Y-220 Z9 J-0.254 K0.544
G1 Y-70 F850
G17 G2 X-275 Y-67 I3
G1 X-225
G2 X-222 Y-70 J-3
G1 Y-220
G3 X-221.4 Y-220.6 I0.6
G1 X-220.8
G18 G2 X-220.2 Z9.6 K0.6
G0 Z20
X-219.8 Y-210.568
G1 Z12.156 F283.3
G2 X-219.2 Z11.556 I0.6
G1 X-218.6 F850
G17 G2 X-218 Y-211.168 J-0.6
G1 Y-219.746 Z7.556 F283.3
G19 G2 Y-220 Z7.5 J-0.254 K0.544
G1 Y-70 F850
G17 G2 X-215 Y-67 I3
G1 X-195
G2 X-162 Y-100 J-33
G1 Y-120
G3 X-115 Y-167 I47
G1 X-95
G2 X-62 Y-200 J-33
G1 Y-220
G3 X-61.4 Y-220.6 I0.6
G1 X-60.8
G18 G2 X-60.2 Z8.1 K0.6
G0 Z20
X-279.8 Y-210.568
G1 Z12.156 F283.3
G2 X-279.2 Z11.556 I0.6
G1 X-278.6 F850
G17 G2 X-278 Y-211.168 J-0.6
G1 Y-219.746 Z7.556 F283.3
G19 G2 Y-220 Z7.5 J-0.254 K0.544
G1 Y-70 F850
G17 G2 X-275 Y-67 I3
G1 X-225
G2 X-222 Y-70 J-3
G1 Y-220
G3 X-221.4 Y-220.6 I0.6
G1 X-220.8
G18 G2 X-220.2 Z8.1 K0.6
G0 Z20
X-219.8 Y-210.568
G1 Z10.656 F283.3
G2 X-219.2 Z10.056 I0.6
G1 X-218.6 F850
G17 G2 X-218 Y-211.168 J-0.6
G1 Y-219.746 Z6.056 F283.3
G19 G2 Y-220 Z6 J-0.254 K0.544
G1 Y-70 F850
G17 G2 X-215 Y-67 I3
G1 X-195
G2 X-162 Y-100 J-33
G1 Y-120
G3 X-115 Y-167 I47
G1 X-95
G2 X-62 Y-200 J-33
G1 Y-220
G3 X-61.4 Y-220.6 I0.6
G1 X-60.8
G18 G2 X-60.2 Z6.6 K0.6
G0 Z20
X-279.8 Y-210.568
G1 Z10.656 F283.3
G2 X-279.2 Z10.056 I0.6
G1 X-278.6 F850
G17 G2 X-278 Y-211.168 J-0.6
G1 Y-219.746 Z6.056 F283.3
G19 G2 Y-220 Z6 J-0.254 K0.544
G1 Y-70 F850
G17 G2 X-275 Y-67 I3
G1 X-225
G2 X-222 Y-70 J-3
G1 Y-220
G3 X-221.4 Y-220.6 I0.6
G1 X-220.8
G18 G2 X-220.2 Z6.6 K0.6
G0 Z20
X-551.2 Y-9.432
G1 Z18.156 F283.3
G3 X-551.8 Z17.556 I-0.6
G1 X-552.4 F850
G17 G2 X-553 Y-8.832 J0.6
G1 Y-0.254 Z13.556 F283.3
G19 G3 Y0 Z13.5 J0.254 K0.544
G1 Y-145 F850
G17 G3 X-541 Y-157 I12
G1 X-521
G3 X-509 Y-145 J12
G1 Y0
Y-145 Z12.874 F283.3
G2 X-521 Y-157 Z12.793 I-12
G1 X-541 Z12.707
G2 X-553 Y-145 Z12.626 J12
G1 Y0 Z12
Y-145 F850
G3 X-541 Y-157 I12
G1 X-521
G3 X-509 Y-145 J12
G1 Y0
Y-145 Z11.374 F283.3
G2 X-521 Y-157 Z11.293 I-12
G1 X-541 Z11.207
G2 X-553 Y-145 Z11.126 J12
G1 Y0 Z10.5
Y-145 F850
G3 X-541 Y-157 I12
G1 X-521
G3 X-509 Y-145 J12
G1 Y0
Y-145 Z9.874 F283.3
G2 X-521 Y-157 Z9.793 I-12
G1 X-541 Z9.707
G2 X-553 Y-145 Z9.626 J12
G1 Y0 Z9
Y-145 F850
G3 X-541 Y-157 I12
G1 X-521
G3 X-509 Y-145 J12
G1 Y0
Y-145 Z8.374 F283.3
G2 X-521 Y-157 Z8.293 I-12
G1 X-541 Z8.207
G2 X-553 Y-145 Z8.126 J12
G1 Y0 Z7.5
Y-145 F850
G3 X-541 Y-157 I12
G1 X-521
G3 X-509 Y-145 J12
G1 Y0
Y-145 Z6.874 F283.3
G2 X-521 Y-157 Z6.793 I-12
G1 X-541 Z6.707
G2 X-553 Y-145 Z6.626 J12
G1 Y0 Z6
Y-145 F850
G3 X-541 Y-157 I12
G1 X-521
G3 X-509 Y-145 J12
G1 Y0
G3 X-509.6 Y0.6 I-0.6
G1 X-510.2
G18 G3 X-510.8 Z6.6 K0.6
G0 Z20
X-671.2 Y-9.432
G1 Z18.156 F283.3
G3 X-671.8 Z17.556 I-0.6
G1 X-672.4 F850
G17 G2 X-673 Y-8.832 J0.6
G1 Y-0.254 Z13.556 F283.3
G19 G3 Y0 Z13.5 J0.254 K0.544
G1 Y-145 F850
G17 G3 X-661 Y-157 I12
G1 X-641
G3 X-629 Y-145 J12
G1 Y0
Y-145 Z12.874 F283.3
G2 X-641 Y-157 Z12.793 I-12
G1 X-661 Z12.707
G2 X-673 Y-145 Z12.626 J12
G1 Y0 Z12
Y-145 F850
G3 X-661 Y-157 I12
G1 X-641
G3 X-629 Y-145 J12
G1 Y0
Y-145 Z11.374 F283.3
G2 X-641 Y-157 Z11.293 I-12
G1 X-661 Z11.207
G2 X-673 Y-145 Z11.126 J12
G1 Y0 Z10.5
Y-145 F850
G3 X-661 Y-157 I12
G1 X-641
G3 X-629 Y-145 J12
G1 Y0
Y-145 Z9.874 F283.3
G2 X-641 Y-157 Z9.793 I-12
G1 X-661 Z9.707
G2 X-673 Y-145 Z9.626 J12
G1 Y0 Z9
Y-145 F850
G3 X-661 Y-157 I12
G1 X-641
G3 X-629 Y-145 J12
G1 Y0
Y-145 Z8.374 F283.3
G2 X-641 Y-157 Z8.293 I-12
G1 X-661 Z8.207
G2 X-673 Y-145 Z8.126 J12
G1 Y0 Z7.5
Y-145 F850
G3 X-661 Y-157 I12
G1 X-641
G3 X-629 Y-145 J12
G1 Y0
Y-145 Z6.874 F283.3
G2 X-641 Y-157 Z6.793 I-12
G1 X-661 Z6.707
G2 X-673 Y-145 Z6.626 J12
G1 Y0 Z6
Y-145 F850
G3 X-661 Y-157 I12
G1 X-641
G3 X-629 Y-145 J12
G1 Y0
G3 X-629.6 Y0.6 I-0.6
G1 X-630.2
G18 G3 X-630.8 Z6.6 K0.6
G0 Z20
X-791.2 Y-9.432
G1 Z18.156 F283.3
G3 X-791.8 Z17.556 I-0.6
G1 X-792.4 F850
G17 G2 X-793 Y-8.832 J0.6
G1 Y-0.254 Z13.556 F283.3
G19 G3 Y0 Z13.5 J0.254 K0.544
G1 Y-145 F850
G17 G3 X-781 Y-157 I12
G1 X-761
G3 X-749 Y-145 J12
G1 Y0
Y-145 Z12.874 F283.3
G2 X-761 Y-157 Z12.793 I-12
G1 X-781 Z12.707
G2 X-793 Y-145 Z12.626 J12
G1 Y0 Z12
Y-145 F850
G3 X-781 Y-157 I12
G1 X-761
G3 X-749 Y-145 J12
G1 Y0
Y-145 Z11.374 F283.3
G2 X-761 Y-157 Z11.293 I-12
G1 X-781 Z11.207
G2 X-793 Y-145 Z11.126 J12
G1 Y0 Z10.5
Y-145 F850
G3 X-781 Y-157 I12
G1 X-761
G3 X-749 Y-145 J12
G1 Y0
Y-145 Z9.874 F283.3
G2 X-761 Y-157 Z9.793 I-12
G1 X-781 Z9.707
G2 X-793 Y-145 Z9.626 J12
G1 Y0 Z9
Y-145 F850
G3 X-781 Y-157 I12
G1 X-761
G3 X-749 Y-145 J12
G1 Y0
Y-145 Z8.374 F283.3
G2 X-761 Y-157 Z8.293 I-12
G1 X-781 Z8.207
G2 X-793 Y-145 Z8.126 J12
G1 Y0 Z7.5
Y-145 F850
G3 X-781 Y-157 I12
G1 X-761
G3 X-749 Y-145 J12
G1 Y0
Y-145 Z6.874 F283.3
G2 X-761 Y-157 Z6.793 I-12
G1 X-781 Z6.707
G2 X-793 Y-145 Z6.626 J12
G1 Y0 Z6
Y-145 F850
G3 X-781 Y-157 I12
G1 X-761
G3 X-749 Y-145 J12
G1 Y0
G3 X-749.6 Y0.6 I-0.6
G1 X-750.2
G18 G3 X-750.8 Z6.6 K0.6
G0 Z20
X-895.081 Y-50.352
G1 Z18.156 F283.3
X-895.073 Y-50.353 Z18.062
X-895.051 Y-50.356 Z17.971
X-895.016 Y-50.361 Z17.884
X-894.967 Y-50.368 Z17.804
X-894.906 Y-50.376 Z17.732
X-894.836 Y-50.386 Z17.671
X-894.756 Y-50.397 Z17.622
X-894.67 Y-50.41 Z17.586
X-894.579 Y-50.422 Z17.564
X-894.486 Y-50.436 Z17.556
X-893.892 Y-50.519 F850
G17 G2 X-893.382 Y-51.197 I-0.084 J-0.594
G3 X-894 Y-59.746 Z13.556 I62.382 J-8.803 F283.3
Y-59.807 Z13.532 I63 J-0.254
Y-59.87 Z13.514 I63 J-0.193
Y-59.935 Z13.504 I63 J-0.13
Y-60 Z13.5 I63 J-0.065
G2 X-831 Y3 I63 F850
G3 X-894 Y-60 Z12 J-63 F283.3
G2 X-831 Y3 I63 F850
G3 X-894 Y-60 Z10.5 J-63 F283.3
G2 X-831 Y3 I63 F850
G3 X-894 Y-60 Z9 J-63 F283.3
G2 X-831 Y3 I63 F850
G3 X-894 Y-60 Z7.5 J-63 F283.3
G2 X-831 Y3 I63 F850
G3 X-894 Y-60 Z6 J-63 F283.3
G2 X-831 Y3 I63 F850
G3 X-830.4 Y3.6 J0.6
G1 Y4.2
G19 G3 Y4.8 Z6.6 K0.6
G0 Z30
G17
M9
M30
%
