%
(1001)
(z0 bottom)
(T1  D=6 CR=0 - ZMIN=6 - flat end mill)
G90 G94
G17
G21

(2D Contour4)
M9
T1 M6
S6500 M3
G54
M9
G0 X431.2 Y9.432
Z30
Z20
G1 Z18.156 F283.3
G18 G2 X431.8 Z17.556 I0.6
G1 X432.4 F850
G17 G2 X433 Y8.832 J-0.6
G1 Y0.254 Z13.556 F283.3
G19 G2 Y0 Z13.5 J-0.254 K0.544
G1 Y145 F850
G17 G3 X421 Y157 I-12
G1 X401
G3 X389 Y145 J-12
G1 Y0
Y145 Z12.874 F283.3
G2 X401 Y157 Z12.793 I12
G1 X421 Z12.707
G2 X433 Y145 Z12.626 J-12
G1 Y0 Z12
Y145 F850
G3 X421 Y157 I-12
G1 X401
G3 X389 Y145 J-12
G1 Y0
Y145 Z11.374 F283.3
G2 X401 Y157 Z11.293 I12
G1 X421 Z11.207
G2 X433 Y145 Z11.126 J-12
G1 Y0 Z10.5
Y145 F850
G3 X421 Y157 I-12
G1 X401
G3 X389 Y145 J-12
G1 Y0
Y145 Z9.874 F283.3
G2 X401 Y157 Z9.793 I12
G1 X421 Z9.707
G2 X433 Y145 Z9.626 J-12
G1 Y0 Z9
Y145 F850
G3 X421 Y157 I-12
G1 X401
G3 X389 Y145 J-12
G1 Y0
Y145 Z8.374 F283.3
G2 X401 Y157 Z8.293 I12
G1 X421 Z8.207
G2 X433 Y145 Z8.126 J-12
G1 Y0 Z7.5
Y145 F850
G3 X421 Y157 I-12
G1 X401
G3 X389 Y145 J-12
G1 Y0
Y145 Z6.874 F283.3
G2 X401 Y157 Z6.793 I12
G1 X421 Z6.707
G2 X433 Y145 Z6.626 J-12
G1 Y0 Z6
Y145 F850
G3 X421 Y157 I-12
G1 X401
G3 X389 Y145 J-12
G1 Y0
G3 X389.6 Y-0.6 I0.6
G1 X390.2
G18 G2 X390.8 Z6.6 K0.6
G0 Z20
X341.352 Y-4.08
G1 Z18.156 F283.3
X341.353 Y-4.073 Z18.062
X341.356 Y-4.051 Z17.971
X341.361 Y-4.016 Z17.884
X341.368 Y-3.967 Z17.804
X341.376 Y-3.906 Z17.732
X341.386 Y-3.836 Z17.671
X341.397 Y-3.756 Z17.622
X341.41 Y-3.67 Z17.586
X341.422 Y-3.579 Z17.564
X341.436 Y-3.486 Z17.556
X341.519 Y-2.892 F850
G17 G2 X342.197 Y-2.382 I0.594 J-0.084
G3 X350.746 Y-2.999 Z13.556 I8.803 J62.382 F283.3
X350.807 Y-3 Z13.532 I0.254 J62.999
X350.87 Z13.514 I0.193 J63
X350.935 Z13.504 I0.13 J63
X351 Z13.5 I0.065 J63
G2 X288 Y60 J63 F850
G1 Y220
Y60 Z12.573 F283.3
G3 X351 Y-3 Z12 I63
G2 X288 Y60 J63 F850
G1 Y220
Y60 Z11.073 F283.3
G3 X351 Y-3 Z10.5 I63
G2 X288 Y60 J63 F850
G1 Y220
Y60 Z9.573 F283.3
G3 X351 Y-3 Z9 I63
G2 X288 Y60 J63 F850
G1 Y220
Y60 Z8.073 F283.3
G3 X351 Y-3 Z7.5 I63
G2 X288 Y60 J63 F850
G1 Y220
Y60 Z6.573 F283.3
G3 X351 Y-3 Z6 I63
G2 X288 Y60 J63 F850
G1 Y220
G3 X287.4 Y220.6 I-0.6
G1 X286.8
G18 G3 X286.2 Z6.6 K0.6
G0 Z20
X279.8 Y210.568
G1 Z18.156 F283.3
G3 X279.2 Z17.556 I-0.6
G1 X278.6 F850
G17 G2 X278 Y211.168 J0.6
G1 Y219.746 Z13.556 F283.3
G19 G3 Y220 Z13.5 J0.254 K0.544
G1 Y70 F850
G17 G2 X275 Y67 I-3
G1 X225
G2 X222 Y70 J3
G1 Y220
G3 X221.4 Y220.6 I-0.6
G1 X220.8
G18 G3 X220.2 Z14.1 K0.6
G0 Z20
X219.8 Y210.568
G1 Z18.156 F283.3
G3 X219.2 Z17.556 I-0.6
G1 X218.6 F850
G17 G2 X218 Y211.168 J0.6
G1 Y219.746 Z13.556 F283.3
G19 G3 Y220 Z13.5 J0.254 K0.544
G1 Y70 F850
G17 G2 X215 Y67 I-3
G1 X195
G2 X162 Y100 J33
G1 Y120
G3 X115 Y167 I-47
G1 X95
G2 X62 Y200 J33
G1 Y220
Y200 Z13.427 F283.3
G3 X95 Y167 Z13.239 I33
G1 X115 Z13.166
G2 X162 Y120 Z12.897 J-47
G1 Y100 Z12.824
G3 X195 Y67 Z12.636 I33
G1 X215 Z12.563
G3 X218 Y70 Z12.546 J3
G1 Y220 Z12
Y70 F850
G2 X215 Y67 I-3
G1 X195
G2 X162 Y100 J33
G1 Y120
G3 X115 Y167 I-47
G1 X95
G2 X62 Y200 J33
G1 Y220
G3 X61.4 Y220.6 I-0.6
G1 X60.8
G18 G3 X60.2 Z12.6 K0.6
G0 Z20
X29.781 Y223.403
G1 Z18.156 F283.3
X29.779 Y223.395 Z18.062
X29.773 Y223.374 Z17.971
X29.764 Y223.339 Z17.884
X29.751 Y223.292 Z17.804
X29.735 Y223.233 Z17.732
X29.716 Y223.164 Z17.671
X29.695 Y223.087 Z17.622
X29.672 Y223.003 Z17.586
X29.647 Y222.914 Z17.564
X29.623 Y222.824 Z17.556
X29.464 Y222.245 F850
G17 G2 X28.727 Y221.825 I-0.579 J0.159
G3 X20.254 Y222.999 Z13.556 I-8.727 J-31.825 F283.3
X20.193 Z13.532 I-0.254 J-32.999
X20.13 Y223 Z13.514 I-0.193 J-32.999
X20.065 Z13.504 I-0.13 J-33
X20 Z13.5 I-0.065 J-33
G2 X53 Y190 J-33 F850
G1 Y170
G3 X100 Y123 I47
G1 X120
G2 X153 Y90 J-33
G1 Y70
G2 X150 Y67 I-3
G1 X0
G3 X-0.6 Y66.4 J-0.6
G1 Y65.8
G19 G2 Y65.2 Z14.1 K0.6
G0 Z20
X9.432 Y64.8
G1 Z18.156 F283.3
G2 Y64.2 Z17.556 J-0.6
G1 Y63.6 F850
G17 G2 X8.832 Y63 I-0.6
G1 X0.254 Z13.556 F283.3
G18 G3 X0 Z13.5 I-0.254 K0.544
G1 X150 F850
G17 G2 X153 Y60 J-3
G1 Y10
G2 X150 Y7 I-3
G1 X0
X150 Z12.874 F283.3
G3 X153 Y10 Z12.854 J3
G1 Y60 Z12.646
G3 X150 Y63 Z12.626 I-3
G1 X0 Z12
X150 F850
G2 X153 Y60 J-3
G1 Y10
G2 X150 Y7 I-3
G1 X0
G3 X-0.6 Y6.4 J-0.6
G1 Y5.8
G19 G2 Y5.2 Z12.6 K0.6
G0 Z20
X29.781 Y223.403
G1 Z16.656 F283.3
X29.779 Y223.395 Z16.562
X29.773 Y223.374 Z16.471
X29.764 Y223.339 Z16.384
X29.751 Y223.292 Z16.304
X29.735 Y223.233 Z16.232
X29.716 Y223.164 Z16.171
X29.695 Y223.087 Z16.122
X29.672 Y223.003 Z16.086
X29.647 Y222.914 Z16.064
X29.623 Y222.824 Z16.056
X29.464 Y222.245 F850
G17 G2 X28.727 Y221.825 I-0.579 J0.159
G3 X20.254 Y222.999 Z12.056 I-8.727 J-31.825 F283.3
X20.193 Z12.032 I-0.254 J-32.999
X20.13 Y223 Z12.014 I-0.193 J-32.999
X20.065 Z12.004 I-0.13 J-33
X20 Z12 I-0.065 J-33
G2 X53 Y190 J-33 F850
G1 Y170
G3 X100 Y123 I47
G1 X120
G2 X153 Y90 J-33
G1 Y70
G2 X150 Y67 I-3
G1 X0
G3 X-0.6 Y66.4 J-0.6
G1 Y65.8
G19 G2 Y65.2 Z12.6 K0.6
G0 Z20
X9.432 Y64.8
G1 Z15.156 F283.3
G2 Y64.2 Z14.556 J-0.6
G1 Y63.6 F850
G17 G2 X8.832 Y63 I-0.6
G1 X0.254 Z10.556 F283.3
G18 G3 X0 Z10.5 I-0.254 K0.544
G1 X150 F850
G17 G2 X153 Y60 J-3
G1 Y10
G2 X150 Y7 I-3
G1 X0
G3 X-0.6 Y6.4 J-0.6
G1 Y5.8
G19 G2 Y5.2 Z11.1 K0.6
G0 Z20
X29.781 Y223.403
G1 Z15.156 F283.3
X29.779 Y223.395 Z15.062
X29.773 Y223.374 Z14.971
X29.764 Y223.339 Z14.884
X29.751 Y223.292 Z14.804
X29.735 Y223.233 Z14.732
X29.716 Y223.164 Z14.671
X29.695 Y223.087 Z14.622
X29.672 Y223.003 Z14.586
X29.647 Y222.914 Z14.564
X29.623 Y222.824 Z14.556
X29.464 Y222.245 F850
G17 G2 X28.727 Y221.825 I-0.579 J0.159
G3 X20.254 Y222.999 Z10.556 I-8.727 J-31.825 F283.3
X20.193 Z10.532 I-0.254 J-32.999
X20.13 Y223 Z10.514 I-0.193 J-32.999
X20.065 Z10.504 I-0.13 J-33
X20 Z10.5 I-0.065 J-33
G2 X53 Y190 J-33 F850
G1 Y170
G3 X100 Y123 I47
G1 X120
G2 X153 Y90 J-33
G1 Y70
G2 X150 Y67 I-3
G1 X0
G3 X-0.6 Y66.4 J-0.6
G1 Y65.8
G19 G2 Y65.2 Z11.1 K0.6
G0 Z20
X9.432 Y64.8
G1 Z13.656 F283.3
G2 Y64.2 Z13.056 J-0.6
G1 Y63.6 F850
G17 G2 X8.832 Y63 I-0.6
G1 X0.254 Z9.056 F283.3
G18 G3 X0 Z9 I-0.254 K0.544
G1 X150 F850
G17 G2 X153 Y60 J-3
G1 Y10
G2 X150 Y7 I-3
G1 X0
G3 X-0.6 Y6.4 J-0.6
G1 Y5.8
G19 G2 Y5.2 Z9.6 K0.6
G0 Z20
X29.781 Y223.403
G1 Z13.656 F283.3
X29.779 Y223.395 Z13.562
X29.773 Y223.374 Z13.471
X29.764 Y223.339 Z13.384
X29.751 Y223.292 Z13.304
X29.735 Y223.233 Z13.232
X29.716 Y223.164 Z13.171
X29.695 Y223.087 Z13.122
X29.672 Y223.003 Z13.086
X29.647 Y222.914 Z13.064
X29.623 Y222.824 Z13.056
X29.464 Y222.245 F850
G17 G2 X28.727 Y221.825 I-0.579 J0.159
G3 X20.254 Y222.999 Z9.056 I-8.727 J-31.825 F283.3
X20.193 Z9.032 I-0.254 J-32.999
X20.13 Y223 Z9.014 I-0.193 J-32.999
X20.065 Z9.004 I-0.13 J-33
X20 Z9 I-0.065 J-33
G2 X53 Y190 J-33 F850
G1 Y170
G3 X100 Y123 I47
G1 X120
G2 X153 Y90 J-33
G1 Y70
G2 X150 Y67 I-3
G1 X0
G3 X-0.6 Y66.4 J-0.6
G1 Y65.8
G19 G2 Y65.2 Z9.6 K0.6
G0 Z20
X9.432 Y64.8
G1 Z12.156 F283.3
G2 Y64.2 Z11.556 J-0.6
G1 Y63.6 F850
G17 G2 X8.832 Y63 I-0.6
G1 X0.254 Z7.556 F283.3
G18 G3 X0 Z7.5 I-0.254 K0.544
G1 X150 F850
G17 G2 X153 Y60 J-3
G1 Y10
G2 X150 Y7 I-3
G1 X0
G3 X-0.6 Y6.4 J-0.6
G1 Y5.8
G19 G2 Y5.2 Z8.1 K0.6
G0 Z20
X29.781 Y223.403
G1 Z12.156 F283.3
X29.779 Y223.395 Z12.062
X29.773 Y223.374 Z11.971
X29.764 Y223.339 Z11.884
X29.751 Y223.292 Z11.804
X29.735 Y223.233 Z11.732
X29.716 Y223.164 Z11.671
X29.695 Y223.087 Z11.622
X29.672 Y223.003 Z11.586
X29.647 Y222.914 Z11.564
X29.623 Y222.824 Z11.556
X29.464 Y222.245 F850
G17 G2 X28.727 Y221.825 I-0.579 J0.159
G3 X20.254 Y222.999 Z7.556 I-8.727 J-31.825 F283.3
X20.193 Z7.532 I-0.254 J-32.999
X20.13 Y223 Z7.514 I-0.193 J-32.999
X20.065 Z7.504 I-0.13 J-33
X20 Z7.5 I-0.065 J-33
G2 X53 Y190 J-33 F850
G1 Y170
G3 X100 Y123 I47
G1 X120
G2 X153 Y90 J-33
G1 Y70
G2 X150 Y67 I-3
G1 X0
G3 X-0.6 Y66.4 J-0.6
G1 Y65.8
G19 G2 Y65.2 Z8.1 K0.6
G0 Z20
X9.432 Y64.8
G1 Z10.656 F283.3
G2 Y64.2 Z10.056 J-0.6
G1 Y63.6 F850
G17 G2 X8.832 Y63 I-0.6
G1 X0.254 Z6.056 F283.3
G18 G3 X0 Z6 I-0.254 K0.544
G1 X150 F850
G17 G2 X153 Y60 J-3
G1 Y10
G2 X150 Y7 I-3
G1 X0
G3 X-0.6 Y6.4 J-0.6
G1 Y5.8
G19 G2 Y5.2 Z6.6 K0.6
G0 Z20
X29.781 Y223.403
G1 Z10.656 F283.3
X29.779 Y223.395 Z10.562
X29.773 Y223.374 Z10.471
X29.764 Y223.339 Z10.384
X29.751 Y223.292 Z10.304
X29.735 Y223.233 Z10.232
X29.716 Y223.164 Z10.171
X29.695 Y223.087 Z10.122
X29.672 Y223.003 Z10.086
X29.647 Y222.914 Z10.064
X29.623 Y222.824 Z10.056
X29.464 Y222.245 F850
G17 G2 X28.727 Y221.825 I-0.579 J0.159
G3 X20.254 Y222.999 Z6.056 I-8.727 J-31.825 F283.3
X20.193 Z6.032 I-0.254 J-32.999
X20.13 Y223 Z6.014 I-0.193 J-32.999
X20.065 Z6.004 I-0.13 J-33
X20 Z6 I-0.065 J-33
G2 X53 Y190 J-33 F850
G1 Y170
G3 X100 Y123 I47
G1 X120
G2 X153 Y90 J-33
G1 Y70
G2 X150 Y67 I-3
G1 X0
G3 X-0.6 Y66.4 J-0.6
G1 Y65.8
G19 G2 Y65.2 Z6.6 K0.6
G0 Z20
X279.8 Y210.568
G1 Z16.656 F283.3
G18 G3 X279.2 Z16.056 I-0.6
G1 X278.6 F850
G17 G2 X278 Y211.168 J0.6
G1 Y219.746 Z12.056 F283.3
G19 G3 Y220 Z12 J0.254 K0.544
G1 Y70 F850
G17 G2 X275 Y67 I-3
G1 X225
G2 X222 Y70 J3
G1 Y220
G3 X221.4 Y220.6 I-0.6
G1 X220.8
G18 G3 X220.2 Z12.6 K0.6
G0 Z20
X219.8 Y210.568
G1 Z15.156 F283.3
G3 X219.2 Z14.556 I-0.6
G1 X218.6 F850
G17 G2 X218 Y211.168 J0.6
G1 Y219.746 Z10.556 F283.3
G19 G3 Y220 Z10.5 J0.254 K0.544
G1 Y70 F850
G17 G2 X215 Y67 I-3
G1 X195
G2 X162 Y100 J33
G1 Y120
G3 X115 Y167 I-47
G1 X95
G2 X62 Y200 J33
G1 Y220
G3 X61.4 Y220.6 I-0.6
G1 X60.8
G18 G3 X60.2 Z11.1 K0.6
G0 Z20
X279.8 Y210.568
G1 Z15.156 F283.3
G3 X279.2 Z14.556 I-0.6
G1 X278.6 F850
G17 G2 X278 Y211.168 J0.6
G1 Y219.746 Z10.556 F283.3
G19 G3 Y220 Z10.5 J0.254 K0.544
G1 Y70 F850
G17 G2 X275 Y67 I-3
G1 X225
G2 X222 Y70 J3
G1 Y220
G3 X221.4 Y220.6 I-0.6
G1 X220.8
G18 G3 X220.2 Z11.1 K0.6
G0 Z20
X219.8 Y210.568
G1 Z13.656 F283.3
G3 X219.2 Z13.056 I-0.6
G1 X218.6 F850
G17 G2 X218 Y211.168 J0.6
G1 Y219.746 Z9.056 F283.3
G19 G3 Y220 Z9 J0.254 K0.544
G1 Y70 F850
G17 G2 X215 Y67 I-3
G1 X195
G2 X162 Y100 J33
G1 Y120
G3 X115 Y167 I-47
G1 X95
G2 X62 Y200 J33
G1 Y220
G3 X61.4 Y220.6 I-0.6
G1 X60.8
G18 G3 X60.2 Z9.6 K0.6
G0 Z20
X279.8 Y210.568
G1 Z13.656 F283.3
G3 X279.2 Z13.056 I-0.6
G1 X278.6 F850
G17 G2 X278 Y211.168 J0.6
G1 Y219.746 Z9.056 F283.3
G19 G3 Y220 Z9 J0.254 K0.544
G1 Y70 F850
G17 G2 X275 Y67 I-3
G1 X225
G2 X222 Y70 J3
G1 Y220
G3 X221.4 Y220.6 I-0.6
G1 X220.8
G18 G3 X220.2 Z9.6 K0.6
G0 Z20
X219.8 Y210.568
G1 Z12.156 F283.3
G3 X219.2 Z11.556 I-0.6
G1 X218.6 F850
G17 G2 X218 Y211.168 J0.6
G1 Y219.746 Z7.556 F283.3
G19 G3 Y220 Z7.5 J0.254 K0.544
G1 Y70 F850
G17 G2 X215 Y67 I-3
G1 X195
G2 X162 Y100 J33
G1 Y120
G3 X115 Y167 I-47
G1 X95
G2 X62 Y200 J33
G1 Y220
G3 X61.4 Y220.6 I-0.6
G1 X60.8
G18 G3 X60.2 Z8.1 K0.6
G0 Z20
X279.8 Y210.568
G1 Z12.156 F283.3
G3 X279.2 Z11.556 I-0.6
G1 X278.6 F850
G17 G2 X278 Y211.168 J0.6
G1 Y219.746 Z7.556 F283.3
G19 G3 Y220 Z7.5 J0.254 K0.544
G1 Y70 F850
G17 G2 X275 Y67 I-3
G1 X225
G2 X222 Y70 J3
G1 Y220
G3 X221.4 Y220.6 I-0.6
G1 X220.8
G18 G3 X220.2 Z8.1 K0.6
G0 Z20
X219.8 Y210.568
G1 Z10.656 F283.3
G3 X219.2 Z10.056 I-0.6
G1 X218.6 F850
G17 G2 X218 Y211.168 J0.6
G1 Y219.746 Z6.056 F283.3
G19 G3 Y220 Z6 J0.254 K0.544
G1 Y70 F850
G17 G2 X215 Y67 I-3
G1 X195
G2 X162 Y100 J33
G1 Y120
G3 X115 Y167 I-47
G1 X95
G2 X62 Y200 J33
G1 Y220
G3 X61.4 Y220.6 I-0.6
G1 X60.8
G18 G3 X60.2 Z6.6 K0.6
G0 Z20
X279.8 Y210.568
G1 Z10.656 F283.3
G3 X279.2 Z10.056 I-0.6
G1 X278.6 F850
G17 G2 X278 Y211.168 J0.6
G1 Y219.746 Z6.056 F283.3
G19 G3 Y220 Z6 J0.254 K0.544
G1 Y70 F850
G17 G2 X275 Y67 I-3
G1 X225
G2 X222 Y70 J3
G1 Y220
G3 X221.4 Y220.6 I-0.6
G1 X220.8
G18 G3 X220.2 Z6.6 K0.6
G0 Z20
X551.2 Y9.432
G1 Z18.156 F283.3
G2 X551.8 Z17.556 I0.6
G1 X552.4 F850
G17 G2 X553 Y8.832 J-0.6
G1 Y0.254 Z13.556 F283.3
G19 G2 Y0 Z13.5 J-0.254 K0.544
G1 Y145 F850
G17 G3 X541 Y157 I-12
G1 X521
G3 X509 Y145 J-12
G1 Y0
Y145 Z12.874 F283.3
G2 X521 Y157 Z12.793 I12
G1 X541 Z12.707
G2 X553 Y145 Z12.626 J-12
G1 Y0 Z12
Y145 F850
G3 X541 Y157 I-12
G1 X521
G3 X509 Y145 J-12
G1 Y0
Y145 Z11.374 F283.3
G2 X521 Y157 Z11.293 I12
G1 X541 Z11.207
G2 X553 Y145 Z11.126 J-12
G1 Y0 Z10.5
Y145 F850
G3 X541 Y157 I-12
G1 X521
G3 X509 Y145 J-12
G1 Y0
Y145 Z9.874 F283.3
G2 X521 Y157 Z9.793 I12
G1 X541 Z9.707
G2 X553 Y145 Z9.626 J-12
G1 Y0 Z9
Y145 F850
G3 X541 Y157 I-12
G1 X521
G3 X509 Y145 J-12
G1 Y0
Y145 Z8.374 F283.3
G2 X521 Y157 Z8.293 I12
G1 X541 Z8.207
G2 X553 Y145 Z8.126 J-12
G1 Y0 Z7.5
Y145 F850
G3 X541 Y157 I-12
G1 X521
G3 X509 Y145 J-12
G1 Y0
Y145 Z6.874 F283.3
G2 X521 Y157 Z6.793 I12
G1 X541 Z6.707
G2 X553 Y145 Z6.626 J-12
G1 Y0 Z6
Y145 F850
G3 X541 Y157 I-12
G1 X521
G3 X509 Y145 J-12
G1 Y0
G3 X509.6 Y-0.6 I0.6
G1 X510.2
G18 G2 X510.8 Z6.6 K0.6
G0 Z20
X671.2 Y9.432
G1 Z18.156 F283.3
G2 X671.8 Z17.556 I0.6
G1 X672.4 F850
G17 G2 X673 Y8.832 J-0.6
G1 Y0.254 Z13.556 F283.3
G19 G2 Y0 Z13.5 J-0.254 K0.544
G1 Y145 F850
G17 G3 X661 Y157 I-12
G1 X641
G3 X629 Y145 J-12
G1 Y0
Y145 Z12.874 F283.3
G2 X641 Y157 Z12.793 I12
G1 X661 Z12.707
G2 X673 Y145 Z12.626 J-12
G1 Y0 Z12
Y145 F850
G3 X661 Y157 I-12
G1 X641
G3 X629 Y145 J-12
G1 Y0
Y145 Z11.374 F283.3
G2 X641 Y157 Z11.293 I12
G1 X661 Z11.207
G2 X673 Y145 Z11.126 J-12
G1 Y0 Z10.5
Y145 F850
G3 X661 Y157 I-12
G1 X641
G3 X629 Y145 J-12
G1 Y0
Y145 Z9.874 F283.3
G2 X641 Y157 Z9.793 I12
G1 X661 Z9.707
G2 X673 Y145 Z9.626 J-12
G1 Y0 Z9
Y145 F850
G3 X661 Y157 I-12
G1 X641
G3 X629 Y145 J-12
G1 Y0
Y145 Z8.374 F283.3
G2 X641 Y157 Z8.293 I12
G1 X661 Z8.207
G2 X673 Y145 Z8.126 J-12
G1 Y0 Z7.5
Y145 F850
G3 X661 Y157 I-12
G1 X641
G3 X629 Y145 J-12
G1 Y0
Y145 Z6.874 F283.3
G2 X641 Y157 Z6.793 I12
G1 X661 Z6.707
G2 X673 Y145 Z6.626 J-12
G1 Y0 Z6
Y145 F850
G3 X661 Y157 I-12
G1 X641
G3 X629 Y145 J-12
G1 Y0
G3 X629.6 Y-0.6 I0.6
G1 X630.2
G18 G2 X630.8 Z6.6 K0.6
G0 Z20
X791.2 Y9.432
G1 Z18.156 F283.3
G2 X791.8 Z17.556 I0.6
G1 X792.4 F850
G17 G2 X793 Y8.832 J-0.6
G1 Y0.254 Z13.556 F283.3
G19 G2 Y0 Z13.5 J-0.254 K0.544
G1 Y145 F850
G17 G3 X781 Y157 I-12
G1 X761
G3 X749 Y145 J-12
G1 Y0
Y145 Z12.874 F283.3
G2 X761 Y157 Z12.793 I12
G1 X781 Z12.707
G2 X793 Y145 Z12.626 J-12
G1 Y0 Z12
Y145 F850
G3 X781 Y157 I-12
G1 X761
G3 X749 Y145 J-12
G1 Y0
Y145 Z11.374 F283.3
G2 X761 Y157 Z11.293 I12
G1 X781 Z11.207
G2 X793 Y145 Z11.126 J-12
G1 Y0 Z10.5
Y145 F850
G3 X781 Y157 I-12
G1 X761
G3 X749 Y145 J-12
G1 Y0
Y145 Z9.874 F283.3
G2 X761 Y157 Z9.793 I12
G1 X781 Z9.707
G2 X793 Y145 Z9.626 J-12
G1 Y0 Z9
Y145 F850
G3 X781 Y157 I-12
G1 X761
G3 X749 Y145 J-12
G1 Y0
Y145 Z8.374 F283.3
G2 X761 Y157 Z8.293 I12
G1 X781 Z8.207
G2 X793 Y145 Z8.126 J-12
G1 Y0 Z7.5
Y145 F850
G3 X781 Y157 I-12
G1 X761
G3 X749 Y145 J-12
G1 Y0
Y145 Z6.874 F283.3
G2 X761 Y157 Z6.793 I12
G1 X781 Z6.707
G2 X793 Y145 Z6.626 J-12
G1 Y0 Z6
Y145 F850
G3 X781 Y157 I-12
G1 X761
G3 X749 Y145 J-12
G1 Y0
G3 X749.6 Y-0.6 I0.6
G1 X750.2
G18 G2 X750.8 Z6.6 K0.6
G0 Z20
X895.081 Y50.352
G1 Z18.156 F283.3
X895.073 Y50.353 Z18.062
X895.051 Y50.356 Z17.971
X895.016 Y50.361 Z17.884
X894.967 Y50.368 Z17.804
X894.906 Y50.376 Z17.732
X894.836 Y50.386 Z17.671
X894.756 Y50.397 Z17.622
X894.67 Y50.41 Z17.586
X894.579 Y50.422 Z17.564
X894.486 Y50.436 Z17.556
X893.892 Y50.519 F850
G17 G2 X893.382 Y51.197 I0.084 J0.594
G3 X894 Y59.746 Z13.556 I-62.382 J8.803 F283.3
Y59.807 Z13.532 I-63 J0.254
Y59.87 Z13.514 I-63 J0.193
Y59.935 Z13.504 I-63 J0.13
Y60 Z13.5 I-63 J0.065
G2 X831 Y-3 I-63 F850
G3 X894 Y60 Z12 J63 F283.3
G2 X831 Y-3 I-63 F850
G3 X894 Y60 Z10.5 J63 F283.3
G2 X831 Y-3 I-63 F850
G3 X894 Y60 Z9 J63 F283.3
G2 X831 Y-3 I-63 F850
G3 X894 Y60 Z7.5 J63 F283.3
G2 X831 Y-3 I-63 F850
G3 X894 Y60 Z6 J63 F283.3
G2 X831 Y-3 I-63 F850
G3 X830.4 Y-3.6 J-0.6
G1 Y-4.2
G19 G2 Y-4.8 Z6.6 K0.6
G0 Z30
G17
M9
M30
%
