%
(1001)
(origin stock top)
(T1  D=6 CR=0 - ZMIN=-18 - flat end mill)
G90 G94
G17
G21

(2D Contour1)
M9
T1 M6
S6000 M3
G54
M9
G0 X-379.22 Y-194.743
Z15
Z5
G1 Z2.6 F283.3
Z2.5
X-413.383 Z-1.091
G2 X-416.38 Y-191.61 Z-1.6 J3
X-416.281 Y-190.967 I2.997 J-0.133 F850
G1 X-373.816 Y-32.484
G2 X-369.65 Y-30.542 I2.898 J-0.776
G1 X-60.045 Y-174.913
X-29.785 Y-189.024
G2 X-31.053 Y-194.743 I-1.268 J-2.719
G1 X-413.383
G2 X-416.38 Y-191.61 J3
G3 X-416.953 Y-190.984 I-0.599 J0.027
G1 X-417.552 Y-190.957
X-417.646 Y-190.953 Z-1.593
X-417.737 Y-190.949 Z-1.571
X-417.824 Y-190.945 Z-1.535
X-417.905 Y-190.941 Z-1.485
X-417.976 Y-190.938 Z-1.424
X-418.037 Y-190.936 Z-1.353
X-418.086 Y-190.933 Z-1.272
X-418.122 Y-190.932 Z-1.185
X-418.144 Y-190.931 Z-1.094
X-418.152 Z-1
G0 Z5
X-46.943 Y-313.099
G1 Z2.6 F283.3
Z2.5
Y-329.607 Z0.765
G2 X-49.943 Y-332.607 Z0.27 I-3
G1 X-67.024 Z-1.526
G2 X-67.725 Y-332.524 Z-1.6 J3
X-68.476 Y-332.232 I0.701 J2.917 F850
G3 X-375.41 I-153.467 J-277.375
G2 X-376.862 Y-332.607 I-1.452 J2.625
G1 X-393.943
G2 X-396.943 Y-329.607 J3
G1 Y-198.915
G2 X-393.943 Y-195.915 I3
G1 X-376.862
G2 X-375.41 Y-196.29 J-3
G3 X-68.476 I153.467 J277.375
G2 X-67.024 Y-195.915 I1.452 J-2.625
G1 X-49.943
G2 X-46.943 Y-198.915 J-3
G1 Y-329.607
G2 X-49.943 Y-332.607 I-3
G1 X-67.024
G2 X-67.725 Y-332.524 J3
X-68.476 Y-332.232 Z-1.616 I0.701 J2.917 F283.3
G3 X-141.46 Y-302.994 Z-3.2 I-153.467 J-277.375
X-375.41 Y-332.232 I-80.483 J-306.613 F850
G2 X-376.862 Y-332.607 I-1.452 J2.625
G1 X-393.943
G2 X-396.943 Y-329.607 J3
G1 Y-198.915
G2 X-393.943 Y-195.915 I3
G1 X-376.862
G2 X-375.41 Y-196.29 J-3
G3 X-68.476 I153.467 J277.375
G2 X-67.024 Y-195.915 I1.452 J-2.625
G1 X-49.943
G2 X-46.943 Y-198.915 J-3
G1 Y-329.607
G2 X-49.943 Y-332.607 I-3
G1 X-67.024
G2 X-68.476 Y-332.232 J3
G3 X-141.46 Y-302.994 I-153.467 J-277.375
X-142.192 Y-303.422 I-0.152 J-0.58
G1 X-142.345 Y-304.003
X-142.368 Y-304.093 Z-3.193
X-142.392 Y-304.182 Z-3.171
X-142.414 Y-304.266 Z-3.135
X-142.434 Y-304.344 Z-3.085
X-142.452 Y-304.413 Z-3.024
X-142.468 Y-304.472 Z-2.953
X-142.48 Y-304.52 Z-2.872
X-142.489 Y-304.555 Z-2.785
X-142.495 Y-304.576 Z-2.694
X-142.497 Y-304.583 Z-2.6
G0 Z5
X-260.7 Y-7
G1 Z2.6 F283.3
Z2.5
X-221.691 Z-1.6
X-30 F850
G2 X-27.046 Y-10.521 J-3
G1 X-55.536 Y-172.101
G2 X-59.759 Y-174.299 I-2.954 J0.521
G1 X-369.364 Y-29.928
X-406.268 Y-12.719
G2 X-405 Y-7 I1.268 J2.719
G1 X-221.691
G3 X-221.092 Y-6.4 J0.6
G1 Y-5.8
G19 G3 Y-5.2 Z-1 K0.6
G0 Z5
X-260.7 Y-7
G1 Z1 F283.3
Z0.9
X-221.691 Z-3.2
X-30 F850
G17 G2 X-27.046 Y-10.521 J-3
G1 X-55.536 Y-172.101
G2 X-59.759 Y-174.299 I-2.954 J0.521
G1 X-369.364 Y-29.928
X-406.268 Y-12.719
G2 X-405 Y-7 I1.268 J2.719
G1 X-221.691
G3 X-221.092 Y-6.4 J0.6
G1 Y-5.8
G19 G3 Y-5.2 Z-2.6 K0.6
G0 Z5
X-379.22 Y-194.743
G1 Z1 F283.3
Z0.9
X-413.383 Z-2.691
G17 G2 X-416.38 Y-191.61 Z-3.2 J3
X-416.281 Y-190.967 I2.997 J-0.133 F850
G1 X-373.816 Y-32.484
G2 X-369.65 Y-30.542 I2.898 J-0.776
G1 X-60.045 Y-174.913
X-29.785 Y-189.024
G2 X-31.053 Y-194.743 I-1.268 J-2.719
G1 X-413.383
G2 X-416.38 Y-191.61 J3
X-416.281 Y-190.967 Z-3.214 I2.997 J-0.133 F283.3
G1 X-396.981 Y-118.939 Z-4.8
X-373.816 Y-32.484 F850
G2 X-369.65 Y-30.542 I2.898 J-0.776
G1 X-60.045 Y-174.913
X-29.785 Y-189.024
G2 X-31.053 Y-194.743 I-1.268 J-2.719
G1 X-413.383
G2 X-416.281 Y-190.967 J3
G1 X-396.981 Y-118.939
G3 X-397.405 Y-118.204 I-0.58 J0.155
G1 X-397.985 Y-118.049
X-398.076 Y-118.025 Z-4.793
X-398.164 Y-118.001 Z-4.771
X-398.248 Y-117.979 Z-4.735
X-398.326 Y-117.958 Z-4.685
X-398.395 Y-117.939 Z-4.624
X-398.454 Y-117.924 Z-4.553
X-398.501 Y-117.911 Z-4.472
X-398.536 Y-117.902 Z-4.385
X-398.557 Y-117.896 Z-4.294
X-398.565 Y-117.894 Z-4.2
G0 Z5
X-46.943 Y-313.099
G1 Z-0.6 F283.3
Z-0.7
Y-329.607 Z-2.435
G2 X-49.943 Y-332.607 Z-2.93 I-3
G1 X-67.024 Z-4.726
G2 X-67.725 Y-332.524 Z-4.8 J3
X-68.476 Y-332.232 I0.701 J2.917 F850
G3 X-375.41 I-153.467 J-277.375
G2 X-376.862 Y-332.607 I-1.452 J2.625
G1 X-393.943
G2 X-396.943 Y-329.607 J3
G1 Y-198.915
G2 X-393.943 Y-195.915 I3
G1 X-376.862
G2 X-375.41 Y-196.29 J-3
G3 X-68.476 I153.467 J277.375
G2 X-67.024 Y-195.915 I1.452 J-2.625
G1 X-49.943
G2 X-46.943 Y-198.915 J-3
G1 Y-329.607
G2 X-49.943 Y-332.607 I-3
G1 X-67.024
G2 X-67.725 Y-332.524 J3
X-68.476 Y-332.232 Z-4.816 I0.701 J2.917 F283.3
G3 X-141.46 Y-302.994 Z-6.4 I-153.467 J-277.375
X-375.41 Y-332.232 I-80.483 J-306.613 F850
G2 X-376.862 Y-332.607 I-1.452 J2.625
G1 X-393.943
G2 X-396.943 Y-329.607 J3
G1 Y-198.915
G2 X-393.943 Y-195.915 I3
G1 X-376.862
G2 X-375.41 Y-196.29 J-3
G3 X-68.476 I153.467 J277.375
G2 X-67.024 Y-195.915 I1.452 J-2.625
G1 X-49.943
G2 X-46.943 Y-198.915 J-3
G1 Y-329.607
G2 X-49.943 Y-332.607 I-3
G1 X-67.024
G2 X-68.476 Y-332.232 J3
G3 X-141.46 Y-302.994 I-153.467 J-277.375
X-142.192 Y-303.422 I-0.152 J-0.58
G1 X-142.345 Y-304.003
X-142.368 Y-304.093 Z-6.393
X-142.392 Y-304.182 Z-6.371
X-142.414 Y-304.266 Z-6.335
X-142.434 Y-304.344 Z-6.285
X-142.452 Y-304.413 Z-6.224
X-142.468 Y-304.472 Z-6.153
X-142.48 Y-304.52 Z-6.072
X-142.489 Y-304.555 Z-5.985
X-142.495 Y-304.576 Z-5.894
X-142.497 Y-304.583 Z-5.8
G0 Z5
X-260.7 Y-7
G1 Z-0.6 F283.3
Z-0.7
X-221.691 Z-4.8
X-30 F850
G2 X-27.046 Y-10.521 J-3
G1 X-55.536 Y-172.101
G2 X-59.759 Y-174.299 I-2.954 J0.521
G1 X-369.364 Y-29.928
X-406.268 Y-12.719
G2 X-405 Y-7 I1.268 J2.719
G1 X-221.691
G3 X-221.092 Y-6.4 J0.6
G1 Y-5.8
G19 G3 Y-5.2 Z-4.2 K0.6
G0 Z5
X-260.7 Y-7
G1 Z-2.2 F283.3
Z-2.3
X-221.691 Z-6.4
X-30 F850
G17 G2 X-27.046 Y-10.521 J-3
G1 X-55.536 Y-172.101
G2 X-59.759 Y-174.299 I-2.954 J0.521
G1 X-369.364 Y-29.928
X-406.268 Y-12.719
G2 X-405 Y-7 I1.268 J2.719
G1 X-221.691
G3 X-221.092 Y-6.4 J0.6
G1 Y-5.8
G19 G3 Y-5.2 Z-5.8 K0.6
G0 Z5
X-379.22 Y-194.743
G1 Z-2.2 F283.3
Z-2.3
X-413.383 Z-5.891
G17 G2 X-416.38 Y-191.61 Z-6.4 J3
X-416.281 Y-190.967 I2.997 J-0.133 F850
G1 X-373.816 Y-32.484
G2 X-369.65 Y-30.542 I2.898 J-0.776
G1 X-60.045 Y-174.913
X-29.785 Y-189.024
G2 X-31.053 Y-194.743 I-1.268 J-2.719
G1 X-413.383
G2 X-416.38 Y-191.61 J3
X-416.281 Y-190.967 Z-6.414 I2.997 J-0.133 F283.3
G1 X-396.981 Y-118.939 Z-8
X-373.816 Y-32.484 F850
G2 X-369.65 Y-30.542 I2.898 J-0.776
G1 X-60.045 Y-174.913
X-29.785 Y-189.024
G2 X-31.053 Y-194.743 I-1.268 J-2.719
G1 X-413.383
G2 X-416.281 Y-190.967 J3
G1 X-396.981 Y-118.939
G3 X-397.405 Y-118.204 I-0.58 J0.155
G1 X-397.985 Y-118.049
X-398.076 Y-118.025 Z-7.993
X-398.164 Y-118.001 Z-7.971
X-398.248 Y-117.979 Z-7.935
X-398.326 Y-117.958 Z-7.885
X-398.395 Y-117.939 Z-7.824
X-398.454 Y-117.924 Z-7.753
X-398.501 Y-117.911 Z-7.672
X-398.536 Y-117.902 Z-7.585
X-398.557 Y-117.896 Z-7.494
X-398.565 Y-117.894 Z-7.4
G0 Z5
X-46.943 Y-313.099
G1 Z-3.8 F283.3
Z-3.9
Y-329.607 Z-5.635
G2 X-49.943 Y-332.607 Z-6.13 I-3
G1 X-67.024 Z-7.926
G2 X-67.725 Y-332.524 Z-8 J3
X-68.476 Y-332.232 I0.701 J2.917 F850
G3 X-375.41 I-153.467 J-277.375
G2 X-376.862 Y-332.607 I-1.452 J2.625
G1 X-393.943
G2 X-396.943 Y-329.607 J3
G1 Y-198.915
G2 X-393.943 Y-195.915 I3
G1 X-376.862
G2 X-375.41 Y-196.29 J-3
G3 X-68.476 I153.467 J277.375
G2 X-67.024 Y-195.915 I1.452 J-2.625
G1 X-49.943
G2 X-46.943 Y-198.915 J-3
G1 Y-329.607
G2 X-49.943 Y-332.607 I-3
G1 X-67.024
G2 X-67.725 Y-332.524 J3
G3 X-68.448 Y-332.967 I-0.14 J-0.583
G1 X-68.589 Y-333.55
X-68.611 Y-333.642 Z-7.993
X-68.632 Y-333.731 Z-7.971
X-68.652 Y-333.815 Z-7.935
X-68.671 Y-333.893 Z-7.885
X-68.688 Y-333.963 Z-7.824
X-68.702 Y-334.022 Z-7.753
X-68.714 Y-334.07 Z-7.672
X-68.722 Y-334.105 Z-7.585
X-68.727 Y-334.127 Z-7.494
X-68.729 Y-334.134 Z-7.4
G0 Z5
X-260.7 Y-7
G1 Z-3.8 F283.3
Z-3.9
X-221.691 Z-8
X-30 F850
G2 X-27.046 Y-10.521 J-3
G1 X-55.536 Y-172.101
G2 X-59.759 Y-174.299 I-2.954 J0.521
G1 X-369.364 Y-29.928
X-406.268 Y-12.719
G2 X-405 Y-7 I1.268 J2.719
G1 X-221.691
G3 X-221.092 Y-6.4 J0.6
G1 Y-5.8
G19 G3 Y-5.2 Z-7.4 K0.6
G0 Z15
G17

(2D Contour2)
M9
G0 X-258.723 Y-154.687
Z15
Z5
G1 Z3.1 F283.3
X-258.73 Y-154.685 Z3.006
X-258.751 Y-154.68 Z2.915
X-258.786 Y-154.67 Z2.828
X-258.834 Y-154.658 Z2.747
X-258.893 Y-154.642 Z2.676
X-258.962 Y-154.623 Z2.615
X-259.039 Y-154.602 Z2.565
X-259.123 Y-154.58 Z2.529
X-259.212 Y-154.556 Z2.507
X-259.302 Y-154.532 Z2.5
X-259.882 Y-154.377 F850
G3 X-260.617 Y-154.801 I-0.155 J-0.58
G1 X-261.991 Y-159.93 Z1.942 F283.3
G3 X-255.23 Y-168.743 Z0.593 I6.761 J-1.813
G1 X-235.312 Z-1.5
X-166.374 F850
G3 X-163.416 Y-155.398 J7
G1 X-242.402 Y-118.566
G3 X-252.122 Y-123.098 I-2.959 J-6.344
G1 X-261.991 Y-159.93
G3 X-255.23 Y-168.743 I6.761 J-1.813
G1 X-235.312
X-215.953 Z-3 F283.3
X-166.374 F850
G3 X-163.416 Y-155.398 J7
G1 X-242.402 Y-118.566
G3 X-252.122 Y-123.098 I-2.959 J-6.344
G1 X-261.991 Y-159.93
G3 X-255.23 Y-168.743 I6.761 J-1.813
G1 X-235.312
X-215.953
X-196.593 Z-4.5 F283.3
X-166.374 F850
G3 X-163.416 Y-155.398 J7
G1 X-242.402 Y-118.566
G3 X-252.122 Y-123.098 I-2.959 J-6.344
G1 X-261.991 Y-159.93
G3 X-255.23 Y-168.743 I6.761 J-1.813
G1 X-215.953
X-196.593
X-177.234 Z-6 F283.3
X-166.374 F850
G3 X-163.416 Y-155.398 J7
G1 X-242.402 Y-118.566
G3 X-252.122 Y-123.098 I-2.959 J-6.344
G1 X-261.991 Y-159.93
G3 X-255.23 Y-168.743 I6.761 J-1.813
G1 X-196.593
X-177.234
X-166.374 Z-6.841 F283.3
G3 X-159.814 Y-164.187 Z-7.5 J7
X-163.416 Y-155.398 I-6.56 J2.444 F850
G1 X-242.402 Y-118.566
G3 X-252.122 Y-123.098 I-2.959 J-6.344
G1 X-261.991 Y-159.93
G3 X-255.23 Y-168.743 I6.761 J-1.813
G1 X-177.234
X-166.374
G3 X-159.814 Y-164.187 J7
X-163.416 Y-155.398 Z-8.309 I-6.56 J2.444 F283.3
G1 X-171.5 Y-151.628 Z-9
X-242.402 Y-118.566 F850
G3 X-252.122 Y-123.098 I-2.959 J-6.344
G1 X-261.991 Y-159.93
G3 X-255.23 Y-168.743 I6.761 J-1.813
G1 X-166.374
G3 X-163.416 Y-155.398 J7
G1 X-171.5 Y-151.628
X-189.046 Y-143.446 Z-10.5 F283.3
X-242.402 Y-118.566 F850
G3 X-252.122 Y-123.098 I-2.959 J-6.344
G1 X-261.991 Y-159.93
G3 X-255.23 Y-168.743 I6.761 J-1.813
G1 X-166.374
G3 X-163.416 Y-155.398 J7
G1 X-189.046 Y-143.446
X-206.591 Y-135.265 Z-12 F283.3
X-242.402 Y-118.566 F850
G3 X-252.122 Y-123.098 I-2.959 J-6.344
G1 X-261.991 Y-159.93
G3 X-255.23 Y-168.743 I6.761 J-1.813
G1 X-166.374
G3 X-163.416 Y-155.398 J7
G1 X-189.046 Y-143.446
X-206.591 Y-135.265
X-224.137 Y-127.083 Z-13.5 F283.3
X-242.402 Y-118.566 F850
G3 X-252.122 Y-123.098 I-2.959 J-6.344
G1 X-261.991 Y-159.93
G3 X-255.23 Y-168.743 I6.761 J-1.813
G1 X-166.374
G3 X-163.416 Y-155.398 J7
G1 X-206.591 Y-135.265
X-224.137 Y-127.083
X-241.682 Y-118.901 Z-15 F283.3
X-242.402 Y-118.566 F850
G3 X-252.122 Y-123.098 I-2.959 J-6.344
G1 X-261.991 Y-159.93
G3 X-255.23 Y-168.743 I6.761 J-1.813
G1 X-218.802
Z-14
X-202.802
Z-15 F283.3
X-166.374 F850
G3 X-163.416 Y-155.398 J7
G1 X-195.658 Y-140.363
Z-14
X-210.159 Y-133.601
Z-15 F283.3
X-241.682 Y-118.901 F850
X-242.402 Y-118.566 Z-15.062 F283.3
G3 X-252.122 Y-123.098 Z-16.008 I-2.959 J-6.344
G1 X-253.765 Y-129.229 Z-16.5
X-261.991 Y-159.93 F850
G3 X-255.23 Y-168.743 I6.761 J-1.813
G1 X-218.802
Z-14
X-202.802
Z-16.5 F283.3
X-166.374 F850
G3 X-163.416 Y-155.398 J7
G1 X-195.658 Y-140.363
Z-14
X-210.159 Y-133.601
Z-16.5 F283.3
X-242.402 Y-118.566 F850
G3 X-252.122 Y-123.098 I-2.959 J-6.344
G1 X-253.765 Y-129.229
X-258.775 Y-147.929 Z-18 F283.3
X-261.991 Y-159.93 F850
G3 X-255.23 Y-168.743 I6.761 J-1.813
G1 X-218.802
Z-14
X-202.802
Z-18 F283.3
X-166.374 F850
G3 X-163.416 Y-155.398 J7
G1 X-195.658 Y-140.363
Z-14
X-210.159 Y-133.601
Z-18 F283.3
X-242.402 Y-118.566 F850
G3 X-252.122 Y-123.098 I-2.959 J-6.344
G1 X-258.775 Y-147.929
G0 Z5
X-278.653 Y-114.701
G1 Z3.1 F283.3
X-278.646 Y-114.703 Z3.006
X-278.624 Y-114.709 Z2.915
X-278.59 Y-114.718 Z2.828
X-278.542 Y-114.731 Z2.747
X-278.483 Y-114.747 Z2.676
X-278.414 Y-114.765 Z2.615
X-278.336 Y-114.786 Z2.565
X-278.252 Y-114.809 Z2.529
X-278.164 Y-114.832 Z2.507
X-278.073 Y-114.857 Z2.5
X-277.494 Y-115.012 F850
G3 X-276.759 Y-114.588 I0.155 J0.58
G1 X-275.411 Y-109.557 Z1.953 F283.3
G3 X-279.214 Y-101.401 Z0.925 I-6.761 J1.812
G1 X-300.127 Y-91.649 Z-1.5
X-329.83 Y-77.798 F850
G3 X-339.549 Y-82.331 I-2.958 J-6.344
G1 X-360.342 Y-159.93
G3 X-353.581 Y-168.743 I6.761 J-1.813
G1 X-296.641
G3 X-289.88 Y-163.555 J7
G1 X-275.411 Y-109.557
G3 X-279.214 Y-101.401 I-6.761 J1.812
G1 X-300.127 Y-91.649
X-320.044 Y-82.361 Z-3 F283.3
X-329.83 Y-77.798 F850
G3 X-339.549 Y-82.331 I-2.958 J-6.344
G1 X-360.342 Y-159.93
G3 X-353.581 Y-168.743 I6.761 J-1.813
G1 X-296.641
G3 X-289.88 Y-163.555 J7
G1 X-275.411 Y-109.557
G3 X-279.214 Y-101.401 I-6.761 J1.812
G1 X-300.127 Y-91.649
X-320.044 Y-82.361
X-329.83 Y-77.798 Z-3.737 F283.3
G3 X-339.207 Y-81.351 Z-4.5 I-2.958 J-6.344
X-339.549 Y-82.331 I6.419 J-2.791 F850
G1 X-360.342 Y-159.93
G3 X-353.581 Y-168.743 I6.761 J-1.813
G1 X-296.641
G3 X-289.88 Y-163.555 J7
G1 X-275.411 Y-109.557
G3 X-279.214 Y-101.401 I-6.761 J1.812
G1 X-320.044 Y-82.361
X-329.83 Y-77.798
G3 X-339.207 Y-81.351 I-2.958 J-6.344
X-339.549 Y-82.331 Z-4.571 I6.419 J-2.791 F283.3
G1 X-344.968 Y-102.555 Z-6
X-360.342 Y-159.93 F850
G3 X-353.581 Y-168.743 I6.761 J-1.813
G1 X-296.641
G3 X-289.88 Y-163.555 J7
G1 X-275.411 Y-109.557
G3 X-279.214 Y-101.401 I-6.761 J1.812
G1 X-329.83 Y-77.798
G3 X-339.549 Y-82.331 I-2.958 J-6.344
G1 X-344.968 Y-102.555
X-350.656 Y-123.782 Z-7.5 F283.3
X-360.342 Y-159.93 F850
G3 X-353.581 Y-168.743 I6.761 J-1.813
G1 X-296.641
G3 X-289.88 Y-163.555 J7
G1 X-275.411 Y-109.557
G3 X-279.214 Y-101.401 I-6.761 J1.812
G1 X-329.83 Y-77.798
G3 X-339.549 Y-82.331 I-2.958 J-6.344
G1 X-350.656 Y-123.782
X-356.344 Y-145.009 Z-9 F283.3
X-360.342 Y-159.93 F850
G3 X-353.581 Y-168.743 I6.761 J-1.813
G1 X-296.641
G3 X-289.88 Y-163.555 J7
G1 X-275.411 Y-109.557
G3 X-279.214 Y-101.401 I-6.761 J1.812
G1 X-329.83 Y-77.798
G3 X-339.549 Y-82.331 I-2.958 J-6.344
G1 X-350.656 Y-123.782
X-356.344 Y-145.009
X-360.342 Y-159.93 Z-10.054 F283.3
G3 X-359.065 Y-166.093 Z-10.5 I6.761 J-1.813
X-353.581 Y-168.743 I5.484 J4.35 F850
G1 X-296.641
G3 X-289.88 Y-163.555 J7
G1 X-275.411 Y-109.557
G3 X-279.214 Y-101.401 I-6.761 J1.812
G1 X-329.83 Y-77.798
G3 X-339.549 Y-82.331 I-2.958 J-6.344
G1 X-356.344 Y-145.009
X-360.342 Y-159.93
G3 X-359.065 Y-166.093 I6.761 J-1.813
X-353.581 Y-168.743 Z-10.93 I5.484 J4.35 F283.3
G1 X-337.906 Z-12
X-296.641 F850
G3 X-289.88 Y-163.555 J7
G1 X-275.411 Y-109.557
G3 X-279.214 Y-101.401 I-6.761 J1.812
G1 X-329.83 Y-77.798
G3 X-339.549 Y-82.331 I-2.958 J-6.344
G1 X-360.342 Y-159.93
G3 X-353.581 Y-168.743 I6.761 J-1.813
G1 X-337.906
X-315.931 Z-13.5 F283.3
X-296.641 F850
G3 X-289.88 Y-163.555 J7
G1 X-275.411 Y-109.557
G3 X-279.214 Y-101.401 I-6.761 J1.812
G1 X-329.83 Y-77.798
G3 X-339.549 Y-82.331 I-2.958 J-6.344
G1 X-360.342 Y-159.93
G3 X-353.581 Y-168.743 I6.761 J-1.813
G1 X-315.931
X-296.641 Z-14.817 F283.3
G3 X-294.02 Y-168.234 Z-15 J7
X-289.88 Y-163.555 I-2.621 J6.491 F850
G1 X-284.716 Y-144.283
Z-14
X-280.575 Y-128.828
Z-15 F283.3
X-275.411 Y-109.557 F850
G3 X-279.214 Y-101.401 I-6.761 J1.812
G1 X-297.271 Y-92.98
Z-14
X-311.772 Y-86.219
Z-15 F283.3
X-329.83 Y-77.798 F850
G3 X-339.549 Y-82.331 I-2.958 J-6.344
G1 X-347.875 Y-113.403
Z-14
X-352.016 Y-128.858
Z-15 F283.3
X-360.342 Y-159.93 F850
G3 X-353.581 Y-168.743 I6.761 J-1.813
G1 X-333.111
Z-14
X-317.111
Z-15 F283.3
X-296.641 F850
G3 X-294.02 Y-168.234 J7
X-289.88 Y-163.555 Z-15.442 I-2.621 J6.491 F283.3
G1 X-285.868 Y-148.584 Z-16.5
X-284.716 Y-144.283 F850
Z-14
X-280.575 Y-128.828
Z-16.5 F283.3
X-275.411 Y-109.557 F850
G3 X-279.214 Y-101.401 I-6.761 J1.812
G1 X-297.271 Y-92.98
Z-14
X-311.772 Y-86.219
Z-16.5 F283.3
X-329.83 Y-77.798 F850
G3 X-339.549 Y-82.331 I-2.958 J-6.344
G1 X-347.875 Y-113.403
Z-14
X-352.016 Y-128.858
Z-16.5 F283.3
X-360.342 Y-159.93 F850
G3 X-353.581 Y-168.743 I6.761 J-1.813
G1 X-333.111
Z-14
X-317.111
Z-16.5 F283.3
X-296.641 F850
G3 X-289.88 Y-163.555 J7
G1 X-285.868 Y-148.584
X-284.716 Y-144.283 Z-16.804 F283.3
Z-14
X-280.575 Y-128.828
Z-17.896
X-280.18 Y-127.357 Z-18
X-275.411 Y-109.557 F850
G3 X-279.214 Y-101.401 I-6.761 J1.812
G1 X-297.271 Y-92.98
Z-14
X-311.772 Y-86.219
Z-18 F283.3
X-329.83 Y-77.798 F850
G3 X-339.549 Y-82.331 I-2.958 J-6.344
G1 X-347.875 Y-113.403
Z-14
X-352.016 Y-128.858
Z-18 F283.3
X-360.342 Y-159.93 F850
G3 X-353.581 Y-168.743 I6.761 J-1.813
G1 X-333.111
Z-14
X-317.111
Z-18 F283.3
X-296.641 F850
G3 X-289.88 Y-163.555 J7
G1 X-284.716 Y-144.283
Z-14
X-280.575 Y-128.828
Z-18 F283.3
X-280.18 Y-127.357 F850
G0 Z5
X-244.433 Y-57.51
G1 Z3.1 F283.3
X-244.436 Y-57.517 Z3.006
X-244.445 Y-57.537 Z2.915
X-244.46 Y-57.569 Z2.828
X-244.481 Y-57.614 Z2.747
X-244.507 Y-57.669 Z2.676
X-244.537 Y-57.734 Z2.615
X-244.571 Y-57.807 Z2.565
X-244.608 Y-57.886 Z2.529
X-244.647 Y-57.969 Z2.507
X-244.686 Y-58.054 Z2.5
X-244.94 Y-58.598 F850
G3 X-244.65 Y-59.395 I0.544 J-0.254
G1 X-210.158 Y-75.479 Z-1.5 F283.3
X-192.106 Y-83.896 F850
G3 X-182.254 Y-78.768 I2.958 J6.344
G1 X-175.633 Y-41.216
G3 X-182.527 Y-33 I-6.894 J1.216
G1 X-269.679
G3 X-272.637 Y-46.344 J-7
G1 X-210.158 Y-75.479
X-192.613 Y-83.66 Z-3 F283.3
X-192.106 Y-83.896 F850
G3 X-182.254 Y-78.768 I2.958 J6.344
G1 X-175.633 Y-41.216
G3 X-182.527 Y-33 I-6.894 J1.216
G1 X-269.679
G3 X-272.637 Y-46.344 J-7
G1 X-210.158 Y-75.479
X-192.613 Y-83.66
X-192.106 Y-83.896 Z-3.043 F283.3
G3 X-182.254 Y-78.768 Z-4.037 I2.958 J6.344
G1 X-181.217 Y-72.886 Z-4.5
X-175.633 Y-41.216 F850
G3 X-182.527 Y-33 I-6.894 J1.216
G1 X-269.679
G3 X-272.637 Y-46.344 J-7
G1 X-192.613 Y-83.66
X-192.106 Y-83.896
G3 X-182.254 Y-78.768 I2.958 J6.344
G1 X-181.217 Y-72.886
X-177.856 Y-53.821 Z-6 F283.3
X-175.633 Y-41.216 F850
G3 X-182.527 Y-33 I-6.894 J1.216
G1 X-269.679
G3 X-272.637 Y-46.344 J-7
G1 X-192.106 Y-83.896
G3 X-182.254 Y-78.768 I2.958 J6.344
G1 X-177.856 Y-53.821
X-175.633 Y-41.216 Z-6.992 F283.3
G3 X-177.465 Y-35.165 Z-7.5 I-6.894 J1.216
X-182.527 Y-33 I-5.062 J-4.835 F850
G1 X-269.679
G3 X-272.637 Y-46.344 J-7
G1 X-192.106 Y-83.896
G3 X-182.254 Y-78.768 I2.958 J6.344
G1 X-177.856 Y-53.821
X-175.633 Y-41.216
G3 X-177.465 Y-35.165 I-6.894 J1.216
X-182.527 Y-33 Z-7.938 I-5.062 J-4.835 F283.3
G1 X-196.228 Z-9
X-269.679 F850
G3 X-272.637 Y-46.344 J-7
G1 X-192.106 Y-83.896
G3 X-182.254 Y-78.768 I2.958 J6.344
G1 X-175.633 Y-41.216
G3 X-182.527 Y-33 I-6.894 J1.216
G1 X-196.228
X-215.587 Z-10.5 F283.3
X-269.679 F850
G3 X-272.637 Y-46.344 J-7
G1 X-192.106 Y-83.896
G3 X-182.254 Y-78.768 I2.958 J6.344
G1 X-175.633 Y-41.216
G3 X-182.527 Y-33 I-6.894 J1.216
G1 X-215.587
X-234.946 Z-12 F283.3
X-269.679 F850
G3 X-272.637 Y-46.344 J-7
G1 X-192.106 Y-83.896
G3 X-182.254 Y-78.768 I2.958 J6.344
G1 X-175.633 Y-41.216
G3 X-182.527 Y-33 I-6.894 J1.216
G1 X-215.587
X-234.946
X-254.306 Z-13.5 F283.3
X-269.679 F850
G3 X-272.637 Y-46.344 J-7
G1 X-192.106 Y-83.896
G3 X-182.254 Y-78.768 I2.958 J6.344
G1 X-175.633 Y-41.216
G3 X-182.527 Y-33 I-6.894 J1.216
G1 X-234.946
X-254.306
X-269.679 Z-14.691 F283.3
G3 X-273.453 Y-34.104 Z-15 J-7
X-272.637 Y-46.344 I3.774 J-5.896 F850
G1 X-239.623 Y-61.739
Z-14
X-225.122 Y-68.501
Z-15 F283.3
X-192.106 Y-83.896 F850
G3 X-182.254 Y-78.768 I2.958 J6.344
G1 X-175.633 Y-41.216
G3 X-182.527 Y-33 I-6.894 J1.216
G1 X-218.103
Z-14
X-234.103
Z-15 F283.3
X-269.679 F850
G3 X-273.453 Y-34.104 J-7
X-272.637 Y-46.344 Z-16.158 I3.774 J-5.896 F283.3
G1 X-268.642 Y-48.207 Z-16.5
X-239.623 Y-61.739 F850
Z-14
X-225.122 Y-68.501
Z-16.5 F283.3
X-192.106 Y-83.896 F850
G3 X-182.254 Y-78.768 I2.958 J6.344
G1 X-175.633 Y-41.216
G3 X-182.527 Y-33 I-6.894 J1.216
G1 X-218.103
Z-14
X-234.103
Z-16.5 F283.3
X-269.679 F850
G3 X-272.637 Y-46.344 J-7
G1 X-268.642 Y-48.207
X-251.097 Y-56.388 Z-18 F283.3
X-239.623 Y-61.739 F850
Z-14
X-225.122 Y-68.501
Z-18 F283.3
X-192.106 Y-83.896 F850
G3 X-182.254 Y-78.768 I2.958 J6.344
G1 X-175.633 Y-41.216
G3 X-182.527 Y-33 I-6.894 J1.216
G1 X-218.103
Z-14
X-234.103
Z-18 F283.3
X-269.679 F850
G3 X-272.637 Y-46.344 J-7
G1 X-251.097 Y-56.388
G0 Z5
X-93.344 Y-111.249
G1 Z3.1 F283.3
X-93.337 Y-111.25 Z3.006
X-93.315 Y-111.254 Z2.915
X-93.279 Y-111.26 Z2.828
X-93.231 Y-111.268 Z2.747
X-93.171 Y-111.279 Z2.676
X-93.1 Y-111.291 Z2.615
X-93.021 Y-111.305 Z2.565
X-92.936 Y-111.321 Z2.529
X-92.845 Y-111.336 Z2.507
X-92.753 Y-111.353 Z2.5
X-92.162 Y-111.457 F850
G3 X-91.467 Y-110.97 I0.104 J0.591
G1 X-84.858 Y-73.491 Z-1.5 F283.3
X-79.168 Y-41.216 F850
G3 X-86.061 Y-33 I-6.894 J1.216
G1 X-141.91
G3 X-148.804 Y-38.784 J-7
G1 X-158.511 Y-93.838
G3 X-154.575 Y-101.397 I6.894 J-1.215
G1 X-102.97 Y-125.461
G3 X-93.118 Y-120.333 I2.959 J6.344
G1 X-84.858 Y-73.491
X-81.042 Y-51.849 Z-3 F283.3
X-79.168 Y-41.216 F850
G3 X-86.061 Y-33 I-6.894 J1.216
G1 X-141.91
G3 X-148.804 Y-38.784 J-7
G1 X-158.511 Y-93.838
G3 X-154.575 Y-101.397 I6.894 J-1.215
G1 X-102.97 Y-125.461
G3 X-93.118 Y-120.333 I2.959 J6.344
G1 X-84.858 Y-73.491
X-81.042 Y-51.849
X-79.168 Y-41.216 Z-3.737 F283.3
G3 X-85.026 Y-33.077 Z-4.5 I-6.894 J1.216
X-86.061 Y-33 I-1.035 J-6.923 F850
G1 X-141.91
G3 X-148.804 Y-38.784 J-7
G1 X-158.511 Y-93.838
G3 X-154.575 Y-101.397 I6.894 J-1.215
G1 X-102.97 Y-125.461
G3 X-93.118 Y-120.333 I2.959 J6.344
G1 X-81.042 Y-51.849
X-79.168 Y-41.216
G3 X-85.026 Y-33.077 I-6.894 J1.216
X-86.061 Y-33 Z-4.571 I-1.035 J-6.923 F283.3
G1 X-106.998 Z-6
X-141.91 F850
G3 X-148.804 Y-38.784 J-7
G1 X-158.511 Y-93.838
G3 X-154.575 Y-101.397 I6.894 J-1.215
G1 X-102.97 Y-125.461
G3 X-93.118 Y-120.333 I2.959 J6.344
G1 X-79.168 Y-41.216
G3 X-86.061 Y-33 I-6.894 J1.216
G1 X-106.998
X-128.974 Z-7.5 F283.3
X-141.91 F850
G3 X-148.804 Y-38.784 J-7
G1 X-158.511 Y-93.838
G3 X-154.575 Y-101.397 I6.894 J-1.215
G1 X-102.97 Y-125.461
G3 X-93.118 Y-120.333 I2.959 J6.344
G1 X-79.168 Y-41.216
G3 X-86.061 Y-33 I-6.894 J1.216
G1 X-128.974
X-141.91 Z-8.383 F283.3
G3 X-148.638 Y-38.07 Z-9 J-7
X-148.804 Y-38.784 I6.729 J-1.93 F850
G1 X-158.511 Y-93.838
G3 X-154.575 Y-101.397 I6.894 J-1.215
G1 X-102.97 Y-125.461
G3 X-93.118 Y-120.333 I2.959 J6.344
G1 X-79.168 Y-41.216
G3 X-86.061 Y-33 I-6.894 J1.216
G1 X-128.974
X-141.91
G3 X-148.638 Y-38.07 J-7
X-148.804 Y-38.784 Z-9.05 I6.729 J-1.93 F283.3
G1 X-152.492 Y-59.704 Z-10.5
X-158.511 Y-93.838 F850
G3 X-154.575 Y-101.397 I6.894 J-1.215
G1 X-102.97 Y-125.461
G3 X-93.118 Y-120.333 I2.959 J6.344
G1 X-79.168 Y-41.216
G3 X-86.061 Y-33 I-6.894 J1.216
G1 X-141.91
G3 X-148.804 Y-38.784 J-7
G1 X-152.492 Y-59.704
X-156.308 Y-81.345 Z-12 F283.3
X-158.511 Y-93.838 F850
G3 X-154.575 Y-101.397 I6.894 J-1.215
G1 X-102.97 Y-125.461
G3 X-93.118 Y-120.333 I2.959 J6.344
G1 X-79.168 Y-41.216
G3 X-86.061 Y-33 I-6.894 J1.216
G1 X-141.91
G3 X-148.804 Y-38.784 J-7
G1 X-156.308 Y-81.345
X-158.511 Y-93.838 Z-12.866 F283.3
G3 X-154.575 Y-101.397 Z-13.491 I6.894 J-1.215
G1 X-154.459 Y-101.451 Z-13.5
X-102.97 Y-125.461 F850
G3 X-93.118 Y-120.333 I2.959 J6.344
G1 X-79.168 Y-41.216
G3 X-86.061 Y-33 I-6.894 J1.216
G1 X-141.91
G3 X-148.804 Y-38.784 J-7
G1 X-156.308 Y-81.345
X-158.511 Y-93.838
G3 X-154.575 Y-101.397 I6.894 J-1.215
G1 X-154.459 Y-101.451
X-136.023 Y-110.048 Z-14.888 F283.3
Z-14
X-134.542 Y-110.739
X-121.522 Y-116.81 F850
Z-15 F283.3
X-102.97 Y-125.461 F850
G3 X-93.118 Y-120.333 I2.959 J6.344
G1 X-87.532 Y-88.653
Z-14
X-84.754 Y-72.896
Z-15 F283.3
X-79.168 Y-41.216 F850
G3 X-86.061 Y-33 I-6.894 J1.216
G1 X-105.985
Z-14
X-121.985
Z-15 F283.3
X-141.91 F850
G3 X-148.804 Y-38.784 J-7
G1 X-152.268 Y-58.432
Z-14
X-155.046 Y-74.189
Z-15 F283.3
X-158.511 Y-93.838 F850
G3 X-154.575 Y-101.397 I6.894 J-1.215
G1 X-136.023 Y-110.048
Z-14
X-134.542 Y-110.739
X-121.522 Y-116.81 F283.3
Z-15.981
X-114.625 Y-120.026 Z-16.5
X-102.97 Y-125.461 F850
G3 X-93.118 Y-120.333 I2.959 J6.344
G1 X-87.532 Y-88.653
Z-14
X-84.754 Y-72.896
Z-16.5 F283.3
X-79.168 Y-41.216 F850
G3 X-86.061 Y-33 I-6.894 J1.216
G1 X-105.985
Z-14
X-121.985
Z-16.5 F283.3
X-141.91 F850
G3 X-148.804 Y-38.784 J-7
G1 X-152.268 Y-58.432
Z-14
X-155.046 Y-74.189
Z-16.5 F283.3
X-158.511 Y-93.838 F850
G3 X-154.575 Y-101.397 I6.894 J-1.215
G1 X-136.023 Y-110.048
Z-14
X-121.522 Y-116.81
Z-16.5 F283.3
X-114.625 Y-120.026 F850
X-102.97 Y-125.461 Z-17.378 F283.3
G3 X-94.68 Y-123.653 Z-18 I2.959 J6.344
X-93.118 Y-120.333 I-5.332 J4.536 F850
G1 X-87.532 Y-88.653
Z-14
X-84.754 Y-72.896
Z-18 F283.3
X-79.168 Y-41.216 F850
G3 X-86.061 Y-33 I-6.894 J1.216
G1 X-105.985
Z-14
X-121.985
Z-18 F283.3
X-141.91 F850
G3 X-148.804 Y-38.784 J-7
G1 X-152.268 Y-58.432
Z-14
X-155.046 Y-74.189
Z-18 F283.3
X-158.511 Y-93.838 F850
G3 X-154.575 Y-101.397 I6.894 J-1.215
G1 X-136.023 Y-110.048
Z-14
X-121.522 Y-116.81
Z-18 F283.3
X-102.97 Y-125.461 F850
G3 X-94.68 Y-123.653 I2.959 J6.344
G0 Z15

(2D Adaptive1)
M9
X-355.88 Y-61.941
Z15
Z5
Z2.55
G3 X-361.565 Y-61.531 Z1.609 I-2.843 J0.205 F283.3
X-355.88 Y-61.941 Z0.668 I2.843 J-0.205
X-361.565 Y-61.531 Z-0.273 I-2.843 J0.205
X-361.098 Y-63.31 Z-0.47 I2.843 J-0.205
X-356.898 Y-63.926 Z-0.973 I2.376 J1.574
X-356.745 Y-59.683 Z-1.477 I-1.824 J2.19
X-360.979 Y-59.995 Z-1.98 I-1.977 J-2.053
X-360.206 Y-64.169 Z-2.483 I2.257 J-1.741
X-356.142 Y-62.945 Z-2.987 I1.484 J2.433
X-357.803 Y-59.039 Z-3.49 I-2.581 J1.209
X-361.504 Y-61.117 Z-3.993 I-0.92 J-2.698
X-359.034 Y-64.569 Z-4.497 I2.782 J-0.619
X-355.873 Y-61.736 Z-5 I0.312 J2.833
X-361.35 Y-60.633 I-2.85
X-356.095 Y-62.84 I2.628 J-1.104
X-355.873 Y-61.736 I-2.628 J1.104
G1 X-355.869 Y-61.515 F850
X-355.739 Y-60.638
X-355.706 Y-60.492
X-355.69 Y-60.343
X-355.688 Y-60.193
X-355.7 Y-60.043
X-355.724 Y-59.895
X-355.76 Y-59.749
X-355.807 Y-59.601
X-355.867 Y-59.449
X-355.941 Y-59.294
X-356.029 Y-59.138
X-356.133 Y-58.981
X-356.251 Y-58.827
X-356.385 Y-58.675
X-356.533 Y-58.529
X-356.697 Y-58.388
X-356.875 Y-58.256
X-357.066 Y-58.133
X-357.271 Y-58.021
X-357.487 Y-57.921
X-357.714 Y-57.835
X-357.952 Y-57.763
X-358.197 Y-57.707
X-358.45 Y-57.667
X-358.708 Y-57.645
X-358.971 Y-57.641
X-359.236 Y-57.655
X-359.502 Y-57.687
X-359.768 Y-57.739
X-360.031 Y-57.809
X-360.291 Y-57.898
X-360.546 Y-58.005
X-360.794 Y-58.131
X-361.034 Y-58.274
X-361.265 Y-58.434
X-361.484 Y-58.611
X-361.692 Y-58.803
X-361.887 Y-59.009
X-362.068 Y-59.229
X-362.233 Y-59.462
X-362.382 Y-59.706
X-362.514 Y-59.96
X-362.628 Y-60.224
X-362.724 Y-60.495
X-362.801 Y-60.772
X-362.859 Y-61.055
X-362.897 Y-61.341
X-362.915 Y-61.629
X-362.914 Y-61.918
X-362.892 Y-62.207
X-362.85 Y-62.493
X-362.788 Y-62.776
X-362.707 Y-63.054
X-362.607 Y-63.327
X-362.489 Y-63.591
X-362.352 Y-63.847
X-362.197 Y-64.093
X-362.026 Y-64.328
X-361.84 Y-64.55
X-361.638 Y-64.759
X-361.422 Y-64.953
X-361.193 Y-65.133
X-360.952 Y-65.295
X-360.701 Y-65.441
X-360.44 Y-65.569
X-360.17 Y-65.679
X-359.894 Y-65.77
X-359.612 Y-65.841
X-359.326 Y-65.893
X-359.037 Y-65.925
X-358.746 Y-65.937
X-358.456 Y-65.928
X-358.166 Y-65.9
X-357.879 Y-65.851
X-357.596 Y-65.783
X-357.319 Y-65.696
X-357.048 Y-65.589
X-356.786 Y-65.464
X-356.532 Y-65.321
X-356.289 Y-65.161
X-356.058 Y-64.984
X-355.84 Y-64.792
X-355.635 Y-64.585
X-355.445 Y-64.364
X-355.271 Y-64.131
X-355.114 Y-63.887
X-354.911 Y-63.517
X-354.649 Y-62.953
X-354.47 Y-62.483
X-354.349 Y-62.083
X-354.264 Y-61.715
X-354.209 Y-61.365
X-354.18 Y-61.031
X-354.174 Y-60.708
X-354.19 Y-60.394
X-354.228 Y-60.086
X-354.286 Y-59.783
X-354.364 Y-59.487
X-354.463 Y-59.197
X-354.582 Y-58.915
X-354.721 Y-58.64
X-354.879 Y-58.373
X-355.057 Y-58.116
X-355.255 Y-57.869
X-355.471 Y-57.635
X-355.705 Y-57.413
X-355.957 Y-57.207
X-356.225 Y-57.016
X-356.508 Y-56.842
X-356.806 Y-56.687
X-357.117 Y-56.552
X-357.44 Y-56.437
X-357.773 Y-56.344
X-358.116 Y-56.273
X-358.466 Y-56.226
X-358.821 Y-56.203
X-359.181 Y-56.205
X-359.543 Y-56.232
X-359.905 Y-56.284
X-360.264 Y-56.362
X-360.62 Y-56.465
X-360.97 Y-56.593
X-361.313 Y-56.746
X-361.645 Y-56.924
X-361.966 Y-57.124
X-362.273 Y-57.348
X-362.566 Y-57.593
X-362.841 Y-57.858
X-363.099 Y-58.143
X-363.336 Y-58.446
X-363.553 Y-58.766
X-363.748 Y-59.101
X-363.919 Y-59.449
X-364.066 Y-59.808
X-364.188 Y-60.178
X-364.284 Y-60.556
X-364.354 Y-60.94
X-364.398 Y-61.328
X-364.414 Y-61.719
X-364.403 Y-62.111
X-364.365 Y-62.501
X-364.3 Y-62.888
X-364.209 Y-63.27
X-364.091 Y-63.645
X-363.947 Y-64.011
X-363.778 Y-64.367
X-363.585 Y-64.71
X-363.369 Y-65.039
X-363.13 Y-65.352
X-362.87 Y-65.648
X-362.59 Y-65.926
X-362.292 Y-66.184
X-361.976 Y-66.42
X-361.645 Y-66.634
X-361.299 Y-66.824
X-360.941 Y-66.991
X-360.572 Y-67.132
X-360.195 Y-67.247
X-359.81 Y-67.336
X-359.42 Y-67.398
X-359.027 Y-67.433
X-358.632 Y-67.44
X-358.238 Y-67.42
X-357.845 Y-67.373
X-357.457 Y-67.299
X-357.075 Y-67.198
X-356.701 Y-67.071
X-356.337 Y-66.919
X-355.984 Y-66.741
X-355.644 Y-66.54
X-355.319 Y-66.315
X-354.998 Y-66.059
X-354.689 Y-65.775
X-354.365 Y-65.433
X-354.049 Y-65.049
X-353.756 Y-64.639
X-353.495 Y-64.213
X-353.266 Y-63.775
X-353.071 Y-63.33
X-352.911 Y-62.882
X-352.785 Y-62.432
X-352.692 Y-61.984
X-352.632 Y-61.537
X-352.602 Y-61.094
X-352.604 Y-60.655
X-352.636 Y-60.222
X-352.697 Y-59.795
X-352.787 Y-59.376
X-352.905 Y-58.966
X-353.051 Y-58.566
X-353.225 Y-58.177
X-353.425 Y-57.8
X-353.651 Y-57.437
X-353.903 Y-57.09
X-354.088 Y-56.868
X-354.331 Y-56.631
X-354.618 Y-56.449
X-354.935 Y-56.328
X-358.951 Y-55.252
X-359.343 Y-55.167
X-359.606 Y-55.13
X-359.896 Y-55.108
X-360.202 Y-55.107
X-360.517 Y-55.128
X-360.853 Y-55.173
X-361.204 Y-55.246
X-361.563 Y-55.347
X-361.922 Y-55.475
X-362.285 Y-55.633
X-362.649 Y-55.823
X-363.011 Y-56.045
X-363.321 Y-56.266
X-363.544 Y-56.457
X-363.728 Y-56.685
X-363.87 Y-56.941
X-363.963 Y-57.219
X-364.006 Y-57.509
X-364.031 Y-57.71
X-364.172 Y-58.314
X-365.251 Y-62.34
X-365.3 Y-62.566
X-365.334 Y-62.802
X-365.353 Y-63.065
X-365.354 Y-63.35
X-365.335 Y-63.643
X-365.292 Y-63.959
X-365.223 Y-64.294
X-365.128 Y-64.633
X-365.005 Y-64.978
X-364.85 Y-65.333
X-364.663 Y-65.692
X-364.443 Y-66.049
X-364.193 Y-66.4
X-363.914 Y-66.738
X-363.607 Y-67.063
X-363.272 Y-67.371
X-362.909 Y-67.661
X-362.52 Y-67.929
X-362.109 Y-68.173
X-361.678 Y-68.391
X-361.228 Y-68.579
X-360.764 Y-68.737
X-360.287 Y-68.863
X-359.8 Y-68.956
X-359.305 Y-69.016
X-358.807 Y-69.041
X-358.306 Y-69.032
X-357.806 Y-68.987
X-357.31 Y-68.909
X-356.82 Y-68.796
X-356.338 Y-68.649
X-355.864 Y-68.468
X-355.4 Y-68.252
X-354.94 Y-67.999
X-354.485 Y-67.705
X-354.285 Y-67.555
X-354.077 Y-67.371
X-353.903 Y-67.155
X-353.767 Y-66.913
X-353.673 Y-66.652
X-352.248 Y-61.334
X-352.179 Y-61.132
X-352.039 Y-60.73
X-352.007 Y-60.669
X-351.938 Y-60.522
X-351.871 Y-60.347
X-351.813 Y-60.155
X-351.763 Y-59.938
X-351.724 Y-59.7
X-351.702 Y-59.443
X-351.696 Y-59.156
X-351.711 Y-58.86
X-351.749 Y-58.54
X-351.815 Y-58.196
X-351.861 Y-58.021
X-351.985 Y-57.694
X-352.175 Y-57.4
X-352.421 Y-57.152
X-352.715 Y-56.961
X-353.041 Y-56.835
X-354.935 Y-56.328
G3 X-355.6 Y-56.631 I-0.135 J-0.585
X-355.554 Y-57.268 I0.53 J-0.282
G1 X-353.011 Y-60.726
G3 X-352.681 Y-60.951 I0.483 J0.355
X-352.007 Y-60.669 I0.153 J0.58
G1 X-351.933 Y-60.528
X-351.904 Y-60.475
X-351.819 Y-60.327
X-351.702 Y-60.161
X-351.501 Y-59.924
X-351.39 Y-59.817
X-351.288 Y-59.707
X-351.198 Y-59.587
X-351.118 Y-59.46
X-351.048 Y-59.327
X-350.988 Y-59.19
X-350.931 Y-59.031
X-350.877 Y-58.729
X-350.883 Y-58.422
X-350.95 Y-58.122
X-351.075 Y-57.841
X-351.252 Y-57.59
X-351.475 Y-57.379
X-351.736 Y-57.216
X-352.023 Y-57.108
G3 X-352.688 Y-57.411 I-0.135 J-0.585
X-352.745 Y-57.82 I0.53 J-0.282
G1 X-352.379 Y-59.499
G3 X-351.39 Y-59.817 I0.586 J0.128
G1 X-351.294 Y-59.723
X-351.196 Y-59.641
X-351.098 Y-59.571
X-350.793 Y-59.375
X-350.671 Y-59.288
X-350.559 Y-59.188
X-350.404 Y-58.946
X-350.315 Y-58.674
X-350.295 Y-58.387
X-350.347 Y-58.105
X-350.467 Y-57.845
X-350.648 Y-57.622
X-350.879 Y-57.452
X-351.145 Y-57.343
G3 X-351.905 Y-57.452 I-0.239 J-1.037
X-351.985 Y-57.502 I0.521 J-0.928
X-351.55 Y-59.513 I0.628 J-0.916
X-350.793 Y-59.375 I0.192 J1.094
G1 X-350.708 Y-59.321
X-350.494 Y-59.22
X-350.334 Y-59.159
X-350.196 Y-59.099
X-350.072 Y-59.015
X-349.931 Y-58.83
X-349.842 Y-58.615
X-349.812 Y-58.384
X-349.843 Y-58.153
X-349.932 Y-57.938
X-350.074 Y-57.754
X-350.259 Y-57.612
X-350.474 Y-57.523
G3 X-350.95 Y-57.567 I-0.172 J-0.743
X-351.198 Y-57.731 I0.341 J-0.784
X-350.334 Y-59.159 I0.589 J-0.619
G1 X-350.293 Y-59.144
X-350.222 Y-59.119
X-350.091 Y-59.08
X-349.89 Y-59.034
X-349.744 Y-59.001
X-349.616 Y-58.922
X-349.479 Y-58.745
X-349.401 Y-58.535
X-349.389 Y-58.312
X-349.445 Y-58.095
X-349.562 Y-57.904
X-349.731 Y-57.757
X-349.936 Y-57.667
G3 X-350.176 Y-57.676 I-0.104 J-0.453
X-350.585 Y-58.01 I0.204 J-0.666
X-349.89 Y-59.034 I0.613 J-0.332
G1 X-349.578 Y-58.987
X-349.487 Y-58.973
X-349.413 Y-58.951
X-349.339 Y-58.918
X-349.286 Y-58.886
X-349.199 Y-58.817
X-349.151 Y-58.767
X-349.112 Y-58.717
X-349.085 Y-58.673
X-349.047 Y-58.594
X-349.023 Y-58.515
X-349.008 Y-58.415
X-349.01 Y-58.314
X-349.029 Y-58.213
X-349.046 Y-58.163
X-349.068 Y-58.113
X-349.085 Y-58.081
X-349.143 Y-57.996
X-349.185 Y-57.949
X-349.228 Y-57.911
X-349.286 Y-57.869
X-349.336 Y-57.841
X-349.387 Y-57.818
X-349.487 Y-57.787
X-353.041 Y-56.835
G3 X-353.419 Y-56.871 I-0.135 J-0.585
G1 X-353.784 Y-57.033
X-364.672 Y-61.857
X-364.92 Y-61.967
G3 X-365.251 Y-62.34 I0.243 J-0.549
G1 X-365.79 Y-64.353
X-365.84 Y-64.583
X-365.865 Y-64.758
X-365.88 Y-64.959
X-365.881 Y-65.172
X-365.865 Y-65.409
X-365.831 Y-65.665
X-365.775 Y-65.932
X-365.693 Y-66.227
X-365.587 Y-66.524
X-365.449 Y-66.838
X-365.276 Y-67.171
X-365.073 Y-67.501
X-364.836 Y-67.833
X-364.558 Y-68.172
X-364.238 Y-68.509
X-363.883 Y-68.835
X-363.498 Y-69.143
X-363.079 Y-69.433
X-362.623 Y-69.703
X-362.136 Y-69.948
X-361.62 Y-70.165
X-361.08 Y-70.348
X-360.52 Y-70.496
X-359.943 Y-70.606
X-359.354 Y-70.677
X-358.756 Y-70.708
X-358.153 Y-70.696
X-357.548 Y-70.643
X-356.945 Y-70.547
X-356.343 Y-70.409
X-355.746 Y-70.227
X-355.212 Y-70.022
X-355.193 Y-70.013
X-354.94 Y-69.868
X-354.717 Y-69.681
X-354.53 Y-69.458
X-354.384 Y-69.206
X-354.284 Y-68.933
X-353.673 Y-66.652
G3 X-353.976 Y-65.987 I-0.585 J0.135
X-354.151 Y-65.927 I-0.282 J-0.53
G1 X-365.11 Y-63.938
G3 X-365.196 Y-63.929 I-0.107 J-0.59
X-365.79 Y-64.353 I-0.021 J-0.6
G1 X-366.276 Y-66.165
X-366.307 Y-66.312
X-366.331 Y-66.479
X-366.343 Y-66.656
Y-66.858
X-366.328 Y-67.073
X-366.295 Y-67.309
X-366.242 Y-67.564
X-366.166 Y-67.83
X-366.06 Y-68.124
X-365.93 Y-68.418
X-365.764 Y-68.734
X-365.559 Y-69.064
X-365.327 Y-69.388
X-365.048 Y-69.724
X-364.72 Y-70.066
X-364.356 Y-70.399
X-363.956 Y-70.716
X-363.506 Y-71.025
X-363.009 Y-71.317
X-362.47 Y-71.585
X-361.893 Y-71.824
X-361.288 Y-72.027
X-360.659 Y-72.191
X-360.007 Y-72.313
X-359.332 Y-72.392
X-358.641 Y-72.424
X-357.938 Y-72.408
X-357.227 Y-72.343
X-356.599 Y-72.241
X-356.108 Y-72.125
X-355.932 Y-72.071
X-355.622 Y-71.94
X-355.346 Y-71.75
X-355.113 Y-71.508
X-354.933 Y-71.224
X-354.814 Y-70.91
X-354.284 Y-68.933
G3 X-354.587 Y-68.268 I-0.585 J0.135
X-354.736 Y-68.213 I-0.282 J-0.53
G1 X-365.569 Y-65.755
G3 X-365.681 Y-65.741 I-0.133 J-0.585
X-366.276 Y-66.165 I-0.021 J-0.6
G1 X-366.707 Y-67.775
X-366.744 Y-67.944
X-366.766 Y-68.102
X-366.779 Y-68.276
X-366.78 Y-68.466
X-366.766 Y-68.677
X-366.736 Y-68.902
X-366.684 Y-69.152
X-366.612 Y-69.409
X-366.509 Y-69.697
X-366.384 Y-69.984
X-366.221 Y-70.296
X-366.021 Y-70.622
X-365.79 Y-70.946
X-365.507 Y-71.29
X-365.177 Y-71.638
X-364.814 Y-71.972
X-364.391 Y-72.31
X-363.91 Y-72.642
X-363.38 Y-72.956
X-362.818 Y-73.239
X-362.21 Y-73.494
X-361.553 Y-73.718
X-360.853 Y-73.903
X-360.118 Y-74.043
X-359.354 Y-74.135
X-358.588 Y-74.174
X-357.862 Y-74.16
X-357.297 Y-74.111
X-356.857 Y-74.041
X-356.453 Y-73.948
X-356.439 Y-73.943
X-356.128 Y-73.813
X-355.85 Y-73.623
X-355.616 Y-73.38
X-355.435 Y-73.096
X-355.315 Y-72.781
X-354.814 Y-70.91
G3 X-355.246 Y-70.195 I-0.585 J0.135
G1 X-365.981 Y-67.371
G3 X-366.707 Y-67.775 I-0.153 J-0.58
G1 X-367.139 Y-69.386
X-367.175 Y-69.552
X-367.197 Y-69.704
X-367.209 Y-69.88
X-367.21 Y-70.065
X-367.196 Y-70.278
X-367.166 Y-70.499
X-367.114 Y-70.75
X-367.043 Y-71.005
X-366.941 Y-71.292
X-366.815 Y-71.58
X-366.651 Y-71.894
X-366.449 Y-72.223
X-366.214 Y-72.553
X-365.921 Y-72.908
X-365.587 Y-73.261
X-365.21 Y-73.607
X-364.77 Y-73.96
X-364.265 Y-74.309
X-363.719 Y-74.632
X-363.124 Y-74.932
X-362.462 Y-75.209
X-361.742 Y-75.454
X-360.975 Y-75.657
X-360.182 Y-75.809
X-359.41 Y-75.902
X-358.686 Y-75.938
X-358.1 Y-75.927
X-357.609 Y-75.884
X-357.231 Y-75.824
X-357.034 Y-75.779
X-356.749 Y-75.685
X-356.485 Y-75.542
X-356.251 Y-75.354
X-356.055 Y-75.126
X-355.902 Y-74.868
X-355.799 Y-74.586
X-355.315 Y-72.781
G3 X-355.618 Y-72.116 I-0.585 J0.135
X-355.733 Y-72.069 I-0.282 J-0.53
G1 X-366.399 Y-68.985
G3 X-367.139 Y-69.386 I-0.167 J-0.576
G1 X-367.571 Y-70.996
X-367.604 Y-71.152
X-367.626 Y-71.304
X-367.639 Y-71.48
Y-71.666
X-367.625 Y-71.879
X-367.595 Y-72.102
X-367.543 Y-72.354
X-367.471 Y-72.612
X-367.367 Y-72.902
X-367.241 Y-73.193
X-367.073 Y-73.514
X-366.871 Y-73.843
X-366.627 Y-74.185
X-366.326 Y-74.55
X-365.991 Y-74.905
X-365.598 Y-75.266
X-365.134 Y-75.637
X-364.612 Y-75.997
X-364.048 Y-76.332
X-363.404 Y-76.656
X-362.691 Y-76.955
X-361.929 Y-77.214
X-361.14 Y-77.422
X-360.365 Y-77.571
X-359.626 Y-77.66
X-358.977 Y-77.692
X-358.444 Y-77.682
X-358.025 Y-77.646
X-357.642 Y-77.585
X-357.51 Y-77.554
X-357.225 Y-77.461
X-356.961 Y-77.318
X-356.727 Y-77.129
X-356.531 Y-76.902
X-356.378 Y-76.643
X-356.275 Y-76.362
X-355.799 Y-74.586
G3 X-356.102 Y-73.921 I-0.585 J0.135
X-356.206 Y-73.878 I-0.282 J-0.53
G1 X-366.82 Y-70.599
G3 X-366.976 Y-70.572 I-0.177 J-0.573
X-367.571 Y-70.996 I-0.021 J-0.6
G1 X-368.002 Y-72.607
X-368.034 Y-72.757
X-368.056 Y-72.911
X-368.069 Y-73.087
X-368.07 Y-73.277
X-368.056 Y-73.489
X-368.025 Y-73.717
X-367.973 Y-73.97
X-367.9 Y-74.232
X-367.795 Y-74.526
X-367.666 Y-74.82
X-367.493 Y-75.152
X-367.291 Y-75.482
X-367.039 Y-75.835
X-366.731 Y-76.209
X-366.391 Y-76.568
X-365.978 Y-76.948
X-365.49 Y-77.338
X-364.965 Y-77.701
X-364.363 Y-78.058
X-363.684 Y-78.399
X-362.948 Y-78.708
X-362.176 Y-78.97
X-361.398 Y-79.176
X-360.645 Y-79.32
X-359.94 Y-79.405
X-359.351 Y-79.435
X-358.848 Y-79.425
X-358.444 Y-79.39
X-358.082 Y-79.332
X-357.98 Y-79.309
X-357.695 Y-79.215
X-357.431 Y-79.072
X-357.197 Y-78.884
X-357.001 Y-78.657
X-356.848 Y-78.398
X-356.745 Y-78.116
X-356.275 Y-76.362
G3 X-356.578 Y-75.697 I-0.585 J0.135
X-356.673 Y-75.656 I-0.282 J-0.53
G1 X-367.242 Y-72.212
G3 X-367.407 Y-72.183 I-0.186 J-0.57
X-368.002 Y-72.607 I-0.021 J-0.6
G1 X-368.415 Y-74.147
X-368.465 Y-74.379
X-368.487 Y-74.535
X-368.5 Y-74.711
X-368.501 Y-74.904
X-368.487 Y-75.117
X-368.455 Y-75.35
X-368.403 Y-75.602
X-368.328 Y-75.87
X-368.223 Y-76.165
X-368.091 Y-76.467
X-367.914 Y-76.806
X-367.709 Y-77.14
X-367.449 Y-77.505
X-367.139 Y-77.88
X-366.786 Y-78.254
X-366.353 Y-78.651
X-365.858 Y-79.047
X-365.316 Y-79.422
X-364.69 Y-79.793
X-363.995 Y-80.143
X-363.252 Y-80.455
X-362.482 Y-80.716
X-361.721 Y-80.917
X-360.987 Y-81.058
X-360.306 Y-81.14
X-359.755 Y-81.168
X-359.274 Y-81.159
X-358.878 Y-81.124
X-358.528 Y-81.068
X-358.447 Y-81.049
X-358.161 Y-80.956
X-357.897 Y-80.813
X-357.664 Y-80.624
X-357.467 Y-80.397
X-357.315 Y-80.139
X-357.211 Y-79.857
X-356.745 Y-78.116
G3 X-357.048 Y-77.451 I-0.585 J0.135
X-357.132 Y-77.415 I-0.282 J-0.53
G1 X-367.644 Y-73.755
G3 X-367.82 Y-73.722 I-0.197 J-0.567
X-368.415 Y-74.147 I-0.021 J-0.6
G1 X-368.865 Y-75.828
X-368.903 Y-76.004
X-368.926 Y-76.164
X-368.939 Y-76.34
X-368.94 Y-76.538
X-368.926 Y-76.751
X-368.893 Y-76.99
X-368.841 Y-77.242
X-368.764 Y-77.518
X-368.659 Y-77.813
X-368.522 Y-78.126
X-368.343 Y-78.468
X-368.133 Y-78.81
X-367.864 Y-79.188
X-367.555 Y-79.563
X-367.187 Y-79.952
X-366.739 Y-80.363
X-366.244 Y-80.759
X-365.684 Y-81.146
X-365.043 Y-81.526
X-364.341 Y-81.88
X-363.597 Y-82.192
X-362.832 Y-82.452
X-362.084 Y-82.649
X-361.366 Y-82.787
X-360.705 Y-82.866
X-360.175 Y-82.893
X-359.711 Y-82.884
X-359.32 Y-82.85
X-358.979 Y-82.796
X-358.91 Y-82.78
X-358.625 Y-82.687
X-358.361 Y-82.543
X-358.127 Y-82.355
X-357.931 Y-82.128
X-357.778 Y-81.869
X-357.675 Y-81.587
X-357.211 Y-79.857
G3 X-357.514 Y-79.192 I-0.585 J0.135
X-357.595 Y-79.156 I-0.282 J-0.53
G1 X-368.091 Y-75.438
G3 X-368.27 Y-75.404 I-0.2 J-0.566
X-368.865 Y-75.828 I-0.021 J-0.6
G1 X-369.297 Y-77.438
X-369.342 Y-77.651
X-369.366 Y-77.813
X-369.379 Y-77.989
Y-78.192
X-369.365 Y-78.405
X-369.332 Y-78.648
X-369.28 Y-78.9
X-369.201 Y-79.183
X-369.096 Y-79.478
X-368.955 Y-79.8
X-368.776 Y-80.143
X-368.561 Y-80.494
X-368.285 Y-80.88
X-367.975 Y-81.257
X-367.596 Y-81.657
X-367.139 Y-82.077
X-366.642 Y-82.474
X-366.07 Y-82.87
X-365.421 Y-83.255
X-364.716 Y-83.61
X-363.973 Y-83.921
X-363.214 Y-84.179
X-362.475 Y-84.374
X-361.769 Y-84.51
X-361.123 Y-84.587
X-360.607 Y-84.613
X-360.155 Y-84.605
X-359.767 Y-84.571
X-359.431 Y-84.517
X-359.372 Y-84.504
X-359.087 Y-84.41
X-358.823 Y-84.267
X-358.589 Y-84.079
X-358.393 Y-83.852
X-358.24 Y-83.593
X-358.137 Y-83.311
X-357.675 Y-81.587
G3 X-357.978 Y-80.923 I-0.585 J0.135
X-358.053 Y-80.889 I-0.282 J-0.53
G1 X-368.516 Y-77.05
G3 X-368.702 Y-77.014 I-0.207 J-0.563
X-369.297 Y-77.438 I-0.021 J-0.6
G1 X-369.758 Y-79.159
X-369.789 Y-79.306
X-369.813 Y-79.472
X-369.826 Y-79.648
Y-79.856
X-369.812 Y-80.07
X-369.778 Y-80.317
X-369.725 Y-80.571
X-369.644 Y-80.86
X-369.538 Y-81.157
X-369.393 Y-81.487
X-369.213 Y-81.831
X-368.993 Y-82.189
X-368.712 Y-82.582
X-368.398 Y-82.962
X-368.01 Y-83.371
X-367.546 Y-83.796
X-367.044 Y-84.196
X-366.463 Y-84.597
X-365.809 Y-84.984
X-365.101 Y-85.339
X-364.358 Y-85.649
X-363.604 Y-85.905
X-362.872 Y-86.097
X-362.174 Y-86.23
X-361.543 Y-86.305
X-361.037 Y-86.33
X-360.596 Y-86.321
X-360.21 Y-86.287
X-359.88 Y-86.234
X-359.831 Y-86.222
X-359.546 Y-86.129
X-359.283 Y-85.985
X-359.049 Y-85.797
X-358.853 Y-85.57
X-358.701 Y-85.312
X-358.597 Y-85.03
X-358.137 Y-83.311
G3 X-358.44 Y-82.646 I-0.585 J0.135
X-358.515 Y-82.613 I-0.282 J-0.53
G1 X-368.977 Y-78.772
G3 X-369.758 Y-79.159 I-0.207 J-0.563
G1 X-370.214 Y-80.86
X-370.245 Y-81.007
X-370.267 Y-81.177
X-370.277 Y-81.36
X-370.275 Y-81.572
X-370.256 Y-81.794
X-370.218 Y-82.046
X-370.159 Y-82.309
X-370.072 Y-82.603
X-369.957 Y-82.91
X-369.804 Y-83.245
X-369.61 Y-83.601
X-369.38 Y-83.963
X-369.085 Y-84.363
X-368.752 Y-84.754
X-368.351 Y-85.164
X-367.87 Y-85.593
X-367.334 Y-86.006
X-366.743 Y-86.401
X-366.078 Y-86.781
X-365.362 Y-87.127
X-364.614 Y-87.426
X-363.859 Y-87.669
X-363.132 Y-87.849
X-362.466 Y-87.965
X-361.862 Y-88.028
X-361.374 Y-88.044
X-360.968 Y-88.03
X-360.585 Y-87.99
X-360.379 Y-87.954
X-360.075 Y-87.871
X-359.792 Y-87.731
X-359.541 Y-87.542
X-359.33 Y-87.308
X-359.166 Y-87.039
X-359.057 Y-86.744
X-358.597 Y-85.03
G3 X-358.9 Y-84.365 I-0.585 J0.135
X-358.974 Y-84.332 I-0.282 J-0.53
G1 X-369.432 Y-80.473
G3 X-370.214 Y-80.86 I-0.208 J-0.563
G1 X-370.63 Y-82.413
X-370.683 Y-82.66
X-370.707 Y-82.827
X-370.72 Y-83.006
X-370.721 Y-83.21
X-370.706 Y-83.432
X-370.673 Y-83.676
X-370.619 Y-83.939
X-370.538 Y-84.227
X-370.43 Y-84.53
X-370.283 Y-84.866
X-370.105 Y-85.207
X-369.871 Y-85.589
X-369.603 Y-85.965
X-369.272 Y-86.366
X-368.87 Y-86.791
X-368.429 Y-87.196
X-367.909 Y-87.611
X-367.311 Y-88.025
X-366.647 Y-88.419
X-365.939 Y-88.775
X-365.204 Y-89.083
X-364.461 Y-89.336
X-363.746 Y-89.525
X-363.07 Y-89.654
X-362.45 Y-89.729
X-361.93 Y-89.755
X-361.519 Y-89.747
X-361.124 Y-89.713
X-360.799 Y-89.661
X-360.751 Y-89.65
X-360.466 Y-89.556
X-360.202 Y-89.413
X-359.968 Y-89.225
X-359.772 Y-88.998
X-359.619 Y-88.739
X-359.516 Y-88.457
X-359.057 Y-86.744
G3 X-359.36 Y-86.079 I-0.585 J0.135
X-359.425 Y-86.049 I-0.282 J-0.53
G1 X-369.84 Y-82.028
G3 X-370.035 Y-81.988 I-0.216 J-0.56
X-370.63 Y-82.413 I-0.021 J-0.6
G1 X-371.106 Y-84.192
X-371.138 Y-84.339
X-371.162 Y-84.51
X-371.175 Y-84.689
X-371.176 Y-84.9
X-371.161 Y-85.117
X-371.126 Y-85.37
X-371.073 Y-85.628
X-370.988 Y-85.927
X-370.881 Y-86.228
X-370.732 Y-86.568
X-370.551 Y-86.912
X-370.322 Y-87.284
X-370.038 Y-87.681
X-369.714 Y-88.073
X-369.311 Y-88.498
X-368.841 Y-88.928
X-368.329 Y-89.337
X-367.735 Y-89.746
X-367.074 Y-90.136
X-366.367 Y-90.491
X-365.632 Y-90.798
X-364.89 Y-91.049
X-364.166 Y-91.239
X-363.488 Y-91.368
X-362.874 Y-91.441
X-362.381 Y-91.465
X-361.953 Y-91.456
X-361.571 Y-91.422
X-361.245 Y-91.37
X-361.207 Y-91.361
X-360.923 Y-91.267
X-360.659 Y-91.124
X-360.426 Y-90.936
X-360.23 Y-90.709
X-360.078 Y-90.45
X-359.974 Y-90.169
X-359.516 Y-88.457
G3 X-359.819 Y-87.793 I-0.585 J0.135
X-359.888 Y-87.761 I-0.282 J-0.53
G1 X-370.32 Y-83.807
G3 X-371.106 Y-84.192 I-0.213 J-0.561
G1 X-371.562 Y-85.893
X-371.594 Y-86.04
X-371.617 Y-86.212
X-371.63 Y-86.392
X-371.629 Y-86.605
X-371.614 Y-86.824
X-371.577 Y-87.08
X-371.522 Y-87.339
X-371.436 Y-87.64
X-371.326 Y-87.942
X-371.173 Y-88.288
X-370.99 Y-88.635
X-370.756 Y-89.011
X-370.467 Y-89.411
X-370.139 Y-89.805
X-369.732 Y-90.23
X-369.256 Y-90.662
X-368.739 Y-91.071
X-368.142 Y-91.478
X-367.479 Y-91.867
X-366.767 Y-92.22
X-366.028 Y-92.525
X-365.284 Y-92.773
X-364.566 Y-92.958
X-363.893 Y-93.083
X-363.288 Y-93.152
X-362.801 Y-93.174
X-362.385 Y-93.164
X-362.003 Y-93.128
X-361.682 Y-93.075
X-361.659 Y-93.07
X-361.376 Y-92.975
X-361.114 Y-92.832
X-360.882 Y-92.644
X-360.687 Y-92.417
X-360.536 Y-92.16
X-360.433 Y-91.879
X-359.974 Y-90.169
G3 X-360.277 Y-89.504 I-0.585 J0.135
X-360.346 Y-89.473 I-0.282 J-0.53
G1 X-370.775 Y-85.508
G3 X-371.562 Y-85.893 I-0.213 J-0.561
G1 X-371.994 Y-87.504
X-372.042 Y-87.728
X-372.066 Y-87.899
X-372.08 Y-88.078
Y-88.287
X-372.066 Y-88.508
X-372.032 Y-88.759
X-371.978 Y-89.02
X-371.895 Y-89.317
X-371.787 Y-89.62
X-371.636 Y-89.965
X-371.457 Y-90.308
X-371.223 Y-90.689
X-370.946 Y-91.078
X-370.616 Y-91.478
X-370.21 Y-91.908
X-369.753 Y-92.327
X-369.235 Y-92.741
X-368.636 Y-93.155
X-367.973 Y-93.548
X-367.264 Y-93.905
X-366.529 Y-94.214
X-365.789 Y-94.465
X-365.075 Y-94.654
X-364.399 Y-94.783
X-363.783 Y-94.857
X-363.295 Y-94.882
X-362.867 Y-94.874
X-362.489 Y-94.84
X-362.163 Y-94.789
X-362.126 Y-94.78
X-361.841 Y-94.687
X-361.577 Y-94.544
X-361.343 Y-94.355
X-361.146 Y-94.128
X-360.994 Y-93.869
X-360.89 Y-93.588
X-360.433 Y-91.879
G3 X-360.736 Y-91.215 I-0.585 J0.135
X-360.799 Y-91.186 I-0.282 J-0.53
G1 X-371.201 Y-87.12
G3 X-371.399 Y-87.079 I-0.218 J-0.559
X-371.994 Y-87.504 I-0.021 J-0.6
G1 X-372.462 Y-89.253
X-372.499 Y-89.421
X-372.523 Y-89.593
X-372.536 Y-89.772
X-372.537 Y-89.984
X-372.523 Y-90.203
X-372.488 Y-90.457
X-372.435 Y-90.717
X-372.351 Y-91.017
X-372.243 Y-91.319
X-372.092 Y-91.665
X-371.912 Y-92.009
X-371.68 Y-92.387
X-371.398 Y-92.783
X-371.07 Y-93.181
X-370.664 Y-93.609
X-370.197 Y-94.039
X-369.681 Y-94.451
X-369.085 Y-94.863
X-368.423 Y-95.256
X-367.715 Y-95.612
X-366.98 Y-95.921
X-366.238 Y-96.173
X-365.523 Y-96.362
X-364.846 Y-96.491
X-364.237 Y-96.565
X-363.748 Y-96.589
X-363.325 Y-96.581
X-362.945 Y-96.548
X-362.62 Y-96.496
X-362.583 Y-96.488
X-362.298 Y-96.394
X-362.034 Y-96.251
X-361.8 Y-96.063
X-361.604 Y-95.836
X-361.451 Y-95.577
X-361.348 Y-95.295
X-360.89 Y-93.588
G3 X-361.193 Y-92.923 I-0.585 J0.135
X-361.259 Y-92.893 I-0.282 J-0.53
G1 X-371.672 Y-88.868
G3 X-371.868 Y-88.828 I-0.216 J-0.56
X-372.462 Y-89.253 I-0.021 J-0.6
G1 X-372.911 Y-90.926
X-372.953 Y-91.123
X-372.978 Y-91.295
X-372.991 Y-91.474
X-372.992 Y-91.686
X-372.977 Y-91.905
X-372.943 Y-92.159
X-372.889 Y-92.419
X-372.805 Y-92.719
X-372.697 Y-93.022
X-372.546 Y-93.369
X-372.366 Y-93.713
X-372.133 Y-94.092
X-371.851 Y-94.489
X-371.522 Y-94.887
X-371.116 Y-95.316
X-370.649 Y-95.745
X-370.133 Y-96.158
X-369.536 Y-96.57
X-368.874 Y-96.963
X-368.165 Y-97.32
X-367.429 Y-97.629
X-366.689 Y-97.88
X-365.974 Y-98.069
X-365.299 Y-98.198
X-364.692 Y-98.271
X-364.204 Y-98.296
X-363.781 Y-98.288
X-363.401 Y-98.255
X-363.077 Y-98.203
X-363.041 Y-98.195
X-362.755 Y-98.101
X-362.492 Y-97.958
X-362.258 Y-97.77
X-362.061 Y-97.543
X-361.909 Y-97.284
X-361.805 Y-97.002
X-361.348 Y-95.295
G3 X-361.651 Y-94.63 I-0.585 J0.135
X-361.715 Y-94.601 I-0.282 J-0.53
G1 X-372.119 Y-90.542
G3 X-372.316 Y-90.502 I-0.218 J-0.559
X-372.911 Y-90.926 I-0.021 J-0.6
G1 X-373.372 Y-92.647
X-373.41 Y-92.823
X-373.434 Y-92.995
X-373.447 Y-93.174
X-373.448 Y-93.386
X-373.434 Y-93.606
X-373.399 Y-93.861
X-373.346 Y-94.121
X-373.261 Y-94.421
X-373.153 Y-94.724
X-373.002 Y-95.072
X-372.822 Y-95.417
X-372.588 Y-95.797
X-372.306 Y-96.193
X-371.977 Y-96.592
X-371.57 Y-97.022
X-371.103 Y-97.451
X-370.586 Y-97.864
X-369.989 Y-98.277
X-369.326 Y-98.671
X-368.617 Y-99.027
X-367.881 Y-99.336
X-367.141 Y-99.587
X-366.427 Y-99.776
X-365.754 Y-99.905
X-365.147 Y-99.978
X-364.659 Y-100.003
X-364.237 Y-99.995
X-363.857 Y-99.961
X-363.534 Y-99.91
X-363.498 Y-99.902
X-363.213 Y-99.808
X-362.949 Y-99.665
X-362.715 Y-99.477
X-362.519 Y-99.249
X-362.366 Y-98.991
X-362.263 Y-98.709
X-361.805 Y-97.002
G3 X-362.108 Y-96.337 I-0.585 J0.135
X-362.173 Y-96.308 I-0.282 J-0.53
G1 X-372.581 Y-92.263
G3 X-372.777 Y-92.223 I-0.217 J-0.559
X-373.372 Y-92.647 I-0.021 J-0.6
G1 X-373.828 Y-94.348
X-373.866 Y-94.526
X-373.891 Y-94.698
X-373.904 Y-94.877
Y-95.089
X-373.89 Y-95.309
X-373.856 Y-95.564
X-373.802 Y-95.824
X-373.717 Y-96.125
X-373.609 Y-96.428
X-373.457 Y-96.776
X-373.277 Y-97.121
X-373.044 Y-97.501
X-372.761 Y-97.898
X-372.432 Y-98.298
X-372.025 Y-98.728
X-371.558 Y-99.157
X-371.04 Y-99.571
X-370.442 Y-99.984
X-369.779 Y-100.377
X-369.07 Y-100.734
X-368.335 Y-101.042
X-367.595 Y-101.294
X-366.882 Y-101.482
X-366.208 Y-101.611
X-365.602 Y-101.684
X-365.115 Y-101.709
X-364.694 Y-101.701
X-364.314 Y-101.667
X-363.99 Y-101.616
X-363.955 Y-101.608
X-363.67 Y-101.514
X-363.406 Y-101.371
X-363.172 Y-101.183
X-362.976 Y-100.956
X-362.823 Y-100.697
X-362.72 Y-100.415
X-362.263 Y-98.709
G3 X-362.566 Y-98.044 I-0.585 J0.135
X-362.63 Y-98.015 I-0.282 J-0.53
G1 X-373.036 Y-93.964
G3 X-373.233 Y-93.924 I-0.218 J-0.559
X-373.828 Y-94.348 I-0.021 J-0.6
G1 X-374.289 Y-96.069
X-374.323 Y-96.228
X-374.348 Y-96.4
X-374.361 Y-96.58
X-374.362 Y-96.792
X-374.347 Y-97.012
X-374.313 Y-97.267
X-374.259 Y-97.527
X-374.174 Y-97.828
X-374.066 Y-98.132
X-373.914 Y-98.48
X-373.734 Y-98.825
X-373.5 Y-99.206
X-373.218 Y-99.602
X-372.888 Y-100.003
X-372.48 Y-100.433
X-372.013 Y-100.863
X-371.495 Y-101.277
X-370.897 Y-101.69
X-370.234 Y-102.084
X-369.525 Y-102.44
X-368.789 Y-102.749
X-368.05 Y-103
X-367.337 Y-103.188
X-366.664 Y-103.317
X-366.058 Y-103.39
X-365.572 Y-103.415
X-365.15 Y-103.407
X-364.771 Y-103.373
X-364.447 Y-103.322
X-364.413 Y-103.314
X-364.127 Y-103.221
X-363.863 Y-103.077
X-363.629 Y-102.889
X-363.433 Y-102.662
X-363.281 Y-102.403
X-363.177 Y-102.121
X-362.72 Y-100.415
G3 X-363.023 Y-99.75 I-0.585 J0.135
X-363.088 Y-99.721 I-0.282 J-0.53
G1 X-373.498 Y-95.685
G3 X-373.694 Y-95.645 I-0.217 J-0.559
X-374.289 Y-96.069 I-0.021 J-0.6
G1 X-374.745 Y-97.77
X-374.779 Y-97.932
X-374.804 Y-98.105
X-374.817 Y-98.284
X-374.818 Y-98.496
X-374.804 Y-98.716
X-374.769 Y-98.971
X-374.715 Y-99.232
X-374.631 Y-99.533
X-374.523 Y-99.837
X-374.371 Y-100.185
X-374.19 Y-100.53
X-373.956 Y-100.911
X-373.674 Y-101.308
X-373.344 Y-101.708
X-372.936 Y-102.139
X-372.469 Y-102.568
X-371.95 Y-102.983
X-371.352 Y-103.396
X-370.689 Y-103.79
X-369.98 Y-104.147
X-369.244 Y-104.455
X-368.505 Y-104.706
X-367.792 Y-104.895
X-367.12 Y-105.023
X-366.514 Y-105.096
X-366.028 Y-105.121
X-365.607 Y-105.113
X-365.228 Y-105.079
X-364.904 Y-105.028
X-364.87 Y-105.02
X-364.584 Y-104.927
X-364.32 Y-104.783
X-364.086 Y-104.595
X-363.89 Y-104.368
X-363.738 Y-104.109
X-363.634 Y-103.827
X-363.177 Y-102.121
G3 X-363.48 Y-101.457 I-0.585 J0.135
X-363.545 Y-101.427 I-0.282 J-0.53
G1 X-373.954 Y-97.386
G3 X-374.15 Y-97.346 I-0.217 J-0.559
X-374.745 Y-97.77 I-0.021 J-0.6
G1 X-375.206 Y-99.492
X-375.237 Y-99.638
X-375.262 Y-99.811
X-375.275 Y-99.991
Y-100.204
X-375.261 Y-100.424
X-375.226 Y-100.68
X-375.171 Y-100.941
X-375.086 Y-101.243
X-374.978 Y-101.547
X-374.825 Y-101.896
X-374.644 Y-102.241
X-374.409 Y-102.623
X-374.125 Y-103.021
X-373.794 Y-103.421
X-373.385 Y-103.852
X-372.915 Y-104.283
X-372.396 Y-104.696
X-371.797 Y-105.109
X-371.133 Y-105.502
X-370.423 Y-105.858
X-369.687 Y-106.166
X-368.948 Y-106.416
X-368.235 Y-106.603
X-367.564 Y-106.731
X-366.961 Y-106.803
X-366.476 Y-106.827
X-366.058 Y-106.818
X-365.678 Y-106.784
X-365.356 Y-106.733
X-365.325 Y-106.726
X-365.04 Y-106.632
X-364.776 Y-106.489
X-364.543 Y-106.3
X-364.347 Y-106.073
X-364.195 Y-105.815
X-364.091 Y-105.533
X-363.634 Y-103.827
G3 X-363.937 Y-103.163 I-0.585 J0.135
X-364.002 Y-103.133 I-0.282 J-0.53
G1 X-374.416 Y-99.107
G3 X-374.611 Y-99.067 I-0.216 J-0.56
X-375.206 Y-99.492 I-0.021 J-0.6
G1 X-375.662 Y-101.193
X-375.693 Y-101.341
X-375.718 Y-101.513
X-375.731 Y-101.693
X-375.732 Y-101.905
X-375.718 Y-102.125
X-375.683 Y-102.38
X-375.629 Y-102.641
X-375.545 Y-102.942
X-375.436 Y-103.246
X-375.284 Y-103.595
X-375.104 Y-103.94
X-374.869 Y-104.323
X-374.588 Y-104.717
X-374.257 Y-105.119
X-373.848 Y-105.551
X-373.383 Y-105.978
X-372.863 Y-106.394
X-372.264 Y-106.808
X-371.6 Y-107.202
X-370.891 Y-107.559
X-370.156 Y-107.867
X-369.417 Y-108.118
X-368.705 Y-108.306
X-368.033 Y-108.435
X-367.427 Y-108.508
X-366.942 Y-108.532
X-366.52 Y-108.524
X-366.141 Y-108.491
X-365.818 Y-108.44
X-365.784 Y-108.432
X-365.499 Y-108.338
X-365.235 Y-108.195
X-365.001 Y-108.007
X-364.804 Y-107.78
X-364.652 Y-107.521
X-364.548 Y-107.239
X-364.091 Y-105.533
G3 X-364.394 Y-104.869 I-0.585 J0.135
X-364.459 Y-104.839 I-0.282 J-0.53
G1 X-374.871 Y-100.809
G3 X-375.662 Y-101.193 I-0.217 J-0.56
G1 X-376.093 Y-102.803
X-376.147 Y-103.052
X-376.171 Y-103.224
X-376.184 Y-103.403
X-376.185 Y-103.615
X-376.171 Y-103.835
X-376.136 Y-104.09
X-376.083 Y-104.35
X-375.998 Y-104.651
X-375.89 Y-104.955
X-375.738 Y-105.303
X-375.558 Y-105.648
X-375.324 Y-106.029
X-375.041 Y-106.425
X-374.711 Y-106.826
X-374.303 Y-107.257
X-373.836 Y-107.686
X-373.318 Y-108.101
X-372.719 Y-108.514
X-372.056 Y-108.908
X-371.347 Y-109.265
X-370.612 Y-109.573
X-369.873 Y-109.824
X-369.161 Y-110.012
X-368.489 Y-110.141
X-367.884 Y-110.213
X-367.398 Y-110.238
X-366.978 Y-110.23
X-366.598 Y-110.197
X-366.275 Y-110.145
X-366.241 Y-110.138
X-365.956 Y-110.044
X-365.692 Y-109.901
X-365.458 Y-109.713
X-365.261 Y-109.485
X-365.109 Y-109.227
X-365.005 Y-108.945
X-364.548 Y-107.239
G3 X-364.851 Y-106.574 I-0.585 J0.135
X-364.911 Y-106.547 I-0.282 J-0.53
G1 X-375.298 Y-102.421
G3 X-376.093 Y-102.803 I-0.221 J-0.558
G1 X-376.579 Y-104.615
X-376.61 Y-104.762
X-376.634 Y-104.936
X-376.646 Y-105.117
Y-105.333
X-376.63 Y-105.554
X-376.593 Y-105.812
X-376.538 Y-106.074
X-376.45 Y-106.379
X-376.339 Y-106.684
X-376.184 Y-107.034
X-375.999 Y-107.383
X-375.762 Y-107.764
X-375.471 Y-108.167
X-375.138 Y-108.566
X-374.726 Y-108.996
X-374.246 Y-109.432
X-373.724 Y-109.844
X-373.123 Y-110.254
X-372.456 Y-110.645
X-371.744 Y-110.998
X-371.006 Y-111.302
X-370.265 Y-111.548
X-369.552 Y-111.732
X-368.89 Y-111.855
X-368.293 Y-111.923
X-367.812 Y-111.944
X-367.404 Y-111.934
X-367.024 Y-111.898
X-366.705 Y-111.846
X-366.688 Y-111.842
X-366.405 Y-111.747
X-366.143 Y-111.604
X-365.911 Y-111.416
X-365.717 Y-111.189
X-365.565 Y-110.932
X-365.463 Y-110.651
X-365.005 Y-108.945
G3 X-365.308 Y-108.28 I-0.585 J0.135
X-365.374 Y-108.25 I-0.282 J-0.53
G1 X-375.789 Y-104.231
G3 X-376.579 Y-104.615 I-0.216 J-0.56
G1 X-377.01 Y-106.225
X-377.061 Y-106.461
X-377.085 Y-106.632
X-377.099 Y-106.813
Y-107.023
X-377.085 Y-107.246
X-377.051 Y-107.497
X-376.996 Y-107.762
X-376.913 Y-108.058
X-376.803 Y-108.366
X-376.652 Y-108.713
X-376.471 Y-109.058
X-376.234 Y-109.445
X-375.958 Y-109.833
X-375.623 Y-110.239
X-375.212 Y-110.673
X-374.757 Y-111.092
X-374.233 Y-111.51
X-373.631 Y-111.926
X-372.965 Y-112.321
X-372.256 Y-112.678
X-371.523 Y-112.986
X-370.787 Y-113.236
X-370.077 Y-113.423
X-369.406 Y-113.552
X-368.795 Y-113.625
X-368.313 Y-113.65
X-367.889 Y-113.642
X-367.512 Y-113.608
X-367.188 Y-113.557
X-367.155 Y-113.549
X-366.87 Y-113.456
X-366.606 Y-113.313
X-366.372 Y-113.124
X-366.176 Y-112.897
X-366.023 Y-112.639
X-365.92 Y-112.357
X-365.463 Y-110.651
G3 X-365.826 Y-109.959 I-0.585 J0.135
G1 X-376.215 Y-105.843
G3 X-377.01 Y-106.225 I-0.221 J-0.558
G1 X-377.476 Y-107.962
X-377.519 Y-108.162
X-377.543 Y-108.335
X-377.557 Y-108.515
Y-108.728
X-377.543 Y-108.947
X-377.509 Y-109.202
X-377.454 Y-109.464
X-377.37 Y-109.765
X-377.261 Y-110.07
X-377.109 Y-110.418
X-376.93 Y-110.763
X-376.695 Y-111.144
X-376.413 Y-111.54
X-376.082 Y-111.942
X-375.673 Y-112.374
X-375.206 Y-112.803
X-374.686 Y-113.218
X-374.087 Y-113.632
X-373.424 Y-114.026
X-372.716 Y-114.382
X-371.982 Y-114.69
X-371.243 Y-114.941
X-370.531 Y-115.129
X-369.859 Y-115.258
X-369.254 Y-115.331
X-368.768 Y-115.355
X-368.348 Y-115.347
X-367.969 Y-115.314
X-367.646 Y-115.263
X-367.612 Y-115.255
X-367.327 Y-115.161
X-367.063 Y-115.018
X-366.829 Y-114.83
X-366.633 Y-114.603
X-366.48 Y-114.344
X-366.377 Y-114.062
X-365.92 Y-112.357
G3 X-366.223 Y-111.692 I-0.585 J0.135
X-366.285 Y-111.663 I-0.282 J-0.53
G1 X-376.682 Y-107.579
G3 X-376.881 Y-107.538 I-0.219 J-0.558
X-377.476 Y-107.962 I-0.021 J-0.6
G1 X-377.927 Y-109.648
X-377.975 Y-109.87
X-378 Y-110.042
X-378.013 Y-110.221
X-378.014 Y-110.434
X-377.999 Y-110.654
X-377.965 Y-110.909
X-377.911 Y-111.17
X-377.826 Y-111.471
X-377.718 Y-111.775
X-377.566 Y-112.124
X-377.385 Y-112.469
X-377.151 Y-112.851
X-376.868 Y-113.247
X-376.538 Y-113.649
X-376.129 Y-114.08
X-375.662 Y-114.509
X-375.143 Y-114.924
X-374.545 Y-115.337
X-373.882 Y-115.731
X-373.173 Y-116.088
X-372.438 Y-116.396
X-371.699 Y-116.647
X-370.987 Y-116.835
X-370.316 Y-116.964
X-369.711 Y-117.036
X-369.226 Y-117.061
X-368.806 Y-117.053
X-368.426 Y-117.02
X-368.103 Y-116.968
X-368.069 Y-116.96
X-367.784 Y-116.867
X-367.52 Y-116.724
X-367.286 Y-116.535
X-367.09 Y-116.308
X-366.937 Y-116.05
X-366.834 Y-115.768
X-366.377 Y-114.062
G3 X-366.68 Y-113.397 I-0.585 J0.135
X-366.741 Y-113.369 I-0.282 J-0.53
G1 X-377.133 Y-109.265
G3 X-377.927 Y-109.648 I-0.22 J-0.558
G1 X-378.413 Y-111.459
X-378.444 Y-111.606
X-378.466 Y-111.783
X-378.477 Y-111.968
X-378.474 Y-112.187
X-378.455 Y-112.412
X-378.415 Y-112.674
X-378.355 Y-112.94
X-378.263 Y-113.249
X-378.146 Y-113.559
X-377.986 Y-113.909
X-377.791 Y-114.268
X-377.549 Y-114.646
X-377.244 Y-115.059
X-376.904 Y-115.458
X-376.486 Y-115.884
X-375.99 Y-116.324
X-375.449 Y-116.741
X-374.844 Y-117.144
X-374.172 Y-117.527
X-373.455 Y-117.872
X-372.713 Y-118.168
X-371.97 Y-118.407
X-371.263 Y-118.58
X-370.622 Y-118.691
X-370.038 Y-118.751
X-369.563 Y-118.767
X-369.172 Y-118.753
X-368.795 Y-118.713
X-368.61 Y-118.681
X-368.307 Y-118.597
X-368.025 Y-118.458
X-367.774 Y-118.268
X-367.563 Y-118.035
X-367.4 Y-117.766
X-367.29 Y-117.471
X-366.834 Y-115.768
G3 X-367.137 Y-115.103 I-0.585 J0.135
X-367.203 Y-115.073 I-0.282 J-0.53
G1 X-377.624 Y-111.075
G3 X-377.818 Y-111.035 I-0.215 J-0.56
X-378.413 Y-111.459 I-0.021 J-0.6
G1 X-378.844 Y-113.07
X-378.89 Y-113.283
X-378.914 Y-113.45
X-378.928 Y-113.636
Y-113.84
X-378.913 Y-114.071
X-378.88 Y-114.314
X-378.824 Y-114.587
X-378.743 Y-114.875
X-378.631 Y-115.191
X-378.484 Y-115.526
X-378.299 Y-115.882
X-378.06 Y-116.271
X-377.788 Y-116.652
X-377.446 Y-117.067
X-377.04 Y-117.496
X-376.591 Y-117.909
X-376.059 Y-118.334
X-375.452 Y-118.754
X-374.784 Y-119.15
X-374.077 Y-119.506
X-373.347 Y-119.812
X-372.615 Y-120.06
X-371.91 Y-120.247
X-371.245 Y-120.374
X-370.644 Y-120.446
X-370.135 Y-120.472
X-369.732 Y-120.464
X-369.342 Y-120.43
X-369.021 Y-120.379
X-368.983 Y-120.37
X-368.697 Y-120.277
X-368.434 Y-120.134
X-368.2 Y-119.945
X-368.003 Y-119.718
X-367.851 Y-119.459
X-367.747 Y-119.178
X-367.29 Y-117.471
G3 X-367.593 Y-116.806 I-0.585 J0.135
X-367.655 Y-116.777 I-0.282 J-0.53
G1 X-378.051 Y-112.687
G3 X-378.249 Y-112.646 I-0.22 J-0.558
X-378.844 Y-113.07 I-0.021 J-0.6
G1 X-379.311 Y-114.811
X-379.348 Y-114.983
X-379.372 Y-115.156
X-379.386 Y-115.336
X-379.387 Y-115.549
X-379.372 Y-115.768
X-379.338 Y-116.023
X-379.283 Y-116.286
X-379.199 Y-116.587
X-379.09 Y-116.892
X-378.939 Y-117.239
X-378.759 Y-117.584
X-378.524 Y-117.966
X-378.242 Y-118.362
X-377.91 Y-118.765
X-377.499 Y-119.199
X-377.032 Y-119.628
X-376.511 Y-120.044
X-375.912 Y-120.458
X-375.25 Y-120.851
X-374.544 Y-121.207
X-373.813 Y-121.513
X-373.078 Y-121.763
X-372.363 Y-121.952
X-371.693 Y-122.08
X-371.087 Y-122.153
X-370.6 Y-122.178
X-370.179 Y-122.17
X-369.799 Y-122.136
X-369.475 Y-122.085
X-369.44 Y-122.077
X-369.155 Y-121.983
X-368.891 Y-121.84
X-368.657 Y-121.652
X-368.46 Y-121.425
X-368.308 Y-121.166
X-368.204 Y-120.884
X-367.747 Y-119.178
G3 X-368.05 Y-118.513 I-0.585 J0.135
X-368.114 Y-118.484 I-0.282 J-0.53
G1 X-378.519 Y-114.428
G3 X-378.716 Y-114.387 I-0.218 J-0.559
X-379.311 Y-114.811 I-0.021 J-0.6
G1 X-379.761 Y-116.492
X-379.804 Y-116.691
X-379.829 Y-116.864
X-379.842 Y-117.043
X-379.843 Y-117.255
X-379.828 Y-117.475
X-379.794 Y-117.73
X-379.74 Y-117.991
X-379.655 Y-118.293
X-379.547 Y-118.597
X-379.394 Y-118.946
X-379.214 Y-119.292
X-378.979 Y-119.674
X-378.697 Y-120.071
X-378.365 Y-120.473
X-377.957 Y-120.905
X-377.49 Y-121.334
X-376.971 Y-121.748
X-376.373 Y-122.161
X-375.711 Y-122.554
X-375.003 Y-122.91
X-374.269 Y-123.218
X-373.531 Y-123.469
X-372.819 Y-123.657
X-372.147 Y-123.786
X-371.542 Y-123.859
X-371.055 Y-123.883
X-370.635 Y-123.875
X-370.255 Y-123.842
X-369.932 Y-123.791
X-369.897 Y-123.783
X-369.612 Y-123.689
X-369.348 Y-123.546
X-369.114 Y-123.358
X-368.918 Y-123.131
X-368.765 Y-122.872
X-368.662 Y-122.59
X-368.204 Y-120.884
G3 X-368.57 Y-120.191 I-0.585 J0.135
G1 X-378.968 Y-116.109
G3 X-379.166 Y-116.068 I-0.219 J-0.559
X-379.761 Y-116.492 I-0.021 J-0.6
G1 X-380.222 Y-118.213
X-380.261 Y-118.395
X-380.286 Y-118.568
X-380.299 Y-118.748
X-380.3 Y-118.96
X-380.286 Y-119.181
X-380.251 Y-119.436
X-380.197 Y-119.697
X-380.113 Y-119.999
X-380.004 Y-120.303
X-379.852 Y-120.652
X-379.672 Y-120.997
X-379.437 Y-121.38
X-379.154 Y-121.776
X-378.824 Y-122.177
X-378.415 Y-122.609
X-377.948 Y-123.038
X-377.43 Y-123.452
X-376.832 Y-123.866
X-376.168 Y-124.259
X-375.46 Y-124.616
X-374.725 Y-124.924
X-373.987 Y-125.175
X-373.274 Y-125.363
X-372.603 Y-125.492
X-371.998 Y-125.564
X-371.512 Y-125.589
X-371.091 Y-125.581
X-370.712 Y-125.548
X-370.388 Y-125.496
X-370.354 Y-125.488
X-370.069 Y-125.395
X-369.805 Y-125.252
X-369.571 Y-125.063
X-369.375 Y-124.836
X-369.222 Y-124.578
X-369.119 Y-124.296
X-368.662 Y-122.59
G3 X-368.965 Y-121.925 I-0.585 J0.135
X-369.028 Y-121.896 I-0.282 J-0.53
G1 X-379.43 Y-117.83
G3 X-379.628 Y-117.789 I-0.218 J-0.559
X-380.222 Y-118.213 I-0.021 J-0.6
G1 X-380.678 Y-119.914
X-380.718 Y-120.102
X-380.743 Y-120.275
X-380.756 Y-120.454
X-380.757 Y-120.667
X-380.743 Y-120.887
X-380.708 Y-121.142
X-380.654 Y-121.403
X-380.57 Y-121.705
X-380.461 Y-122.009
X-380.309 Y-122.357
X-380.129 Y-122.703
X-379.894 Y-123.085
X-379.612 Y-123.481
X-379.281 Y-123.882
X-378.873 Y-124.314
X-378.406 Y-124.743
X-377.887 Y-125.157
X-377.289 Y-125.571
X-376.625 Y-125.965
X-375.917 Y-126.321
X-375.182 Y-126.629
X-374.443 Y-126.88
X-373.731 Y-127.069
X-373.059 Y-127.197
X-372.454 Y-127.27
X-371.968 Y-127.295
X-371.548 Y-127.287
X-371.169 Y-127.253
X-370.845 Y-127.202
X-370.811 Y-127.194
X-370.526 Y-127.101
X-370.262 Y-126.957
X-370.028 Y-126.769
X-369.832 Y-126.542
X-369.679 Y-126.283
X-369.576 Y-126.001
X-369.119 Y-124.296
G3 X-369.485 Y-123.602 I-0.585 J0.135
G1 X-379.886 Y-119.531
G3 X-380.678 Y-119.914 I-0.219 J-0.559
G1 X-381.139 Y-121.635
X-381.176 Y-121.807
X-381.201 Y-121.979
X-381.214 Y-122.159
X-381.215 Y-122.372
X-381.2 Y-122.592
X-381.166 Y-122.847
X-381.112 Y-123.108
X-381.027 Y-123.409
X-380.919 Y-123.714
X-380.767 Y-124.062
X-380.586 Y-124.408
X-380.352 Y-124.79
X-380.069 Y-125.186
X-379.739 Y-125.587
X-379.33 Y-126.019
X-378.863 Y-126.448
X-378.344 Y-126.863
X-377.746 Y-127.277
X-377.082 Y-127.67
X-376.373 Y-128.027
X-375.638 Y-128.335
X-374.9 Y-128.586
X-374.187 Y-128.774
X-373.516 Y-128.903
X-372.911 Y-128.976
X-372.425 Y-129
X-372.005 Y-128.992
X-371.625 Y-128.959
X-371.302 Y-128.908
X-371.268 Y-128.9
X-370.983 Y-128.806
X-370.719 Y-128.663
X-370.485 Y-128.475
X-370.289 Y-128.248
X-370.136 Y-127.989
X-370.033 Y-127.707
X-369.576 Y-126.001
G3 X-369.879 Y-125.337 I-0.585 J0.135
X-369.942 Y-125.307 I-0.282 J-0.53
G1 X-380.348 Y-121.252
G3 X-380.545 Y-121.211 I-0.218 J-0.559
X-381.139 Y-121.635 I-0.021 J-0.6
G1 X-381.595 Y-123.337
X-381.633 Y-123.513
X-381.658 Y-123.685
X-381.671 Y-123.865
X-381.672 Y-124.077
X-381.657 Y-124.298
X-381.623 Y-124.553
X-381.569 Y-124.814
X-381.484 Y-125.115
X-381.376 Y-125.419
X-381.224 Y-125.768
X-381.043 Y-126.113
X-380.809 Y-126.495
X-380.526 Y-126.891
X-380.196 Y-127.293
X-379.787 Y-127.724
X-379.32 Y-128.154
X-378.801 Y-128.568
X-378.203 Y-128.982
X-377.539 Y-129.376
X-376.83 Y-129.733
X-376.095 Y-130.041
X-375.356 Y-130.292
X-374.644 Y-130.48
X-373.973 Y-130.609
X-373.368 Y-130.681
X-372.882 Y-130.706
X-372.462 Y-130.698
X-372.082 Y-130.665
X-371.759 Y-130.613
X-371.725 Y-130.605
X-371.44 Y-130.512
X-371.176 Y-130.369
X-370.942 Y-130.18
X-370.746 Y-129.953
X-370.593 Y-129.695
X-370.49 Y-129.413
X-370.033 Y-127.707
G3 X-370.336 Y-127.042 I-0.585 J0.135
X-370.399 Y-127.013 I-0.282 J-0.53
G1 X-380.803 Y-122.953
G3 X-381.595 Y-123.337 I-0.218 J-0.559
G1 X-382.056 Y-125.058
X-382.091 Y-125.217
X-382.115 Y-125.39
X-382.129 Y-125.57
Y-125.782
X-382.115 Y-126.002
X-382.08 Y-126.257
X-382.026 Y-126.519
X-381.942 Y-126.82
X-381.833 Y-127.124
X-381.681 Y-127.473
X-381.501 Y-127.818
X-381.266 Y-128.2
X-380.984 Y-128.597
X-380.653 Y-128.998
X-380.245 Y-129.43
X-379.778 Y-129.859
X-379.258 Y-130.274
X-378.66 Y-130.688
X-377.996 Y-131.081
X-377.287 Y-131.438
X-376.552 Y-131.746
X-375.813 Y-131.997
X-375.101 Y-132.186
X-374.43 Y-132.314
X-373.825 Y-132.387
X-373.339 Y-132.411
X-372.919 Y-132.404
X-372.539 Y-132.37
X-372.216 Y-132.319
X-372.182 Y-132.311
X-371.897 Y-132.217
X-371.633 Y-132.074
X-371.399 Y-131.886
X-371.203 Y-131.659
X-371.05 Y-131.4
X-370.947 Y-131.118
X-370.49 Y-129.413
G3 X-370.793 Y-128.748 I-0.585 J0.135
X-370.857 Y-128.718 I-0.282 J-0.53
G1 X-381.265 Y-124.674
G3 X-381.462 Y-124.634 I-0.217 J-0.559
X-382.056 Y-125.058 I-0.021 J-0.6
G1 X-382.509 Y-126.749
X-382.547 Y-126.924
X-382.572 Y-127.096
X-382.585 Y-127.276
X-382.586 Y-127.489
X-382.571 Y-127.709
X-382.537 Y-127.964
X-382.483 Y-128.225
X-382.398 Y-128.526
X-382.29 Y-128.83
X-382.138 Y-129.179
X-381.958 Y-129.524
X-381.723 Y-129.906
X-381.441 Y-130.302
X-381.11 Y-130.704
X-380.701 Y-131.135
X-380.234 Y-131.565
X-379.715 Y-131.979
X-379.116 Y-132.393
X-378.453 Y-132.787
X-377.744 Y-133.144
X-377.009 Y-133.452
X-376.27 Y-133.703
X-375.558 Y-133.891
X-374.886 Y-134.02
X-374.282 Y-134.092
X-373.796 Y-134.117
X-373.376 Y-134.109
X-372.996 Y-134.076
X-372.673 Y-134.024
X-372.639 Y-134.017
X-372.354 Y-133.923
X-372.09 Y-133.78
X-371.856 Y-133.592
X-371.66 Y-133.364
X-371.507 Y-133.106
X-371.404 Y-132.824
X-370.947 Y-131.118
G3 X-371.25 Y-130.454 I-0.585 J0.135
X-371.313 Y-130.424 I-0.282 J-0.53
G1 X-381.718 Y-126.365
G3 X-381.915 Y-126.325 I-0.218 J-0.559
X-382.509 Y-126.749 I-0.021 J-0.6
G1 X-382.973 Y-128.48
X-383.005 Y-128.628
X-383.03 Y-128.8
X-383.043 Y-128.98
X-383.044 Y-129.193
X-383.029 Y-129.413
X-382.995 Y-129.668
X-382.941 Y-129.929
X-382.856 Y-130.231
X-382.748 Y-130.535
X-382.596 Y-130.884
X-382.415 Y-131.229
X-382.181 Y-131.611
X-381.898 Y-132.007
X-381.567 Y-132.409
X-381.159 Y-132.841
X-380.692 Y-133.27
X-380.173 Y-133.685
X-379.574 Y-134.099
X-378.91 Y-134.493
X-378.201 Y-134.849
X-377.466 Y-135.157
X-376.727 Y-135.409
X-376.015 Y-135.597
X-375.343 Y-135.725
X-374.739 Y-135.798
X-374.253 Y-135.823
X-373.833 Y-135.815
X-373.453 Y-135.781
X-373.13 Y-135.73
X-373.096 Y-135.722
X-372.811 Y-135.629
X-372.547 Y-135.485
X-372.313 Y-135.297
X-372.117 Y-135.07
X-371.964 Y-134.811
X-371.861 Y-134.529
X-371.404 Y-132.824
G3 X-371.707 Y-132.159 I-0.585 J0.135
X-371.772 Y-132.129 I-0.282 J-0.53
G1 X-382.183 Y-128.096
G3 X-382.379 Y-128.056 I-0.217 J-0.559
X-382.973 Y-128.48 I-0.021 J-0.6
G1 X-383.429 Y-130.181
X-383.462 Y-130.334
X-383.487 Y-130.506
X-383.5 Y-130.686
X-383.501 Y-130.899
X-383.486 Y-131.119
X-383.452 Y-131.374
X-383.398 Y-131.635
X-383.313 Y-131.936
X-383.205 Y-132.241
X-383.053 Y-132.589
X-382.872 Y-132.935
X-382.638 Y-133.317
X-382.355 Y-133.713
X-382.025 Y-134.115
X-381.616 Y-134.546
X-381.149 Y-134.976
X-380.63 Y-135.39
X-380.031 Y-135.804
X-379.367 Y-136.198
X-378.658 Y-136.555
X-377.923 Y-136.863
X-377.184 Y-137.114
X-376.472 Y-137.302
X-375.8 Y-137.431
X-375.196 Y-137.504
X-374.71 Y-137.528
X-374.29 Y-137.52
X-373.91 Y-137.487
X-373.587 Y-137.436
X-373.553 Y-137.428
X-373.268 Y-137.334
X-373.004 Y-137.191
X-372.77 Y-137.003
X-372.574 Y-136.776
X-372.421 Y-136.517
X-372.318 Y-136.235
X-371.861 Y-134.529
G3 X-372.164 Y-133.865 I-0.585 J0.135
X-372.228 Y-133.835 I-0.282 J-0.53
G1 X-382.638 Y-129.797
G3 X-382.834 Y-129.757 I-0.217 J-0.559
X-383.429 Y-130.181 I-0.021 J-0.6
G1 X-383.89 Y-131.902
X-383.922 Y-132.049
X-383.946 Y-132.223
X-383.958 Y-132.404
Y-132.618
X-383.943 Y-132.839
X-383.907 Y-133.097
X-383.851 Y-133.358
X-383.764 Y-133.662
X-383.654 Y-133.967
X-383.499 Y-134.317
X-383.315 Y-134.665
X-383.079 Y-135.047
X-382.79 Y-135.448
X-382.457 Y-135.848
X-382.046 Y-136.278
X-381.568 Y-136.713
X-381.047 Y-137.125
X-380.446 Y-137.537
X-379.78 Y-137.928
X-379.068 Y-138.282
X-378.331 Y-138.587
X-377.591 Y-138.834
X-376.878 Y-139.019
X-376.214 Y-139.143
X-375.616 Y-139.212
X-375.133 Y-139.234
X-374.723 Y-139.225
X-374.343 Y-139.189
X-374.023 Y-139.137
X-374.003 Y-139.132
X-373.719 Y-139.038
X-373.457 Y-138.894
X-373.225 Y-138.706
X-373.029 Y-138.48
X-372.878 Y-138.222
X-372.775 Y-137.941
X-372.318 Y-136.235
G3 X-372.621 Y-135.57 I-0.585 J0.135
X-372.686 Y-135.54 I-0.282 J-0.53
G1 X-383.1 Y-131.518
G3 X-383.296 Y-131.478 I-0.216 J-0.56
X-383.89 Y-131.902 I-0.021 J-0.6
G1 X-384.322 Y-133.512
X-384.373 Y-133.751
X-384.398 Y-133.922
X-384.411 Y-134.102
X-384.412 Y-134.313
X-384.397 Y-134.535
X-384.363 Y-134.787
X-384.308 Y-135.051
X-384.225 Y-135.349
X-384.116 Y-135.655
X-383.964 Y-136.003
X-383.784 Y-136.348
X-383.547 Y-136.733
X-383.269 Y-137.123
X-382.936 Y-137.528
X-382.525 Y-137.962
X-382.067 Y-138.383
X-381.544 Y-138.801
X-380.943 Y-139.216
X-380.278 Y-139.611
X-379.568 Y-139.968
X-378.835 Y-140.275
X-378.098 Y-140.526
X-377.388 Y-140.713
X-376.717 Y-140.842
X-376.108 Y-140.915
X-375.625 Y-140.94
X-375.202 Y-140.932
X-374.824 Y-140.898
X-374.501 Y-140.847
X-374.467 Y-140.839
X-374.182 Y-140.746
X-373.918 Y-140.603
X-373.684 Y-140.414
X-373.488 Y-140.187
X-373.336 Y-139.929
X-373.232 Y-139.647
X-372.775 Y-137.941
G3 X-373.078 Y-137.277 I-0.585 J0.135
X-373.139 Y-137.249 I-0.282 J-0.53
G1 X-383.527 Y-133.13
G3 X-384.322 Y-133.512 I-0.221 J-0.558
G1 X-384.778 Y-135.214
X-384.829 Y-135.455
X-384.854 Y-135.627
X-384.867 Y-135.807
X-384.868 Y-136.019
X-384.854 Y-136.239
X-384.819 Y-136.494
X-384.765 Y-136.755
X-384.681 Y-137.056
X-384.572 Y-137.361
X-384.42 Y-137.708
X-384.24 Y-138.053
X-384.006 Y-138.435
X-383.724 Y-138.831
X-383.393 Y-139.232
X-382.984 Y-139.664
X-382.517 Y-140.093
X-381.998 Y-140.508
X-381.399 Y-140.922
X-380.736 Y-141.316
X-380.028 Y-141.672
X-379.294 Y-141.98
X-378.555 Y-142.231
X-377.842 Y-142.419
X-377.171 Y-142.548
X-376.566 Y-142.621
X-376.081 Y-142.645
X-375.661 Y-142.637
X-375.281 Y-142.604
X-374.958 Y-142.553
X-374.924 Y-142.545
X-374.639 Y-142.451
X-374.375 Y-142.308
X-374.141 Y-142.12
X-373.945 Y-141.893
X-373.792 Y-141.634
X-373.689 Y-141.352
X-373.232 Y-139.647
G3 X-373.595 Y-138.954 I-0.585 J0.135
G1 X-383.982 Y-134.831
G3 X-384.183 Y-134.79 I-0.221 J-0.558
X-384.778 Y-135.214 I-0.021 J-0.6
G1 X-385.263 Y-137.025
X-385.295 Y-137.172
X-385.318 Y-137.347
X-385.33 Y-137.53
X-385.329 Y-137.746
X-385.312 Y-137.968
X-385.275 Y-138.227
X-385.218 Y-138.49
X-385.129 Y-138.796
X-385.017 Y-139.103
X-384.86 Y-139.453
X-384.673 Y-139.804
X-384.435 Y-140.185
X-384.14 Y-140.591
X-383.806 Y-140.99
X-383.392 Y-141.419
X-382.907 Y-141.857
X-382.381 Y-142.269
X-381.779 Y-142.678
X-381.111 Y-143.066
X-380.397 Y-143.417
X-379.659 Y-143.719
X-378.917 Y-143.964
X-378.204 Y-144.146
X-377.549 Y-144.265
X-376.955 Y-144.332
X-376.476 Y-144.352
X-376.072 Y-144.34
X-375.693 Y-144.304
X-375.376 Y-144.25
X-375.367 Y-144.248
X-375.031 Y-144.128
X-374.728 Y-143.939
X-374.472 Y-143.69
X-374.275 Y-143.392
X-374.146 Y-143.059
X-373.689 Y-141.352
G3 X-373.992 Y-140.687 I-0.585 J0.135
X-374.058 Y-140.657 I-0.282 J-0.53
G1 X-384.473 Y-136.641
G3 X-384.668 Y-136.601 I-0.216 J-0.56
X-385.263 Y-137.025 I-0.021 J-0.6
G1 X-385.695 Y-138.636
X-385.744 Y-138.867
X-385.769 Y-139.037
X-385.782 Y-139.219
X-385.783 Y-139.427
X-385.768 Y-139.652
X-385.734 Y-139.902
X-385.679 Y-140.168
X-385.597 Y-140.463
X-385.486 Y-140.772
X-385.336 Y-141.117
X-385.154 Y-141.465
X-384.916 Y-141.854
X-384.641 Y-142.238
X-384.305 Y-142.647
X-383.893 Y-143.081
X-383.442 Y-143.496
X-382.915 Y-143.917
X-382.312 Y-144.334
X-381.646 Y-144.729
X-380.935 Y-145.087
X-380.204 Y-145.394
X-379.469 Y-145.643
X-378.761 Y-145.83
X-378.091 Y-145.959
X-377.478 Y-146.032
X-377.007 Y-146.056
X-376.563 Y-146.048
X-376.214 Y-146.017
X-375.857 Y-145.96
X-375.839 Y-145.956
X-375.553 Y-145.863
X-375.289 Y-145.719
X-375.055 Y-145.531
X-374.859 Y-145.304
X-374.707 Y-145.045
X-374.603 Y-144.764
X-374.146 Y-143.059
G3 X-374.449 Y-142.394 I-0.585 J0.135
X-374.51 Y-142.366 I-0.282 J-0.53
G1 X-384.9 Y-138.254
G3 X-385.1 Y-138.212 I-0.221 J-0.558
X-385.695 Y-138.636 I-0.021 J-0.6
G1 X-386.18 Y-140.448
X-386.212 Y-140.594
X-386.234 Y-140.771
X-386.245 Y-140.956
X-386.243 Y-141.174
X-386.225 Y-141.397
X-386.186 Y-141.658
X-386.127 Y-141.923
X-386.036 Y-142.232
X-385.921 Y-142.54
X-385.763 Y-142.889
X-385.571 Y-143.245
X-385.331 Y-143.624
X-385.029 Y-144.035
X-384.691 Y-144.433
X-384.274 Y-144.861
X-383.781 Y-145.302
X-383.246 Y-145.717
X-382.642 Y-146.122
X-381.972 Y-146.507
X-381.257 Y-146.854
X-380.518 Y-147.151
X-379.774 Y-147.393
X-379.066 Y-147.569
X-378.422 Y-147.683
X-377.829 Y-147.746
X-377.353 Y-147.763
X-376.958 Y-147.75
X-376.58 Y-147.711
X-376.385 Y-147.677
X-376.08 Y-147.594
X-375.797 Y-147.455
X-375.545 Y-147.266
X-375.333 Y-147.032
X-375.169 Y-146.762
X-375.059 Y-146.466
X-374.603 Y-144.764
G3 X-374.906 Y-144.099 I-0.585 J0.135
X-374.972 Y-144.069 I-0.282 J-0.53
G1 X-385.391 Y-140.063
G3 X-385.585 Y-140.024 I-0.215 J-0.56
X-386.18 Y-140.448 I-0.021 J-0.6
G1 X-386.612 Y-142.058
X-386.659 Y-142.279
X-386.683 Y-142.447
X-386.697 Y-142.631
Y-142.836
X-386.682 Y-143.065
X-386.649 Y-143.311
X-386.593 Y-143.581
X-386.512 Y-143.871
X-386.4 Y-144.185
X-386.252 Y-144.524
X-386.068 Y-144.877
X-385.828 Y-145.267
X-385.557 Y-145.648
X-385.216 Y-146.061
X-384.807 Y-146.494
X-384.359 Y-146.906
X-383.828 Y-147.33
X-383.223 Y-147.748
X-382.556 Y-148.144
X-381.847 Y-148.501
X-381.117 Y-148.806
X-380.385 Y-149.055
X-379.679 Y-149.242
X-379.012 Y-149.37
X-378.414 Y-149.442
X-377.903 Y-149.467
X-377.501 Y-149.46
X-377.111 Y-149.426
X-376.789 Y-149.374
X-376.752 Y-149.366
X-376.467 Y-149.272
X-376.203 Y-149.129
X-375.969 Y-148.941
X-375.773 Y-148.714
X-375.62 Y-148.455
X-375.517 Y-148.173
X-375.059 Y-146.466
G3 X-375.362 Y-145.802 I-0.585 J0.135
X-375.424 Y-145.773 I-0.282 J-0.53
G1 X-385.818 Y-141.675
G3 X-386.017 Y-141.634 I-0.22 J-0.558
X-386.612 Y-142.058 I-0.021 J-0.6
G1 X-387.097 Y-143.87
X-387.129 Y-144.017
X-387.151 Y-144.195
X-387.161 Y-144.381
X-387.157 Y-144.6
X-387.138 Y-144.825
X-387.097 Y-145.089
X-387.037 Y-145.356
X-386.943 Y-145.665
X-386.826 Y-145.977
X-386.666 Y-146.324
X-386.469 Y-146.685
X-386.226 Y-147.063
X-385.919 Y-147.477
X-385.576 Y-147.877
X-385.156 Y-148.304
X-384.657 Y-148.745
X-384.111 Y-149.165
X-383.506 Y-149.566
X-382.835 Y-149.947
X-382.119 Y-150.29
X-381.38 Y-150.583
X-380.64 Y-150.819
X-379.934 Y-150.991
X-379.295 Y-151.1
X-378.711 Y-151.159
X-378.237 Y-151.174
X-377.847 Y-151.159
X-377.47 Y-151.118
X-377.29 Y-151.086
X-376.988 Y-151.002
X-376.706 Y-150.863
X-376.456 Y-150.673
X-376.245 Y-150.44
X-376.083 Y-150.171
X-375.973 Y-149.877
X-375.517 Y-148.173
G3 X-375.82 Y-147.508 I-0.585 J0.135
X-375.887 Y-147.478 I-0.282 J-0.53
G1 X-386.309 Y-143.485
G3 X-386.502 Y-143.446 I-0.215 J-0.56
X-387.097 Y-143.87 I-0.021 J-0.6
G1 X-387.529 Y-145.48
X-387.574 Y-145.691
X-387.598 Y-145.857
X-387.611 Y-146.044
X-387.612 Y-146.246
X-387.597 Y-146.479
X-387.564 Y-146.721
X-387.507 Y-146.996
X-387.427 Y-147.281
X-387.314 Y-147.599
X-387.168 Y-147.932
X-386.982 Y-148.29
X-386.744 Y-148.678
X-386.471 Y-149.061
X-386.127 Y-149.478
X-385.724 Y-149.904
X-385.273 Y-150.318
X-384.74 Y-150.744
X-384.133 Y-151.163
X-383.467 Y-151.559
X-382.763 Y-151.913
X-382.034 Y-152.219
X-381.302 Y-152.467
X-380.598 Y-152.653
X-379.933 Y-152.781
X-379.33 Y-152.853
X-378.821 Y-152.879
X-378.417 Y-152.871
X-378.026 Y-152.837
X-377.705 Y-152.786
X-377.666 Y-152.777
X-377.381 Y-152.684
X-377.117 Y-152.54
X-376.883 Y-152.352
X-376.687 Y-152.125
X-376.534 Y-151.866
X-376.431 Y-151.584
X-375.973 Y-149.877
G3 X-376.338 Y-149.184 I-0.585 J0.135
G1 X-386.735 Y-145.097
G3 X-387.529 Y-145.48 I-0.219 J-0.558
G1 X-387.99 Y-147.202
X-388.031 Y-147.391
X-388.055 Y-147.564
X-388.069 Y-147.745
Y-147.957
X-388.055 Y-148.177
X-388.02 Y-148.432
X-387.966 Y-148.695
X-387.882 Y-148.996
X-387.773 Y-149.301
X-387.621 Y-149.648
X-387.442 Y-149.992
X-387.207 Y-150.375
X-386.924 Y-150.771
X-386.592 Y-151.174
X-386.182 Y-151.608
X-385.715 Y-152.037
X-385.195 Y-152.453
X-384.596 Y-152.866
X-383.935 Y-153.259
X-383.229 Y-153.614
X-382.499 Y-153.92
X-381.764 Y-154.17
X-381.048 Y-154.359
X-380.378 Y-154.487
X-379.772 Y-154.56
X-379.285 Y-154.585
X-378.863 Y-154.577
X-378.483 Y-154.543
X-378.159 Y-154.492
X-378.123 Y-154.484
X-377.838 Y-154.39
X-377.574 Y-154.247
X-377.34 Y-154.059
X-377.144 Y-153.832
X-376.992 Y-153.573
X-376.888 Y-153.291
X-376.431 Y-151.584
G3 X-376.734 Y-150.92 I-0.585 J0.135
X-376.797 Y-150.891 I-0.282 J-0.53
G1 X-387.197 Y-146.818
G3 X-387.99 Y-147.202 I-0.219 J-0.559
G1 X-388.445 Y-148.903
X-388.488 Y-149.098
X-388.512 Y-149.271
X-388.526 Y-149.45
Y-149.663
X-388.512 Y-149.883
X-388.477 Y-150.138
X-388.423 Y-150.399
X-388.339 Y-150.701
X-388.23 Y-151.006
X-388.078 Y-151.355
X-387.898 Y-151.7
X-387.663 Y-152.083
X-387.38 Y-152.479
X-387.049 Y-152.881
X-386.64 Y-153.313
X-386.173 Y-153.742
X-385.655 Y-154.156
X-385.058 Y-154.569
X-384.396 Y-154.961
X-383.688 Y-155.318
X-382.954 Y-155.625
X-382.216 Y-155.876
X-381.504 Y-156.064
X-380.832 Y-156.193
X-380.226 Y-156.266
X-379.74 Y-156.291
X-379.319 Y-156.283
X-378.939 Y-156.249
X-378.615 Y-156.198
X-378.581 Y-156.19
X-378.295 Y-156.096
X-378.031 Y-155.953
X-377.797 Y-155.765
X-377.601 Y-155.538
X-377.449 Y-155.279
X-377.345 Y-154.997
X-376.888 Y-153.291
G3 X-377.191 Y-152.626 I-0.585 J0.135
X-377.254 Y-152.598 I-0.282 J-0.53
G1 X-387.653 Y-148.52
G3 X-388.445 Y-148.903 I-0.219 J-0.559
G1 X-388.907 Y-150.624
X-388.945 Y-150.803
X-388.97 Y-150.976
X-388.983 Y-151.156
X-388.984 Y-151.368
X-388.97 Y-151.589
X-388.935 Y-151.844
X-388.881 Y-152.105
X-388.797 Y-152.407
X-388.688 Y-152.711
X-388.536 Y-153.06
X-388.355 Y-153.406
X-388.121 Y-153.788
X-387.838 Y-154.184
X-387.508 Y-154.585
X-387.099 Y-155.016
X-386.632 Y-155.446
X-386.114 Y-155.86
X-385.516 Y-156.273
X-384.853 Y-156.667
X-384.145 Y-157.023
X-383.41 Y-157.331
X-382.671 Y-157.582
X-381.959 Y-157.77
X-381.287 Y-157.899
X-380.682 Y-157.972
X-380.196 Y-157.996
X-379.775 Y-157.989
X-379.395 Y-157.955
X-379.072 Y-157.904
X-379.038 Y-157.896
X-378.752 Y-157.802
X-378.488 Y-157.659
X-378.255 Y-157.471
X-378.058 Y-157.244
X-377.906 Y-156.985
X-377.802 Y-156.703
X-377.345 Y-154.997
G3 X-377.648 Y-154.332 I-0.585 J0.135
X-377.712 Y-154.303 I-0.282 J-0.53
G1 X-388.115 Y-150.24
G3 X-388.312 Y-150.2 I-0.218 J-0.559
X-388.907 Y-150.624 I-0.021 J-0.6
G1 X-389.355 Y-152.299
X-389.401 Y-152.512
X-389.426 Y-152.684
X-389.439 Y-152.864
X-389.44 Y-153.076
X-389.426 Y-153.296
X-389.391 Y-153.551
X-389.337 Y-153.812
X-389.253 Y-154.113
X-389.144 Y-154.418
X-388.992 Y-154.766
X-388.812 Y-155.111
X-388.578 Y-155.493
X-388.295 Y-155.889
X-387.965 Y-156.29
X-387.557 Y-156.721
X-387.09 Y-157.151
X-386.571 Y-157.565
X-385.973 Y-157.979
X-385.309 Y-158.372
X-384.601 Y-158.729
X-383.866 Y-159.037
X-383.127 Y-159.288
X-382.415 Y-159.476
X-381.743 Y-159.605
X-381.138 Y-159.678
X-380.652 Y-159.702
X-380.232 Y-159.694
X-379.852 Y-159.661
X-379.529 Y-159.609
X-379.495 Y-159.602
X-379.209 Y-159.508
X-378.946 Y-159.365
X-378.712 Y-159.177
X-378.515 Y-158.949
X-378.363 Y-158.691
X-378.259 Y-158.409
X-377.802 Y-156.703
G3 X-378.167 Y-156.01 I-0.585 J0.135
G1 X-388.562 Y-151.916
G3 X-388.761 Y-151.874 I-0.22 J-0.558
X-389.355 Y-152.299 I-0.021 J-0.6
G1 X-389.824 Y-154.046
X-389.86 Y-154.214
X-389.885 Y-154.387
X-389.898 Y-154.566
X-389.899 Y-154.779
X-389.884 Y-154.999
X-389.85 Y-155.254
X-389.796 Y-155.516
X-389.711 Y-155.817
X-389.603 Y-156.121
X-389.45 Y-156.47
X-389.27 Y-156.815
X-389.036 Y-157.198
X-388.753 Y-157.594
X-388.423 Y-157.995
X-388.014 Y-158.426
X-387.547 Y-158.856
X-387.028 Y-159.27
X-386.43 Y-159.684
X-385.766 Y-160.078
X-385.057 Y-160.434
X-384.323 Y-160.742
X-383.584 Y-160.994
X-382.871 Y-161.182
X-382.2 Y-161.31
X-381.595 Y-161.383
X-381.109 Y-161.408
X-380.689 Y-161.4
X-380.309 Y-161.366
X-379.986 Y-161.315
X-379.952 Y-161.307
X-379.666 Y-161.214
X-379.403 Y-161.07
X-379.169 Y-160.882
X-378.972 Y-160.655
X-378.82 Y-160.396
X-378.716 Y-160.115
X-378.259 Y-158.409
G3 X-378.562 Y-157.744 I-0.585 J0.135
X-378.626 Y-157.715 I-0.282 J-0.53
G1 X-389.032 Y-153.662
G3 X-389.229 Y-153.622 I-0.218 J-0.559
X-389.824 Y-154.046 I-0.021 J-0.6
G1 X-390.279 Y-155.747
X-390.317 Y-155.92
X-390.341 Y-156.093
X-390.355 Y-156.273
Y-156.485
X-390.341 Y-156.705
X-390.307 Y-156.96
X-390.253 Y-157.221
X-390.168 Y-157.523
X-390.06 Y-157.827
X-389.907 Y-158.175
X-389.727 Y-158.521
X-389.493 Y-158.903
X-389.21 Y-159.299
X-388.88 Y-159.7
X-388.471 Y-160.132
X-388.004 Y-160.561
X-387.485 Y-160.976
X-386.887 Y-161.39
X-386.223 Y-161.783
X-385.514 Y-162.14
X-384.779 Y-162.448
X-384.04 Y-162.699
X-383.328 Y-162.887
X-382.656 Y-163.016
X-382.052 Y-163.089
X-381.566 Y-163.113
X-381.146 Y-163.105
X-380.766 Y-163.072
X-380.443 Y-163.021
X-380.409 Y-163.013
X-380.124 Y-162.919
X-379.86 Y-162.776
X-379.626 Y-162.588
X-379.429 Y-162.361
X-379.277 Y-162.102
X-379.173 Y-161.82
X-378.716 Y-160.115
G3 X-379.019 Y-159.45 I-0.585 J0.135
X-379.083 Y-159.421 I-0.282 J-0.53
G1 X-389.488 Y-155.364
G3 X-389.685 Y-155.323 I-0.218 J-0.559
X-390.279 Y-155.747 I-0.021 J-0.6
G1 X-390.741 Y-157.468
X-390.774 Y-157.625
X-390.799 Y-157.798
X-390.812 Y-157.977
X-390.813 Y-158.19
X-390.799 Y-158.41
X-390.764 Y-158.665
X-390.71 Y-158.926
X-390.626 Y-159.228
X-390.517 Y-159.532
X-390.365 Y-159.88
X-390.185 Y-160.226
X-389.95 Y-160.608
X-389.668 Y-161.004
X-389.337 Y-161.406
X-388.928 Y-161.837
X-388.461 Y-162.266
X-387.942 Y-162.681
X-387.343 Y-163.095
X-386.68 Y-163.489
X-385.971 Y-163.846
X-385.236 Y-164.154
X-384.497 Y-164.405
X-383.785 Y-164.593
X-383.113 Y-164.722
X-382.508 Y-164.794
X-382.023 Y-164.819
X-381.603 Y-164.811
X-381.223 Y-164.778
X-380.9 Y-164.726
X-380.866 Y-164.719
X-380.581 Y-164.625
X-380.317 Y-164.482
X-380.083 Y-164.294
X-379.886 Y-164.066
X-379.734 Y-163.808
X-379.63 Y-163.526
X-379.173 Y-161.82
G3 X-379.476 Y-161.155 I-0.585 J0.135
X-379.541 Y-161.126 I-0.282 J-0.53
G1 X-389.95 Y-157.084
G3 X-390.741 Y-157.468 I-0.217 J-0.559
G1 X-391.196 Y-159.169
X-391.231 Y-159.331
X-391.256 Y-159.503
X-391.269 Y-159.683
X-391.27 Y-159.896
X-391.256 Y-160.116
X-391.221 Y-160.371
X-391.167 Y-160.632
X-391.083 Y-160.933
X-390.974 Y-161.238
X-390.822 Y-161.586
X-390.642 Y-161.931
X-390.407 Y-162.314
X-390.125 Y-162.71
X-389.794 Y-163.111
X-389.385 Y-163.543
X-388.918 Y-163.972
X-388.399 Y-164.387
X-387.8 Y-164.801
X-387.137 Y-165.194
X-386.428 Y-165.551
X-385.693 Y-165.859
X-384.954 Y-166.11
X-384.242 Y-166.299
X-383.57 Y-166.427
X-382.965 Y-166.5
X-382.48 Y-166.525
X-382.06 Y-166.517
X-381.68 Y-166.483
X-381.357 Y-166.432
X-381.323 Y-166.424
X-381.038 Y-166.331
X-380.774 Y-166.187
X-380.54 Y-165.999
X-380.343 Y-165.772
X-380.191 Y-165.513
X-380.087 Y-165.231
X-379.63 Y-163.526
G3 X-379.933 Y-162.861 I-0.585 J0.135
X-379.998 Y-162.832 I-0.282 J-0.53
G1 X-390.405 Y-158.786
G3 X-390.602 Y-158.745 I-0.217 J-0.559
X-391.196 Y-159.169 I-0.021 J-0.6
G1 X-391.658 Y-160.891
X-391.689 Y-161.037
X-391.714 Y-161.21
X-391.727 Y-161.39
X-391.728 Y-161.603
X-391.713 Y-161.823
X-391.678 Y-162.079
X-391.624 Y-162.34
X-391.539 Y-162.642
X-391.43 Y-162.946
X-391.277 Y-163.295
X-391.097 Y-163.641
X-390.862 Y-164.023
X-390.578 Y-164.42
X-390.247 Y-164.821
X-389.838 Y-165.253
X-389.369 Y-165.683
X-388.85 Y-166.097
X-388.25 Y-166.511
X-387.586 Y-166.904
X-386.877 Y-167.26
X-386.141 Y-167.568
X-385.402 Y-167.819
X-384.69 Y-168.006
X-384.019 Y-168.134
X-383.416 Y-168.206
X-382.931 Y-168.23
X-382.512 Y-168.222
X-382.133 Y-168.188
X-381.81 Y-168.137
X-381.779 Y-168.13
X-381.494 Y-168.036
X-381.23 Y-167.893
X-380.996 Y-167.704
X-380.8 Y-167.477
X-380.648 Y-167.219
X-380.544 Y-166.937
X-380.087 Y-165.231
G3 X-380.39 Y-164.567 I-0.585 J0.135
X-380.455 Y-164.537 I-0.282 J-0.53
G1 X-390.867 Y-160.506
G3 X-391.063 Y-160.466 I-0.217 J-0.56
X-391.658 Y-160.891 I-0.021 J-0.6
G1 X-392.113 Y-162.592
X-392.146 Y-162.742
X-392.17 Y-162.914
X-392.184 Y-163.094
Y-163.306
X-392.17 Y-163.527
X-392.136 Y-163.781
X-392.081 Y-164.043
X-391.997 Y-164.344
X-391.889 Y-164.648
X-391.736 Y-164.997
X-391.556 Y-165.342
X-391.321 Y-165.725
X-391.039 Y-166.12
X-390.708 Y-166.522
X-390.299 Y-166.954
X-389.834 Y-167.382
X-389.314 Y-167.798
X-388.714 Y-168.212
X-388.05 Y-168.606
X-387.341 Y-168.963
X-386.606 Y-169.271
X-385.868 Y-169.522
X-385.156 Y-169.71
X-384.484 Y-169.838
X-383.879 Y-169.911
X-383.394 Y-169.936
X-382.973 Y-169.928
X-382.594 Y-169.894
X-382.271 Y-169.843
X-382.237 Y-169.835
X-381.952 Y-169.742
X-381.688 Y-169.599
X-381.454 Y-169.41
X-381.257 Y-169.183
X-381.105 Y-168.925
X-381.001 Y-168.643
X-380.544 Y-166.937
G3 X-380.912 Y-166.243 I-0.585 J0.135
G1 X-391.323 Y-162.208
G3 X-391.519 Y-162.167 I-0.217 J-0.559
X-392.113 Y-162.592 I-0.021 J-0.6
G1 X-392.577 Y-164.322
X-392.609 Y-164.469
X-392.632 Y-164.644
X-392.643 Y-164.827
X-392.642 Y-165.043
X-392.625 Y-165.266
X-392.587 Y-165.525
X-392.53 Y-165.789
X-392.44 Y-166.095
X-392.327 Y-166.402
X-392.17 Y-166.752
X-391.982 Y-167.104
X-391.743 Y-167.484
X-391.445 Y-167.892
X-391.111 Y-168.29
X-390.696 Y-168.718
X-390.209 Y-169.158
X-389.681 Y-169.57
X-389.078 Y-169.978
X-388.409 Y-170.365
X-387.694 Y-170.715
X-386.955 Y-171.016
X-386.213 Y-171.26
X-385.5 Y-171.44
X-384.848 Y-171.558
X-384.255 Y-171.623
X-383.777 Y-171.642
X-383.376 Y-171.631
X-382.997 Y-171.593
X-382.677 Y-171.539
X-382.342 Y-171.418
X-382.039 Y-171.229
X-381.784 Y-170.98
X-381.588 Y-170.683
X-381.459 Y-170.35
X-381.001 Y-168.643
G3 X-381.304 Y-167.978 I-0.585 J0.135
X-381.371 Y-167.948 I-0.282 J-0.53
G1 X-391.788 Y-163.937
G3 X-392.577 Y-164.322 I-0.216 J-0.56
G1 X-393.03 Y-166.014
X-393.062 Y-166.161
X-393.086 Y-166.332
X-393.099 Y-166.515
Y-166.724
X-393.083 Y-166.951
X-393.049 Y-167.201
X-392.992 Y-167.47
X-392.908 Y-167.765
X-392.796 Y-168.076
X-392.644 Y-168.422
X-392.46 Y-168.771
X-392.219 Y-169.161
X-391.942 Y-169.547
X-391.603 Y-169.956
X-391.188 Y-170.391
X-390.733 Y-170.807
X-390.203 Y-171.227
X-389.597 Y-171.643
X-388.928 Y-172.037
X-388.216 Y-172.392
X-387.483 Y-172.697
X-386.749 Y-172.944
X-386.04 Y-173.128
X-385.372 Y-173.254
X-384.764 Y-173.325
X-384.298 Y-173.347
X-383.857 Y-173.338
X-383.509 Y-173.306
X-383.154 Y-173.248
X-383.146 Y-173.246
X-382.862 Y-173.152
X-382.599 Y-173.009
X-382.366 Y-172.821
X-382.171 Y-172.594
X-382.019 Y-172.336
X-381.916 Y-172.055
X-381.459 Y-170.35
G3 X-381.762 Y-169.685 I-0.585 J0.135
X-381.827 Y-169.655 I-0.282 J-0.53
G1 X-392.24 Y-165.63
G3 X-392.436 Y-165.59 I-0.216 J-0.56
X-393.03 Y-166.014 I-0.021 J-0.6
G1 X-393.462 Y-167.624
X-393.513 Y-167.864
X-393.538 Y-168.036
X-393.551 Y-168.217
X-393.552 Y-168.428
X-393.538 Y-168.648
X-393.504 Y-168.901
X-393.449 Y-169.164
X-393.365 Y-169.463
X-393.256 Y-169.77
X-393.104 Y-170.117
X-392.925 Y-170.461
X-392.69 Y-170.844
X-392.41 Y-171.236
X-392.077 Y-171.64
X-391.666 Y-172.074
X-391.206 Y-172.498
X-390.682 Y-172.916
X-390.082 Y-173.331
X-389.418 Y-173.725
X-388.71 Y-174.081
X-387.977 Y-174.388
X-387.239 Y-174.639
X-386.531 Y-174.826
X-385.857 Y-174.955
X-385.249 Y-175.029
X-384.765 Y-175.053
X-384.343 Y-175.045
X-383.965 Y-175.012
X-383.641 Y-174.961
X-383.608 Y-174.953
X-383.323 Y-174.859
X-383.059 Y-174.716
X-382.825 Y-174.528
X-382.629 Y-174.301
X-382.476 Y-174.042
X-382.373 Y-173.76
X-381.916 Y-172.055
G3 X-382.219 Y-171.39 I-0.585 J0.135
X-382.279 Y-171.362 I-0.282 J-0.53
G1 X-392.667 Y-167.242
G3 X-392.867 Y-167.2 I-0.221 J-0.558
X-393.462 Y-167.624 I-0.021 J-0.6
G1 X-393.947 Y-169.436
X-393.979 Y-169.583
X-394.002 Y-169.758
X-394.014 Y-169.941
X-394.013 Y-170.157
X-393.996 Y-170.379
X-393.958 Y-170.639
X-393.901 Y-170.902
X-393.812 Y-171.209
X-393.699 Y-171.516
X-393.542 Y-171.866
X-393.354 Y-172.217
X-393.116 Y-172.598
X-392.819 Y-173.005
X-392.484 Y-173.404
X-392.07 Y-173.833
X-391.583 Y-174.272
X-391.056 Y-174.684
X-390.454 Y-175.092
X-389.785 Y-175.48
X-389.073 Y-175.83
X-388.334 Y-176.131
X-387.591 Y-176.375
X-386.878 Y-176.556
X-386.224 Y-176.675
X-385.631 Y-176.74
X-385.153 Y-176.76
X-384.751 Y-176.748
X-384.372 Y-176.711
X-384.055 Y-176.658
X-383.867 Y-176.612
X-383.569 Y-176.51
X-383.296 Y-176.353
X-383.057 Y-176.149
X-382.861 Y-175.902
X-382.715 Y-175.624
X-382.624 Y-175.323
X-382.591 Y-175.01
X-382.589 Y-174.871
X-382.574 Y-174.67
X-382.544 Y-174.469
X-382.45 Y-174.066
X-382.401 Y-173.865
X-382.373 Y-173.76
G3 X-382.676 Y-173.095 I-0.585 J0.135
X-382.742 Y-173.065 I-0.282 J-0.53
G1 X-393.158 Y-169.052
G3 X-393.353 Y-169.012 I-0.216 J-0.56
X-393.947 Y-169.436 I-0.021 J-0.6
G1 X-394.325 Y-170.845
X-394.387 Y-171.047
X-394.426 Y-171.191
X-394.453 Y-171.346
X-394.472 Y-171.529
X-394.479 Y-171.72
X-394.472 Y-171.946
X-394.448 Y-172.178
X-394.401 Y-172.447
X-394.333 Y-172.719
X-394.232 Y-173.034
X-394.105 Y-173.351
X-393.933 Y-173.708
X-393.723 Y-174.075
X-393.468 Y-174.459
X-393.145 Y-174.877
X-392.786 Y-175.281
X-392.667 Y-175.397
X-392.447 Y-175.578
X-392.2 Y-175.719
X-391.932 Y-175.816
X-384.94 Y-177.69
X-384.751 Y-177.73
X-384.562 Y-177.758
X-384.361 Y-177.772
X-384.179 Y-177.773
X-383.98 Y-177.76
X-383.786 Y-177.734
X-383.608 Y-177.697
X-383.315 Y-177.583
X-383.051 Y-177.414
X-382.824 Y-177.197
X-382.644 Y-176.94
X-382.518 Y-176.653
X-382.45 Y-176.346
X-382.443 Y-176.033
X-382.497 Y-175.723
G3 X-383.096 Y-175.306 I-0.572 J-0.182
X-383.418 Y-175.417 I0.027 J-0.599
G1 X-385.114 Y-176.628
G3 X-385.365 Y-177.095 I0.349 J-0.488
X-384.94 Y-177.69 I0.6 J-0.021
G1 X-383.607 Y-178.047
X-383.46 Y-178.079
X-383.173 Y-178.074
X-382.895 Y-178.001
X-382.643 Y-177.865
X-382.429 Y-177.672
X-382.268 Y-177.435
X-382.168 Y-177.166
X-382.134 Y-176.881
X-382.169 Y-176.595
X-382.27 Y-176.327
G3 X-382.855 Y-175.826 I-0.984 J-0.557
X-382.99 Y-175.785 I-0.399 J-1.058
X-384.229 Y-177.592 I-0.274 J-1.141
X-383.607 Y-178.047 I0.965 J0.667
G1 X-382.912 Y-178.233
X-382.765 Y-178.265
X-382.616 Y-178.274
X-382.377 Y-178.218
X-382.162 Y-178.1
X-381.985 Y-177.93
X-381.859 Y-177.719
X-381.793 Y-177.483
X-381.792 Y-177.237
X-381.856 Y-177
X-381.98 Y-176.788
G3 X-382.419 Y-176.509 I-0.661 J-0.554
X-382.673 Y-176.479 I-0.231 J-0.867
X-382.912 Y-178.233 I0.023 J-0.897
G1 X-382.349 Y-178.384
X-382.202 Y-178.416
X-382.052 Y-178.415
X-381.831 Y-178.335
X-381.645 Y-178.19
X-381.513 Y-177.995
X-381.447 Y-177.768
X-381.456 Y-177.533
X-381.536 Y-177.311
X-381.681 Y-177.126
G3 X-381.952 Y-176.983 I-0.44 J-0.507
X-382.349 Y-178.384 I-0.184 J-0.705
G1 X-381.875 Y-178.511
X-381.836 Y-178.521
X-381.805 Y-178.529
X-381.719 Y-178.536
X-381.68 Y-178.538
X-381.642
X-381.603 Y-178.537
G3 X-381.311 Y-178.176 I-0.096 J0.377
X-381.402 Y-177.911 I-0.385 J0.015
X-381.975 Y-177.895 I-0.293 J-0.249
X-381.805 Y-178.529 I0.279 J-0.265
G1 X-381.704 Y-178.542
X-381.603 Y-178.537
X-381.573 Y-178.531
X-381.534 Y-178.522
X-381.503 Y-178.515
X-381.42 Y-178.48
X-381.374 Y-178.458
G3 X-381.576 Y-177.905 I-0.185 J0.246
X-381.775 Y-177.992 I0.017 J-0.307
X-381.718 Y-178.476 I0.215 J-0.22
X-381.503 Y-178.515 I0.16 J0.266
G1 X-381.447 Y-178.495
X-381.374 Y-178.458
X-381.301 Y-178.407
X-381.241 Y-178.35
X-381.192 Y-178.294
X-381.137 Y-178.21
X-381.1 Y-178.126
X-381.089 Y-178.092
X-381.069 Y-177.992
X-381.066 Y-177.891
X-381.077 Y-177.808
X-381.1 Y-177.725
X-381.114 Y-177.69
X-381.138 Y-177.639
X-381.168 Y-177.589
X-381.207 Y-177.539
X-381.254 Y-177.488
X-381.301 Y-177.448
X-381.362 Y-177.401
G3 X-381.425 Y-177.361 I-0.351 J-0.486
G1 X-382.049 Y-177.02
X-393.535 Y-170.727
G3 X-393.77 Y-170.655 I-0.288 J-0.526
X-394.387 Y-171.047 I-0.053 J-0.598
G1 X-394.452 Y-171.248
X-394.523 Y-171.449
X-394.591 Y-171.585
X-394.625 Y-171.651
X-394.742 Y-171.852
X-394.792 Y-171.926
X-394.87 Y-172.054
X-394.936 Y-172.189
X-394.99 Y-172.328
X-395.035 Y-172.476
X-395.071 Y-172.636
X-395.099 Y-172.821
X-395.116 Y-173.019
X-395.119 Y-173.245
X-395.106 Y-173.483
X-395.073 Y-173.754
X-395.018 Y-174.034
X-394.991 Y-174.135
X-394.866 Y-174.46
X-394.676 Y-174.752
X-394.43 Y-174.998
X-394.138 Y-175.188
X-393.812 Y-175.312
X-391.932 Y-175.816
G3 X-391.34 Y-174.843 I0.135 J0.585
G1 X-393.85 Y-171.891
G3 X-394.091 Y-171.72 I-0.457 J-0.389
X-394.792 Y-171.926 I-0.216 J-0.56
G1 X-394.878 Y-172.053
X-394.993 Y-172.193
X-395.044 Y-172.254
X-395.243 Y-172.456
X-395.327 Y-172.527
X-395.437 Y-172.629
X-395.536 Y-172.742
X-395.623 Y-172.864
X-395.699 Y-172.993
X-395.766 Y-173.133
X-395.845 Y-173.425
X-395.861 Y-173.727
X-395.814 Y-174.026
X-395.706 Y-174.309
X-395.542 Y-174.563
X-395.328 Y-174.777
X-395.074 Y-174.941
X-394.792 Y-175.05
G3 X-394.127 Y-174.747 I0.135 J0.585
X-394.069 Y-174.345 I-0.53 J0.282
G1 X-394.369 Y-172.878
G3 X-394.597 Y-172.518 I-0.588 J-0.12
X-395.327 Y-172.527 I-0.36 J-0.48
G1 X-395.396 Y-172.585
X-395.489 Y-172.657
X-395.597 Y-172.734
X-395.806 Y-172.858
X-395.913 Y-172.913
X-396.043 Y-172.988
X-396.157 Y-173.086
X-396.307 Y-173.311
X-396.396 Y-173.567
X-396.418 Y-173.837
X-396.372 Y-174.104
X-396.261 Y-174.351
X-396.091 Y-174.562
X-395.874 Y-174.725
X-395.623 Y-174.827
G3 X-394.94 Y-174.716 I0.206 J0.891
X-394.877 Y-174.674 I-0.536 J0.875
X-395.148 Y-172.869 I-0.599 J0.833
X-395.913 Y-172.913 I-0.328 J-0.972
G1 X-396 Y-172.958
X-396.201 Y-173.044
X-396.336 Y-173.084
X-396.478 Y-173.134
X-396.606 Y-173.211
X-396.752 Y-173.385
X-396.846 Y-173.591
X-396.882 Y-173.814
X-396.858 Y-174.039
X-396.776 Y-174.25
X-396.64 Y-174.432
X-396.462 Y-174.571
X-396.253 Y-174.658
G3 X-395.86 Y-174.636 I0.158 J0.684
X-395.54 Y-174.426 I-0.272 J0.766
X-395.601 Y-173.255 I-0.592 J0.556
X-396.336 Y-173.084 I-0.531 J-0.615
G1 X-396.604 Y-173.164
X-396.806 Y-173.208
X-396.952 Y-173.241
X-397.079 Y-173.32
X-397.21 Y-173.489
X-397.284 Y-173.69
X-397.295 Y-173.904
X-397.242 Y-174.111
X-397.129 Y-174.293
X-396.968 Y-174.433
X-396.772 Y-174.519
G3 X-396.561 Y-174.514 I0.095 J0.41
X-396.155 Y-173.562 I-0.185 J0.641
X-396.806 Y-173.208 I-0.591 J-0.31
G1 X-397.078 Y-173.243
X-397.15 Y-173.261
X-397.208 Y-173.283
X-397.259 Y-173.308
X-397.309 Y-173.34
X-397.359 Y-173.378
X-397.41 Y-173.424
X-397.444 Y-173.462
X-397.481 Y-173.513
X-397.51 Y-173.563
X-397.534 Y-173.613
X-397.552 Y-173.664
X-397.574 Y-173.764
X-397.579 Y-173.865
X-397.567 Y-173.966
X-397.554 Y-174.016
X-397.536 Y-174.066
X-397.514 Y-174.115
X-397.486 Y-174.163
X-397.452 Y-174.212
X-397.41 Y-174.261
X-397.403 Y-174.268
X-397.354 Y-174.311
X-397.306 Y-174.346
X-397.257 Y-174.374
X-397.208 Y-174.397
X-397.007 Y-174.456
X-393.812 Y-175.312
G3 X-393.148 Y-175.009 I0.135 J0.585
G1 X-393.104 Y-174.926 Z-4.993
X-393.061 Y-174.846 Z-4.971
X-393.02 Y-174.769 Z-4.935
X-392.982 Y-174.698 Z-4.885
X-392.949 Y-174.635 Z-4.824
X-392.92 Y-174.581 Z-4.753
X-392.897 Y-174.537 Z-4.672
X-392.88 Y-174.505 Z-4.585
X-392.869 Y-174.486 Z-4.494
X-392.866 Y-174.48 Z-4.4
G0 Z5
X-357.862 Y-56.09
Z-3.8
G1 Z-4.4 F850
X-357.867 Y-56.085 Z-4.494
X-357.882 Y-56.069 Z-4.585
X-357.907 Y-56.043 Z-4.672
X-357.942 Y-56.008 Z-4.753
X-357.984 Y-55.964 Z-4.824
X-358.034 Y-55.913 Z-4.885
X-358.09 Y-55.856 Z-4.935
X-358.151 Y-55.793 Z-4.971
X-358.215 Y-55.728 Z-4.993
X-358.28 Y-55.661 Z-5
G3 X-358.951 Y-55.252 I-1.133 J-1.105
G1 X-361.277 Y-54.629
X-361.448 Y-54.592
X-361.627 Y-54.566
X-361.837 Y-54.551
X-362.053 Y-54.55
X-362.296 Y-54.566
X-362.538 Y-54.599
X-362.779 Y-54.648
X-362.995 Y-54.709
X-363.302 Y-54.856
X-363.573 Y-55.062
X-363.796 Y-55.319
X-363.962 Y-55.617
X-364.064 Y-55.942
X-364.097 Y-56.281
X-364.06 Y-56.619
G3 X-363.488 Y-57.073 I0.582 J0.146
X-363.159 Y-56.982 I0.01 J0.6
G1 X-361.133 Y-55.711
G3 X-360.852 Y-55.223 I-0.319 J0.508
X-361.277 Y-54.629 I-0.6 J0.021
G1 X-362.777 Y-54.227
X-362.923 Y-54.195
X-363.072 Y-54.177
X-363.357 Y-54.207
X-363.629 Y-54.299
X-363.873 Y-54.448
X-364.079 Y-54.647
X-364.236 Y-54.887
X-364.336 Y-55.155
X-364.375 Y-55.439
X-364.351 Y-55.724
X-364.264 Y-55.997
G3 X-363.262 Y-56.117 I0.54 J0.262
G1 X-362.49 Y-55.183
G3 X-362.353 Y-54.821 I-0.462 J0.382
X-362.777 Y-54.227 I-0.6 J0.021
G1 X-363.541 Y-54.022
X-363.688 Y-53.99
X-363.838 Y-53.98
X-363.987 Y-53.994
X-363.994 Y-53.995
X-364.246 Y-54.092
X-364.461 Y-54.255
X-364.622 Y-54.471
X-364.716 Y-54.725
X-364.736 Y-54.994
X-364.679 Y-55.258
X-364.551 Y-55.496
G3 X-364.035 Y-55.842 I0.721 J0.517
X-363.887 Y-55.865 I0.218 J0.918
X-362.964 Y-54.521 I0.07 J0.941
X-363.541 Y-54.022 I-0.853 J-0.403
G1 X-364.159 Y-53.856
X-364.306 Y-53.825
X-364.456 Y-53.826
X-364.677 Y-53.907
X-364.865 Y-54.05
X-365 Y-54.243
X-365.072 Y-54.468
X-365.073 Y-54.704
X-365.004 Y-54.93
X-364.87 Y-55.124
G3 X-364.551 Y-55.301 I0.475 J0.479
X-363.648 Y-54.405 I0.173 J0.729
X-364.159 Y-53.856 I-0.73 J-0.168
G1 X-364.622 Y-53.733
X-364.769 Y-53.703
X-364.919 Y-53.708
X-365.109 Y-53.795
X-365.263 Y-53.936
X-365.364 Y-54.118
X-365.405 Y-54.323
X-365.38 Y-54.53
X-365.291 Y-54.719
X-365.149 Y-54.871
G3 X-364.952 Y-54.962 I0.33 J0.457
X-364.415 Y-54.849 I0.15 J0.618
X-364.166 Y-54.311 I-0.387 J0.505
X-364.622 Y-53.733 I-0.636 J-0.033
G1 X-364.79 Y-53.69
X-364.831 Y-53.684
X-364.894 Y-53.681
X-364.956 Y-53.684
X-364.992 Y-53.689
X-365.092 Y-53.714
X-365.143 Y-53.735
X-365.193 Y-53.761
X-365.271 Y-53.814
X-365.349 Y-53.885
X-365.394 Y-53.94
X-365.441 Y-54.013
X-365.475 Y-54.086
X-365.503 Y-54.187
X-365.513 Y-54.288
X-365.506 Y-54.388
X-365.482 Y-54.489
X-365.447 Y-54.573
X-365.394 Y-54.657
X-365.367 Y-54.69
X-365.324 Y-54.736
X-365.28 Y-54.773
X-365.254 Y-54.792
G3 X-365.087 Y-54.871 I0.337 J0.497
G1 X-365.001 Y-54.883 Z-4.994
X-364.917 Y-54.896 Z-4.975
X-364.841 Y-54.882 Z-4.945
X-364.769 Y-54.868 Z-4.905
X-364.703 Y-54.856 Z-4.856
X-364.651 Y-54.825 Z-4.795
X-364.607 Y-54.799 Z-4.726
X-364.571 Y-54.778 Z-4.651
X-364.545 Y-54.762 Z-4.57
X-364.53 Y-54.753 Z-4.486
X-364.524 Y-54.75 Z-4.401
G0 Z5
X-50.259 Y-30.94
Z2.55
G3 X-55.944 Y-30.53 Z1.609 I-2.843 J0.205 F283.3
X-50.259 Y-30.94 Z0.668 I2.843 J-0.205
X-55.944 Y-30.53 Z-0.273 I-2.843 J0.205
X-50.259 Y-30.94 Z-1.214 I2.843 J-0.205
X-55.944 Y-30.53 Z-2.155 I-2.843 J0.205
X-50.259 Y-30.94 Z-3.096 I2.843 J-0.205
X-55.944 Y-30.53 Z-4.037 I-2.843 J0.205
X-53.204 Y-33.583 Z-4.519 I2.843 J-0.205
X-50.252 Y-30.735 Z-5 I0.103 J2.848
X-55.952 I-2.85
X-50.252 I2.85
G1 X-50.248 Y-30.513 F850
X-50.118 Y-29.637
X-50.085 Y-29.49
X-50.069 Y-29.341
X-50.067 Y-29.191
X-50.079 Y-29.042
X-50.103 Y-28.894
X-50.138 Y-28.748
X-50.185 Y-28.6
X-50.246 Y-28.448
X-50.32 Y-28.293
X-50.408 Y-28.136
X-50.512 Y-27.98
X-50.63 Y-27.825
X-50.764 Y-27.674
X-50.912 Y-27.527
X-51.076 Y-27.387
X-51.254 Y-27.254
X-51.445 Y-27.131
X-51.65 Y-27.019
X-51.866 Y-26.919
X-52.093 Y-26.833
X-52.331 Y-26.761
X-52.576 Y-26.705
X-52.829 Y-26.666
X-53.087 Y-26.644
X-53.35 Y-26.639
X-53.615 Y-26.653
X-53.881 Y-26.686
X-54.147 Y-26.737
X-54.41 Y-26.808
X-54.67 Y-26.897
X-54.925 Y-27.004
X-55.173 Y-27.129
X-55.413 Y-27.273
X-55.644 Y-27.433
X-55.863 Y-27.609
X-56.071 Y-27.801
X-56.266 Y-28.008
X-56.447 Y-28.228
X-56.612 Y-28.46
X-56.761 Y-28.705
X-56.893 Y-28.959
X-57.007 Y-29.222
X-57.103 Y-29.493
X-57.18 Y-29.771
X-57.238 Y-30.053
X-57.276 Y-30.339
X-57.294 Y-30.627
X-57.292 Y-30.917
X-57.271 Y-31.205
X-57.229 Y-31.492
X-57.167 Y-31.775
X-57.086 Y-32.053
X-56.986 Y-32.325
X-56.868 Y-32.59
X-56.731 Y-32.846
X-56.576 Y-33.092
X-56.405 Y-33.326
X-56.219 Y-33.549
X-56.017 Y-33.758
X-55.801 Y-33.952
X-55.572 Y-34.131
X-55.331 Y-34.294
X-55.08 Y-34.44
X-54.819 Y-34.568
X-54.549 Y-34.678
X-54.273 Y-34.768
X-53.991 Y-34.84
X-53.705 Y-34.892
X-53.416 Y-34.924
X-53.125 Y-34.935
X-52.835 Y-34.927
X-52.545 Y-34.898
X-52.258 Y-34.85
X-51.975 Y-34.782
X-51.698 Y-34.694
X-51.427 Y-34.588
X-51.165 Y-34.462
X-50.911 Y-34.319
X-50.668 Y-34.159
X-50.437 Y-33.983
X-50.219 Y-33.79
X-50.014 Y-33.584
X-49.824 Y-33.363
X-49.65 Y-33.13
X-49.493 Y-32.885
X-49.29 Y-32.516
X-49.028 Y-31.951
X-48.849 Y-31.481
X-48.728 Y-31.081
X-48.643 Y-30.713
X-48.588 Y-30.363
X-48.559 Y-30.03
X-48.553 Y-29.707
X-48.569 Y-29.393
X-48.607 Y-29.084
X-48.665 Y-28.782
X-48.743 Y-28.486
X-48.842 Y-28.196
X-48.961 Y-27.913
