%
(1001)
(Z0 stock top)
(T0  D=20 CR=0 - ZMIN=-6 - flat end mill)
G90 G94
G17
G21

(Face3)
M9
T0 M6
S6000 M3
G54
M9
G0 X177.785 Y-2.92
Z15
Z5
G1 Z0.5 F300
G18 G3 X175.785 Z-1.5 I-2
G1 X165
X-10 F750
G17 G2 Y13.97 J8.445
G1 X165
G3 Y30.86 J8.445
G1 X-10
G2 Y47.75 J8.445
G1 X165
G3 Y64.64 J8.445
G1 X-10
G2 Y81.53 J8.445
G1 X165
G3 Y98.42 J8.445
G1 X-10
G2 Y115.31 J8.445
G1 X165
G18 G2 X167 Z0.5 K2 F300
G0 Z5
X177.785 Y117.92
G1 Z-1 F300
G3 X175.785 Z-3 I-2
G1 X165
X-10 F750
G17 G3 Y101.03 J-8.445
G1 X165
G2 Y84.14 J-8.445
G1 X-10
G3 Y67.25 J-8.445
G1 X165
G2 Y50.36 J-8.445
G1 X-10
G3 Y33.47 J-8.445
G1 X165
G2 Y16.58 J-8.445
G1 X-10
G3 Y-0.31 J-8.445
G1 X165
G18 G2 X167 Z-1 K2 F300
G0 Z5
X177.785 Y-2.92
G1 Z-2.5 F300
G3 X175.785 Z-4.5 I-2
G1 X165
X-10 F750
G17 G2 Y13.97 J8.445
G1 X165
G3 Y30.86 J8.445
G1 X-10
G2 Y47.75 J8.445
G1 X165
G3 Y64.64 J8.445
G1 X-10
G2 Y81.53 J8.445
G1 X165
G3 Y98.42 J8.445
G1 X-10
G2 Y115.31 J8.445
G1 X165
G18 G2 X167 Z-2.5 K2 F300
G0 Z5
X177.785 Y117.92
G1 Z-4 F300
G3 X175.785 Z-6 I-2
G1 X165
X-10 F750
G17 G3 Y101.03 J-8.445
G1 X165
G2 Y84.14 J-8.445
G1 X-10
G3 Y67.25 J-8.445
G1 X165
G2 Y50.36 J-8.445
G1 X-10
G3 Y33.47 J-8.445
G1 X165
G2 Y16.58 J-8.445
G1 X-10
G3 Y-0.31 J-8.445
G1 X165
G18 G2 X167 Z-4 K2 F300
G0 Z15
G17
M9
M30
%
