%
(1001)
(z0 top machine -5-5)
(T1  D=12.7 CR=0 - ZMIN=-44.5 - flat end mill)
G90 G94
G17
G21

(Face2)
M9
T1 M6
S6000 M3
G54
M9
G0 X10.12 Y-30.96
Z15
Z5
G1 Z0.77 F849.6
G18 G3 X8.85 Z-0.5 I-1.27
G1 X-195.85
G17 G2 Y-19.691 J5.635
G1 X8.85
G3 Y-8.422 J5.635
G1 X-195.85
G2 Y2.847 J5.635
G1 X8.85
G18 G2 X10.12 Z0.77 K1.27
G0 Z5
Y-30.96
G1 Z-0.23 F849.6
G3 X8.85 Z-1.5 I-1.27
G1 X-195.85
G17 G2 Y-19.691 J5.635
G1 X8.85
G3 Y-8.422 J5.635
G1 X-195.85
G2 Y2.847 J5.635
G1 X8.85
G18 G2 X10.12 Z-0.23 K1.27
G0 Z15
G17

(2D Adaptive1)
M9
G0 X-183.254 Y11.476
Z15
Z5
Z-8.72
G1 Z-9.99 F849.6
Z-11.99
G3 X-184 Y6.291 I23.557 J-6.034
G1 Y6.084
X-183.999 Y6.057
X-183.888 Y5.956
X-183.745 Y5.837
X-183.561 Y5.701
X-183.329 Y5.548
X-183.039 Y5.379
X-182.678 Y5.194
X-182.228 Y4.993
X-181.664 Y4.777
X-180.95 Y4.548
X-180.024 Y4.304
X-178.778 Y4.048
X-177.568 Y3.867
X-177.114 Y3.828
X-176.659 Y3.846
X-176.21 Y3.921
X-175.773 Y4.052
X-175.357 Y4.237
X-174.966 Y4.472
X-174.746 Y4.624
X-174.586 Y4.734
X-174.205 Y4.969
X-174.142 Y5.005
X-173.824 Y5.151
X-173.308 Y5.386
X-173.063 Y5.469
X-172.682 Y5.584
X-172.302 Y5.686
X-171.54 Y5.812
X-170.779 Y5.844
X-170.398 Y5.85
X-101.494
X-100.733 Y5.847
X-100.352 Y5.817
X-99.813 Y5.767
X-99.591 Y5.728
X-99.21 Y5.648
X-98.83 Y5.536
X-98.421 Y5.386
X-98.068 Y5.256
X-98.033 Y5.237
X-97.65 Y5.058
X-97.126 Y4.847
X-96.465 Y4.622
X-95.614 Y4.383
X-94.486 Y4.131
X-93.162 Y3.909
X-92.599 Y3.841
X-92.1 Y3.819
X-91.604 Y3.872
X-91.121 Y3.999
X-90.664 Y4.198
X-90.241 Y4.464
X-90.023 Y4.624
X-89.693 Y4.853
X-88.932 Y5.256
X-88.551 Y5.396
X-88.17 Y5.536
X-87.79 Y5.648
X-87.409 Y5.728
X-87.187 Y5.767
X-86.648 Y5.817
X-86.267 Y5.847
X-85.506 Y5.85
X-16.602
X-16.221 Y5.844
X-15.46 Y5.812
X-14.698 Y5.686
X-14.318 Y5.584
X-13.937 Y5.469
X-13.692 Y5.386
X-13.176 Y5.151
X-12.402 Y4.841
X-11.736 Y4.615
X-10.879 Y4.376
X-9.741 Y4.123
X-8.417 Y3.904
X-7.084 Y3.744
X-5.747 Y3.627
X-5.692 Y3.624
X-5.279 Y3.631
X-4.873 Y3.705
X-4.484 Y3.845
X-4.123 Y4.046
X-3.799 Y4.303
X-3.522 Y4.609
X-3.298 Y4.956
X-3.134 Y5.335
X-3.034 Y5.736
X-3 Y6.148
G3 X-4.241 Y7.373 I-1.269 J-0.044
G1 X-12.577 Y7.556
G3 X-13.176 Y5.151 I-0.028 J-1.27
G1 X-12.858 Y5.005
X-12.795 Y4.969
X-12.414 Y4.734
X-12.254 Y4.624
X-12.034 Y4.472
X-11.653 Y4.15
X-11.329 Y3.863
X-11.272 Y3.806
X-11.166 Y3.7
X-10.97 Y3.526
X-10.724 Y3.333
X-10.421 Y3.12
X-10.075 Y2.903
X-9.642 Y2.663
X-9.201 Y2.45
X-8.762 Y2.266
X-8.372 Y2.127
X-7.985 Y2.012
X-7.622 Y1.926
X-7.281 Y1.864
X-6.934 Y1.82
X-6.625 Y1.798
X-6.299 Y1.792
X-5.999 Y1.803
X-5.536 Y1.846
X-5.085 Y1.925
X-4.652 Y2.077
X-4.251 Y2.297
X-3.891 Y2.58
X-3.582 Y2.919
X-3.333 Y3.303
X-3.149 Y3.723
X-3.038 Y4.168
X-3 Y4.624
G3 X-4.263 Y5.85 I-1.269 J-0.044
G1 X-10.284 Y5.881
G3 X-11.272 Y3.806 I-0.007 J-1.27
G1 X-10.987 Y3.482
X-10.666 Y3.101
X-10.406 Y2.72
X-10.173 Y2.339
X-10.091 Y2.213
X-9.987 Y2.07
X-9.864 Y1.919
X-9.723 Y1.763
X-9.569 Y1.61
X-9.396 Y1.456
X-9.204 Y1.304
X-8.995 Y1.156
X-8.773 Y1.015
X-8.536 Y0.883
X-8.269 Y0.752
X-8.002 Y0.639
X-7.713 Y0.535
X-7.449 Y0.455
X-7.173 Y0.389
X-6.894 Y0.337
X-6.639 Y0.303
X-6.362 Y0.282
X-6.095 Y0.277
X-5.849 Y0.285
X-5.557 Y0.31
X-5.103 Y0.388
X-4.667 Y0.54
X-4.262 Y0.761
X-3.899 Y1.045
X-3.587 Y1.385
X-3.336 Y1.772
X-3.151 Y2.194
X-3.038 Y2.641
X-3 Y3.101
G3 X-4.302 Y4.326 I-1.269 J-0.044
G1 X-9.083 Y4.204
G3 X-10.173 Y2.339 I0.033 J-1.27
G1 X-10.13 Y2.266
X-9.749 Y1.424
X-9.675 Y1.197
X-9.625 Y1.056
X-9.562 Y0.92
X-9.49 Y0.788
X-9.407 Y0.654
X-9.312 Y0.519
X-9.205 Y0.382
X-9.081 Y0.241
X-8.944 Y0.1
X-8.794 Y-0.038
X-8.63 Y-0.173
X-8.452 Y-0.305
X-8.259 Y-0.431
X-8.051 Y-0.552
X-7.842 Y-0.659
X-7.603 Y-0.765
X-7.375 Y-0.853
X-7.156 Y-0.923
X-6.907 Y-0.988
X-6.674 Y-1.035
X-6.449 Y-1.069
X-6.197 Y-1.092
X-5.963 Y-1.101
X-5.739 Y-1.098
X-5.479 Y-1.08
X-5.04 Y-1.012
X-4.619 Y-0.873
X-4.226 Y-0.665
X-3.874 Y-0.395
X-3.571 Y-0.071
X-3.327 Y0.3
X-3.147 Y0.705
X-3.037 Y1.135
X-3 Y1.578
G3 X-4.274 Y2.803 I-1.269 J-0.044
G1 X-8.451 Y2.788
G3 X-9.675 Y1.197 I0.005 J-1.27
G1 X-9.561 Y0.816
X-9.458 Y0.435
X-9.409 Y0.132
X-9.378 Y-0.015
X-9.336 Y-0.159
X-9.284 Y-0.3
X-9.222 Y-0.437
X-9.152 Y-0.569
X-9.072 Y-0.703
X-8.981 Y-0.838
X-8.878 Y-0.974
X-8.762 Y-1.111
X-8.633 Y-1.248
X-8.49 Y-1.384
X-8.335 Y-1.515
X-8.169 Y-1.642
X-7.991 Y-1.763
X-7.799 Y-1.879
X-7.6 Y-1.985
X-7.381 Y-2.087
X-7.175 Y-2.169
X-6.965 Y-2.24
X-6.735 Y-2.304
X-6.522 Y-2.351
X-6.306 Y-2.387
X-6.07 Y-2.413
X-5.854 Y-2.425
X-5.638
X-5.303 Y-2.407
X-4.907 Y-2.384
X-4.521 Y-2.291
X-4.157 Y-2.131
X-3.828 Y-1.909
X-3.542 Y-1.633
X-3.311 Y-1.31
X-3.14 Y-0.952
X-3.035 Y-0.569
X-3 Y-0.173
G3 X-4.105 Y1.042 I-1.269 J-0.044
G1 X-7.985 Y1.549
G3 X-9.409 Y0.132 I-0.165 J-1.259
G1 X-9.336 Y-0.326
X-9.313 Y-0.903
X-9.3 Y-1.052
X-9.274 Y-1.2
X-9.236 Y-1.345
X-9.189 Y-1.488
X-9.133 Y-1.627
X-9.069 Y-1.762
X-8.995 Y-1.898
X-8.91 Y-2.036
X-8.811 Y-2.179
X-8.701 Y-2.321
X-8.58 Y-2.461
X-8.446 Y-2.599
X-8.3 Y-2.735
X-8.141 Y-2.867
X-7.97 Y-2.994
X-7.782 Y-3.119
X-7.556 Y-3.252
X-7.334 Y-3.366
X-7.126 Y-3.46
X-6.895 Y-3.549
X-6.671 Y-3.622
X-6.461 Y-3.678
X-6.23 Y-3.726
X-6.007 Y-3.76
X-5.799 Y-3.781
X-5.574 Y-3.79
X-5.126 Y-3.747
X-4.692 Y-3.626
X-4.285 Y-3.432
X-3.918 Y-3.172
X-3.601 Y-2.851
X-3.344 Y-2.481
X-3.155 Y-2.072
X-3.039 Y-1.637
X-3 Y-1.188
G3 X-4.157 Y0.033 I-1.269 J-0.044
G1 X-7.931 Y0.367
G3 X-9.313 Y-0.903 I-0.112 J-1.265
G1 X-9.306 Y-1.088
X-9.3 Y-1.469
Y-2.045
X-9.292 Y-2.195
X-9.273 Y-2.344
X-9.242 Y-2.491
X-9.201 Y-2.635
X-9.152 Y-2.777
X-9.094 Y-2.916
X-9.025 Y-3.06
X-8.943 Y-3.21
X-8.849 Y-3.361
X-8.744 Y-3.512
X-8.626 Y-3.661
X-8.495 Y-3.811
X-8.351 Y-3.96
X-8.195 Y-4.103
X-8.027 Y-4.242
X-7.857 Y-4.367
X-7.689 Y-4.478
X-7.492 Y-4.592
X-7.302 Y-4.689
X-7.12 Y-4.77
X-6.911 Y-4.85
X-6.705 Y-4.916
X-6.512 Y-4.966
X-6.298 Y-5.01
X-6.081 Y-5.042
X-5.881 Y-5.061
X-5.669 Y-5.069
X-5.25 Y-5.03
X-4.842 Y-4.927
X-4.454 Y-4.761
X-4.097 Y-4.537
X-3.779 Y-4.261
X-3.508 Y-3.939
X-3.29 Y-3.579
X-3.13 Y-3.189
X-3.033 Y-2.779
X-3 Y-2.359
G3 X-4.164 Y-1.138 I-1.269 J-0.044
G1 X-7.925 Y-0.824
G3 X-9.3 Y-2.045 I-0.106 J-1.266
G1 Y-3.296
X-9.292 Y-3.446
X-9.276 Y-3.595
X-9.248 Y-3.742
X-9.211 Y-3.888
X-9.165 Y-4.03
X-9.11 Y-4.171
X-9.045 Y-4.314
X-8.97 Y-4.458
X-8.884 Y-4.604
X-8.785 Y-4.752
X-8.675 Y-4.9
X-8.552 Y-5.047
X-8.417 Y-5.191
X-8.271 Y-5.332
X-8.115 Y-5.467
X-7.949 Y-5.595
X-7.788 Y-5.705
X-7.603 Y-5.819
X-7.418 Y-5.919
X-7.24 Y-6.003
X-7.035 Y-6.086
X-6.837 Y-6.154
X-6.645 Y-6.209
X-6.427 Y-6.259
X-6.221 Y-6.294
X-6.02 Y-6.317
X-5.796 Y-6.331
X-5.596 Y-6.332
X-5.191 Y-6.303
X-4.795 Y-6.211
X-4.419 Y-6.057
X-4.071 Y-5.846
X-3.761 Y-5.583
X-3.497 Y-5.275
X-3.283 Y-4.929
X-3.127 Y-4.554
X-3.032 Y-4.159
X-3 Y-3.754
G3 X-4.116 Y-2.538 I-1.269 J-0.044
G1 X-7.877 Y-2.08
G3 X-9.3 Y-3.296 I-0.153 J-1.261
G1 Y-4.579
X-9.292 Y-4.729
X-9.277 Y-4.878
X-9.25 Y-5.026
X-9.213 Y-5.171
X-9.167 Y-5.314
X-9.113 Y-5.454
X-9.05 Y-5.593
X-8.976 Y-5.737
X-8.89 Y-5.882
X-8.793 Y-6.028
X-8.685 Y-6.172
X-8.565 Y-6.315
X-8.433 Y-6.457
X-8.289 Y-6.596
X-8.132 Y-6.731
X-7.965 Y-6.86
X-7.794 Y-6.978
X-7.598 Y-7.098
X-7.408 Y-7.201
X-7.22 Y-7.289
X-7.009 Y-7.375
X-6.808 Y-7.444
X-6.608 Y-7.502
X-6.388 Y-7.552
X-6.182 Y-7.587
X-5.974 Y-7.611
X-5.748 Y-7.625
X-5.319 Y-7.594
X-4.9 Y-7.496
X-4.502 Y-7.334
X-4.134 Y-7.111
X-3.806 Y-6.833
X-3.526 Y-6.507
X-3.3 Y-6.14
X-3.135 Y-5.743
X-3.034 Y-5.325
X-3 Y-4.897
G3 X-4.162 Y-3.675 I-1.269 J-0.044
G1 X-7.924 Y-3.358
G3 X-9.3 Y-4.579 I-0.107 J-1.266
G1 Y-5.868
X-9.292 Y-6.018
X-9.276 Y-6.167
X-9.248 Y-6.314
X-9.21 Y-6.459
X-9.164 Y-6.602
X-9.109 Y-6.741
X-9.045 Y-6.882
X-8.968 Y-7.027
X-8.881 Y-7.175
X-8.782 Y-7.322
X-8.671 Y-7.468
X-8.549 Y-7.614
X-8.414 Y-7.757
X-8.267 Y-7.897
X-8.108 Y-8.034
X-7.95 Y-8.155
X-7.783 Y-8.269
X-7.597 Y-8.382
X-7.419 Y-8.477
X-7.234 Y-8.564
X-7.03 Y-8.646
X-6.838 Y-8.711
X-6.638 Y-8.767
X-6.422 Y-8.815
X-6.222 Y-8.849
X-6.012 Y-8.872
X-5.791 Y-8.885
X-5.355 Y-8.852
X-4.929 Y-8.751
X-4.525 Y-8.585
X-4.151 Y-8.357
X-3.818 Y-8.073
X-3.533 Y-7.741
X-3.304 Y-7.368
X-3.137 Y-6.964
X-3.034 Y-6.539
X-3 Y-6.103
G3 X-4.19 Y-4.88 I-1.269 J-0.044
G1 X-7.952 Y-4.644
G3 X-9.3 Y-5.868 I-0.079 J-1.268
G1 Y-7.182
X-9.292 Y-7.331
X-9.273 Y-7.48
X-9.243 Y-7.627
X-9.204 Y-7.772
X-9.155 Y-7.914
X-9.099 Y-8.053
X-9.033 Y-8.192
X-8.956 Y-8.335
X-8.867 Y-8.48
X-8.766 Y-8.626
X-8.654 Y-8.771
X-8.531 Y-8.914
X-8.396 Y-9.053
X-8.25 Y-9.19
X-8.09 Y-9.323
X-7.936 Y-9.438
X-7.763 Y-9.553
X-7.58 Y-9.661
X-7.406 Y-9.751
X-7.214 Y-9.838
X-7.013 Y-9.916
X-6.825 Y-9.978
X-6.617 Y-10.034
X-6.405 Y-10.078
X-6.207 Y-10.109
X-5.99 Y-10.131
X-5.771 Y-10.14
X-5.552 Y-10.138
X-5.108 Y-10.096
X-4.678 Y-9.977
X-4.274 Y-9.785
X-3.91 Y-9.527
X-3.596 Y-9.21
X-3.341 Y-8.844
X-3.154 Y-8.439
X-3.039 Y-8.007
X-3 Y-7.562
G3 X-4.141 Y-6.343 I-1.269 J-0.044
G1 X-7.903 Y-5.962
G3 X-9.3 Y-7.182 I-0.128 J-1.264
G1 Y-8.439
X-9.292 Y-8.589
X-9.275 Y-8.738
X-9.246 Y-8.885
X-9.207 Y-9.03
X-9.16 Y-9.172
X-9.104 Y-9.312
X-9.039 Y-9.45
X-8.962 Y-9.593
X-8.874 Y-9.736
X-8.776 Y-9.88
X-8.666 Y-10.022
X-8.545 Y-10.164
X-8.411 Y-10.303
X-8.265 Y-10.44
X-8.106 Y-10.573
X-7.937 Y-10.7
X-7.765 Y-10.815
X-7.568 Y-10.932
X-7.369 Y-11.036
X-7.182 Y-11.121
X-6.974 Y-11.202
X-6.761 Y-11.273
X-6.562 Y-11.326
X-6.352 Y-11.371
X-6.129 Y-11.406
X-5.923 Y-11.427
X-5.714 Y-11.437
X-5.288 Y-11.401
X-4.874 Y-11.299
X-4.48 Y-11.133
X-4.117 Y-10.909
X-3.794 Y-10.63
X-3.517 Y-10.305
X-3.295 Y-9.94
X-3.133 Y-9.546
X-3.033 Y-9.131
X-3 Y-8.705
G3 X-4.18 Y-7.482 I-1.269 J-0.044
G1 X-7.941 Y-7.217
G3 X-9.3 Y-8.439 I-0.089 J-1.267
G1 Y-9.676
X-9.292 Y-9.826
X-9.277 Y-9.975
X-9.25 Y-10.123
X-9.213 Y-10.268
X-9.167 Y-10.411
X-9.113 Y-10.551
X-9.048 Y-10.692
X-8.973 Y-10.837
X-8.886 Y-10.982
X-8.789 Y-11.128
X-8.679 Y-11.274
X-8.557 Y-11.42
X-8.422 Y-11.564
X-8.275 Y-11.705
X-8.117 Y-11.84
X-7.956 Y-11.965
X-7.794 Y-12.075
X-7.607 Y-12.19
X-7.426 Y-12.287
X-7.246 Y-12.371
X-7.041 Y-12.455
X-6.845 Y-12.522
X-6.651 Y-12.577
X-6.433 Y-12.626
X-6.229 Y-12.66
X-6.025 Y-12.684
X-5.801 Y-12.697
X-5.483 Y-12.699
X-5.052 Y-12.663
X-4.635 Y-12.553
X-4.242 Y-12.372
X-3.888 Y-12.125
X-3.582 Y-11.82
X-3.333 Y-11.467
X-3.15 Y-11.076
X-3.038 Y-10.659
X-3 Y-10.228
G3 X-4.085 Y-9.016 I-1.269 J-0.044
G1 X-7.846 Y-8.464
G3 X-9.3 Y-9.676 I-0.184 J-1.257
G1 Y-10.99
X-9.292 Y-11.14
X-9.274 Y-11.289
X-9.244 Y-11.436
X-9.205 Y-11.58
X-9.157 Y-11.723
X-9.1 Y-11.862
X-9.035 Y-12.001
X-8.958 Y-12.143
X-8.87 Y-12.288
X-8.77 Y-12.434
X-8.658 Y-12.578
X-8.535 Y-12.721
X-8.401 Y-12.861
X-8.255 Y-12.998
X-8.096 Y-13.131
X-7.92 Y-13.263
X-7.741 Y-13.383
X-7.536 Y-13.504
X-7.335 Y-13.609
X-7.144 Y-13.696
X-6.93 Y-13.779
X-6.717 Y-13.849
X-6.517 Y-13.903
X-6.3 Y-13.95
X-6.079 Y-13.984
X-5.875 Y-14.005
X-5.662 Y-14.015
X-5.624 Y-14.014
X-5.213 Y-13.979
X-4.812 Y-13.88
X-4.431 Y-13.72
X-4.08 Y-13.503
X-3.767 Y-13.233
X-3.5 Y-12.918
X-3.285 Y-12.566
X-3.128 Y-12.184
X-3.032 Y-11.782
X-3 Y-11.371
G3 X-4.141 Y-10.152 I-1.269 J-0.044
G1 X-7.903 Y-9.771
G3 X-9.3 Y-10.99 I-0.128 J-1.264
G1 Y-12.248
X-9.292 Y-12.398
X-9.275 Y-12.547
X-9.247 Y-12.694
X-9.209 Y-12.839
X-9.161 Y-12.981
X-9.106 Y-13.121
X-9.04 Y-13.265
X-8.962 Y-13.412
X-8.873 Y-13.56
X-8.773 Y-13.708
X-8.661 Y-13.856
X-8.536 Y-14.004
X-8.398 Y-14.15
X-8.248 Y-14.292
X-8.088 Y-14.429
X-7.921 Y-14.556
X-7.755 Y-14.668
X-7.564 Y-14.784
X-7.378 Y-14.882
X-7.195 Y-14.967
X-6.987 Y-15.05
X-6.79 Y-15.117
X-6.592 Y-15.172
X-6.374 Y-15.22
X-6.17 Y-15.254
X-5.964 Y-15.276
X-5.742 Y-15.288
X-5.313 Y-15.255
X-4.894 Y-15.154
X-4.497 Y-14.99
X-4.13 Y-14.765
X-3.803 Y-14.486
X-3.524 Y-14.159
X-3.299 Y-13.792
X-3.134 Y-13.395
X-3.034 Y-12.977
X-3 Y-12.548
G3 X-4.168 Y-11.326 I-1.269 J-0.044
G1 X-7.93 Y-11.026
G3 X-9.3 Y-12.248 I-0.101 J-1.266
G1 Y-13.485
X-9.291 Y-13.668
X-9.275 Y-13.817
X-9.249 Y-13.965
X-9.212 Y-14.11
X-9.167 Y-14.253
X-9.113 Y-14.393
X-9.049 Y-14.535
X-8.974 Y-14.68
X-8.888 Y-14.826
X-8.792 Y-14.972
X-8.684 Y-15.117
X-8.562 Y-15.262
X-8.429 Y-15.406
X-8.284 Y-15.546
X-8.128 Y-15.682
X-7.968 Y-15.806
X-7.807 Y-15.917
X-7.621 Y-16.032
X-7.442 Y-16.129
X-7.262 Y-16.215
X-7.057 Y-16.298
X-6.863 Y-16.366
X-6.669 Y-16.422
X-6.451 Y-16.472
X-6.248 Y-16.507
X-6.044 Y-16.531
X-5.821 Y-16.545
X-5.614 Y-16.547
X-5.2 Y-16.497
X-4.798 Y-16.384
X-4.419 Y-16.212
X-4.069 Y-15.983
X-3.759 Y-15.704
X-3.494 Y-15.382
X-3.282 Y-15.023
X-3.126 Y-14.635
X-3.032 Y-14.229
X-3 Y-13.813
G3 X-4.159 Y-12.592 I-1.269 J-0.044
G1 X-7.92 Y-12.264
G3 X-9.3 Y-13.485 I-0.11 J-1.265
G1 Y-14.798
X-9.292 Y-14.952
X-9.277 Y-15.101
X-9.25 Y-15.249
X-9.213 Y-15.394
X-9.167 Y-15.537
X-9.113 Y-15.677
X-9.051 Y-15.815
X-8.977 Y-15.957
X-8.891 Y-16.102
X-8.794 Y-16.247
X-8.687 Y-16.391
X-8.567 Y-16.534
X-8.436 Y-16.674
X-8.293 Y-16.812
X-8.136 Y-16.947
X-7.969 Y-17.076
X-7.803 Y-17.19
X-7.63 Y-17.296
X-7.438 Y-17.4
X-7.256 Y-17.486
X-7.062 Y-17.565
X-6.855 Y-17.636
X-6.662 Y-17.691
X-6.451 Y-17.739
X-6.238 Y-17.775
X-6.038 Y-17.798
X-5.817 Y-17.812
X-5.651 Y-17.813
X-5.237 Y-17.783
X-4.833 Y-17.688
X-4.449 Y-17.531
X-4.094 Y-17.316
X-3.777 Y-17.048
X-3.507 Y-16.733
X-3.289 Y-16.379
X-3.13 Y-15.996
X-3.033 Y-15.593
X-3 Y-15.179
G3 X-4.141 Y-13.96 I-1.269 J-0.044
G1 X-7.903 Y-13.579
G3 X-9.3 Y-14.798 I-0.128 J-1.264
G1 Y-16.056
X-9.292 Y-16.224
X-9.276 Y-16.373
X-9.249 Y-16.521
X-9.212 Y-16.666
X-9.166 Y-16.809
X-9.112 Y-16.949
X-9.049 Y-17.087
X-8.975 Y-17.229
X-8.889 Y-17.374
X-8.792 Y-17.518
X-8.685 Y-17.662
X-8.565 Y-17.804
X-8.434 Y-17.945
X-8.29 Y-18.082
X-8.133 Y-18.217
X-7.968 Y-18.344
X-7.799 Y-18.46
X-7.605 Y-18.578
X-7.419 Y-18.678
X-7.232 Y-18.766
X-7.022 Y-18.851
X-6.824 Y-18.919
X-6.624 Y-18.976
X-6.404 Y-19.025
X-6.2 Y-19.06
X-5.99 Y-19.084
X-5.767 Y-19.097
X-5.335 Y-19.065
X-4.913 Y-18.965
X-4.512 Y-18.801
X-4.142 Y-18.576
X-3.811 Y-18.295
X-3.529 Y-17.966
X-3.302 Y-17.597
X-3.136 Y-17.197
X-3.034 Y-16.775
X-3 Y-16.343
G3 X-4.173 Y-15.121 I-1.269 J-0.044
G1 X-7.934 Y-14.834
G3 X-9.3 Y-16.056 I-0.097 J-1.266
G1 Y-17.387
X-9.292 Y-17.537
X-9.273 Y-17.686
X-9.243 Y-17.833
X-9.203 Y-17.977
X-9.154 Y-18.119
X-9.097 Y-18.258
X-9.031 Y-18.398
X-8.953 Y-18.542
X-8.863 Y-18.688
X-8.761 Y-18.835
X-8.648 Y-18.981
X-8.523 Y-19.125
X-8.387 Y-19.266
X-8.239 Y-19.404
X-8.078 Y-19.538
X-7.922 Y-19.654
X-7.748 Y-19.77
X-7.564 Y-19.878
X-7.389 Y-19.968
X-7.195 Y-20.055
X-6.995 Y-20.133
X-6.806 Y-20.195
X-6.597 Y-20.25
X-6.385 Y-20.295
X-6.187 Y-20.325
X-5.969 Y-20.346
X-5.752 Y-20.356
X-5.32 Y-20.317
X-4.899 Y-20.212
X-4.5 Y-20.043
X-4.132 Y-19.814
X-3.804 Y-19.531
X-3.524 Y-19.2
X-3.299 Y-18.83
X-3.134 Y-18.429
X-3.034 Y-18.007
X-3 Y-17.575
G3 X-4.206 Y-16.351 I-1.269 J-0.044
G1 X-7.968 Y-16.163
G3 X-9.3 Y-17.387 I-0.063 J-1.268
G1 Y-18.607
X-9.292 Y-18.769
X-9.276 Y-18.918
X-9.25 Y-19.065
X-9.213 Y-19.211
X-9.167 Y-19.353
X-9.112 Y-19.493
X-9.048 Y-19.633
X-8.974 Y-19.776
X-8.889 Y-19.919
X-8.793 Y-20.062
X-8.685 Y-20.205
X-8.565 Y-20.349
X-8.432 Y-20.49
X-8.288 Y-20.628
X-8.133 Y-20.761
X-7.973 Y-20.884
X-7.813 Y-20.993
X-7.628 Y-21.106
X-7.448 Y-21.203
X-7.269 Y-21.287
X-7.064 Y-21.37
X-6.869 Y-21.436
X-6.676 Y-21.491
X-6.458 Y-21.54
X-6.253 Y-21.574
X-6.05 Y-21.598
X-5.825 Y-21.611
X-5.635 Y-21.612
X-5.224 Y-21.581
X-4.822 Y-21.486
X-4.44 Y-21.329
X-4.087 Y-21.114
X-3.773 Y-20.847
X-3.504 Y-20.534
X-3.288 Y-20.182
X-3.129 Y-19.801
X-3.032 Y-19.399
X-3 Y-18.988
G3 X-4.141 Y-17.768 I-1.269 J-0.044
G1 X-7.903 Y-17.388
G3 X-9.3 Y-18.607 I-0.128 J-1.264
G1 Y-19.865
X-9.291 Y-20.036
X-9.276 Y-20.185
X-9.249 Y-20.333
X-9.212 Y-20.478
X-9.166 Y-20.621
X-9.111 Y-20.761
X-9.049 Y-20.897
X-8.975 Y-21.038
X-8.889 Y-21.182
X-8.792 Y-21.326
X-8.685 Y-21.469
X-8.566 Y-21.61
X-8.434 Y-21.75
X-8.291 Y-21.886
X-8.135 Y-22.02
X-7.969 Y-22.148
X-7.799 Y-22.264
X-7.603 Y-22.382
X-7.415 Y-22.483
X-7.228 Y-22.57
X-7.017 Y-22.655
X-6.818 Y-22.723
X-6.617 Y-22.78
X-6.397 Y-22.829
X-6.192 Y-22.863
X-5.982 Y-22.887
X-5.759 Y-22.9
X-5.328 Y-22.867
X-4.907 Y-22.767
X-4.507 Y-22.603
X-4.138 Y-22.377
X-3.809 Y-22.097
X-3.527 Y-21.769
X-3.301 Y-21.4
X-3.135 Y-21.001
X-3.034 Y-20.58
X-3 Y-20.149
G3 X-4.173 Y-18.927 I-1.269 J-0.044
G1 X-7.935 Y-18.643
G3 X-9.3 Y-19.865 I-0.096 J-1.266
G1 Y-21.196
X-9.292 Y-21.345
X-9.273 Y-21.494
X-9.242 Y-21.641
X-9.202 Y-21.785
X-9.153 Y-21.927
X-9.096 Y-22.066
X-9.029 Y-22.206
X-8.951 Y-22.35
X-8.86 Y-22.496
X-8.758 Y-22.643
X-8.644 Y-22.789
X-8.519 Y-22.933
X-8.382 Y-23.074
X-8.233 Y-23.212
X-8.072 Y-23.346
X-7.915 Y-23.462
X-7.741 Y-23.577
X-7.556 Y-23.685
X-7.381 Y-23.775
X-7.187 Y-23.862
X-6.986 Y-23.939
X-6.797 Y-24
X-6.587 Y-24.056
X-6.376 Y-24.1
X-6.178 Y-24.129
X-5.959 Y-24.151
X-5.742 Y-24.159
X-5.312 Y-24.12
X-4.892 Y-24.015
X-4.495 Y-23.846
X-4.128 Y-23.617
X-3.801 Y-23.334
X-3.522 Y-23.003
X-3.298 Y-22.634
X-3.134 Y-22.234
X-3.034 Y-21.813
X-3 Y-21.382
G3 X-4.206 Y-20.158 I-1.269 J-0.044
G1 X-7.968 Y-19.971
G3 X-9.3 Y-21.196 I-0.063 J-1.268
G1 Y-22.415
X-9.292 Y-22.571
X-9.277 Y-22.72
X-9.25 Y-22.868
X-9.213 Y-23.013
X-9.167 Y-23.156
X-9.113 Y-23.296
X-9.049 Y-23.436
X-8.974 Y-23.578
X-8.889 Y-23.721
X-8.794 Y-23.864
X-8.686 Y-24.008
X-8.565 Y-24.152
X-8.433 Y-24.293
X-8.289 Y-24.431
X-8.133 Y-24.564
X-7.973 Y-24.688
X-7.813 Y-24.797
X-7.628 Y-24.91
X-7.447 Y-25.007
X-7.268 Y-25.091
X-7.064 Y-25.173
X-6.868 Y-25.24
X-6.675 Y-25.295
X-6.457 Y-25.344
X-6.252 Y-25.379
X-6.049 Y-25.402
X-5.824 Y-25.415
X-5.632 Y-25.416
X-5.221 Y-25.385
X-4.819 Y-25.291
X-4.438 Y-25.134
X-4.086 Y-24.92
X-3.772 Y-24.653
X-3.503 Y-24.34
X-3.287 Y-23.989
X-3.129 Y-23.608
X-3.032 Y-23.207
X-3 Y-22.796
G3 X-4.141 Y-21.577 I-1.269 J-0.044
G1 X-7.903 Y-21.196
G3 X-9.3 Y-22.415 I-0.128 J-1.264
G1 Y-23.673
X-9.292 Y-23.839
X-9.276 Y-23.988
X-9.249 Y-24.136
X-9.212 Y-24.281
X-9.166 Y-24.424
X-9.112 Y-24.564
X-9.049 Y-24.7
X-8.975 Y-24.842
X-8.889 Y-24.986
X-8.793 Y-25.129
X-8.685 Y-25.272
X-8.566 Y-25.414
X-8.435 Y-25.553
X-8.291 Y-25.69
X-8.135 Y-25.824
X-7.969 Y-25.952
X-7.798 Y-26.068
X-7.603 Y-26.187
X-7.415 Y-26.287
X-7.227 Y-26.375
X-7.016 Y-26.46
X-6.817 Y-26.528
X-6.616 Y-26.585
X-6.396 Y-26.634
X-6.191 Y-26.668
X-5.981 Y-26.692
X-5.758 Y-26.705
X-5.327 Y-26.672
X-4.906 Y-26.572
X-4.506 Y-26.408
X-4.137 Y-26.183
X-3.808 Y-25.903
X-3.527 Y-25.574
X-3.301 Y-25.206
X-3.135 Y-24.807
X-3.034 Y-24.387
X-3 Y-23.956
G3 X-4.174 Y-22.734 I-1.269 J-0.044
G1 X-7.936 Y-22.451
G3 X-9.3 Y-23.673 I-0.095 J-1.266
G1 Y-25.004
X-9.292 Y-25.154
X-9.272 Y-25.302
X-9.241 Y-25.449
X-9.201 Y-25.594
X-9.152 Y-25.735
X-9.094 Y-25.874
X-9.027 Y-26.014
X-8.948 Y-26.158
X-8.858 Y-26.304
X-8.755 Y-26.452
X-8.641 Y-26.598
X-8.515 Y-26.742
X-8.378 Y-26.883
X-8.229 Y-27.021
X-8.067 Y-27.154
X-7.911 Y-27.27
X-7.735 Y-27.385
X-7.551 Y-27.493
X-7.376 Y-27.582
X-7.181 Y-27.67
X-6.98 Y-27.746
X-6.791 Y-27.807
X-6.581 Y-27.862
X-6.369 Y-27.906
X-6.172 Y-27.935
X-5.952 Y-27.956
X-5.736 Y-27.965
X-5.306 Y-27.925
X-4.888 Y-27.819
X-4.491 Y-27.65
X-4.125 Y-27.421
X-3.799 Y-27.138
X-3.521 Y-26.808
X-3.297 Y-26.439
X-3.133 Y-26.04
X-3.034 Y-25.62
X-3 Y-25.19
G3 X-4.207 Y-23.966 I-1.269 J-0.044
G1 X-7.968 Y-23.78
G3 X-9.3 Y-25.004 I-0.063 J-1.268
G1 Y-25.462
X-9.306 Y-25.843
X-9.314 Y-26.224
X-9.315 Y-26.374
X-9.298 Y-26.523
X-9.27 Y-26.67
X-9.233 Y-26.815
X-9.186 Y-26.958
X-9.131 Y-27.097
X-9.066 Y-27.239
X-8.991 Y-27.383
X-8.904 Y-27.527
X-8.808 Y-27.671
X-8.698 Y-27.816
X-8.576 Y-27.961
X-8.442 Y-28.103
X-8.297 Y-28.241
X-8.14 Y-28.375
X-7.978 Y-28.499
X-7.817 Y-28.609
X-7.63 Y-28.722
X-7.448 Y-28.819
X-7.269 Y-28.903
X-7.063 Y-28.985
X-6.866 Y-29.052
X-6.672 Y-29.106
X-6.453 Y-29.155
X-6.248 Y-29.189
X-6.044 Y-29.212
X-5.818 Y-29.225
X-5.626
X-5.216 Y-29.194
X-4.815 Y-29.098
X-4.434 Y-28.941
X-4.083 Y-28.727
X-3.77 Y-28.46
X-3.502 Y-28.147
X-3.286 Y-27.796
X-3.129 Y-27.415
X-3.032 Y-27.015
X-3 Y-26.605
G3 X-4.164 Y-25.383 I-1.269 J-0.044
G1 X-7.944 Y-25.07
G3 X-9.314 Y-26.224 I-0.105 J-1.266
G1 X-9.335 Y-26.605
X-9.416 Y-27.195
X-9.43 Y-27.344
Y-27.494
X-9.418 Y-27.644
X-9.395 Y-27.792
X-9.363 Y-27.938
X-9.321 Y-28.083
X-9.272 Y-28.224
X-9.213 Y-28.367
X-9.144 Y-28.512
X-9.062 Y-28.66
X-8.969 Y-28.811
X-8.865 Y-28.961
X-8.749 Y-29.109
X-8.621 Y-29.256
X-8.481 Y-29.399
X-8.33 Y-29.538
X-8.165 Y-29.674
X-7.991 Y-29.804
X-7.811 Y-29.922
X-7.608 Y-30.04
X-7.416 Y-30.139
X-7.218 Y-30.227
X-7.002 Y-30.31
X-6.801 Y-30.374
X-6.589 Y-30.43
X-6.367 Y-30.476
X-6.161 Y-30.506
X-5.94 Y-30.527
X-5.718 Y-30.536
X-5.291 Y-30.497
X-4.875 Y-30.392
X-4.481 Y-30.223
X-4.118 Y-29.996
X-3.794 Y-29.715
X-3.517 Y-29.387
X-3.295 Y-29.021
X-3.133 Y-28.624
X-3.033 Y-28.207
X-3 Y-27.779
G3 X-4.136 Y-26.561 I-1.269 J-0.044
G1 X-8.032 Y-26.15
G3 X-9.416 Y-27.195 I-0.133 J-1.263
G1 X-9.44 Y-27.366
X-9.538 Y-27.747
X-9.624 Y-28.051
X-9.658 Y-28.197
X-9.677 Y-28.346
X-9.684 Y-28.496
X-9.679 Y-28.645
X-9.664 Y-28.795
X-9.64 Y-28.943
X-9.607 Y-29.089
X-9.565 Y-29.237
X-9.512 Y-29.392
X-9.448 Y-29.549
X-9.372 Y-29.709
X-9.286 Y-29.869
X-9.186 Y-30.032
X-9.074 Y-30.195
X-8.949 Y-30.357
X-8.811 Y-30.516
X-8.662 Y-30.671
X-8.501 Y-30.822
X-8.328 Y-30.966
X-8.144 Y-31.104
X-7.968 Y-31.221
X-7.767 Y-31.34
X-7.566 Y-31.444
X-7.374 Y-31.531
X-7.155 Y-31.617
X-6.943 Y-31.686
X-6.738 Y-31.741
X-6.508 Y-31.79
X-6.291 Y-31.823
X-6.078 Y-31.845
X-5.844 Y-31.855
X-5.56 Y-31.853
X-5.115 Y-31.81
X-4.683 Y-31.691
X-4.278 Y-31.5
X-3.913 Y-31.241
X-3.598 Y-30.923
X-3.342 Y-30.555
X-3.154 Y-30.149
X-3.039 Y-29.716
X-3 Y-29.27
G3 X-4.007 Y-28.072 I-1.269 J-0.044
G1 X-8.152 Y-27.196
G3 X-9.624 Y-28.051 I-0.263 J-1.243
G1 X-9.646 Y-28.128
X-9.749 Y-28.402
X-9.922 Y-28.812
X-9.973 Y-28.953
X-10.015 Y-29.098
X-10.044 Y-29.245
X-10.061 Y-29.394
X-10.067 Y-29.544
X-10.064 Y-29.694
X-10.052 Y-29.843
X-10.031 Y-29.994
X-10.001 Y-30.15
X-9.96 Y-30.312
X-9.908 Y-30.479
X-9.844 Y-30.651
X-9.769 Y-30.826
X-9.681 Y-31.001
X-9.582 Y-31.176
X-9.469 Y-31.352
X-9.342 Y-31.527
X-9.202 Y-31.7
X-9.05 Y-31.869
X-8.885 Y-32.033
X-8.708 Y-32.191
X-8.519 Y-32.341
X-8.319 Y-32.484
X-8.104 Y-32.621
X-7.881 Y-32.746
X-7.641 Y-32.864
X-7.418 Y-32.959
X-7.187 Y-33.042
X-6.941 Y-33.117
X-6.715 Y-33.172
X-6.483 Y-33.216
X-6.235 Y-33.249
X-6.009 Y-33.266
X-5.781 Y-33.272
X-5.771 Y-33.271
X-5.334 Y-33.224
X-4.909 Y-33.11
X-4.506 Y-32.932
X-4.136 Y-32.695
X-3.807 Y-32.404
X-3.526 Y-32.065
X-3.3 Y-31.687
X-3.135 Y-31.28
X-3.034 Y-30.852
X-3 Y-30.413
G3 X-3.965 Y-29.224 I-1.269 J-0.044
G1 X-8.465 Y-28.113
G3 X-9.922 Y-28.812 I-0.305 J-1.233
G1 X-9.955 Y-28.89
X-10.13 Y-29.254
X-10.313 Y-29.574
X-10.38 Y-29.708
X-10.441 Y-29.845
X-10.489 Y-29.987
X-10.525 Y-30.133
X-10.551 Y-30.281
X-10.567 Y-30.43
X-10.574 Y-30.58
X-10.572 Y-30.733
X-10.562 Y-30.893
X-10.542 Y-31.058
X-10.512 Y-31.23
X-10.47 Y-31.411
X-10.416 Y-31.597
X-10.35 Y-31.787
X-10.271 Y-31.98
X-10.178 Y-32.175
X-10.07 Y-32.374
X-9.947 Y-32.573
X-9.81 Y-32.77
X-9.658 Y-32.964
X-9.493 Y-33.154
X-9.315 Y-33.339
X-9.123 Y-33.516
X-8.917 Y-33.686
X-8.7 Y-33.848
X-8.471 Y-33.999
X-8.255 Y-34.126
X-8.013 Y-34.25
X-7.776 Y-34.357
X-7.548 Y-34.444
X-7.293 Y-34.527
X-7.054 Y-34.59
X-6.815 Y-34.64
X-6.558 Y-34.679
X-6.322 Y-34.701
X-6.074 Y-34.712
X-5.823 Y-34.709
X-5.578 Y-34.692
X-5.122 Y-34.623
X-4.684 Y-34.479
X-4.276 Y-34.265
X-3.91 Y-33.985
X-3.595 Y-33.648
X-3.34 Y-33.264
X-3.153 Y-32.842
X-3.038 Y-32.396
X-3 Y-31.936
G3 X-3.849 Y-30.782 I-1.269 J-0.044
G1 X-8.812 Y-29.043
G3 X-10.313 Y-29.574 I-0.42 J-1.199
G1 X-10.357 Y-29.651
X-10.511 Y-29.885
X-10.627 Y-30.032
X-10.772 Y-30.21
X-10.861 Y-30.331
X-10.943 Y-30.457
X-11.013 Y-30.589
X-11.071 Y-30.728
X-11.12 Y-30.869
X-11.159 Y-31.014
X-11.189 Y-31.161
X-11.211 Y-31.31
X-11.225 Y-31.468
X-11.231 Y-31.639
X-11.228 Y-31.817
X-11.215 Y-32.002
X-11.19 Y-32.194
X-11.153 Y-32.395
X-11.103 Y-32.604
X-11.04 Y-32.817
X-10.963 Y-33.032
X-10.871 Y-33.251
X-10.764 Y-33.472
X-10.641 Y-33.695
X-10.502 Y-33.916
X-10.348 Y-34.133
X-10.18 Y-34.346
X-9.997 Y-34.554
X-9.8 Y-34.754
X-9.589 Y-34.946
X-9.364 Y-35.13
X-9.127 Y-35.303
X-8.878 Y-35.465
X-8.618 Y-35.615
X-8.347 Y-35.752
X-8.074 Y-35.872
X-7.782 Y-35.982
X-7.518 Y-36.065
X-7.237 Y-36.137
X-6.956 Y-36.193
X-6.7 Y-36.23
X-6.42 Y-36.255
X-6.152 Y-36.264
X-5.905 Y-36.259
X-5.577 Y-36.235
X-5.12 Y-36.162
X-4.682 Y-36.015
X-4.274 Y-35.798
X-3.908 Y-35.516
X-3.593 Y-35.177
X-3.339 Y-34.791
X-3.153 Y-34.368
X-3.038 Y-33.92
X-3 Y-33.46
G3 X-3.755 Y-32.343 I-1.269 J-0.044
G1 X-9.304 Y-29.887
G3 X-10.772 Y-30.21 I-0.514 J-1.161
G1 X-10.938 Y-30.413
X-11.262 Y-30.794
X-11.335 Y-30.858
X-11.443 Y-30.962
X-11.541 Y-31.076
X-11.629 Y-31.198
X-11.706 Y-31.326
X-11.773 Y-31.46
X-11.831 Y-31.598
X-11.881 Y-31.74
X-11.924 Y-31.887
X-11.96 Y-32.043
X-11.989 Y-32.21
X-12.011 Y-32.39
X-12.023 Y-32.58
X-12.026 Y-32.778
X-12.017 Y-32.983
X-11.996 Y-33.2
X-11.961 Y-33.426
X-11.913 Y-33.657
X-11.85 Y-33.893
X-11.772 Y-34.132
X-11.677 Y-34.378
X-11.565 Y-34.627
X-11.436 Y-34.877
X-11.29 Y-35.126
X-11.126 Y-35.373
X-10.946 Y-35.615
X-10.746 Y-35.855
X-10.531 Y-36.088
X-10.298 Y-36.312
X-10.05 Y-36.527
X-9.789 Y-36.73
X-9.515 Y-36.92
X-9.228 Y-37.096
X-8.932 Y-37.257
X-8.623 Y-37.404
X-8.316 Y-37.529
X-7.982 Y-37.645
X-7.68 Y-37.732
X-7.375 Y-37.802
X-7.064 Y-37.857
X-6.784 Y-37.89
X-6.482 Y-37.909
X-6.195 Y-37.911
X-5.931 Y-37.9
X-5.233 Y-37.83
X-4.835 Y-37.757
X-4.454 Y-37.621
X-4.1 Y-37.424
X-3.783 Y-37.172
X-3.512 Y-36.872
X-3.292 Y-36.532
X-3.131 Y-36.16
X-3.033 Y-35.767
X-3 Y-35.364
G3 X-3.641 Y-34.305 I-1.269 J-0.044
G1 X-9.903 Y-30.738
G3 X-11.335 Y-30.858 I-0.629 J-1.104
G1 X-12.034 Y-31.47
X-12.067 Y-31.496
X-12.182 Y-31.593
X-12.289 Y-31.698
X-12.386 Y-31.813
X-12.474 Y-31.934
X-12.553 Y-32.061
X-12.625 Y-32.193
X-12.689 Y-32.329
X-12.749 Y-32.476
X-12.804 Y-32.638
X-12.853 Y-32.81
X-12.894 Y-32.992
X-12.927 Y-33.188
X-12.951 Y-33.398
X-12.964 Y-33.617
X-12.965 Y-33.844
X-12.954 Y-34.082
X-12.928 Y-34.332
X-12.887 Y-34.591
X-12.83 Y-34.856
X-12.757 Y-35.125
X-12.665 Y-35.4
X-12.555 Y-35.682
X-12.425 Y-35.967
X-12.276 Y-36.251
X-12.107 Y-36.534
X-11.92 Y-36.813
X-11.712 Y-37.089
X-11.485 Y-37.359
X-11.236 Y-37.624
X-10.97 Y-37.878
X-10.687 Y-38.12
X-10.389 Y-38.349
X-10.078 Y-38.562
X-9.753 Y-38.759
X-9.385 Y-38.928
X-8.999 Y-39.051
X-8.6 Y-39.125
X-8.196 Y-39.15
X-4.42
X-4.229 Y-39.149
X-4.039 Y-39.126
X-3.849 Y-39.073
X-3.658 Y-38.985
X-3.529 Y-38.901
G3 X-3.6 Y-36.959 I-0.853 J0.941
G1 X-10.554 Y-31.532
G3 X-12.067 Y-31.496 I-0.781 J-1.001
G1 X-12.146 Y-31.555
X-12.414 Y-31.732
X-12.795 Y-31.964
X-12.83 Y-31.981
X-12.961 Y-32.054
X-13.079 Y-32.147
X-13.188 Y-32.249
X-13.29 Y-32.359
X-13.385 Y-32.476
X-13.473 Y-32.597
X-13.557 Y-32.73
X-13.638 Y-32.873
X-13.715 Y-33.029
X-13.788 Y-33.201
X-13.856 Y-33.386
X-13.916 Y-33.582
X-13.967 Y-33.791
X-14.01 Y-34.016
X-14.042 Y-34.255
X-14.062 Y-34.504
X-14.068 Y-34.763
X-14.06 Y-35.036
X-14.036 Y-35.323
X-13.996 Y-35.616
X-13.937 Y-35.916
X-13.86 Y-36.223
X-13.762 Y-36.54
X-13.642 Y-36.862
X-13.502 Y-37.187
X-13.34 Y-37.512
X-13.068 Y-37.916
X-12.738 Y-38.275
X-12.358 Y-38.58
X-11.937 Y-38.825
X-11.483 Y-39.004
X-11.008 Y-39.113
X-10.522 Y-39.15
X-8.196
G3 X-7.276 Y-37.054 I-0.044 J1.269
G1 X-11.346 Y-32.313
G3 X-12.83 Y-31.981 I-0.964 J-0.827
G1 X-13.176 Y-32.151
X-13.556 Y-32.325
X-13.62 Y-32.351
X-13.755 Y-32.415
X-13.886 Y-32.488
X-14.01 Y-32.572
X-14.128 Y-32.665
X-14.239 Y-32.766
X-14.344 Y-32.873
X-14.444 Y-32.987
X-14.546 Y-33.117
X-14.648 Y-33.262
X-14.746 Y-33.42
X-14.839 Y-33.59
X-14.93 Y-33.778
X-15.014 Y-33.982
X-15.091 Y-34.198
X-15.158 Y-34.429
X-15.217 Y-34.678
X-15.264 Y-34.943
X-15.298 Y-35.219
X-15.318 Y-35.5
X-15.321 Y-35.763
X-15.31 Y-36.054
X-15.285 Y-36.32
X-15.245 Y-36.584
X-15.188 Y-36.861
X-15.123 Y-37.108
X-15.095 Y-37.196
X-14.926 Y-37.606
X-14.696 Y-37.984
X-14.409 Y-38.322
X-14.073 Y-38.61
X-13.695 Y-38.842
X-13.286 Y-39.012
X-12.856 Y-39.115
X-12.414 Y-39.15
X-10.522
G3 X-9.478 Y-37.226 I-0.044 J1.269
G1 X-12.089 Y-32.886
G3 X-13.62 Y-32.351 I-1.088 J-0.655
G1 X-13.937 Y-32.481
X-14.318 Y-32.592
X-14.477 Y-32.631
X-14.621 Y-32.675
X-14.76 Y-32.729
X-14.895 Y-32.795
X-15.025 Y-32.87
X-15.149 Y-32.954
X-15.268 Y-33.045
X-15.386 Y-33.146
X-15.506 Y-33.26
X-15.628 Y-33.39
X-15.749 Y-33.533
X-15.865 Y-33.688
X-15.98 Y-33.859
X-16.091 Y-34.044
X-16.195 Y-34.244
X-16.292 Y-34.455
X-16.38 Y-34.678
X-16.457 Y-34.911
X-16.519 Y-35.136
X-16.572 Y-35.385
X-16.611 Y-35.627
X-16.634 Y-35.855
X-16.647 Y-36.108
X-16.646 Y-36.346
X-16.633 Y-36.573
X-16.604 Y-36.822
X-16.566 Y-37.051
X-16.516 Y-37.273
X-16.37 Y-37.664
X-16.163 Y-38.026
X-15.901 Y-38.35
X-15.589 Y-38.628
X-15.237 Y-38.852
X-14.854 Y-39.016
X-14.449 Y-39.116
X-14.033 Y-39.15
X-12.414
G3 X-11.295 Y-37.371 I-0.044 J1.269
G1 X-13.051 Y-33.364
G3 X-14.477 Y-32.631 I-1.163 J-0.51
G1 X-14.698 Y-32.686
X-15.46 Y-32.812
X-15.608 Y-32.837
X-15.752 Y-32.878
X-15.893 Y-32.93
X-16.029 Y-32.992
X-16.162 Y-33.062
X-16.29 Y-33.14
X-16.42 Y-33.229
X-16.553 Y-33.331
X-16.687 Y-33.446
X-16.818 Y-33.572
X-16.948 Y-33.71
X-17.077 Y-33.863
X-17.202 Y-34.03
X-17.321 Y-34.208
X-17.434 Y-34.397
X-17.539 Y-34.598
X-17.636 Y-34.809
X-17.722 Y-35.03
X-17.791 Y-35.237
X-17.853 Y-35.466
X-17.901 Y-35.692
X-17.935 Y-35.903
X-17.959 Y-36.137
X-17.97 Y-36.361
X-17.968 Y-36.571
X-17.954 Y-36.804
X-17.929 Y-37.023
X-17.921 Y-37.072
X-17.81 Y-37.495
X-17.627 Y-37.892
X-17.378 Y-38.251
X-17.07 Y-38.561
X-16.713 Y-38.813
X-16.317 Y-38.998
X-15.895 Y-39.112
X-15.46 Y-39.15
X-14.033
G3 X-12.883 Y-37.449 I-0.044 J1.269
G1 X-14.257 Y-33.651
G3 X-15.46 Y-32.812 I-1.194 J-0.432
G1 X-16.221 Y-32.844
X-16.336 Y-32.846
X-16.494 Y-32.856
X-16.642 Y-32.874
X-16.789 Y-32.904
X-16.934 Y-32.945
X-17.075 Y-32.996
X-17.213 Y-33.055
X-17.349 Y-33.123
X-17.486 Y-33.201
X-17.625 Y-33.29
X-17.768 Y-33.392
X-17.911 Y-33.508
X-18.052 Y-33.635
X-18.19 Y-33.773
X-18.325 Y-33.924
X-18.456 Y-34.087
X-18.581 Y-34.262
X-18.7 Y-34.45
X-18.812 Y-34.649
X-18.91 Y-34.847
X-18.994 Y-35.044
X-19.075 Y-35.267
X-19.139 Y-35.476
X-19.189 Y-35.678
X-19.232 Y-35.907
X-19.261 Y-36.123
X-19.277 Y-36.326
X-19.283 Y-36.553
X-19.276 Y-36.771
X-19.259 Y-36.971
X-19.229 Y-37.189
X-19.114 Y-37.59
X-18.932 Y-37.966
X-18.689 Y-38.305
X-18.391 Y-38.597
X-18.047 Y-38.833
X-17.668 Y-39.007
X-17.265 Y-39.114
X-16.849 Y-39.15
X-15.46
G3 X-14.266 Y-37.599 I-0.044 J1.269
G1 X-15.121 Y-33.834
G3 X-16.336 Y-32.846 I-1.238 J-0.281
G1 X-16.602 Y-32.85
X-17.572
X-17.722 Y-32.857
X-17.871 Y-32.877
X-18.018 Y-32.908
X-18.162 Y-32.948
X-18.304 Y-32.997
X-18.443 Y-33.055
X-18.585 Y-33.123
X-18.73 Y-33.202
X-18.876 Y-33.293
X-19.022 Y-33.395
X-19.169 Y-33.51
X-19.316 Y-33.639
X-19.46 Y-33.779
X-19.599 Y-33.93
X-19.733 Y-34.092
X-19.862 Y-34.267
X-19.984 Y-34.452
X-20.098 Y-34.649
X-20.204 Y-34.856
X-20.292 Y-35.052
X-20.371 Y-35.261
X-20.441 Y-35.48
X-20.495 Y-35.684
X-20.538 Y-35.895
X-20.571 Y-36.12
X-20.591 Y-36.327
X-20.599 Y-36.536
X-20.596 Y-36.76
X-20.581 Y-36.966
X-20.579 Y-36.981
X-20.499 Y-37.37
X-20.357 Y-37.741
X-20.158 Y-38.085
X-19.906 Y-38.392
X-19.608 Y-38.656
X-19.272 Y-38.868
X-18.906 Y-39.023
X-18.521 Y-39.118
X-18.124 Y-39.15
X-16.849
G3 X-16.367 Y-39.036 I-0.044 J1.269
X-15.647 Y-37.641 I-0.527 J1.156
G1 X-16.37 Y-33.879
G3 X-17.09 Y-32.964 I-1.247 J-0.24
X-17.572 Y-32.85 I-0.527 J-1.156
G1 X-18.809
X-18.959 Y-32.857
X-19.108 Y-32.874
X-19.255 Y-32.902
X-19.4 Y-32.939
X-19.543 Y-32.985
X-19.684 Y-33.04
X-19.828 Y-33.106
X-19.974 Y-33.182
X-20.122 Y-33.269
X-20.272 Y-33.369
X-20.423 Y-33.482
X-20.571 Y-33.607
X-20.718 Y-33.744
X-20.86 Y-33.892
X-20.997 Y-34.051
X-21.129 Y-34.223
X-21.256 Y-34.406
X-21.374 Y-34.6
X-21.475 Y-34.788
X-21.57 Y-34.989
X-21.654 Y-35.198
X-21.722 Y-35.394
X-21.782 Y-35.607
X-21.831 Y-35.822
X-21.865 Y-36.022
X-21.89 Y-36.242
X-21.903 Y-36.457
X-21.905 Y-36.657
X-21.894 Y-36.877
X-21.872 Y-37.088
X-21.841 Y-37.284
X-21.724 Y-37.667
X-21.544 Y-38.025
X-21.306 Y-38.348
X-21.017 Y-38.625
X-20.685 Y-38.85
X-20.32 Y-39.015
X-19.932 Y-39.116
X-19.533 Y-39.15
X-18.124
G3 X-16.919 Y-37.653 I-0.044 J1.269
G1 X-17.604 Y-33.892
G3 X-18.809 Y-32.85 I-1.249 J-0.227
G1 X-20.143
X-20.293 Y-32.857
X-20.442 Y-32.877
X-20.589 Y-32.907
X-20.733 Y-32.947
X-20.875 Y-32.995
X-21.016 Y-33.051
X-21.16 Y-33.119
X-21.309 Y-33.198
X-21.459 Y-33.289
X-21.609 Y-33.392
X-21.758 Y-33.506
X-21.906 Y-33.632
X-22.05 Y-33.77
X-22.192 Y-33.921
X-22.33 Y-34.084
X-22.461 Y-34.258
X-22.585 Y-34.443
X-22.702 Y-34.638
X-22.809 Y-34.843
X-22.904 Y-35.05
X-22.982 Y-35.248
X-23.056 Y-35.47
X-23.114 Y-35.683
X-23.157 Y-35.884
X-23.193 Y-36.11
X-23.215 Y-36.324
X-23.225 Y-36.525
X-23.224 Y-36.749
X-23.212 Y-36.96
X-23.209 Y-36.99
X-23.133 Y-37.376
X-22.995 Y-37.745
X-22.8 Y-38.088
X-22.553 Y-38.394
X-22.259 Y-38.657
X-21.926 Y-38.868
X-21.564 Y-39.023
X-21.182 Y-39.118
X-20.789 Y-39.15
X-19.533
G3 X-19.051 Y-39.036 I-0.044 J1.269
X-18.324 Y-37.677 I-0.527 J1.156
G1 X-18.934 Y-33.916
G3 X-20.143 Y-32.85 I-1.254 J-0.203
G1 X-21.379
X-21.551 Y-32.859
X-21.7 Y-32.874
X-21.848 Y-32.901
X-21.993 Y-32.937
X-22.136 Y-32.982
X-22.278 Y-33.037
X-22.424 Y-33.101
X-22.571 Y-33.177
X-22.72 Y-33.263
X-22.871 Y-33.363
X-23.024 Y-33.475
X-23.174 Y-33.599
X-23.322 Y-33.735
X-23.466 Y-33.883
X-23.606 Y-34.043
X-23.739 Y-34.213
X-23.867 Y-34.396
X-23.987 Y-34.59
X-24.09 Y-34.778
X-24.187 Y-34.98
X-24.274 Y-35.189
X-24.343 Y-35.385
X-24.405 Y-35.599
X-24.456 Y-35.813
X-24.491 Y-36.013
X-24.518 Y-36.233
X-24.533 Y-36.448
X-24.535 Y-36.648
X-24.526 Y-36.867
X-24.506 Y-37.078
X-24.404 Y-37.497
X-24.23 Y-37.893
X-23.988 Y-38.251
X-23.687 Y-38.561
X-23.336 Y-38.812
X-22.946 Y-38.998
X-22.529 Y-39.112
X-22.099 Y-39.15
X-20.789
G3 X-20.307 Y-39.036 I-0.044 J1.269
X-19.579 Y-37.684 I-0.527 J1.156
G1 X-20.169 Y-33.922
G3 X-21.379 Y-32.85 I-1.255 J-0.197
G1 X-22.693
X-22.86 Y-32.858
X-23.009 Y-32.874
X-23.157 Y-32.9
X-23.302 Y-32.937
X-23.445 Y-32.981
X-23.586 Y-33.035
X-23.731 Y-33.099
X-23.88 Y-33.175
X-24.03 Y-33.262
X-24.18 Y-33.36
X-24.33 Y-33.47
X-24.479 Y-33.593
X-24.627 Y-33.728
X-24.771 Y-33.875
X-24.911 Y-34.034
X-25.044 Y-34.204
X-25.171 Y-34.385
X-25.29 Y-34.576
X-25.4 Y-34.775
X-25.49 Y-34.963
X-25.578 Y-35.174
X-25.653 Y-35.386
X-25.712 Y-35.583
X-25.762 Y-35.796
X-25.802 Y-36.016
X-25.827 Y-36.22
X-25.841 Y-36.427
X-25.845 Y-36.651
X-25.837 Y-36.857
X-25.818 Y-37.056
X-25.809 Y-37.119
X-25.71 Y-37.53
X-25.54 Y-37.917
X-25.304 Y-38.268
X-25.009 Y-38.572
X-24.665 Y-38.819
X-24.284 Y-39.001
X-23.875 Y-39.112
X-23.454 Y-39.15
X-22.099
G3 X-21.616 Y-39.036 I-0.044 J1.269
X-20.889 Y-37.683 I-0.527 J1.156
G1 X-21.483 Y-33.921
G3 X-22.693 Y-32.85 I-1.254 J-0.198
G1 X-24.044
X-24.194 Y-32.857
X-24.343 Y-32.875
X-24.49 Y-32.903
X-24.635 Y-32.941
X-24.778 Y-32.987
X-24.918 Y-33.042
X-25.062 Y-33.107
X-25.211 Y-33.184
X-25.363 Y-33.274
X-25.513 Y-33.374
X-25.663 Y-33.486
X-25.811 Y-33.61
X-25.958 Y-33.747
X-26.102 Y-33.896
X-26.241 Y-34.057
X-26.374 Y-34.229
X-26.5 Y-34.412
X-26.618 Y-34.605
X-26.725 Y-34.803
X-26.816 Y-34.995
X-26.904 Y-35.212
X-26.978 Y-35.425
X-27.035 Y-35.624
X-27.084 Y-35.843
X-27.122 Y-36.063
X-27.146 Y-36.265
X-27.159 Y-36.479
X-27.16 Y-36.701
X-27.151 Y-36.904
X-27.13 Y-37.107
X-27.027 Y-37.521
X-26.852 Y-37.911
X-26.612 Y-38.264
X-26.313 Y-38.57
X-25.965 Y-38.817
X-25.579 Y-39
X-25.167 Y-39.112
X-24.742 Y-39.15
X-23.454
G3 X-22.972 Y-39.036 I-0.044 J1.269
X-22.244 Y-37.684 I-0.527 J1.156
G1 X-22.834 Y-33.922
G3 X-23.562 Y-32.964 I-1.255 J-0.197
X-24.044 Y-32.85 I-0.527 J-1.156
G1 X-25.357
X-25.507 Y-32.857
X-25.656 Y-32.875
X-25.804 Y-32.903
X-25.949 Y-32.941
X-26.091 Y-32.988
X-26.232 Y-33.042
X-26.377 Y-33.108
X-26.527 Y-33.186
X-26.678 Y-33.276
X-26.829 Y-33.376
X-26.978 Y-33.489
X-27.128 Y-33.614
X-27.276 Y-33.753
X-27.42 Y-33.903
X-27.56 Y-34.064
X-27.693 Y-34.237
X-27.819 Y-34.421
X-27.938 Y-34.615
X-28.045 Y-34.814
X-28.134 Y-35.004
X-28.221 Y-35.217
X-28.293 Y-35.428
X-28.35 Y-35.626
X-28.398 Y-35.842
X-28.436 Y-36.061
X-28.459 Y-36.263
X-28.472 Y-36.474
X-28.473 Y-36.696
X-28.463 Y-36.899
X-28.448 Y-37.048
X-28.378 Y-37.423
X-28.248 Y-37.782
X-28.062 Y-38.115
X-27.824 Y-38.413
X-27.541 Y-38.669
X-27.22 Y-38.875
X-26.869 Y-39.026
X-26.499 Y-39.119
X-26.119 Y-39.15
X-24.742
G3 X-23.533 Y-37.676 I-0.044 J1.269
G1 X-24.148 Y-33.914
G3 X-25.357 Y-32.85 I-1.253 J-0.205
G1 X-26.615
X-26.797 Y-32.859
X-26.946 Y-32.875
X-27.094 Y-32.901
X-27.24 Y-32.937
X-27.383 Y-32.982
X-27.524 Y-33.036
X-27.67 Y-33.1
X-27.818 Y-33.176
X-27.967 Y-33.263
X-28.118 Y-33.361
X-28.268 Y-33.472
X-28.418 Y-33.595
X-28.566 Y-33.731
X-28.711 Y-33.878
X-28.85 Y-34.037
X-28.983 Y-34.207
X-29.11 Y-34.388
X-29.229 Y-34.58
X-29.337 Y-34.775
X-29.437 Y-34.983
X-29.526 Y-35.197
X-29.597 Y-35.397
X-29.661 Y-35.616
X-29.713 Y-35.832
X-29.749 Y-36.034
X-29.777 Y-36.257
X-29.792 Y-36.472
X-29.795 Y-36.673
X-29.786 Y-36.894
X-29.766 Y-37.102
X-29.666 Y-37.517
X-29.495 Y-37.907
X-29.256 Y-38.261
X-28.959 Y-38.567
X-28.613 Y-38.816
X-28.228 Y-39
X-27.816 Y-39.112
X-27.392 Y-39.15
X-26.119
G3 X-24.904 Y-37.715 I-0.044 J1.269
G1 X-25.4 Y-33.953
G3 X-26.132 Y-32.964 I-1.259 J-0.166
X-26.615 Y-32.85 I-0.527 J-1.156
G1 X-27.945
X-28.108 Y-32.858
X-28.258 Y-32.874
X-28.405 Y-32.9
X-28.551 Y-32.936
X-28.694 Y-32.981
X-28.834 Y-33.034
X-28.98 Y-33.099
X-29.13 Y-33.175
X-29.281 Y-33.263
X-29.432 Y-33.361
X-29.583 Y-33.472
X-29.734 Y-33.596
X-29.882 Y-33.733
X-30.028 Y-33.882
X-30.169 Y-34.042
X-30.304 Y-34.213
X-30.431 Y-34.395
X-30.552 Y-34.588
X-30.662 Y-34.788
X-30.753 Y-34.978
X-30.841 Y-35.19
X-30.917 Y-35.402
X-30.975 Y-35.6
X-31.026 Y-35.813
X-31.065 Y-36.033
X-31.09 Y-36.237
X-31.105 Y-36.445
X-31.108 Y-36.668
X-31.1 Y-36.873
X-31.082 Y-37.072
X-31.049 Y-37.291
X-30.937 Y-37.672
X-30.761 Y-38.028
X-30.527 Y-38.35
X-30.242 Y-38.626
X-29.914 Y-38.85
X-29.552 Y-39.015
X-29.168 Y-39.116
X-28.772 Y-39.15
X-27.392
G3 X-26.179 Y-37.696 I-0.044 J1.269
G1 X-26.733 Y-33.934
G3 X-27.463 Y-32.964 I-1.256 J-0.185
X-27.945 Y-32.85 I-0.527 J-1.156
G1 X-29.279
X-29.429 Y-32.857
X-29.578 Y-32.874
X-29.726 Y-32.9
X-29.872 Y-32.937
X-30.015 Y-32.982
X-30.155 Y-33.035
X-30.3 Y-33.1
X-30.45 Y-33.176
X-30.601 Y-33.264
X-30.752 Y-33.363
X-30.902 Y-33.474
X-31.052 Y-33.597
X-31.201 Y-33.733
X-31.346 Y-33.882
X-31.485 Y-34.041
X-31.62 Y-34.212
X-31.747 Y-34.394
X-31.867 Y-34.586
X-31.977 Y-34.787
X-32.078 Y-34.997
X-32.16 Y-35.195
X-32.238 Y-35.414
X-32.301 Y-35.63
X-32.349 Y-35.832
X-32.388 Y-36.053
X-32.415 Y-36.271
X-32.429 Y-36.472
X-32.432 Y-36.691
X-32.424 Y-36.906
X-32.405 Y-37.103
X-32.305 Y-37.518
X-32.133 Y-37.908
X-31.895 Y-38.262
X-31.598 Y-38.568
X-31.251 Y-38.816
X-30.866 Y-39
X-30.455 Y-39.112
X-30.03 Y-39.15
X-28.772
G3 X-28.29 Y-39.036 I-0.044 J1.269
X-27.558 Y-37.711 I-0.527 J1.156
G1 X-28.065 Y-33.949
G3 X-28.797 Y-32.964 I-1.259 J-0.17
X-29.279 Y-32.85 I-0.527 J-1.156
G1 X-30.61
X-30.76 Y-32.857
X-30.909 Y-32.875
X-31.056 Y-32.903
X-31.201 Y-32.94
X-31.344 Y-32.986
X-31.485 Y-33.04
X-31.631 Y-33.106
X-31.782 Y-33.184
X-31.934 Y-33.273
X-32.086 Y-33.374
X-32.237 Y-33.487
X-32.387 Y-33.612
X-32.536 Y-33.75
X-32.682 Y-33.901
X-32.823 Y-34.063
X-32.957 Y-34.236
X-33.085 Y-34.421
X-33.204 Y-34.615
X-33.312 Y-34.814
X-33.402 Y-35.003
X-33.489 Y-35.217
X-33.562 Y-35.428
X-33.619 Y-35.624
X-33.669 Y-35.842
X-33.707 Y-36.059
X-33.731 Y-36.261
X-33.744 Y-36.473
X-33.746 Y-36.694
X-33.737 Y-36.896
X-33.717 Y-37.098
X-33.683 Y-37.316
X-33.569 Y-37.693
X-33.394 Y-38.044
X-33.161 Y-38.361
X-32.878 Y-38.634
X-32.552 Y-38.855
X-32.194 Y-39.017
X-31.814 Y-39.117
X-31.422 Y-39.15
X-30.03
G3 X-29.548 Y-39.036 I-0.044 J1.269
X-28.819 Y-37.687 I-0.527 J1.156
G1 X-29.399 Y-33.926
G3 X-30.61 Y-32.85 I-1.255 J-0.193
G1 X-31.944
X-32.094 Y-32.857
X-32.243 Y-32.876
X-32.39 Y-32.905
X-32.535 Y-32.943
X-32.678 Y-32.99
X-32.819 Y-33.045
X-32.965 Y-33.112
X-33.116 Y-33.191
X-33.268 Y-33.281
X-33.419 Y-33.383
X-33.569 Y-33.495
X-33.718 Y-33.621
X-33.866 Y-33.76
X-34.011 Y-33.91
X-34.15 Y-34.073
X-34.283 Y-34.246
X-34.409 Y-34.43
X-34.527 Y-34.624
X-34.636 Y-34.828
X-34.735 Y-35.038
X-34.815 Y-35.237
X-34.891 Y-35.458
X-34.951 Y-35.674
X-34.997 Y-35.876
X-35.034 Y-36.099
X-35.059 Y-36.315
X-35.071 Y-36.516
Y-36.738
X-35.061 Y-36.95
X-35.04 Y-37.146
X-34.938 Y-37.553
X-34.765 Y-37.935
X-34.529 Y-38.282
X-34.235 Y-38.581
X-33.893 Y-38.824
X-33.513 Y-39.003
X-33.108 Y-39.113
X-32.69 Y-39.15
X-31.422
G3 X-30.94 Y-39.036 I-0.044 J1.269
X-30.208 Y-37.706 I-0.527 J1.156
G1 X-30.731 Y-33.945
G3 X-31.462 Y-32.964 I-1.258 J-0.175
X-31.944 Y-32.85 I-0.527 J-1.156
G1 X-33.275
X-33.425 Y-32.857
X-33.573 Y-32.877
X-33.72 Y-32.907
X-33.865 Y-32.946
X-34.007 Y-32.993
X-34.149 Y-33.05
X-34.297 Y-33.118
X-34.448 Y-33.198
X-34.6 Y-33.29
X-34.753 Y-33.393
X-34.904 Y-33.508
X-35.054 Y-33.636
X-35.203 Y-33.777
X-35.349 Y-33.93
X-35.488 Y-34.095
X-35.621 Y-34.27
X-35.748 Y-34.457
X-35.866 Y-34.653
X-35.972 Y-34.854
X-36.061 Y-35.045
X-36.146 Y-35.261
X-36.217 Y-35.472
X-36.272 Y-35.67
X-36.32 Y-35.889
X-36.356 Y-36.106
X-36.377 Y-36.308
X-36.389 Y-36.522
X-36.388 Y-36.741
X-36.377 Y-36.942
X-36.355 Y-37.146
X-36.25 Y-37.553
X-36.076 Y-37.936
X-35.837 Y-38.282
X-35.542 Y-38.581
X-35.198 Y-38.824
X-34.818 Y-39.003
X-34.412 Y-39.113
X-33.993 Y-39.15
X-32.69
G3 X-32.208 Y-39.036 I-0.044 J1.269
X-31.48 Y-37.686 I-0.527 J1.156
G1 X-32.064 Y-33.924
G3 X-32.792 Y-32.964 I-1.255 J-0.195
X-33.275 Y-32.85 I-0.527 J-1.156
G1 X-33.352
X-33.733 Y-32.846
X-34.494 Y-32.825
X-34.644 Y-32.821
X-34.793 Y-32.835
X-34.941 Y-32.859
X-35.087 Y-32.893
X-35.231 Y-32.936
X-35.374 Y-32.988
X-35.52 Y-33.049
X-35.668 Y-33.122
X-35.821 Y-33.207
X-35.976 Y-33.305
X-36.13 Y-33.414
X-36.282 Y-33.535
X-36.431 Y-33.668
X-36.578 Y-33.813
X-36.721 Y-33.97
X-36.858 Y-34.14
X-36.99 Y-34.321
X-37.114 Y-34.512
X-37.228 Y-34.713
X-37.328 Y-34.912
X-37.413 Y-35.107
X-37.496 Y-35.328
X-37.561 Y-35.536
X-37.611 Y-35.735
X-37.656 Y-35.96
X-37.686 Y-36.174
X-37.703 Y-36.374
X-37.71 Y-36.597
X-37.705 Y-36.811
X-37.689 Y-37.016
X-37.607 Y-37.4
X-37.464 Y-37.765
X-37.266 Y-38.104
X-37.016 Y-38.406
X-36.721 Y-38.664
X-36.389 Y-38.873
X-36.027 Y-39.025
X-35.646 Y-39.119
X-35.255 Y-39.15
X-33.993
G3 X-33.51 Y-39.036 I-0.044 J1.269
X-32.787 Y-37.658 I-0.527 J1.156
G1 X-33.466 Y-33.853
G3 X-34.494 Y-32.825 I-1.25 J-0.223
G1 X-34.875 Y-32.771
X-35.374 Y-32.698
X-35.417 Y-32.686
X-35.564 Y-32.655
X-35.714 Y-32.648
X-35.864 Y-32.652
X-36.013 Y-32.668
X-36.161 Y-32.693
X-36.307 Y-32.727
X-36.453 Y-32.77
X-36.606 Y-32.824
X-36.762 Y-32.889
X-36.919 Y-32.965
X-37.078 Y-33.052
X-37.239 Y-33.153
X-37.401 Y-33.266
X-37.561 Y-33.392
X-37.718 Y-33.53
X-37.871 Y-33.679
X-38.02 Y-33.841
X-38.161 Y-34.013
X-38.297 Y-34.198
X-38.426 Y-34.394
X-38.545 Y-34.6
X-38.645 Y-34.795
X-38.739 Y-35.009
X-38.821 Y-35.224
X-38.885 Y-35.426
X-38.943 Y-35.65
X-38.988 Y-35.867
X-39.018 Y-36.073
X-39.039 Y-36.301
X-39.047 Y-36.516
X-39.043 Y-36.721
X-39.027 Y-36.947
X-39.001 Y-37.155
X-38.89 Y-37.562
X-38.71 Y-37.943
X-38.467 Y-38.288
X-38.168 Y-38.586
X-37.822 Y-38.827
X-37.44 Y-39.005
X-37.032 Y-39.113
X-36.612 Y-39.15
X-35.255
G3 X-34.773 Y-39.036 I-0.044 J1.269
X-34.039 Y-37.726 I-0.527 J1.156
G1 X-34.528 Y-33.746
G3 X-35.417 Y-32.686 I-1.261 J-0.155
G1 X-36.017 Y-32.525
X-36.226 Y-32.447
X-36.369 Y-32.402
X-36.516 Y-32.371
X-36.665 Y-32.352
X-36.814 Y-32.344
X-36.964 Y-32.347
X-37.114 Y-32.36
X-37.262 Y-32.382
X-37.413 Y-32.412
X-37.568 Y-32.452
X-37.73 Y-32.504
X-37.898 Y-32.567
X-38.068 Y-32.643
X-38.239 Y-32.73
X-38.411 Y-32.829
X-38.584 Y-32.942
X-38.755 Y-33.067
X-38.925 Y-33.207
X-39.091 Y-33.359
X-39.251 Y-33.523
X-39.406 Y-33.699
X-39.553 Y-33.886
X-39.693 Y-34.085
X-39.823 Y-34.293
X-39.944 Y-34.513
X-40.053 Y-34.739
X-40.142 Y-34.951
X-40.225 Y-35.186
X-40.293 Y-35.416
X-40.344 Y-35.631
X-40.386 Y-35.867
X-40.415 Y-36.098
X-40.43 Y-36.311
X-40.434 Y-36.543
X-40.425 Y-36.77
X-40.406 Y-36.979
X-40.401 Y-37.009
X-40.313 Y-37.395
X-40.164 Y-37.763
X-39.959 Y-38.102
X-39.704 Y-38.405
X-39.404 Y-38.664
X-39.066 Y-38.873
X-38.701 Y-39.025
X-38.315 Y-39.119
X-37.92 Y-39.15
X-36.612
G3 X-36.13 Y-39.036 I-0.044 J1.269
X-35.386 Y-37.865 I-0.527 J1.156
G1 X-35.439 Y-33.607
G3 X-36.226 Y-32.447 I-1.27 J-0.016
G1 X-36.397 Y-32.384
X-36.778 Y-32.22
X-37.082 Y-32.079
X-37.221 Y-32.023
X-37.364 Y-31.977
X-37.51 Y-31.944
X-37.658 Y-31.921
X-37.808 Y-31.909
X-37.957 Y-31.906
X-38.107 Y-31.912
X-38.262 Y-31.926
X-38.425 Y-31.951
X-38.595 Y-31.986
X-38.77 Y-32.032
X-38.948 Y-32.089
X-39.132 Y-32.16
X-39.321 Y-32.244
X-39.512 Y-32.342
X-39.702 Y-32.453
X-39.89 Y-32.577
X-40.077 Y-32.715
X-40.262 Y-32.868
X-40.442 Y-33.034
X-40.617 Y-33.214
X-40.785 Y-33.407
X-40.945 Y-33.611
X-41.095 Y-33.827
X-41.235 Y-34.053
X-41.364 Y-34.29
X-41.477 Y-34.525
X-41.572 Y-34.756
X-41.661 Y-35.008
X-41.729 Y-35.241
X-41.785 Y-35.483
X-41.829 Y-35.729
X-41.856 Y-35.957
X-41.873 Y-36.203
X-41.875 Y-36.439
X-41.866 Y-36.661
X-41.843 Y-36.902
X-41.809 Y-37.126
X-41.764 Y-37.34
X-41.631 Y-37.715
X-41.438 Y-38.064
X-41.191 Y-38.377
X-40.896 Y-38.645
X-40.561 Y-38.861
X-40.196 Y-39.02
X-39.809 Y-39.117
X-39.412 Y-39.15
X-37.92
G3 X-37.438 Y-39.036 I-0.044 J1.269
X-36.697 Y-37.965 I-0.527 J1.156
G1 X-36.387 Y-33.297
G3 X-37.082 Y-32.079 I-1.267 J0.084
G1 X-37.159 Y-32.044
X-37.539 Y-31.816
X-37.843 Y-31.629
X-37.974 Y-31.557
X-38.111 Y-31.494
X-38.252 Y-31.443
X-38.396 Y-31.403
X-38.543 Y-31.372
X-38.691 Y-31.351
X-38.841 Y-31.338
X-39 Y-31.333
X-39.166 Y-31.337
X-39.339 Y-31.351
X-39.521 Y-31.375
X-39.712 Y-31.412
X-39.908 Y-31.46
X-40.107 Y-31.521
X-40.311 Y-31.595
X-40.52 Y-31.684
X-40.732 Y-31.789
X-40.945 Y-31.909
X-41.155 Y-32.043
X-41.363 Y-32.191
X-41.567 Y-32.355
X-41.767 Y-32.533
X-41.96 Y-32.726
X-42.146 Y-32.933
X-42.323 Y-33.152
X-42.49 Y-33.384
X-42.646 Y-33.627
X-42.789 Y-33.88
X-42.92 Y-34.142
X-43.037 Y-34.413
X-43.139 Y-34.691
X-43.221 Y-34.956
X-43.288 Y-35.223
X-43.34 Y-35.496
X-43.375 Y-35.745
X-43.396 Y-36.012
X-43.404 Y-36.267
X-43.397 Y-36.504
X-43.377 Y-36.761
X-43.344 Y-36.998
X-43.302 Y-37.223
X-43.167 Y-37.622
X-42.968 Y-37.992
X-42.711 Y-38.325
X-42.402 Y-38.611
X-42.05 Y-38.842
X-41.665 Y-39.011
X-41.257 Y-39.115
X-40.838 Y-39.15
X-39.412
G3 X-38.205 Y-38.1 I-0.044 J1.269
G1 X-37.296 Y-32.906
G3 X-37.843 Y-31.629 I-1.251 J0.219
G1 X-37.92 Y-31.582
X-38.301 Y-31.286
X-38.432 Y-31.175
X-38.473 Y-31.136
X-38.589 Y-31.04
X-38.712 Y-30.955
X-38.843 Y-30.882
X-38.979 Y-30.819
X-39.119 Y-30.765
X-39.262 Y-30.72
X-39.408 Y-30.684
X-39.56 Y-30.656
X-39.724 Y-30.634
X-39.899 Y-30.62
X-40.081 Y-30.615
X-40.272 Y-30.621
X-40.473 Y-30.638
X-40.684 Y-30.667
X-40.9 Y-30.71
X-41.121 Y-30.765
X-41.347 Y-30.835
X-41.579 Y-30.922
X-41.816 Y-31.024
X-42.053 Y-31.143
X-42.29 Y-31.278
X-42.525 Y-31.429
X-42.758 Y-31.598
X-42.989 Y-31.785
X-43.214 Y-31.988
X-43.431 Y-32.208
X-43.64 Y-32.442
X-43.837 Y-32.689
X-44.023 Y-32.949
X-44.195 Y-33.221
X-44.353 Y-33.503
X-44.496 Y-33.794
X-44.623 Y-34.094
X-44.734 Y-34.4
X-44.822 Y-34.692
X-44.893 Y-34.98
X-44.949 Y-35.279
X-44.984 Y-35.548
X-45.006 Y-35.833
X-45.012 Y-36.108
X-45.004 Y-36.36
X-44.981 Y-36.634
X-44.945 Y-36.886
X-44.898 Y-37.123
X-44.834 Y-37.378
X-44.684 Y-37.749
X-44.479 Y-38.092
X-44.221 Y-38.398
X-43.919 Y-38.659
X-43.579 Y-38.87
X-43.211 Y-39.024
X-42.822 Y-39.118
X-42.423 Y-39.15
X-40.838
G3 X-39.653 Y-38.2 I-0.044 J1.269
G1 X-38.136 Y-32.36
G3 X-38.473 Y-31.136 I-1.229 J0.319
G1 X-38.681 Y-30.945
X-38.838 Y-30.794
X-39.062 Y-30.524
X-39.164 Y-30.413
X-39.274 Y-30.312
X-39.393 Y-30.221
X-39.519 Y-30.139
X-39.65 Y-30.066
X-39.786 Y-30.002
X-39.925 Y-29.946
X-40.072 Y-29.895
X-40.232 Y-29.85
X-40.405 Y-29.811
X-40.59 Y-29.78
X-40.782 Y-29.758
X-40.986 Y-29.746
X-41.203 Y-29.745
X-41.43 Y-29.756
X-41.664 Y-29.78
X-41.904 Y-29.818
X-42.155 Y-29.872
X-42.414 Y-29.943
X-42.677 Y-30.03
X-42.942 Y-30.135
X-43.209 Y-30.257
X-43.477 Y-30.397
X-43.747 Y-30.558
X-44.015 Y-30.738
X-44.28 Y-30.938
X-44.538 Y-31.155
X-44.789 Y-31.391
X-45.029 Y-31.643
X-45.258 Y-31.91
X-45.475 Y-32.193
X-45.676 Y-32.487
X-45.862 Y-32.794
X-46.032 Y-33.112
X-46.184 Y-33.437
X-46.318 Y-33.771
X-46.434 Y-34.109
X-46.53 Y-34.452
X-46.605 Y-34.786
X-46.658 Y-35.102
X-46.694 Y-35.427
X-46.711 Y-35.718
X-46.712 Y-36.026
X-46.697 Y-36.311
X-46.669 Y-36.582
X-46.623 Y-36.864
X-46.569 Y-37.116
X-46.539 Y-37.222
X-46.393 Y-37.623
X-46.184 Y-37.995
X-45.918 Y-38.328
X-45.601 Y-38.613
X-45.242 Y-38.843
X-44.85 Y-39.012
X-44.436 Y-39.115
X-44.011 Y-39.15
X-42.423
G3 X-41.941 Y-39.036 I-0.044 J1.269
X-41.275 Y-38.316 I-0.527 J1.156
G1 X-38.873 Y-31.737
G3 X-39.062 Y-30.524 I-1.193 J0.435
G1 X-39.471 Y-30.032
X-39.651 Y-29.771
X-39.743 Y-29.652
X-39.843 Y-29.54
X-39.952 Y-29.437
X-40.068 Y-29.342
X-40.19 Y-29.255
X-40.318 Y-29.176
X-40.452 Y-29.103
X-40.601 Y-29.033
X-40.761 Y-28.967
X-40.932 Y-28.908
X-41.118 Y-28.854
X-41.319 Y-28.808
X-41.53 Y-28.771
X-41.751 Y-28.745
X-41.987 Y-28.73
X-42.236 Y-28.727
X-42.495 Y-28.739
X-42.761 Y-28.765
X-43.037 Y-28.808
X-43.324 Y-28.868
X-43.619 Y-28.947
X-43.918 Y-29.045
X-44.218 Y-29.161
X-44.521 Y-29.298
X-44.827 Y-29.457
X-45.134 Y-29.637
X-45.438 Y-29.84
X-45.737 Y-30.063
X-46.028 Y-30.306
X-46.311 Y-30.569
X-46.583 Y-30.851
X-46.844 Y-31.153
X-47.091 Y-31.472
X-47.321 Y-31.805
X-47.534 Y-32.153
X-47.727 Y-32.51
X-47.901 Y-32.876
X-48.053 Y-33.25
X-48.184 Y-33.627
X-48.293 Y-34.009
X-48.379 Y-34.384
X-48.439 Y-34.736
X-48.482 Y-35.104
X-48.503 Y-35.427
X-48.505 Y-35.764
X-48.491 Y-36.078
X-48.461 Y-36.369
X-48.413 Y-36.677
X-48.355 Y-36.949
X-48.282 Y-37.223
X-48.112 Y-37.628
X-47.882 Y-38.001
X-47.597 Y-38.334
X-47.263 Y-38.618
X-46.889 Y-38.846
X-46.484 Y-39.014
X-46.057 Y-39.116
X-45.62 Y-39.15
X-44.011
G3 X-42.897 Y-38.401 I-0.044 J1.269
G1 X-39.563 Y-30.975
G3 X-39.651 Y-29.771 I-1.159 J0.52
G1 X-39.734 Y-29.651
X-39.955 Y-29.27
X-40.086 Y-29.009
X-40.159 Y-28.878
X-40.242 Y-28.753
X-40.335 Y-28.636
X-40.437 Y-28.525
X-40.545 Y-28.422
X-40.66 Y-28.325
X-40.782 Y-28.233
X-40.917 Y-28.143
X-41.069 Y-28.053
X-41.233 Y-27.967
X-41.409 Y-27.887
X-41.601 Y-27.811
X-41.81 Y-27.742
X-42.032 Y-27.682
X-42.264 Y-27.632
X-42.513 Y-27.593
X-42.779 Y-27.565
X-43.056 Y-27.552
X-43.342 Y-27.554
X-43.641 Y-27.572
X-43.954 Y-27.608
X-44.278 Y-27.663
X-44.607 Y-27.738
X-44.941 Y-27.833
X-45.281 Y-27.95
X-45.628 Y-28.09
X-45.978 Y-28.255
X-46.329 Y-28.444
X-46.676 Y-28.656
X-47.018 Y-28.891
X-47.353 Y-29.15
X-47.681 Y-29.432
X-47.999 Y-29.738
X-48.306 Y-30.066
X-48.598 Y-30.414
X-48.873 Y-30.781
X-49.127 Y-31.163
X-49.362 Y-31.56
X-49.573 Y-31.965
X-49.761 Y-32.379
X-49.925 Y-32.799
X-50.064 Y-33.221
X-50.178 Y-33.647
X-50.268 Y-34.07
X-50.332 Y-34.476
X-50.37 Y-34.854
X-50.388 Y-35.233
X-50.385 Y-35.569
X-50.363 Y-35.924
X-50.326 Y-36.239
X-50.272 Y-36.555
X-50.202 Y-36.86
X-50.123 Y-37.136
X-50.076 Y-37.27
X-49.904 Y-37.666
X-49.673 Y-38.031
X-49.388 Y-38.355
X-49.057 Y-38.632
X-48.687 Y-38.855
X-48.288 Y-39.017
X-47.868 Y-39.117
X-47.437 Y-39.15
X-45.62
G3 X-44.542 Y-38.476 I-0.044 J1.269
G1 X-40.119 Y-30.132
G3 X-40.086 Y-29.009 I-1.122 J0.595
G1 X-40.145 Y-28.89
X-40.306 Y-28.509
X-40.46 Y-28.128
X-40.469 Y-28.093
X-40.517 Y-27.951
X-40.588 Y-27.819
X-40.67 Y-27.693
X-40.76 Y-27.573
X-40.857 Y-27.459
X-40.961 Y-27.35
X-41.081 Y-27.238
X-41.214 Y-27.126
X-41.359 Y-27.017
X-41.52 Y-26.909
X-41.7 Y-26.802
X-41.892 Y-26.701
X-42.098 Y-26.607
X-42.324 Y-26.519
X-42.568 Y-26.438
X-42.824 Y-26.369
X-43.094 Y-26.311
X-43.383 Y-26.265
X-43.691 Y-26.233
X-44.01 Y-26.218
X-44.339 Y-26.22
X-44.683 Y-26.241
X-45.043 Y-26.282
X-45.415 Y-26.345
X-45.792 Y-26.43
X-46.173 Y-26.539
X-46.562 Y-26.673
X-46.958 Y-26.833
X-47.358 Y-27.021
X-47.759 Y-27.237
X-48.155 Y-27.479
X-48.544 Y-27.747
X-48.926 Y-28.041
X-49.299 Y-28.362
X-49.66 Y-28.708
X-50.007 Y-29.079
X-50.337 Y-29.473
X-50.647 Y-29.888
X-50.937 Y-30.322
X-51.203 Y-30.77
X-51.442 Y-31.229
X-51.654 Y-31.697
X-51.838 Y-32.167
X-51.994 Y-32.641
X-52.121 Y-33.113
X-52.221 Y-33.583
X-52.293 Y-34.047
X-52.338 Y-34.486
X-52.358 Y-34.914
X-52.355 Y-35.316
X-52.332 Y-35.687
X-52.288 Y-36.057
X-52.232 Y-36.384
X-52.154 Y-36.725
X-52.068 Y-37.026
X-51.964 Y-37.326
X-51.931 Y-37.409
X-51.747 Y-37.779
X-51.51 Y-38.118
X-51.226 Y-38.419
X-50.901 Y-38.674
X-50.542 Y-38.879
X-50.156 Y-39.028
X-49.753 Y-39.119
X-49.341 Y-39.15
X-47.437
G3 X-46.955 Y-39.036 I-0.044 J1.269
X-46.397 Y-38.541 I-0.527 J1.156
G1 X-40.619 Y-29.05
G3 X-40.469 Y-28.093 I-1.085 J0.66
G1 X-40.565 Y-27.747
X-40.66 Y-27.366
X-40.669 Y-27.303
X-40.697 Y-27.155
X-40.74 Y-27.012
X-40.795 Y-26.872
X-40.861 Y-26.738
X-40.935 Y-26.607
X-41.018 Y-26.482
X-41.111 Y-26.355
X-41.217 Y-26.227
X-41.335 Y-26.098
X-41.472 Y-25.965
X-41.624 Y-25.833
X-41.789 Y-25.704
X-41.972 Y-25.576
X-42.176 Y-25.449
X-42.394 Y-25.33
X-42.628 Y-25.218
X-42.884 Y-25.112
X-43.16 Y-25.015
X-43.45 Y-24.93
X-43.756 Y-24.859
X-44.083 Y-24.801
X-44.431 Y-24.758
X-44.792 Y-24.734
X-45.164 Y-24.729
X-45.555 Y-24.745
X-45.963 Y-24.784
X-46.385 Y-24.848
X-46.813 Y-24.937
X-47.246 Y-25.051
X-47.688 Y-25.194
X-48.138 Y-25.367
X-48.593 Y-25.57
X-49.049 Y-25.805
X-49.502 Y-26.07
X-49.948 Y-26.364
X-50.385 Y-26.688
X-50.812 Y-27.042
X-51.227 Y-27.425
X-51.626 Y-27.837
X-52.006 Y-28.274
X-52.365 Y-28.735
X-52.701 Y-29.217
X-53.01 Y-29.717
X-53.291 Y-30.233
X-53.542 Y-30.759
X-53.762 Y-31.293
X-53.95 Y-31.83
X-54.104 Y-32.364
X-54.227 Y-32.893
X-54.318 Y-33.412
X-54.38 Y-33.922
X-54.412 Y-34.421
X-54.417 Y-34.873
X-54.398 Y-35.325
X-54.36 Y-35.714
X-54.299 Y-36.11
X-54.227 Y-36.456
X-54.134 Y-36.806
X-54.031 Y-37.122
X-53.914 Y-37.426
X-53.715 Y-37.795
X-53.465 Y-38.132
X-53.17 Y-38.429
X-52.836 Y-38.681
X-52.468 Y-38.883
X-52.076 Y-39.03
X-51.666 Y-39.12
X-51.248 Y-39.15
X-49.341
G3 X-48.858 Y-39.036 I-0.044 J1.269
X-48.351 Y-38.618 I-0.527 J1.156
G1 X-40.898 Y-28.171
G3 X-40.669 Y-27.303 I-1.034 J0.738
G1 X-40.765 Y-26.605
X-40.795 Y-26.301
X-40.819 Y-26.141
X-40.849 Y-25.994
X-40.89 Y-25.85
X-40.941 Y-25.709
X-41.001 Y-25.572
X-41.069 Y-25.437
X-41.152 Y-25.294
X-41.247 Y-25.148
X-41.355 Y-25.001
X-41.481 Y-24.848
X-41.623 Y-24.692
X-41.779 Y-24.539
X-41.954 Y-24.385
X-42.151 Y-24.23
X-42.364 Y-24.08
X-42.593 Y-23.937
X-42.846 Y-23.797
X-43.122 Y-23.663
X-43.415 Y-23.541
X-43.725 Y-23.43
X-44.061 Y-23.331
X-44.419 Y-23.246
X-44.794 Y-23.178
X-45.183 Y-23.129
X-45.594 Y-23.1
X-46.027 Y-23.092
X-46.479 Y-23.109
X-46.94 Y-23.152
X-47.411 Y-23.221
X-47.898 Y-23.32
X-48.398 Y-23.45
X-48.907 Y-23.612
X-49.423 Y-23.808
X-49.937 Y-24.036
X-50.449 Y-24.297
X-50.958 Y-24.592
X-51.464 Y-24.923
X-51.962 Y-25.29
X-52.45 Y-25.69
X-52.923 Y-26.124
X-53.377 Y-26.59
X-53.811 Y-27.084
X-54.219 Y-27.604
X-54.6 Y-28.147
X-54.951 Y-28.71
X-55.269 Y-29.289
X-55.554 Y-29.881
X-55.805 Y-30.482
X-56.018 Y-31.085
X-56.196 Y-31.689
X-56.336 Y-32.284
X-56.442 Y-32.872
X-56.513 Y-33.443
X-56.551 Y-33.997
X-56.559 Y-34.532
X-56.541 Y-34.999
X-56.497 Y-35.461
X-56.438 Y-35.861
X-56.355 Y-36.263
X-56.264 Y-36.613
X-56.149 Y-36.971
X-56.03 Y-37.282
X-55.817 Y-37.681
X-55.548 Y-38.046
X-55.23 Y-38.368
X-54.869 Y-38.642
X-54.472 Y-38.861
X-54.048 Y-39.02
X-53.605 Y-39.117
X-53.153 Y-39.15
X-51.248
G3 X-50.766 Y-39.036 I-0.044 J1.269
X-50.302 Y-38.676 I-0.527 J1.156
G1 X-41.072 Y-27.175
G3 X-40.795 Y-26.301 I-0.99 J0.795
G1 X-40.802 Y-26.224
X-40.86 Y-25.462
X-40.903 Y-24.966
X-40.923 Y-24.817
X-40.954 Y-24.671
X-40.995 Y-24.526
X-41.045 Y-24.384
X-41.106 Y-24.236
X-41.178 Y-24.084
X-41.267 Y-23.921
X-41.37 Y-23.754
X-41.487 Y-23.587
X-41.623 Y-23.412
X-41.778 Y-23.233
X-41.949 Y-23.057
X-42.14 Y-22.881
X-42.355 Y-22.702
X-42.589 Y-22.528
X-42.841 Y-22.362
X-43.119 Y-22.199
X-43.424 Y-22.042
X-43.748 Y-21.897
X-44.091 Y-21.765
X-44.461 Y-21.645
X-44.858 Y-21.54
X-45.276 Y-21.454
X-45.708 Y-21.388
X-46.166 Y-21.344
X-46.649 Y-21.324
X-47.154 Y-21.33
X-47.672 Y-21.365
X-48.2 Y-21.429
X-48.743 Y-21.525
X-49.303 Y-21.656
X-49.876 Y-21.823
X-50.458 Y-22.028
X-51.042 Y-22.269
X-51.623 Y-22.547
X-52.2 Y-22.863
X-52.774 Y-23.219
X-53.342 Y-23.615
X-53.899 Y-24.05
X-54.441 Y-24.523
X-54.963 Y-25.031
X-55.463 Y-25.573
X-55.937 Y-26.146
X-56.38 Y-26.746
X-56.791 Y-27.37
X-57.167 Y-28.014
X-57.505 Y-28.674
X-57.804 Y-29.345
X-58.063 Y-30.023
X-58.282 Y-30.704
X-58.459 Y-31.377
X-58.595 Y-32.039
X-58.691 Y-32.678
X-58.749 Y-33.293
X-58.772 Y-33.889
X-58.764 Y-34.455
X-58.73 Y-34.952
X-58.672 Y-35.421
X-58.596 Y-35.847
X-58.501 Y-36.253
X-58.392 Y-36.622
X-58.264 Y-36.986
X-58.13 Y-37.308
X-57.972 Y-37.637
X-57.728 Y-38.01
X-57.431 Y-38.341
X-57.087 Y-38.623
X-56.704 Y-38.849
X-56.291 Y-39.015
X-55.858 Y-39.116
X-55.415 Y-39.15
X-53.153
G3 X-52.671 Y-39.036 I-0.044 J1.269
X-52.234 Y-38.708 I-0.527 J1.156
G1 X-41.207 Y-25.858
G3 X-40.903 Y-24.966 I-0.964 J0.827
G1 X-40.926 Y-24.7
X-40.966 Y-24.327
X-41.141 Y-23.558
X-41.232 Y-23.177
X-41.346 Y-22.847
X-41.443 Y-22.609
X-41.517 Y-22.451
X-41.607 Y-22.285
X-41.715 Y-22.108
X-41.837 Y-21.93
X-41.978 Y-21.747
X-42.142 Y-21.556
X-42.324 Y-21.368
X-42.526 Y-21.179
X-42.756 Y-20.986
X-43.007 Y-20.798
X-43.278 Y-20.617
X-43.58 Y-20.439
X-43.91 Y-20.266
X-44.26 Y-20.108
X-44.635 Y-19.962
X-45.042 Y-19.828
X-45.479 Y-19.71
X-45.932 Y-19.614
X-46.409 Y-19.54
X-46.917 Y-19.488
X-47.455 Y-19.463
X-48.012 Y-19.468
X-48.58 Y-19.503
X-49.169 Y-19.572
X-49.778 Y-19.677
X-50.406 Y-19.82
X-51.047 Y-20.004
X-51.695 Y-20.228
X-52.343 Y-20.493
X-52.99 Y-20.798
X-53.639 Y-21.149
X-54.285 Y-21.546
X-54.924 Y-21.987
X-55.551 Y-22.472
X-56.16 Y-22.999
X-56.749 Y-23.566
X-57.311 Y-24.17
X-57.844 Y-24.809
X-58.343 Y-25.478
X-58.806 Y-26.175
X-59.23 Y-26.893
X-59.612 Y-27.629
X-59.949 Y-28.376
X-60.241 Y-29.129
X-60.487 Y-29.883
X-60.688 Y-30.633
X-60.843 Y-31.367
X-60.952 Y-32.078
X-61.019 Y-32.756
X-61.048 Y-33.405
X-61.042 Y-34.033
X-61.004 Y-34.636
X-60.939 Y-35.179
X-60.853 Y-35.677
X-60.752 Y-36.115
X-60.632 Y-36.532
X-60.5 Y-36.909
X-60.356 Y-37.26
X-60.197 Y-37.596
X-59.949 Y-37.979
X-59.647 Y-38.319
X-59.295 Y-38.608
X-58.904 Y-38.841
X-58.482 Y-39.011
X-58.039 Y-39.115
X-57.585 Y-39.15
X-55.415
G3 X-54.505 Y-38.72 I-0.044 J1.269
G1 X-41.606 Y-24.06
G3 X-41.346 Y-22.847 I-0.953 J0.839
G1 X-41.497 Y-22.415
X-41.64 Y-22.034
X-41.727 Y-21.855
X-42.108 Y-21.081
X-42.204 Y-20.892
X-42.587 Y-20.263
X-42.751 Y-20.023
X-42.881 Y-19.853
X-43.029 Y-19.68
X-43.204 Y-19.497
X-43.395 Y-19.317
X-43.612 Y-19.133
X-43.859 Y-18.946
X-44.124 Y-18.768
X-44.421 Y-18.591
X-44.753 Y-18.416
X-45.102 Y-18.256
X-45.484 Y-18.105
X-45.904 Y-17.966
X-46.348 Y-17.844
X-46.814 Y-17.743
X-47.319 Y-17.662
X-47.86 Y-17.605
X-48.422 Y-17.577
X-49.002 Y-17.579
X-49.614 Y-17.615
X-50.255 Y-17.687
X-50.92 Y-17.799
X-51.597 Y-17.951
X-52.28 Y-18.143
X-52.978 Y-18.382
X-53.69 Y-18.669
X-54.41 Y-19.006
X-55.133 Y-19.393
X-55.853 Y-19.831
X-56.562 Y-20.316
X-57.255 Y-20.848
X-57.928 Y-21.425
X-58.577 Y-22.046
X-59.2 Y-22.709
X-59.791 Y-23.413
X-60.348 Y-24.152
X-60.865 Y-24.923
X-61.093 Y-25.306
X-61.292 Y-25.697
X-61.437 Y-26.111
X-61.526 Y-26.54
X-61.64 Y-27.366
X-61.848 Y-28.128
X-61.903 Y-28.297
X-62.145 Y-28.89
X-62.157 Y-28.914
X-62.316 Y-29.265
X-62.534 Y-29.827
X-62.727 Y-30.419
X-62.892 Y-31.034
X-63.024 Y-31.662
X-63.122 Y-32.293
X-63.184 Y-32.918
X-63.211 Y-33.534
X-63.206 Y-34.135
X-63.169 Y-34.716
X-63.108 Y-35.224
X-63.023 Y-35.716
X-62.926 Y-36.136
X-62.807 Y-36.551
X-62.679 Y-36.917
X-62.535 Y-37.269
X-62.509 Y-37.323
X-62.288 Y-37.715
X-62.014 Y-38.073
X-61.692 Y-38.388
X-61.329 Y-38.655
X-60.932 Y-38.868
X-60.509 Y-39.024
X-60.069 Y-39.118
X-59.619 Y-39.15
X-57.585
G3 X-57.102 Y-39.036 I-0.044 J1.269
X-56.454 Y-37.399 I-0.527 J1.156
G1 X-59.873 Y-29.052
G3 X-62.157 Y-28.914 I-1.175 J-0.481
G1 X-62.284 Y-29.161
X-62.665 Y-29.797
X-62.817 Y-30.032
X-63.045 Y-30.329
X-63.459 Y-30.794
X-63.564 Y-30.912
X-63.704 Y-31.088
X-63.841 Y-31.28
X-63.983 Y-31.504
X-64.123 Y-31.754
X-64.256 Y-32.027
X-64.386 Y-32.333
X-64.504 Y-32.658
X-64.608 Y-33.002
X-64.697 Y-33.369
X-64.77 Y-33.756
X-64.822 Y-34.156
X-64.853 Y-34.565
X-64.862 Y-34.95
X-64.849 Y-35.338
X-64.818 Y-35.7
X-64.768 Y-36.05
X-64.701 Y-36.392
X-64.621 Y-36.705
X-64.52 Y-37.03
X-64.413 Y-37.315
X-64.207 Y-37.707
X-63.946 Y-38.065
X-63.637 Y-38.382
X-63.285 Y-38.65
X-62.897 Y-38.865
X-62.483 Y-39.022
X-62.051 Y-39.118
X-61.609 Y-39.15
X-59.619
G3 X-59.137 Y-39.036 I-0.044 J1.269
X-58.52 Y-37.329 I-0.527 J1.156
G1 X-61.478 Y-31.197
G3 X-63.459 Y-30.794 I-1.144 J-0.552
G1 X-63.864 Y-31.175
X-64.358 Y-31.555
X-64.568 Y-31.709
X-64.603 Y-31.729
X-64.729 Y-31.81
X-64.848 Y-31.908
X-64.977 Y-32.026
X-65.105 Y-32.157
X-65.238 Y-32.309
X-65.373 Y-32.482
X-65.504 Y-32.668
X-65.633 Y-32.876
X-65.759 Y-33.105
X-65.876 Y-33.349
X-65.983 Y-33.607
X-66.081 Y-33.883
X-66.166 Y-34.174
X-66.239 Y-34.481
X-66.295 Y-34.798
X-66.332 Y-35.097
X-66.353 Y-35.403
X-66.358 Y-35.705
X-66.347 Y-35.986
X-66.318 Y-36.288
X-66.278 Y-36.559
X-66.22 Y-36.839
X-66.149 Y-37.111
X-66.069 Y-37.361
X-65.89 Y-37.74
X-65.656 Y-38.088
X-65.373 Y-38.397
X-65.047 Y-38.659
X-64.685 Y-38.87
X-64.295 Y-39.025
X-63.887 Y-39.118
X-63.469 Y-39.15
X-61.609
G3 X-60.503 Y-37.342 I-0.044 J1.269
G1 X-62.86 Y-32.313
G3 X-64.603 Y-31.729 I-1.15 J-0.539
G1 X-64.949 Y-31.927
X-65.329 Y-32.128
X-65.71 Y-32.314
X-65.719 Y-32.317
X-65.856 Y-32.378
X-65.986 Y-32.453
X-66.111 Y-32.536
X-66.234 Y-32.629
X-66.365 Y-32.739
X-66.497 Y-32.863
X-66.628 Y-32.999
X-66.76 Y-33.152
X-66.891 Y-33.323
X-67.017 Y-33.507
X-67.137 Y-33.704
X-67.252 Y-33.917
X-67.358 Y-34.144
X-67.456 Y-34.386
X-67.543 Y-34.64
X-67.618 Y-34.903
X-67.676 Y-35.162
X-67.719 Y-35.415
X-67.75 Y-35.686
X-67.764 Y-35.933
X-67.766 Y-36.194
X-67.753 Y-36.449
X-67.729 Y-36.686
X-67.688 Y-36.944
X-67.637 Y-37.18
X-67.488 Y-37.589
X-67.275 Y-37.969
X-67.004 Y-38.309
X-66.68 Y-38.601
X-66.314 Y-38.836
X-65.914 Y-39.009
X-65.491 Y-39.115
X-65.057 Y-39.15
X-63.469
G3 X-62.987 Y-39.036 I-0.044 J1.269
X-62.338 Y-37.398 I-0.527 J1.156
G1 X-64.131 Y-33.035
G3 X-65.719 Y-32.317 I-1.175 J-0.483
G1 X-66.091 Y-32.46
X-66.471 Y-32.583
X-66.681 Y-32.629
X-66.825 Y-32.669
X-66.967 Y-32.718
X-67.105 Y-32.777
X-67.239 Y-32.845
X-67.368 Y-32.921
X-67.498 Y-33.007
X-67.632 Y-33.108
X-67.766 Y-33.22
X-67.899 Y-33.345
X-68.034 Y-33.484
X-68.167 Y-33.638
X-68.296 Y-33.806
X-68.419 Y-33.985
X-68.537 Y-34.177
X-68.647 Y-34.381
X-68.749 Y-34.599
X-68.842 Y-34.828
X-68.917 Y-35.045
X-68.982 Y-35.274
X-69.036 Y-35.513
X-69.074 Y-35.732
X-69.101 Y-35.968
X-69.115 Y-36.206
X-69.117 Y-36.424
X-69.106 Y-36.659
X-69.082 Y-36.891
X-69.048 Y-37.103
X-68.92 Y-37.523
X-68.723 Y-37.916
X-68.462 Y-38.27
X-68.145 Y-38.574
X-67.781 Y-38.821
X-67.381 Y-39.002
X-66.956 Y-39.113
X-66.518 Y-39.15
X-65.057
G3 X-64.575 Y-39.036 I-0.044 J1.269
X-63.898 Y-37.475 I-0.527 J1.156
G1 X-65.246 Y-33.473
G3 X-66.681 Y-32.629 I-1.204 J-0.405
G1 X-67.233 Y-32.751
X-67.613 Y-32.795
X-67.729 Y-32.806
X-67.877 Y-32.827
X-68.024 Y-32.859
X-68.167 Y-32.903
X-68.307 Y-32.957
X-68.444 Y-33.019
X-68.576 Y-33.089
X-68.71 Y-33.169
X-68.849 Y-33.263
X-68.988 Y-33.369
X-69.127 Y-33.486
X-69.264 Y-33.615
X-69.399 Y-33.758
X-69.532 Y-33.914
X-69.66 Y-34.082
X-69.783 Y-34.263
X-69.898 Y-34.454
X-70.005 Y-34.656
X-70.101 Y-34.863
X-70.179 Y-35.059
X-70.255 Y-35.282
X-70.315 Y-35.499
X-70.36 Y-35.703
X-70.397 Y-35.931
X-70.422 Y-36.153
X-70.433 Y-36.359
Y-36.586
X-70.421 Y-36.808
X-70.399 Y-37.012
X-70.363 Y-37.231
X-70.359 Y-37.25
X-70.237 Y-37.64
X-70.051 Y-38.005
X-69.807 Y-38.334
X-69.511 Y-38.616
X-69.171 Y-38.845
X-68.798 Y-39.013
X-68.402 Y-39.115
X-67.994 Y-39.15
X-66.518
G3 X-66.035 Y-39.036 I-0.044 J1.269
X-65.341 Y-37.53 I-0.527 J1.156
G1 X-66.437 Y-33.723
G3 X-67.729 Y-32.806 I-1.22 J-0.351
G1 X-67.994 Y-32.83
X-68.375 Y-32.848
X-68.756 Y-32.849
X-68.905 Y-32.857
X-69.054 Y-32.874
X-69.201 Y-32.903
X-69.346 Y-32.943
X-69.488 Y-32.992
X-69.626 Y-33.049
X-69.764 Y-33.115
X-69.902 Y-33.191
X-70.045 Y-33.28
X-70.191 Y-33.382
X-70.335 Y-33.495
X-70.477 Y-33.62
X-70.617 Y-33.756
X-70.754 Y-33.905
X-70.886 Y-34.066
X-71.014 Y-34.24
X-71.136 Y-34.425
X-71.249 Y-34.62
X-71.354 Y-34.825
X-71.446 Y-35.031
X-71.522 Y-35.232
X-71.594 Y-35.457
X-71.649 Y-35.67
X-71.691 Y-35.875
X-71.725 Y-36.104
X-71.745 Y-36.319
X-71.753 Y-36.523
X-71.749 Y-36.749
X-71.734 Y-36.961
X-71.709 Y-37.16
X-71.599 Y-37.566
X-71.42 Y-37.947
X-71.178 Y-38.29
X-70.88 Y-38.587
X-70.535 Y-38.828
X-70.154 Y-39.005
X-69.747 Y-39.113
X-69.328 Y-39.15
X-67.994
G3 X-67.512 Y-39.036 I-0.044 J1.269
X-66.793 Y-37.63 I-0.527 J1.156
G1 X-67.551 Y-33.868
G3 X-68.756 Y-32.849 I-1.245 J-0.251
G1 X-69.136 Y-32.85
X-70.013
X-70.163 Y-32.857
X-70.311 Y-32.877
X-70.458 Y-32.906
X-70.603 Y-32.946
X-70.745 Y-32.995
X-70.884 Y-33.051
X-71.028 Y-33.119
X-71.175 Y-33.199
X-71.322 Y-33.289
X-71.47 Y-33.391
X-71.619 Y-33.506
X-71.766 Y-33.633
X-71.912 Y-33.774
X-72.054 Y-33.926
X-72.19 Y-34.089
X-72.32 Y-34.263
X-72.443 Y-34.449
X-72.559 Y-34.645
X-72.666 Y-34.85
X-72.753 Y-35.043
X-72.835 Y-35.255
X-72.906 Y-35.471
X-72.959 Y-35.672
X-73.005 Y-35.886
X-73.039 Y-36.108
X-73.059 Y-36.312
X-73.069 Y-36.523
X-73.067 Y-36.746
X-73.054 Y-36.95
X-73.029 Y-37.156
X-72.921 Y-37.562
X-72.744 Y-37.943
X-72.504 Y-38.288
X-72.208 Y-38.585
X-71.864 Y-38.827
X-71.483 Y-39.004
X-71.077 Y-39.113
X-70.659 Y-39.15
X-69.328
G3 X-68.123 Y-37.653 I-0.044 J1.269
G1 X-68.808 Y-33.892
G3 X-69.53 Y-32.964 I-1.249 J-0.227
X-70.013 Y-32.85 I-0.527 J-1.156
G1 X-71.249
X-71.407 Y-32.858
X-71.556 Y-32.874
X-71.703 Y-32.9
X-71.849 Y-32.937
X-71.992 Y-32.982
X-72.133 Y-33.036
X-72.278 Y-33.101
X-72.424 Y-33.176
X-72.572 Y-33.262
X-72.723 Y-33.361
X-72.874 Y-33.473
X-73.023 Y-33.597
X-73.17 Y-33.732
X-73.313 Y-33.879
X-73.451 Y-34.038
X-73.584 Y-34.208
X-73.711 Y-34.39
X-73.831 Y-34.583
X-73.942 Y-34.786
X-74.035 Y-34.981
X-74.118 Y-35.183
X-74.195 Y-35.402
X-74.255 Y-35.606
X-74.302 Y-35.81
X-74.342 Y-36.035
X-74.368 Y-36.244
X-74.381 Y-36.446
X-74.384 Y-36.671
X-74.375 Y-36.88
X-74.356 Y-37.077
X-74.254 Y-37.497
X-74.079 Y-37.892
X-73.837 Y-38.251
X-73.535 Y-38.561
X-73.184 Y-38.812
X-72.793 Y-38.998
X-72.376 Y-39.112
X-71.945 Y-39.15
X-70.659
G3 X-69.449 Y-37.684 I-0.044 J1.269
G1 X-70.039 Y-33.922
G3 X-70.767 Y-32.964 I-1.255 J-0.197
X-71.249 Y-32.85 I-0.527 J-1.156
G1 X-72.562
X-72.712 Y-32.857
X-72.861 Y-32.873
X-73.009 Y-32.9
X-73.154 Y-32.936
X-73.297 Y-32.982
X-73.438 Y-33.035
X-73.583 Y-33.1
X-73.732 Y-33.176
X-73.882 Y-33.263
X-74.032 Y-33.362
X-74.182 Y-33.473
X-74.331 Y-33.596
X-74.48 Y-33.732
X-74.625 Y-33.881
X-74.764 Y-34.04
X-74.897 Y-34.211
X-75.025 Y-34.393
X-75.144 Y-34.585
X-75.253 Y-34.783
X-75.343 Y-34.971
X-75.43 Y-35.182
X-75.505 Y-35.393
X-75.562 Y-35.59
X-75.612 Y-35.803
X-75.652 Y-36.023
X-75.677 Y-36.226
X-75.691 Y-36.435
X-75.694 Y-36.658
X-75.685 Y-36.863
X-75.671 Y-37.016
X-75.603 Y-37.396
X-75.474 Y-37.76
X-75.287 Y-38.098
X-75.047 Y-38.401
X-74.762 Y-38.661
X-74.437 Y-38.87
X-74.083 Y-39.024
X-73.709 Y-39.118
X-73.324 Y-39.15
X-71.945
G3 X-70.736 Y-37.675 I-0.044 J1.269
G1 X-71.353 Y-33.914
G3 X-72.08 Y-32.964 I-1.253 J-0.206
X-72.562 Y-32.85 I-0.527 J-1.156
G1 X-73.914
X-74.064 Y-32.857
X-74.212 Y-32.877
X-74.359 Y-32.906
X-74.504 Y-32.945
X-74.646 Y-32.993
X-74.788 Y-33.049
X-74.932 Y-33.116
X-75.081 Y-33.195
X-75.233 Y-33.286
X-75.384 Y-33.388
X-75.534 Y-33.502
X-75.682 Y-33.628
X-75.828 Y-33.766
X-75.971 Y-33.917
X-76.109 Y-34.079
X-76.241 Y-34.254
X-76.367 Y-34.439
X-76.482 Y-34.631
X-76.585 Y-34.824
X-76.685 Y-35.041
X-76.767 Y-35.248
X-76.835 Y-35.449
X-76.897 Y-35.673
X-76.943 Y-35.883
X-76.977 Y-36.089
X-77.001 Y-36.314
X-77.012 Y-36.522
Y-36.728
X-77 Y-36.949
X-76.978 Y-37.152
X-76.874 Y-37.558
X-76.7 Y-37.939
X-76.462 Y-38.285
X-76.167 Y-38.583
X-75.825 Y-38.825
X-75.446 Y-39.004
X-75.041 Y-39.113
X-74.623 Y-39.15
X-73.324
G3 X-72.841 Y-39.036 I-0.044 J1.269
X-72.113 Y-37.684 I-0.527 J1.156
G1 X-72.703 Y-33.922
G3 X-73.914 Y-32.85 I-1.255 J-0.197
G1 X-75.227
X-75.377 Y-32.857
X-75.526 Y-32.877
X-75.673 Y-32.906
X-75.818 Y-32.945
X-75.96 Y-32.993
X-76.1 Y-33.049
X-76.248 Y-33.118
X-76.398 Y-33.197
X-76.549 Y-33.288
X-76.7 Y-33.391
X-76.851 Y-33.506
X-77.001 Y-33.633
X-77.149 Y-33.774
X-77.293 Y-33.926
X-77.432 Y-34.09
X-77.564 Y-34.265
X-77.69 Y-34.45
X-77.807 Y-34.646
X-77.914 Y-34.849
X-78.003 Y-35.041
X-78.088 Y-35.255
X-78.159 Y-35.468
X-78.214 Y-35.667
X-78.261 Y-35.884
X-78.297 Y-36.103
X-78.318 Y-36.306
X-78.33 Y-36.518
X-78.329 Y-36.739
X-78.318 Y-36.941
X-78.295 Y-37.144
X-78.285 Y-37.203
X-78.183 Y-37.599
X-78.013 Y-37.971
X-77.781 Y-38.307
X-77.494 Y-38.598
X-77.16 Y-38.834
X-76.79 Y-39.008
X-76.396 Y-39.114
X-75.989 Y-39.15
X-74.623
G3 X-74.141 Y-39.036 I-0.044 J1.269
X-73.413 Y-37.679 I-0.527 J1.156
G1 X-74.018 Y-33.918
G3 X-75.227 Y-32.85 I-1.254 J-0.201
G1 X-76.484
X-76.648 Y-32.858
X-76.797 Y-32.874
X-76.945 Y-32.9
X-77.09 Y-32.936
X-77.233 Y-32.981
X-77.376 Y-33.036
X-77.522 Y-33.1
X-77.67 Y-33.175
X-77.819 Y-33.262
X-77.971 Y-33.361
X-78.122 Y-33.473
X-78.273 Y-33.597
X-78.421 Y-33.733
X-78.566 Y-33.88
X-78.705 Y-34.039
X-78.839 Y-34.209
X-78.966 Y-34.391
X-79.087 Y-34.584
X-79.198 Y-34.786
X-79.295 Y-34.986
X-79.38 Y-35.19
X-79.458 Y-35.412
X-79.519 Y-35.619
X-79.568 Y-35.825
X-79.609 Y-36.052
X-79.635 Y-36.261
X-79.649 Y-36.465
X-79.652 Y-36.69
X-79.644 Y-36.898
X-79.626 Y-37.095
X-79.526 Y-37.511
X-79.354 Y-37.903
X-79.115 Y-38.258
X-78.817 Y-38.565
X-78.469 Y-38.815
X-78.083 Y-38.999
X-77.67 Y-39.112
X-77.243 Y-39.15
X-75.989
G3 X-74.774 Y-37.715 I-0.044 J1.269
G1 X-75.27 Y-33.953
G3 X-76.484 Y-32.85 I-1.259 J-0.166
G1 X-77.815
X-77.965 Y-32.857
X-78.114 Y-32.873
X-78.261 Y-32.9
X-78.407 Y-32.936
X-78.55 Y-32.981
X-78.69 Y-33.035
X-78.836 Y-33.099
X-78.986 Y-33.175
X-79.137 Y-33.263
X-79.289 Y-33.362
X-79.44 Y-33.473
X-79.591 Y-33.597
X-79.741 Y-33.735
X-79.887 Y-33.884
X-80.027 Y-34.044
X-80.162 Y-34.215
X-80.29 Y-34.398
X-80.411 Y-34.591
X-80.52 Y-34.79
X-80.611 Y-34.979
X-80.699 Y-35.191
X-80.774 Y-35.402
X-80.832 Y-35.599
X-80.883 Y-35.813
X-80.922 Y-36.032
X-80.948 Y-36.235
X-80.962 Y-36.444
X-80.965 Y-36.667
X-80.957 Y-36.871
X-80.939 Y-37.07
X-80.906 Y-37.289
X-80.794 Y-37.671
X-80.618 Y-38.027
X-80.384 Y-38.349
X-80.098 Y-38.626
X-79.77 Y-38.85
X-79.408 Y-39.015
X-79.023 Y-39.116
X-78.627 Y-39.15
X-77.243
G3 X-76.761 Y-39.036 I-0.044 J1.269
X-76.032 Y-37.69 I-0.527 J1.156
G1 X-76.604 Y-33.928
G3 X-77.333 Y-32.964 I-1.256 J-0.191
X-77.815 Y-32.85 I-0.527 J-1.156
G1 X-79.149
X-79.299 Y-32.857
X-79.448 Y-32.875
X-79.595 Y-32.902
X-79.741 Y-32.94
X-79.883 Y-32.986
X-80.024 Y-33.04
X-80.169 Y-33.105
X-80.32 Y-33.183
X-80.471 Y-33.271
X-80.623 Y-33.372
X-80.773 Y-33.483
X-80.922 Y-33.607
X-81.07 Y-33.744
X-81.214 Y-33.894
X-81.354 Y-34.054
X-81.488 Y-34.226
X-81.614 Y-34.409
X-81.733 Y-34.602
X-81.843 Y-34.804
X-81.943 Y-35.013
X-82.024 Y-35.211
X-82.101 Y-35.432
X-82.163 Y-35.646
X-82.209 Y-35.847
X-82.248 Y-36.071
X-82.274 Y-36.287
X-82.287 Y-36.488
X-82.289 Y-36.709
X-82.279 Y-36.922
X-82.26 Y-37.118
X-82.159 Y-37.53
X-81.986 Y-37.918
X-81.748 Y-38.269
X-81.452 Y-38.572
X-81.107 Y-38.819
X-80.724 Y-39.001
X-80.314 Y-39.112
X-79.892 Y-39.15
X-78.627
G3 X-78.145 Y-39.036 I-0.044 J1.269
X-77.413 Y-37.706 I-0.527 J1.156
G1 X-77.936 Y-33.945
G3 X-78.667 Y-32.964 I-1.258 J-0.175
X-79.149 Y-32.85 I-0.527 J-1.156
G1 X-80.48
X-80.629 Y-32.857
X-80.778 Y-32.876
X-80.926 Y-32.904
X-81.071 Y-32.943
X-81.213 Y-32.989
X-81.354 Y-33.045
X-81.501 Y-33.112
X-81.652 Y-33.19
X-81.804 Y-33.281
X-81.956 Y-33.383
X-82.107 Y-33.496
X-82.257 Y-33.622
X-82.406 Y-33.762
X-82.551 Y-33.914
X-82.691 Y-34.077
X-82.825 Y-34.251
X-82.952 Y-34.436
X-83.071 Y-34.631
X-83.178 Y-34.831
X-83.267 Y-35.021
X-83.354 Y-35.236
X-83.426 Y-35.446
X-83.482 Y-35.643
X-83.531 Y-35.861
X-83.567 Y-36.079
X-83.59 Y-36.28
X-83.603 Y-36.493
X-83.604 Y-36.713
X-83.593 Y-36.915
X-83.572 Y-37.118
X-83.468 Y-37.53
X-83.294 Y-37.918
X-83.054 Y-38.269
X-82.756 Y-38.573
X-82.409 Y-38.819
X-82.024 Y-39.001
X-81.614 Y-39.112
X-81.19 Y-39.15
X-79.892
G3 X-79.409 Y-39.036 I-0.044 J1.269
X-78.681 Y-37.685 I-0.527 J1.156
G1 X-79.269 Y-33.923
G3 X-80.48 Y-32.85 I-1.255 J-0.196
G1 X-81.814
X-81.964 Y-32.857
X-82.112 Y-32.877
X-82.26 Y-32.907
X-82.404 Y-32.946
X-82.547 Y-32.993
X-82.689 Y-33.05
X-82.835 Y-33.117
X-82.986 Y-33.197
X-83.138 Y-33.288
X-83.289 Y-33.391
X-83.439 Y-33.505
X-83.589 Y-33.632
X-83.737 Y-33.772
X-83.881 Y-33.924
X-84.019 Y-34.087
X-84.152 Y-34.261
X-84.278 Y-34.446
X-84.395 Y-34.642
X-84.5 Y-34.841
X-84.588 Y-35.03
X-84.674 Y-35.246
X-84.745 Y-35.456
X-84.799 Y-35.653
X-84.847 Y-35.872
X-84.883 Y-36.089
X-84.905 Y-36.29
X-84.916 Y-36.504
Y-36.724
X-84.905 Y-36.926
X-84.883 Y-37.13
X-84.777 Y-37.54
X-84.602 Y-37.926
X-84.361 Y-38.275
X-84.063 Y-38.577
X-83.717 Y-38.822
X-83.334 Y-39.002
X-82.925 Y-39.113
X-82.502 Y-39.15
X-81.19
G3 X-80.708 Y-39.036 I-0.044 J1.269
X-79.982 Y-37.673 I-0.527 J1.156
G1 X-80.605 Y-33.911
G3 X-81.814 Y-32.85 I-1.253 J-0.208
G1 X-83.05
X-83.239 Y-32.859
X-83.388 Y-32.875
X-83.536 Y-32.901
X-83.681 Y-32.938
X-83.825 Y-32.983
X-83.967 Y-33.037
X-84.112 Y-33.101
X-84.26 Y-33.176
X-84.409 Y-33.263
X-84.56 Y-33.362
X-84.711 Y-33.473
X-84.862 Y-33.596
X-85.01 Y-33.732
X-85.154 Y-33.879
X-85.292 Y-34.037
X-85.426 Y-34.207
X-85.553 Y-34.389
X-85.673 Y-34.581
X-85.784 Y-34.783
X-85.877 Y-34.975
X-85.962 Y-35.179
X-86.038 Y-35.395
X-86.098 Y-35.597
X-86.146 Y-35.803
X-86.187 Y-36.026
X-86.212 Y-36.233
X-86.227 Y-36.436
X-86.23 Y-36.661
X-86.222 Y-36.869
X-86.203 Y-37.066
X-86.171 Y-37.285
X-86.058 Y-37.667
X-85.882 Y-38.025
X-85.647 Y-38.347
X-85.361 Y-38.624
X-85.031 Y-38.849
X-84.669 Y-39.015
X-84.283 Y-39.116
X-83.886 Y-39.15
X-82.502
G3 X-81.29 Y-37.698 I-0.044 J1.269
G1 X-81.838 Y-33.936
G3 X-83.05 Y-32.85 I-1.257 J-0.183
G1 X-84.364
X-84.552 Y-32.859
X-84.701 Y-32.875
X-84.849 Y-32.901
X-84.994 Y-32.938
X-85.137 Y-32.983
X-85.278 Y-33.036
X-85.423 Y-33.1
X-85.572 Y-33.176
X-85.722 Y-33.263
X-85.873 Y-33.361
X-86.023 Y-33.471
X-86.172 Y-33.594
X-86.32 Y-33.73
X-86.465 Y-33.878
X-86.605 Y-34.037
X-86.738 Y-34.207
X-86.866 Y-34.388
X-86.985 Y-34.58
X-87.096 Y-34.781
X-87.197 Y-34.99
X-87.28 Y-35.188
X-87.357 Y-35.406
X-87.421 Y-35.622
X-87.468 Y-35.824
X-87.508 Y-36.045
X-87.536 Y-36.263
X-87.55 Y-36.464
X-87.553 Y-36.683
X-87.545 Y-36.898
X-87.526 Y-37.096
X-87.426 Y-37.511
X-87.254 Y-37.903
X-87.015 Y-38.258
X-86.718 Y-38.565
X-86.37 Y-38.815
X-85.984 Y-38.999
X-85.571 Y-39.112
X-85.145 Y-39.15
X-83.886
G3 X-82.67 Y-37.721 I-0.044 J1.269
G1 X-83.148 Y-33.959
G3 X-84.364 Y-32.85 I-1.26 J-0.16
G1 X-85.506
X-85.715 Y-32.849
X-85.865 Y-32.856
X-86.014 Y-32.872
X-86.162 Y-32.898
X-86.307 Y-32.935
X-86.45 Y-32.98
X-86.59 Y-33.033
X-86.737 Y-33.098
X-86.887 Y-33.174
X-87.038 Y-33.262
X-87.19 Y-33.361
X-87.341 Y-33.472
X-87.492 Y-33.596
X-87.641 Y-33.733
X-87.787 Y-33.883
X-87.928 Y-34.043
X-88.063 Y-34.215
X-88.191 Y-34.397
X-88.311 Y-34.591
X-88.421 Y-34.79
X-88.512 Y-34.979
X-88.6 Y-35.191
X-88.675 Y-35.402
X-88.733 Y-35.6
X-88.784 Y-35.814
X-88.823 Y-36.033
X-88.849 Y-36.236
X-88.863 Y-36.445
X-88.866 Y-36.667
X-88.858 Y-36.872
X-88.84 Y-37.071
X-88.738 Y-37.492
X-88.564 Y-37.888
X-88.322 Y-38.248
X-88.021 Y-38.558
X-87.669 Y-38.811
X-87.278 Y-38.997
X-86.86 Y-39.112
X-86.429 Y-39.15
X-85.145
G3 X-84.663 Y-39.036 I-0.044 J1.269
X-83.934 Y-37.689 I-0.527 J1.156
G1 X-84.508 Y-33.926
G3 X-85.715 Y-32.849 I-1.255 J-0.192
G1 X-86.267 Y-32.847
X-86.648 Y-32.817
X-86.857 Y-32.798
X-87.007 Y-32.791
X-87.157 Y-32.797
X-87.306 Y-32.815
X-87.453 Y-32.843
X-87.599 Y-32.879
X-87.742 Y-32.925
X-87.887 Y-32.98
X-88.036 Y-33.046
X-88.189 Y-33.124
X-88.343 Y-33.213
X-88.496 Y-33.314
X-88.65 Y-33.427
X-88.802 Y-33.553
X-88.954 Y-33.692
X-89.1 Y-33.842
X-89.242 Y-34.003
X-89.378 Y-34.176
X-89.506 Y-34.36
X-89.627 Y-34.554
X-89.738 Y-34.755
X-89.829 Y-34.945
X-89.917 Y-35.157
X-89.993 Y-35.371
X-90.051 Y-35.57
X-90.102 Y-35.784
X-90.142 Y-36.005
X-90.167 Y-36.21
X-90.181 Y-36.419
X-90.185 Y-36.644
X-90.176 Y-36.851
X-90.158 Y-37.051
X-90.148 Y-37.118
X-90.048 Y-37.529
X-89.877 Y-37.917
X-89.641 Y-38.268
X-89.346 Y-38.572
X-89.002 Y-38.819
X-88.62 Y-39.001
X-88.211 Y-39.112
X-87.79 Y-39.15
X-86.429
G3 X-85.216 Y-37.701 I-0.044 J1.269
G1 X-85.762 Y-33.878
G3 X-86.857 Y-32.798 I-1.257 J-0.179
G1 X-87.028 Y-32.782
X-87.409 Y-32.72
X-87.79 Y-32.635
X-87.937 Y-32.608
X-88.087 Y-32.595
X-88.237
X-88.386 Y-32.605
X-88.535 Y-32.625
X-88.682 Y-32.655
X-88.827 Y-32.693
X-88.978 Y-32.741
X-89.135 Y-32.801
X-89.294 Y-32.871
X-89.454 Y-32.953
X-89.615 Y-33.047
X-89.778 Y-33.154
X-89.94 Y-33.273
X-90.101 Y-33.406
X-90.258 Y-33.55
X-90.41 Y-33.707
X-90.557 Y-33.874
X-90.697 Y-34.053
X-90.831 Y-34.244
X-90.956 Y-34.445
X-91.071 Y-34.656
X-91.17 Y-34.861
X-91.26 Y-35.078
X-91.34 Y-35.305
X-91.402 Y-35.517
X-91.453 Y-35.734
X-91.494 Y-35.966
X-91.521 Y-36.18
X-91.535 Y-36.392
X-91.538 Y-36.623
X-91.529 Y-36.836
X-91.51 Y-37.039
X-91.422 Y-37.42
X-91.275 Y-37.783
X-91.072 Y-38.117
X-90.82 Y-38.416
X-90.523 Y-38.671
X-90.19 Y-38.877
X-89.829 Y-39.027
X-89.449 Y-39.119
X-89.059 Y-39.15
X-87.79
G3 X-87.307 Y-39.036 I-0.044 J1.269
X-86.567 Y-37.788 I-0.527 J1.156
G1 X-86.863 Y-33.766
G3 X-87.79 Y-32.635 I-1.267 J-0.093
G1 X-88.17 Y-32.544
X-88.551 Y-32.405
X-88.62 Y-32.378
X-88.763 Y-32.332
X-88.909 Y-32.297
X-89.057 Y-32.276
X-89.207 Y-32.265
X-89.357
X-89.506 Y-32.275
X-89.655 Y-32.294
X-89.808 Y-32.322
X-89.966 Y-32.36
X-90.127 Y-32.408
X-90.295 Y-32.468
X-90.468 Y-32.541
X-90.643 Y-32.626
X-90.819 Y-32.723
X-90.994 Y-32.833
X-91.17 Y-32.957
X-91.343 Y-33.094
X-91.513 Y-33.244
X-91.68 Y-33.409
X-91.841 Y-33.585
X-91.994 Y-33.772
X-92.139 Y-33.971
X-92.276 Y-34.181
X-92.402 Y-34.401
X-92.514 Y-34.622
X-92.608 Y-34.836
X-92.697 Y-35.073
X-92.767 Y-35.296
X-92.825 Y-35.519
X-92.872 Y-35.757
X-92.904 Y-35.977
X-92.924 Y-36.207
X-92.932 Y-36.438
X-92.928 Y-36.652
X-92.911 Y-36.882
X-92.882 Y-37.104
X-92.876 Y-37.135
X-92.763 Y-37.546
X-92.58 Y-37.932
X-92.333 Y-38.28
X-92.03 Y-38.58
X-91.679 Y-38.824
X-91.292 Y-39.003
X-90.88 Y-39.113
X-90.455 Y-39.15
X-89.059
G3 X-88.577 Y-39.036 I-0.044 J1.269
X-87.833 Y-37.877 I-0.527 J1.156
G1 X-87.847 Y-33.543
G3 X-88.62 Y-32.378 I-1.27 J-0.004
G1 X-88.779 Y-32.317
X-88.932 Y-32.256
X-89.379 Y-32.018
X-89.515 Y-31.954
X-89.655 Y-31.899
X-89.799 Y-31.857
X-89.945 Y-31.826
X-90.094 Y-31.805
X-90.243 Y-31.794
X-90.393 Y-31.793
X-90.547 Y-31.799
X-90.706 Y-31.815
X-90.873 Y-31.84
X-91.048 Y-31.877
X-91.23 Y-31.926
X-91.415 Y-31.986
X-91.603 Y-32.058
X-91.795 Y-32.145
X-91.99 Y-32.246
X-92.186 Y-32.361
X-92.38 Y-32.49
X-92.572 Y-32.632
X-92.759 Y-32.788
X-92.941 Y-32.957
X-93.118 Y-33.14
X-93.287 Y-33.336
X-93.449 Y-33.544
X-93.601 Y-33.764
X-93.742 Y-33.994
X-93.873 Y-34.235
X-93.991 Y-34.485
X-94.09 Y-34.726
X-94.175 Y-34.97
X-94.25 Y-35.23
X-94.304 Y-35.468
X-94.347 Y-35.712
X-94.377 Y-35.966
X-94.391 Y-36.198
X-94.393 Y-36.436
X-94.382 Y-36.682
X-94.36 Y-36.905
X-94.325 Y-37.131
X-94.276 Y-37.365
X-94.143 Y-37.736
X-93.951 Y-38.08
X-93.707 Y-38.388
X-93.415 Y-38.652
X-93.084 Y-38.866
X-92.723 Y-39.022
X-92.341 Y-39.118
X-91.949 Y-39.15
X-90.455
G3 X-89.235 Y-38.01 I-0.044 J1.269
G1 X-88.75 Y-33.247
G3 X-89.006 Y-32.344 I-1.263 J0.129
X-89.379 Y-32.018 I-1.007 J-0.774
G1 X-89.693 Y-31.851
X-90.074 Y-31.608
X-90.111 Y-31.579
X-90.234 Y-31.494
X-90.365 Y-31.419
X-90.501 Y-31.357
X-90.642 Y-31.305
X-90.786 Y-31.265
X-90.933 Y-31.233
X-91.081 Y-31.211
X-91.234 Y-31.197
X-91.394 Y-31.19
X-91.563 Y-31.193
X-91.742 Y-31.205
X-91.929 Y-31.229
X-92.122 Y-31.263
X-92.32 Y-31.31
X-92.524 Y-31.37
X-92.735 Y-31.445
X-92.95 Y-31.534
X-93.165 Y-31.638
X-93.38 Y-31.756
X-93.596 Y-31.891
X-93.811 Y-32.041
X-94.022 Y-32.207
X-94.23 Y-32.39
X-94.43 Y-32.586
X-94.622 Y-32.795
X-94.805 Y-33.018
X-94.978 Y-33.253
X-95.139 Y-33.499
X-95.288 Y-33.756
X-95.424 Y-34.023
X-95.546 Y-34.298
X-95.653 Y-34.58
X-95.743 Y-34.862
X-95.812 Y-35.127
X-95.87 Y-35.413
X-95.908 Y-35.674
X-95.932 Y-35.936
X-95.942 Y-36.203
X-95.938 Y-36.445
X-95.92 Y-36.701
X-95.889 Y-36.947
X-95.848 Y-37.172
X-95.79 Y-37.415
X-95.651 Y-37.777
X-95.455 Y-38.112
X-95.208 Y-38.412
X-94.917 Y-38.668
X-94.588 Y-38.875
X-94.231 Y-39.026
X-93.854 Y-39.119
X-93.467 Y-39.15
X-91.949
G3 X-91.466 Y-39.036 I-0.044 J1.269
X-90.748 Y-38.131 I-0.527 J1.156
G1 X-89.677 Y-32.807
G3 X-90.111 Y-31.579 I-1.245 J0.25
G1 X-90.635 Y-31.175
X-90.835 Y-30.988
X-90.949 Y-30.891
X-91.072 Y-30.805
X-91.202 Y-30.73
X-91.337 Y-30.665
X-91.477 Y-30.609
X-91.619 Y-30.562
X-91.764 Y-30.524
X-91.92 Y-30.492
X-92.087 Y-30.467
X-92.262 Y-30.45
X-92.446 Y-30.443
X-92.641 Y-30.446
X-92.848 Y-30.46
X-93.061 Y-30.486
X-93.279 Y-30.525
X-93.505 Y-30.578
X-93.739 Y-30.646
X-93.978 Y-30.731
X-94.219 Y-30.831
X-94.46 Y-30.947
X-94.703 Y-31.08
X-94.945 Y-31.23
X-95.187 Y-31.4
X-95.427 Y-31.587
X-95.66 Y-31.791
X-95.885 Y-32.011
X-96.102 Y-32.246
X-96.308 Y-32.496
X-96.501 Y-32.759
X-96.682 Y-33.034
X-96.848 Y-33.321
X-96.999 Y-33.616
X-97.135 Y-33.92
X-97.253 Y-34.232
X-97.354 Y-34.548
X-97.436 Y-34.859
X-97.496 Y-35.152
X-97.541 Y-35.461
X-97.567 Y-35.737
X-97.578 Y-36.025
X-97.574 Y-36.301
X-97.556 Y-36.556
X-97.522 Y-36.829
X-97.478 Y-37.076
X-97.42 Y-37.317
X-97.273 Y-37.699
X-97.067 Y-38.054
X-96.807 Y-38.37
X-96.499 Y-38.641
X-96.153 Y-38.859
X-95.775 Y-39.019
X-95.377 Y-39.117
X-94.969 Y-39.15
X-93.467
G3 X-92.985 Y-39.036 I-0.044 J1.269
X-92.293 Y-38.241 I-0.527 J1.156
G1 X-90.521 Y-32.241
G3 X-90.835 Y-30.988 I-1.218 J0.36
G1 X-91.041 Y-30.794
X-91.379 Y-30.413
X-91.415 Y-30.369
X-91.516 Y-30.258
X-91.625 Y-30.154
X-91.742 Y-30.061
X-91.866 Y-29.977
X-91.996 Y-29.902
X-92.13 Y-29.834
X-92.268 Y-29.775
X-92.415 Y-29.722
X-92.575 Y-29.673
X-92.75 Y-29.629
X-92.933 Y-29.594
X-92.944 Y-29.593
X-93.404 Y-29.564
X-93.864 Y-29.599
X-94.314 Y-29.697
X-94.747 Y-29.858
X-95.152 Y-30.077
X-95.523 Y-30.351
X-95.853 Y-30.674
G3 X-95.171 Y-34.592 I2.018 J-1.667
X-91.415 Y-30.369 I1.469 J2.476
G1 X-91.597 Y-30.148
X-91.683 Y-30.032
X-91.923 Y-29.651
X-92.006 Y-29.527
X-92.102 Y-29.411
X-92.207 Y-29.304
X-92.512 Y-29.089
X-92.853 Y-28.936
X-93.216 Y-28.851
X-93.589 Y-28.836
X-93.958 Y-28.892
X-94.31 Y-29.017
X-94.631 Y-29.206
X-94.911 Y-29.453
X-95.139 Y-29.749
G3 X-94.998 Y-31.699 I1.501 J-0.871
X-91.743 Y-30.115 I1.452 J1.152
X-91.923 Y-29.651 I-1.802 J-0.432
G1 X-92.151 Y-29.27
X-92.339 Y-28.93
X-92.418 Y-28.803
X-92.512 Y-28.685
X-92.617 Y-28.579
X-92.734 Y-28.485
X-92.859 Y-28.401
X-92.99 Y-28.329
X-93.003 Y-28.323
X-93.287 Y-28.232
X-93.584 Y-28.204
X-93.881 Y-28.24
G3 X-94.294 Y-28.515 I0.604 J-1.352
X-94.628 Y-28.987 I1.017 J-1.077
X-92.312 Y-30.024 I1.158 J-0.519
X-92.339 Y-28.93 I-1.158 J0.519
G1 X-92.413 Y-28.794
X-92.477 Y-28.699
X-92.554 Y-28.604
X-92.649 Y-28.509
X-92.739 Y-28.435
X-92.834 Y-28.37
X-92.929 Y-28.317
X-93.119 Y-28.24
X-93.31 Y-28.196
X-93.5 Y-28.181
X-93.69 Y-28.196
X-93.881 Y-28.24
X-94.071 Y-28.317
X-94.166 Y-28.37
X-94.261 Y-28.435
X-94.351 Y-28.509
X-94.446 Y-28.604
X-94.523 Y-28.699
X-94.587 Y-28.794
X-94.642 Y-28.896
X-94.646 Y-28.907
G2 X-94.729 Y-29.169 I-3.035 J0.819
X-94.818 Y-29.361 I-1.193 J0.436
X-94.867 Y-29.44 I-1.104 J0.629
G1 X-95.365 Y-30.182
G2 X-95.42 Y-30.257 I-1.054 J0.708
X-95.564 Y-30.413 I-0.999 J0.784
X-95.775 Y-30.588 I-2.117 J2.324
G1 X-95.784 Y-30.597
X-95.959 Y-30.794
X-96.165 Y-30.988
X-96.365 Y-31.175
X-96.926 Y-31.608
X-96.961 Y-31.63
X-97.083 Y-31.717
X-97.282 Y-31.88
X-97.482 Y-32.063
X-97.677 Y-32.261
X-97.866 Y-32.476
X-98.047 Y-32.706
X-98.219 Y-32.95
X-98.382 Y-33.209
X-98.532 Y-33.481
X-98.67 Y-33.764
X-98.793 Y-34.059
X-98.901 Y-34.361
X-98.993 Y-34.67
X-99.06 Y-34.954
X-99.115 Y-35.256
X-99.152 Y-35.542
X-99.171 Y-35.812
X-99.176 Y-36.1
X-99.166 Y-36.361
X-99.142 Y-36.624
X-99.104 Y-36.888
X-99.055 Y-37.126
X-99.029 Y-37.229
X-98.89 Y-37.627
X-98.687 Y-37.997
X-98.427 Y-38.329
X-98.115 Y-38.614
X-97.762 Y-38.843
X-97.375 Y-39.012
X-96.966 Y-39.115
X-96.545 Y-39.15
X-94.969
G3 X-94.487 Y-39.036 I-0.044 J1.269
X-93.782 Y-37.57 I-0.527 J1.156
G1 X-95.083 Y-32.413
G3 X-96.961 Y-31.63 I-1.231 J-0.311
G1 X-97.307 Y-31.851
X-98.068 Y-32.256
X-98.221 Y-32.317
X-98.29 Y-32.344
X-98.427 Y-32.405
X-98.56 Y-32.473
X-98.691 Y-32.549
X-98.832 Y-32.642
X-98.975 Y-32.748
X-99.118 Y-32.866
X-99.264 Y-33.001
X-99.411 Y-33.153
X-99.555 Y-33.318
X-99.694 Y-33.497
X-99.829 Y-33.69
X-99.957 Y-33.898
X-100.078 Y-34.12
X-100.19 Y-34.354
X-100.291 Y-34.599
X-100.378 Y-34.846
X-100.448 Y-35.088
X-100.51 Y-35.354
X-100.553 Y-35.6
X-100.582 Y-35.843
X-100.599 Y-36.102
X-100.602 Y-36.338
X-100.592 Y-36.579
X-100.568 Y-36.826
X-100.534 Y-37.05
X-100.485 Y-37.283
X-100.347 Y-37.67
X-100.148 Y-38.03
X-99.893 Y-38.353
X-99.589 Y-38.629
X-99.243 Y-38.852
X-98.866 Y-39.016
X-98.467 Y-39.116
X-98.057 Y-39.15
X-96.545
G3 X-96.063 Y-39.036 I-0.044 J1.269
X-95.372 Y-37.52 I-0.527 J1.156
G1 X-96.658 Y-33.183
G3 X-98.29 Y-32.344 I-1.218 J-0.361
G1 X-98.449 Y-32.405
X-98.83 Y-32.544
X-99.21 Y-32.635
X-99.433 Y-32.685
X-99.578 Y-32.725
X-99.72 Y-32.774
X-99.858 Y-32.832
X-99.993 Y-32.898
X-100.126 Y-32.974
X-100.263 Y-33.062
X-100.401 Y-33.162
X-100.541 Y-33.274
X-100.682 Y-33.402
X-100.822 Y-33.543
X-100.959 Y-33.697
X-101.092 Y-33.863
X-101.219 Y-34.041
X-101.341 Y-34.233
X-101.456 Y-34.438
X-101.562 Y-34.654
X-101.659 Y-34.881
X-101.738 Y-35.1
X-101.805 Y-35.321
X-101.864 Y-35.56
X-101.905 Y-35.78
X-101.935 Y-36.006
X-101.954 Y-36.243
X-101.959 Y-36.459
X-101.952 Y-36.686
X-101.932 Y-36.915
X-101.903 Y-37.124
X-101.859 Y-37.345
X-101.731 Y-37.719
X-101.543 Y-38.066
X-101.3 Y-38.378
X-101.01 Y-38.646
X-100.679 Y-38.862
X-100.317 Y-39.02
X-99.934 Y-39.117
X-99.54 Y-39.15
X-98.057
G3 X-97.575 Y-39.036 I-0.044 J1.269
X-96.878 Y-37.54 I-0.527 J1.156
G1 X-97.977 Y-33.593
G3 X-99.433 Y-32.685 I-1.223 J-0.341
G1 X-99.591 Y-32.72
X-99.972 Y-32.782
X-100.352 Y-32.817
X-100.467 Y-32.826
X-100.616 Y-32.845
X-100.763 Y-32.874
X-100.908 Y-32.914
X-101.049 Y-32.964
X-101.188 Y-33.023
X-101.322 Y-33.089
X-101.461 Y-33.168
X-101.603 Y-33.258
X-101.745 Y-33.36
X-101.887 Y-33.474
X-102.028 Y-33.6
X-102.169 Y-33.741
X-102.307 Y-33.894
X-102.439 Y-34.059
X-102.566 Y-34.235
X-102.685 Y-34.422
X-102.798 Y-34.62
X-102.902 Y-34.829
X-102.996 Y-35.048
X-103.072 Y-35.254
X-103.14 Y-35.477
X-103.196 Y-35.7
X-103.236 Y-35.908
X-103.266 Y-36.135
X-103.285 Y-36.357
X-103.29 Y-36.563
X-103.284 Y-36.788
X-103.266 Y-37.004
X-103.239 Y-37.203
X-103.126 Y-37.601
X-102.947 Y-37.974
X-102.706 Y-38.31
X-102.411 Y-38.6
X-102.07 Y-38.835
X-101.695 Y-39.008
X-101.295 Y-39.114
X-100.883 Y-39.15
X-99.54
G3 X-99.058 Y-39.036 I-0.044 J1.269
X-98.344 Y-37.609 I-0.527 J1.156
G1 X-99.173 Y-33.823
G3 X-100.467 Y-32.826 I-1.241 J-0.272
G1 X-100.733 Y-32.847
X-101.558 Y-32.85
X-101.708 Y-32.857
X-101.856 Y-32.875
X-102.004 Y-32.904
X-102.148 Y-32.944
X-102.29 Y-32.992
X-102.429 Y-33.049
X-102.572 Y-33.116
X-102.717 Y-33.195
X-102.862 Y-33.284
X-103.01 Y-33.386
X-103.159 Y-33.501
X-103.306 Y-33.629
X-103.451 Y-33.768
X-103.592 Y-33.92
X-103.728 Y-34.083
X-103.858 Y-34.257
X-103.981 Y-34.443
X-104.098 Y-34.641
X-104.205 Y-34.848
X-104.295 Y-35.046
X-104.375 Y-35.253
X-104.447 Y-35.473
X-104.502 Y-35.678
X-104.546 Y-35.888
X-104.58 Y-36.113
X-104.601 Y-36.321
X-104.61 Y-36.528
X-104.608 Y-36.752
X-104.594 Y-36.959
X-104.571 Y-37.159
X-104.561 Y-37.212
X-104.456 Y-37.606
X-104.284 Y-37.977
X-104.05 Y-38.312
X-103.762 Y-38.601
X-103.427 Y-38.836
X-103.057 Y-39.008
X-102.663 Y-39.114
X-102.256 Y-39.15
X-100.883
G3 X-99.677 Y-37.657 I-0.044 J1.269
G1 X-100.35 Y-33.895
G3 X-101.558 Y-32.85 I-1.25 J-0.224
G1 X-102.846
X-102.996 Y-32.857
X-103.144 Y-32.877
X-103.291 Y-32.907
X-103.436 Y-32.946
X-103.578 Y-32.995
X-103.719 Y-33.052
X-103.866 Y-33.12
X-104.014 Y-33.2
X-104.164 Y-33.291
X-104.314 Y-33.394
X-104.464 Y-33.509
X-104.612 Y-33.637
X-104.76 Y-33.778
X-104.902 Y-33.93
X-105.04 Y-34.093
X-105.171 Y-34.268
X-105.295 Y-34.454
X-105.412 Y-34.65
X-105.519 Y-34.855
X-105.609 Y-35.052
X-105.693 Y-35.266
X-105.765 Y-35.485
X-105.82 Y-35.688
X-105.866 Y-35.904
X-105.901 Y-36.126
X-105.922 Y-36.332
X-105.932 Y-36.544
X-105.931 Y-36.766
X-105.919 Y-36.969
X-105.895 Y-37.171
X-105.79 Y-37.574
X-105.616 Y-37.952
X-105.378 Y-38.294
X-105.085 Y-38.589
X-104.744 Y-38.829
X-104.367 Y-39.005
X-103.965 Y-39.114
X-103.551 Y-39.15
X-102.256
G3 X-101.773 Y-39.036 I-0.044 J1.269
X-101.045 Y-37.684 I-0.527 J1.156
G1 X-101.635 Y-33.922
G3 X-102.846 Y-32.85 I-1.255 J-0.197
G1 X-104.082
X-104.253 Y-32.859
X-104.403 Y-32.874
X-104.55 Y-32.901
X-104.696 Y-32.937
X-104.839 Y-32.982
X-104.981 Y-33.036
X-105.126 Y-33.101
X-105.274 Y-33.176
X-105.423 Y-33.263
X-105.575 Y-33.363
X-105.727 Y-33.475
X-105.878 Y-33.599
X-106.026 Y-33.735
X-106.171 Y-33.884
X-106.31 Y-34.043
X-106.444 Y-34.214
X-106.573 Y-34.397
X-106.693 Y-34.591
X-106.805 Y-34.795
X-106.899 Y-34.991
X-106.983 Y-35.193
X-107.06 Y-35.412
X-107.12 Y-35.616
X-107.168 Y-35.82
X-107.208 Y-36.045
X-107.234 Y-36.253
X-107.248 Y-36.455
X-107.251 Y-36.68
X-107.242 Y-36.888
X-107.227 Y-37.052
X-107.16 Y-37.426
X-107.033 Y-37.783
X-106.85 Y-38.116
X-106.615 Y-38.413
X-106.334 Y-38.669
X-106.015 Y-38.875
X-105.667 Y-39.026
X-105.299 Y-39.119
X-104.921 Y-39.15
X-103.551
G3 X-103.068 Y-39.036 I-0.044 J1.269
X-102.338 Y-37.703 I-0.527 J1.156
G1 X-102.869 Y-33.942
G3 X-103.6 Y-32.964 I-1.258 J-0.178
X-104.082 Y-32.85 I-0.527 J-1.156
G1 X-105.416
X-105.566 Y-32.857
X-105.715 Y-32.873
X-105.863 Y-32.9
X-106.009 Y-32.936
X-106.152 Y-32.981
X-106.292 Y-33.035
X-106.439 Y-33.099
X-106.588 Y-33.175
X-106.739 Y-33.263
X-106.89 Y-33.362
X-107.041 Y-33.472
X-107.191 Y-33.596
X-107.34 Y-33.732
X-107.486 Y-33.881
X-107.626 Y-34.04
X-107.76 Y-34.211
X-107.887 Y-34.393
X-108.007 Y-34.585
X-108.115 Y-34.78
X-108.217 Y-34.992
X-108.306 Y-35.205
X-108.377 Y-35.405
X-108.442 Y-35.626
X-108.493 Y-35.842
X-108.529 Y-36.044
X-108.557 Y-36.268
X-108.572 Y-36.481
X-108.575 Y-36.683
X-108.567 Y-36.904
X-108.547 Y-37.111
X-108.448 Y-37.524
X-108.277 Y-37.913
X-108.04 Y-38.265
X-107.744 Y-38.57
X-107.399 Y-38.818
X-107.016 Y-39
X-106.606 Y-39.112
X-106.183 Y-39.15
X-104.921
G3 X-103.706 Y-37.715 I-0.044 J1.269
G1 X-104.202 Y-33.953
G3 X-105.416 Y-32.85 I-1.259 J-0.166
G1 X-106.747
X-106.897 Y-32.857
X-107.046 Y-32.874
X-107.193 Y-32.902
X-107.339 Y-32.939
X-107.481 Y-32.985
X-107.622 Y-33.039
X-107.768 Y-33.104
X-107.919 Y-33.182
X-108.071 Y-33.271
X-108.223 Y-33.371
X-108.374 Y-33.484
X-108.525 Y-33.609
X-108.674 Y-33.747
X-108.82 Y-33.897
X-108.961 Y-34.059
X-109.096 Y-34.232
X-109.223 Y-34.416
X-109.343 Y-34.61
X-109.452 Y-34.81
X-109.542 Y-35
X-109.63 Y-35.214
X-109.704 Y-35.425
X-109.761 Y-35.622
X-109.811 Y-35.839
X-109.85 Y-36.057
X-109.874 Y-36.259
X-109.888 Y-36.471
X-109.89 Y-36.692
X-109.881 Y-36.895
X-109.862 Y-37.096
X-109.828 Y-37.314
X-109.715 Y-37.691
X-109.54 Y-38.043
X-109.307 Y-38.36
X-109.024 Y-38.633
X-108.699 Y-38.854
X-108.341 Y-39.017
X-107.96 Y-39.116
X-107.569 Y-39.15
X-106.183
G3 X-105.701 Y-39.036 I-0.044 J1.269
X-104.972 Y-37.693 I-0.527 J1.156
G1 X-105.535 Y-33.931
G3 X-106.265 Y-32.964 I-1.256 J-0.188
X-106.747 Y-32.85 I-0.527 J-1.156
G1 X-108.081
X-108.231 Y-32.857
X-108.38 Y-32.876
X-108.527 Y-32.904
X-108.672 Y-32.942
X-108.815 Y-32.989
X-108.956 Y-33.044
X-109.102 Y-33.11
X-109.253 Y-33.189
X-109.405 Y-33.278
X-109.557 Y-33.38
X-109.707 Y-33.492
X-109.856 Y-33.618
X-110.005 Y-33.756
X-110.149 Y-33.907
X-110.289 Y-34.068
X-110.422 Y-34.242
X-110.549 Y-34.426
X-110.667 Y-34.62
X-110.777 Y-34.823
X-110.876 Y-35.033
X-110.956 Y-35.232
X-111.032 Y-35.453
X-111.094 Y-35.668
X-111.139 Y-35.87
X-111.177 Y-36.094
X-111.202 Y-36.31
X-111.214 Y-36.511
X-111.216 Y-36.732
X-111.205 Y-36.944
X-111.185 Y-37.14
X-111.083 Y-37.548
X-110.911 Y-37.932
X-110.674 Y-38.279
X-110.38 Y-38.579
X-110.038 Y-38.823
X-109.658 Y-39.003
X-109.252 Y-39.113
X-108.833 Y-39.15
X-107.569
G3 X-106.355 Y-37.709 I-0.044 J1.269
G1 X-106.867 Y-33.948
G3 X-107.599 Y-32.964 I-1.258 J-0.171
X-108.081 Y-32.85 I-0.527 J-1.156
G1 X-109.412
X-109.561 Y-32.857
X-109.71 Y-32.876
X-109.857 Y-32.906
X-110.002 Y-32.944
X-110.145 Y-32.992
X-110.286 Y-33.048
X-110.434 Y-33.116
X-110.585 Y-33.195
X-110.737 Y-33.286
X-110.89 Y-33.389
X-111.041 Y-33.504
X-111.192 Y-33.631
X-111.341 Y-33.772
X-111.486 Y-33.925
X-111.626 Y-34.088
X-111.76 Y-34.263
X-111.886 Y-34.449
X-112.005 Y-34.646
X-112.112 Y-34.847
X-112.201 Y-35.037
X-112.287 Y-35.253
X-112.358 Y-35.464
X-112.414 Y-35.662
X-112.462 Y-35.88
X-112.498 Y-36.097
X-112.52 Y-36.299
X-112.532 Y-36.512
Y-36.732
X-112.522 Y-36.933
X-112.5 Y-37.137
X-112.396 Y-37.546
X-112.221 Y-37.93
X-111.982 Y-38.278
X-111.686 Y-38.579
X-111.342 Y-38.823
X-110.96 Y-39.003
X-110.552 Y-39.113
X-110.132 Y-39.15
X-108.833
G3 X-107.622 Y-37.688 I-0.044 J1.269
G1 X-108.201 Y-33.926
G3 X-108.929 Y-32.964 I-1.255 J-0.193
X-109.412 Y-32.85 I-0.527 J-1.156
G1 X-110.694
X-110.844 Y-32.857
X-110.993 Y-32.873
X-111.141 Y-32.9
X-111.286 Y-32.936
X-111.429 Y-32.981
X-111.573 Y-33.035
X-111.719 Y-33.099
X-111.867 Y-33.175
X-112.017 Y-33.262
X-112.169 Y-33.361
X-112.321 Y-33.472
X-112.473 Y-33.596
X-112.621 Y-33.732
X-112.766 Y-33.88
X-112.905 Y-34.039
X-113.039 Y-34.209
X-113.167 Y-34.391
X-113.288 Y-34.583
X-113.399 Y-34.786
X-113.492 Y-34.978
X-113.578 Y-35.182
X-113.655 Y-35.399
X-113.714 Y-35.6
X-113.763 Y-35.806
X-113.804 Y-36.03
X-113.83 Y-36.237
X-113.844 Y-36.44
X-113.848 Y-36.664
X-113.84 Y-36.872
X-113.821 Y-37.068
X-113.72 Y-37.49
X-113.546 Y-37.887
X-113.305 Y-38.246
X-113.003 Y-38.558
X-112.651 Y-38.811
X-112.26 Y-38.997
X-111.842 Y-39.111
X-111.41 Y-39.15
X-110.132
G3 X-109.65 Y-39.036 I-0.044 J1.269
X-108.92 Y-37.693 I-0.527 J1.156
G1 X-109.482 Y-33.931
G3 X-110.694 Y-32.85 I-1.256 J-0.188
G1 X-111.982
X-112.164 Y-32.859
X-112.313 Y-32.875
X-112.46 Y-32.901
X-112.606 Y-32.937
X-112.749 Y-32.982
X-112.89 Y-33.035
X-113.035 Y-33.099
X-113.184 Y-33.175
X-113.335 Y-33.262
X-113.486 Y-33.361
X-113.636 Y-33.471
X-113.786 Y-33.594
X-113.935 Y-33.73
X-114.08 Y-33.878
X-114.22 Y-34.037
X-114.354 Y-34.207
X-114.482 Y-34.388
X-114.601 Y-34.58
X-114.71 Y-34.777
X-114.801 Y-34.964
X-114.889 Y-35.176
X-114.964 Y-35.386
X-115.022 Y-35.582
X-115.073 Y-35.796
X-115.112 Y-36.015
X-115.138 Y-36.218
X-115.153 Y-36.426
X-115.156 Y-36.649
X-115.149 Y-36.854
X-115.13 Y-37.053
X-115.098 Y-37.273
X-114.985 Y-37.658
X-114.808 Y-38.018
X-114.572 Y-38.342
X-114.284 Y-38.621
X-113.953 Y-38.847
X-113.589 Y-39.014
X-113.201 Y-39.116
X-112.802 Y-39.15
X-111.41
G3 X-110.199 Y-37.69 I-0.044 J1.269
G1 X-110.771 Y-33.928
G3 X-111.5 Y-32.964 I-1.256 J-0.191
X-111.982 Y-32.85 I-0.527 J-1.156
G1 X-113.296
X-113.48 Y-32.859
X-113.629 Y-32.875
X-113.776 Y-32.901
X-113.922 Y-32.937
X-114.065 Y-32.982
X-114.206 Y-33.035
X-114.35 Y-33.099
X-114.499 Y-33.175
X-114.649 Y-33.262
X-114.8 Y-33.36
X-114.949 Y-33.47
X-115.098 Y-33.592
X-115.246 Y-33.727
X-115.391 Y-33.875
X-115.53 Y-34.033
X-115.664 Y-34.203
X-115.791 Y-34.384
X-115.91 Y-34.575
X-116.021 Y-34.776
X-116.122 Y-34.985
X-116.204 Y-35.182
X-116.282 Y-35.4
X-116.345 Y-35.615
X-116.393 Y-35.817
X-116.433 Y-36.038
X-116.46 Y-36.256
X-116.474 Y-36.457
X-116.478 Y-36.676
X-116.47 Y-36.891
X-116.451 Y-37.089
X-116.351 Y-37.506
X-116.179 Y-37.899
X-115.939 Y-38.255
X-115.641 Y-38.563
X-115.292 Y-38.814
X-114.905 Y-38.999
X-114.491 Y-39.112
X-114.064 Y-39.15
X-112.802
G3 X-111.587 Y-37.715 I-0.044 J1.269
G1 X-112.081 Y-33.954
G3 X-113.296 Y-32.85 I-1.259 J-0.165
G1 X-114.647
X-114.797 Y-32.857
X-114.946 Y-32.874
X-115.094 Y-32.9
X-115.239 Y-32.937
X-115.382 Y-32.982
X-115.522 Y-33.036
X-115.668 Y-33.101
X-115.818 Y-33.177
X-115.969 Y-33.265
X-116.121 Y-33.365
X-116.272 Y-33.476
X-116.422 Y-33.6
X-116.571 Y-33.737
X-116.716 Y-33.886
X-116.857 Y-34.047
X-116.991 Y-34.219
X-117.119 Y-34.401
X-117.239 Y-34.595
X-117.348 Y-34.793
X-117.438 Y-34.981
X-117.527 Y-35.194
X-117.601 Y-35.405
X-117.659 Y-35.602
X-117.709 Y-35.817
X-117.748 Y-36.036
X-117.773 Y-36.238
X-117.787 Y-36.448
X-117.79 Y-36.67
X-117.782 Y-36.874
X-117.763 Y-37.074
X-117.661 Y-37.495
X-117.486 Y-37.891
X-117.244 Y-38.249
X-116.943 Y-38.56
X-116.591 Y-38.812
X-116.201 Y-38.998
X-115.783 Y-39.112
X-115.352 Y-39.15
X-114.064
G3 X-112.853 Y-37.686 I-0.044 J1.269
G1 X-113.436 Y-33.925
G3 X-114.165 Y-32.964 I-1.255 J-0.195
X-114.647 Y-32.85 I-0.527 J-1.156
G1 X-115.96
X-116.11 Y-32.857
X-116.259 Y-32.873
X-116.407 Y-32.9
X-116.553 Y-32.936
X-116.696 Y-32.981
X-116.836 Y-33.034
X-116.982 Y-33.099
X-117.131 Y-33.175
X-117.282 Y-33.262
X-117.432 Y-33.361
X-117.582 Y-33.471
X-117.732 Y-33.594
X-117.881 Y-33.73
X-118.026 Y-33.878
X-118.165 Y-34.037
X-118.299 Y-34.207
X-118.426 Y-34.389
X-118.546 Y-34.58
X-118.655 Y-34.778
X-118.745 Y-34.966
X-118.833 Y-35.177
X-118.908 Y-35.388
X-118.966 Y-35.585
X-119.017 Y-35.797
X-119.056 Y-36.017
X-119.082 Y-36.22
X-119.096 Y-36.428
X-119.099 Y-36.651
X-119.092 Y-36.857
X-119.073 Y-37.056
X-119.062 Y-37.131
X-118.963 Y-37.54
X-118.794 Y-37.925
X-118.56 Y-38.274
X-118.267 Y-38.576
X-117.926 Y-38.821
X-117.546 Y-39.002
X-117.141 Y-39.113
X-116.722 Y-39.15
X-115.352
G3 X-114.87 Y-39.036 I-0.044 J1.269
X-114.143 Y-37.678 I-0.527 J1.156
G1 X-114.751 Y-33.917
G3 X-115.478 Y-32.964 I-1.254 J-0.203
X-115.96 Y-32.85 I-0.527 J-1.156
G1 X-117.312
X-117.462 Y-32.857
X-117.61 Y-32.876
X-117.758 Y-32.905
X-117.903 Y-32.944
X-118.045 Y-32.991
X-118.186 Y-33.047
X-118.33 Y-33.113
X-118.479 Y-33.192
X-118.631 Y-33.282
X-118.782 Y-33.384
X-118.932 Y-33.498
X-119.08 Y-33.623
X-119.227 Y-33.76
X-119.37 Y-33.91
X-119.508 Y-34.072
X-119.641 Y-34.246
X-119.766 Y-34.431
X-119.884 Y-34.625
X-119.99 Y-34.823
X-120.08 Y-35.017
X-120.168 Y-35.236
X-120.24 Y-35.448
X-120.296 Y-35.648
X-120.345 Y-35.87
X-120.381 Y-36.088
X-120.404 Y-36.289
X-120.416 Y-36.507
Y-36.726
X-120.406 Y-36.928
X-120.384 Y-37.134
X-120.279 Y-37.543
X-120.105 Y-37.928
X-119.866 Y-38.277
X-119.57 Y-38.578
X-119.225 Y-38.822
X-118.843 Y-39.002
X-118.435 Y-39.113
X-118.014 Y-39.15
X-116.722
G3 X-116.239 Y-39.036 I-0.044 J1.269
X-115.511 Y-37.684 I-0.527 J1.156
G1 X-116.101 Y-33.922
G3 X-117.312 Y-32.85 I-1.255 J-0.197
G1 X-117.864
X-118.625 Y-32.848
X-118.775
X-118.924 Y-32.867
X-119.071 Y-32.897
X-119.216 Y-32.936
X-119.358 Y-32.984
X-119.5 Y-33.04
X-119.646 Y-33.108
X-119.797 Y-33.188
X-119.949 Y-33.279
X-120.1 Y-33.382
X-120.251 Y-33.496
X-120.401 Y-33.623
X-120.55 Y-33.764
X-120.694 Y-33.916
X-120.833 Y-34.08
X-120.966 Y-34.255
X-121.092 Y-34.441
X-121.209 Y-34.636
X-121.316 Y-34.838
X-121.404 Y-35.029
X-121.49 Y-35.244
X-121.561 Y-35.456
X-121.616 Y-35.655
X-121.664 Y-35.872
X-121.7 Y-36.091
X-121.722 Y-36.294
X-121.733 Y-36.507
Y-36.727
X-121.722 Y-36.93
X-121.706 Y-37.071
X-121.621 Y-37.488
X-121.462 Y-37.883
X-121.234 Y-38.242
X-120.944 Y-38.554
X-120.602 Y-38.808
X-120.22 Y-38.996
X-119.81 Y-39.111
X-119.387 Y-39.15
X-118.014
G3 X-117.532 Y-39.036 I-0.044 J1.269
X-116.808 Y-37.658 I-0.527 J1.156
G1 X-117.478 Y-33.891
G3 X-118.625 Y-32.848 I-1.25 J-0.222
G1 X-119.006 Y-32.83
X-119.387 Y-32.795
X-119.596 Y-32.771
X-119.76 Y-32.761
X-119.91 Y-32.759
X-120.06 Y-32.77
X-120.208 Y-32.791
X-120.355 Y-32.822
X-120.5 Y-32.862
X-120.642 Y-32.91
X-120.79 Y-32.969
X-120.943 Y-33.04
X-121.097 Y-33.122
X-121.252 Y-33.216
X-121.407 Y-33.321
X-121.561 Y-33.439
X-121.715 Y-33.57
X-121.866 Y-33.714
X-122.012 Y-33.869
X-122.153 Y-34.035
X-122.288 Y-34.213
X-122.415 Y-34.402
X-122.534 Y-34.6
X-122.639 Y-34.799
X-122.736 Y-35.01
X-122.824 Y-35.233
X-122.893 Y-35.44
X-122.951 Y-35.65
X-123.001 Y-35.879
X-123.035 Y-36.092
X-123.057 Y-36.297
X-123.069 Y-36.526
X-123.068 Y-36.739
X-123.057 Y-36.938
X-123.032 Y-37.158
X-122.927 Y-37.563
X-122.753 Y-37.944
X-122.515 Y-38.288
X-122.221 Y-38.585
X-121.879 Y-38.826
X-121.501 Y-39.004
X-121.097 Y-39.113
X-120.68 Y-39.15
X-119.387
G3 X-118.166 Y-37.765 I-0.044 J1.269
G1 X-118.52 Y-33.911
G3 X-119.596 Y-32.771 I-1.265 J-0.116
G1 X-119.767 Y-32.751
X-120.529 Y-32.583
X-120.563 Y-32.572
X-120.708 Y-32.533
X-120.858 Y-32.517
X-121.007 Y-32.514
X-121.157 Y-32.522
X-121.306 Y-32.539
X-121.454 Y-32.565
X-121.601 Y-32.6
X-121.752 Y-32.645
X-121.909 Y-32.701
X-122.072 Y-32.769
X-122.236 Y-32.849
X-122.402 Y-32.94
X-122.569 Y-33.044
X-122.735 Y-33.161
X-122.901 Y-33.291
X-123.064 Y-33.435
X-123.223 Y-33.591
X-123.377 Y-33.759
X-123.523 Y-33.938
X-123.663 Y-34.128
X-123.795 Y-34.33
X-123.916 Y-34.54
X-124.028 Y-34.759
X-124.118 Y-34.964
X-124.204 Y-35.192
X-124.276 Y-35.417
X-124.33 Y-35.627
X-124.376 Y-35.855
X-124.409 Y-36.083
X-124.428 Y-36.293
X-124.436 Y-36.516
X-124.432 Y-36.742
X-124.417 Y-36.949
X-124.39 Y-37.162
X-124.382 Y-37.207
X-124.273 Y-37.603
X-124.098 Y-37.975
X-123.86 Y-38.311
X-123.569 Y-38.6
X-123.231 Y-38.835
X-122.858 Y-39.008
X-122.461 Y-39.114
X-122.051 Y-39.15
X-120.68
G3 X-120.198 Y-39.036 I-0.044 J1.269
X-119.457 Y-37.797 I-0.527 J1.156
G1 X-119.729 Y-33.682
G3 X-120.563 Y-32.572 I-1.267 J-0.084
G1 X-120.909 Y-32.46
X-121.29 Y-32.314
X-121.325 Y-32.297
X-121.463 Y-32.238
X-121.607 Y-32.196
X-121.754 Y-32.168
X-121.903 Y-32.151
X-122.053 Y-32.144
X-122.203 Y-32.147
X-122.353 Y-32.159
X-122.503 Y-32.18
