%
(1001)
(z0 top machine -5-5)
(T1  D=12.7 CR=0 - ZMIN=-44.5 - flat end mill)
G90 G94
G17
G21

(2D Contour3 3)
M9
T1 M6
S9000 M3
G54
M9
G0 X-132.095 Y-18.143
Z15
Z5
G1 Z1 F283.3
Z-4.96
G18 G2 X-130.825 Z-6.23 I1.27
G1 X-129.555 F849.6
G17 G3 X-128.285 Y-16.873 J1.27
G1 Y-9.35
X-143.331
Y-26.65
X-128.285
Y-16.873
Y-9.35
X-143.331
Y-26.65
X-128.285
Y-16.873
G0 Z15

(2D Contour3 4)
M9
X-91.381 Y-29.895
Z15
Z5
G1 Z1 F283.3
Z-38.23
X-91.388 Y-29.891 Z-38.372
X-91.408 Y-29.879 Z-38.513
X-91.443 Y-29.86 Z-38.649
X-91.49 Y-29.833 Z-38.781
X-91.55 Y-29.799 Z-38.906
X-91.622 Y-29.758 Z-39.022
X-91.704 Y-29.712 Z-39.128
X-91.797 Y-29.659 Z-39.223
X-91.898 Y-29.602 Z-39.305
X-92.006 Y-29.541 Z-39.374
X-92.121 Y-29.476 Z-39.429
X-92.24 Y-29.409 Z-39.468
X-92.362 Y-29.34 Z-39.492
X-92.486 Y-29.27 Z-39.5
X-93.592 Y-28.645 F849.6
G3 X-95.322 Y-29.125 I-0.625 J-1.106
G2 X-100.85 Y-32.35 I-5.528 J3.125
G1 X-170.85
G2 X-177.2 Y-26 J6.35
G1 Y-1
G2 X-170.85 Y5.35 I6.35
G1 X-153.05
G2 X-146.7 Y-1 J-6.35
G3 X-125 I10.85
G2 X-118.65 Y5.35 I6.35
G1 X-100.85
G2 X-94.5 Y-1 J-6.35
G1 Y-26
G2 X-100.85 Y-32.35 I-6.35
G1 X-170.85
G2 X-177.2 Y-26 J6.35
G1 Y-1
G2 X-170.85 Y5.35 I6.35
G1 X-153.05
G2 X-146.7 Y-1 J-6.35
G3 X-125 I10.85
G2 X-118.65 Y5.35 I6.35
G1 X-100.85
G2 X-94.5 Y-1 J-6.35
G1 Y-26
G2 X-95.881 Y-29.953 I-6.35
G0 Z5
X-95.619 Y2.895
G1 Z1 F283.3
Z-38.23
X-95.612 Y2.891 Z-38.372
X-95.592 Y2.879 Z-38.513
X-95.557 Y2.86 Z-38.649
X-95.51 Y2.833 Z-38.781
X-95.45 Y2.799 Z-38.906
X-95.378 Y2.758 Z-39.022
X-95.296 Y2.712 Z-39.128
X-95.203 Y2.659 Z-39.223
X-95.102 Y2.602 Z-39.305
X-94.994 Y2.541 Z-39.374
X-94.879 Y2.476 Z-39.429
X-94.76 Y2.409 Z-39.468
X-94.638 Y2.34 Z-39.492
X-94.514 Y2.27 Z-39.5
X-93.408 Y1.645 F849.6
G3 X-91.678 Y2.125 I0.625 J1.106
G2 X-86.15 Y5.35 I5.528 J-3.125
G1 X-68.35
G2 X-62 Y-1 J-6.35
G3 X-40.3 I10.85
G2 X-33.95 Y5.35 I6.35
G1 X-16.15
G2 X-9.8 Y-1 J-6.35
G1 Y-26
G2 X-16.15 Y-32.35 I-6.35
G1 X-86.15
G2 X-92.5 Y-26 J6.35
G1 Y-1
G2 X-86.15 Y5.35 I6.35
G1 X-68.35
G2 X-62 Y-1 J-6.35
G3 X-40.3 I10.85
G2 X-33.95 Y5.35 I6.35
G1 X-16.15
G2 X-9.8 Y-1 J-6.35
G1 Y-26
G2 X-16.15 Y-32.35 I-6.35
G1 X-86.15
G2 X-92.5 Y-26 J6.35
G1 Y-1
G2 X-91.119 Y2.953 I6.35
G0 Z15

(2D Contour3 5)
M9
X-87.42 Y9.16
Z15
Z-34.5
G1 Z-38.5 F283.3
Z-43.23
G19 G2 Y7.89 Z-44.5 J-1.27
G1 Y6.62 F849.6
G17 G3 X-86.15 Y5.35 I1.27
G1 X-68.35
G2 X-62 Y-1 J-6.35
G3 X-40.3 I10.85
G2 X-33.95 Y5.35 I6.35
G1 X-16.15
G0 Z5
X-87.42 Y9.16
Z-34.5
G1 Z-38.5 F283.3
Z-43.23
G19 G2 Y7.89 Z-44.5 J-1.27
G1 Y6.62 F849.6
G17 G3 X-86.15 Y5.35 I1.27
G1 X-68.35
G2 X-62 Y-1 J-6.35
G3 X-40.3 I10.85
G2 X-33.95 Y5.35 I6.35
G1 X-16.15
G0 Z5
X-172.12 Y9.16
Z-34.5
G1 Z-38.5 F283.3
Z-43.23
G19 G2 Y7.89 Z-44.5 J-1.27
G1 Y6.62 F849.6
G17 G3 X-170.85 Y5.35 I1.27
G1 X-153.05
G2 X-146.7 Y-1 J-6.35
G3 X-125 I10.85
G2 X-118.65 Y5.35 I6.35
G1 X-100.85
G0 Z5
X-172.12 Y9.16
Z-34.5
G1 Z-38.5 F283.3
Z-43.23
G19 G2 Y7.89 Z-44.5 J-1.27
G1 Y6.62 F849.6
G17 G3 X-170.85 Y5.35 I1.27
G1 X-153.05
G2 X-146.7 Y-1 J-6.35
G3 X-125 I10.85
G2 X-118.65 Y5.35 I6.35
G1 X-100.85
G0 Z15
M9
M30
%
