%
(1001)
(z0 top machine -5-5)
(T1  D=12.7 CR=0 - ZMIN=-46.5 - flat end mill)
G90 G94
G17
G21

(Face2)
M9
T1 M6
S6000 M3
G54
M9
G0 X195.255 Y2.796
Z15
Z5
G1 Z0.77 F849.6
G18 G3 X193.985 Z-0.5 I-1.27
G1 X187
X0
G17 G2 Y11.821 J4.513
G1 X187
G3 Y20.847 J4.513
G1 X0
G18 G3 X-1.27 Z0.77 K1.27
G0 Z5
X-8.255 Y2.796
G1 Z-0.23 F849.6
G2 X-6.985 Z-1.5 I1.27
G1 X0
X187
G17 G3 Y11.821 J4.513
G1 X0
G2 Y20.847 J4.513
G1 X187
G18 G2 X188.27 Z-0.23 K1.27
G0 Z15
G17

(2D Adaptive3)
M9
G0 X138.923 Y13.929
Z15
Z5
Z3.77
G1 Z2.5 F849.6
G3 X131.693 Y23.588 Z1.838 I-3.615 J4.83 F283.3
X138.923 Y13.929 Z1.176 I3.615 J-4.83
X131.693 Y23.588 Z0.515 I-3.615 J4.83
X138.923 Y13.929 Z-0.147 I3.615 J-4.83
X131.693 Y23.588 Z-0.809 I-3.615 J4.83
X138.923 Y13.929 Z-1.471 I3.615 J-4.83
X131.693 Y23.588 Z-2.133 I-3.615 J4.83
X138.923 Y13.929 Z-2.794 I3.615 J-4.83
X141.34 Y18.759 Z-2.99 I-3.615 J4.83
X129.275 I-6.033
X141.064 Y16.954 I6.033
X141.34 Y18.759 I-5.756 J1.805
G1 X141.356 Y20.101 F849.6
X141.37 Y20.184
X141.387 Y20.333
X141.395 Y20.482
X141.394 Y20.632
X141.386 Y20.782
X141.37 Y20.931
X141.348 Y21.08
X141.32 Y21.227
X141.286 Y21.373
X141.246 Y21.518
X140.849 Y22.8
X140.84 Y23.921
X140.803 Y24.309
X140.7 Y24.685
X140.533 Y25.037
X140.308 Y25.355
X140.031 Y25.629
X139.712 Y25.852
X139.358 Y26.016
X138.982 Y26.116
X138.593 Y26.15
X138.581 Y26.149
G2 X138.102 Y26.063 I-3.112 J16.008
X137.174 Y25.938 I-2.633 J16.094
X137.041 Y25.931 I-0.133 J1.263
G1 X133.898
G2 X133.765 Y25.938 J1.27
X132.837 Y26.063 I1.705 J16.219
X132.358 Y26.149 I2.633 J16.094
G1 X132.346 Y26.15
X131.154
X131.112 Y26.148
X130.385 Y25.02
X130.035 Y24.447
X129.71 Y23.879
X129.458 Y23.401
X129.251 Y22.973
X129.078 Y22.579
X128.931 Y22.209
X128.805 Y21.856
X128.698 Y21.518
X128.607 Y21.191
X128.531 Y20.873
X128.468 Y20.563
X128.417 Y20.26
X128.378 Y19.963
X128.351 Y19.67
X128.334 Y19.383
X128.327 Y19.1
X128.331 Y18.821
X128.344 Y18.546
X128.367 Y18.275
X128.399 Y18.008
X128.44 Y17.745
X128.489 Y17.486
X128.548 Y17.23
X128.615 Y16.979
X128.691 Y16.731
X128.775 Y16.488
X128.867 Y16.249
X128.967 Y16.015
X129.075 Y15.785
X129.19 Y15.56
X129.313 Y15.34
X129.444 Y15.125
X129.581 Y14.916
X129.726 Y14.712
X129.877 Y14.514
X130.035 Y14.321
X130.2 Y14.135
X130.37 Y13.955
X130.547 Y13.781
X130.73 Y13.614
X130.918 Y13.454
X131.111 Y13.3
X131.31 Y13.154
X131.513 Y13.015
X131.721 Y12.884
X131.934 Y12.76
X132.151 Y12.643
X132.371 Y12.535
X132.595 Y12.435
X132.823 Y12.342
X133.053 Y12.258
X133.286 Y12.182
X133.522 Y12.114
X133.76 Y12.055
X134 Y12.005
X134.241 Y11.962
X134.483 Y11.929
X134.727 Y11.904
X134.971 Y11.888
X135.216 Y11.88
X135.461 Y11.882
X135.705 Y11.892
X135.949 Y11.91
X136.192 Y11.937
X136.434 Y11.973
X136.675 Y12.018
X136.913 Y12.07
X137.15 Y12.132
X137.384 Y12.202
X137.616 Y12.28
X137.845 Y12.366
X138.071 Y12.46
X138.293 Y12.562
X138.511 Y12.672
X138.725 Y12.79
X138.935 Y12.915
X139.14 Y13.048
X139.341 Y13.187
X139.536 Y13.334
X139.726 Y13.488
X139.911 Y13.648
X140.089 Y13.815
X140.262 Y13.988
X140.428 Y14.167
X140.588 Y14.352
X140.742 Y14.542
X140.888 Y14.738
X141.027 Y14.939
X141.159 Y15.144
X141.284 Y15.354
X141.401 Y15.569
X141.511 Y15.787
X141.612 Y16.009
X141.706 Y16.235
X141.793 Y16.467
X141.886 Y16.746
X142.007 Y17.157
X142.129 Y17.633
X142.216 Y18.029
X142.279 Y18.374
X142.296 Y18.493
X142.316 Y18.651
X142.327 Y18.81
X142.331 Y18.969
Y20.276
X142.264 Y21.617
X142.246 Y22.078
X142.146 Y23.416
X142.149 Y23.444
X142.161 Y23.853
X142.105 Y24.258
X141.981 Y24.647
X141.794 Y25.011
X141.548 Y25.338
X141.251 Y25.619
X140.911 Y25.846
X140.538 Y26.013
X140.142 Y26.116
X139.735 Y26.15
G3 X139.253 Y26.036 I0.044 J-1.269
X138.557 Y24.537 I0.527 J-1.156
G1 X139.839 Y19.977
G3 X142.217 Y19.794 I1.223 J0.344
X142.331 Y20.276 I-1.156 J0.527
G1 Y24.829
X142.322 Y25.019
X142.284 Y25.209
X142.273 Y25.24
G3 X141.112 Y26.031 I-1.176 J-0.479
G1 X131.653 Y26.144
X131.154 Y26.15
X129.841
X129.632 Y26.147
X129.6 Y26.145
X129.238 Y25.567
X128.933 Y25.04
X128.666 Y24.538
X128.618 Y24.437
X128.474 Y24.093
X128.369 Y23.734
X128.306 Y23.366
X128.285 Y22.994
G3 X131.82 Y22.016 I1.921 J0.067
X130.127 Y26.09 I-2.248 J1.455
X129.632 Y26.147 I-0.554 J-2.619
G1 X129.461 Y26.145
X129.27 Y26.114
X129.08 Y26.051
X128.916 Y25.968
X128.808 Y25.894
X128.699 Y25.806
X128.594 Y25.697
X128.509 Y25.588
X128.401 Y25.399
X128.332 Y25.209
X128.319 Y25.159
X128.291 Y24.994
X128.285 Y24.829
Y16.862
X128.295 Y16.666
X128.308 Y16.516
X128.326 Y16.367
X128.351 Y16.215
X128.383 Y16.056
X128.422 Y15.894
X128.468 Y15.727
X128.522 Y15.553
X128.586 Y15.374
X128.658 Y15.191
X128.738 Y15.008
X128.826 Y14.822
X128.924 Y14.635
X129.032 Y14.446
X129.149 Y14.256
X129.276 Y14.066
X129.411 Y13.878
X129.556 Y13.692
X129.709 Y13.508
X129.87 Y13.328
X130.04 Y13.151
X130.218 Y12.979
X130.404 Y12.811
X130.598 Y12.649
X130.799 Y12.492
X131.008 Y12.341
X131.223 Y12.196
X131.445 Y12.058
X131.673 Y11.928
X131.906 Y11.805
X132.145 Y11.69
X132.389 Y11.582
X132.637 Y11.484
X132.89 Y11.393
X133.147 Y11.312
X133.407 Y11.24
X133.67 Y11.176
X133.935 Y11.122
X134.203 Y11.078
X134.473 Y11.043
X134.744 Y11.017
X135.016 Y11.001
X135.29 Y10.995
X135.563 Y10.998
X135.837 Y11.011
X136.11 Y11.034
X136.382 Y11.067
X136.653 Y11.109
X136.923 Y11.161
X137.19 Y11.222
X137.456 Y11.293
X137.719 Y11.374
X137.979 Y11.463
X138.236 Y11.562
X138.489 Y11.67
X138.738 Y11.787
X138.983 Y11.913
X139.224 Y12.048
X139.459 Y12.191
X139.69 Y12.342
X139.915 Y12.501
X140.134 Y12.669
X140.347 Y12.844
X140.554 Y13.026
X140.754 Y13.216
X140.947 Y13.413
X141.134 Y13.616
X141.313 Y13.826
X141.484 Y14.043
X141.651 Y14.269
X141.821 Y14.519
X142.041 Y14.928
X142.201 Y15.364
X142.298 Y15.818
X142.331 Y16.281
Y18.969
G3 X142.217 Y19.452 I-1.269 J-0.044
X140.833 Y20.174 I-1.156 J-0.527
G1 X129.325 Y18.067
G3 X128.399 Y17.344 I0.229 J-1.249
X128.285 Y16.862 I1.156 J-0.527
G1 Y15.515
X128.295 Y15.312
X128.308 Y15.162
X128.328 Y15.014
X128.356 Y14.866
X128.39 Y14.72
X128.429 Y14.575
X128.475 Y14.431
X128.527 Y14.283
X128.587 Y14.132
X128.655 Y13.976
X128.733 Y13.814
X128.819 Y13.649
X128.915 Y13.482
X129.018 Y13.314
X129.132 Y13.144
X129.256 Y12.972
X129.391 Y12.799
X129.535 Y12.626
X129.689 Y12.454
X129.852 Y12.285
X130.024 Y12.119
X130.206 Y11.956
X130.397 Y11.795
X130.599 Y11.638
X130.809 Y11.486
X131.028 Y11.34
X131.255 Y11.198
X131.491 Y11.064
X131.733 Y10.937
X131.982 Y10.817
X132.238 Y10.705
X132.5 Y10.601
X132.767 Y10.506
X133.04 Y10.419
X133.318 Y10.342
X133.6 Y10.275
X133.886 Y10.217
X134.175 Y10.169
X134.467 Y10.131
X134.763 Y10.103
X135.06 Y10.086
X135.358 Y10.079
X135.658 Y10.083
X135.958 Y10.098
X136.259 Y10.124
X136.559 Y10.16
X136.858 Y10.207
X137.156 Y10.264
X137.453 Y10.333
X137.747 Y10.412
X138.039 Y10.501
X138.328 Y10.601
X138.613 Y10.711
X138.895 Y10.832
X139.172 Y10.962
X139.445 Y11.103
X139.713 Y11.253
X139.975 Y11.412
X140.232 Y11.581
X140.483 Y11.76
X140.728 Y11.947
X140.965 Y12.142
X141.159 Y12.313
X141.36 Y12.504
X141.387 Y12.531
X141.665 Y12.854
X141.899 Y13.21
X142.086 Y13.594
X142.221 Y13.998
X142.303 Y14.417
X142.331 Y14.842
Y16.281
G3 X142.217 Y16.764 I-1.269 J-0.044
X140.977 Y17.504 I-1.156 J-0.527
G1 X129.47 Y16.738
G3 X128.399 Y15.997 I0.084 J-1.267
X128.285 Y15.515 I1.156 J-0.527
G1 Y14.325
X128.292 Y14.175
X128.305 Y14.026
X128.327 Y13.877
X128.356 Y13.73
X128.393 Y13.585
X128.435 Y13.441
X128.483 Y13.299
X128.537 Y13.159
X128.597 Y13.018
X128.665 Y12.872
X128.743 Y12.721
X128.83 Y12.565
X128.924 Y12.409
X129.028 Y12.25
X129.143 Y12.088
X129.268 Y11.924
X129.404 Y11.758
X129.549 Y11.593
X129.704 Y11.43
X129.869 Y11.267
X130.045 Y11.105
X130.233 Y10.945
X130.431 Y10.788
X130.639 Y10.634
X130.857 Y10.486
X131.083 Y10.342
X131.153 Y10.301
X131.544 Y10.106
X131.956 Y9.965
X132.384 Y9.879
X132.819 Y9.85
G3 X133.664 Y12.025 I-0.044 J1.269
G1 X130.444 Y15.187
G3 X128.399 Y14.807 I-0.89 J-0.906
X128.285 Y14.325 I1.156 J-0.527
G1 Y13.252
X128.292 Y13.102
X128.307 Y12.953
X128.331 Y12.805
X128.363 Y12.658
X128.402 Y12.514
X128.448 Y12.371
X128.499 Y12.23
X128.556 Y12.091
X128.618 Y11.954
X128.688 Y11.813
X128.768 Y11.665
X128.857 Y11.514
X128.955 Y11.361
X129.061 Y11.207
X129.079 Y11.182
X129.364 Y10.848
X129.69 Y10.555
X130.053 Y10.307
X130.445 Y10.11
X130.86 Y9.966
X131.29 Y9.879
X131.728 Y9.85
G3 X132.573 Y12.026 I-0.044 J1.269
G1 X130.443 Y14.115
G3 X128.399 Y13.735 I-0.889 J-0.907
X128.285 Y13.252 I1.156 J-0.527
G1 Y12.246
X128.292 Y12.096
X128.308 Y11.947
X128.334 Y11.799
X128.466 Y11.397
X128.664 Y11.022
X128.921 Y10.685
X129.23 Y10.396
X129.583 Y10.162
X129.97 Y9.99
X130.381 Y9.885
X130.803 Y9.85
G3 X131.295 Y9.92 I-0.081 J2.329
X132.942 Y12.886 I-0.574 J2.259
X128.354 Y12.739 I-2.273 J-0.723
X128.285 Y12.246 I2.315 J-0.576
G1 Y11.487
X128.292 Y11.337
X128.313 Y11.188
X128.422 Y10.874
X128.589 Y10.585
X128.808 Y10.334
X129.07 Y10.128
X129.366 Y9.975
X129.686 Y9.882
X130.018 Y9.85
G3 X131.477 Y11.939 I-0.056 J1.593
X128.377 Y11.975 I-1.556 J-0.509
X128.285 Y11.487 I1.544 J-0.545
G1 Y11.171
X128.291 Y11.006
X128.319 Y10.841
X128.332 Y10.791
X128.401 Y10.601
X128.509 Y10.412
X128.594 Y10.303
X128.699 Y10.194
X128.808 Y10.106
X128.916 Y10.032
X129.08 Y9.949
X129.27 Y9.886
X129.461 Y9.855
X129.841 Y9.85
X137.452
X137.705 Y9.863
X137.887 Y9.878
X138.077 Y9.901
X138.271 Y9.932
X138.476 Y9.972
X138.691 Y10.022
X138.912 Y10.081
X139.137 Y10.15
X139.365 Y10.23
X139.6 Y10.321
X139.835 Y10.422
X140.071 Y10.533
X140.276 Y10.638
X140.485 Y10.756
X140.683 Y10.877
X140.85 Y10.987
X141.023 Y11.11
X141.039 Y11.122
X141.414 Y11.458
X141.734 Y11.847
X141.99 Y12.281
X142.178 Y12.748
X142.293 Y13.239
X142.331 Y13.741
G3 X142.217 Y14.224 I-1.269 J-0.044
X140.318 Y14.726 I-1.156 J-0.527
G1 X136.752 Y12.148
G3 X137.452 Y9.85 I0.744 J-1.029
G1 X139.183
X139.362 Y9.859
X139.512 Y9.872
X139.66 Y9.891
X139.808 Y9.917
X139.955 Y9.948
X140.1 Y9.985
X140.244 Y10.028
X140.386 Y10.077
X140.526 Y10.13
X140.664 Y10.19
X140.799 Y10.255
X141.175 Y10.492
X141.51 Y10.784
X141.796 Y11.124
X142.026 Y11.505
X142.194 Y11.916
X142.297 Y12.349
X142.331 Y12.792
G3 X142.217 Y13.275 I-1.269 J-0.044
X140.219 Y13.698 I-1.156 J-0.527
G1 X138.384 Y12.069
G3 X138.701 Y9.964 I0.843 J-0.95
X139.183 Y9.85 I0.527 J1.156
G1 X140.325
X140.475 Y9.858
X140.624 Y9.874
X140.973 Y9.975
X141.3 Y10.135
X141.595 Y10.348
X141.85 Y10.608
X142.055 Y10.908
X142.207 Y11.239
X142.3 Y11.591
X142.331 Y11.954
G3 X142.25 Y12.444 I-1.95 J-0.068
X139.794 Y13.746 I-1.869 J-0.559
X139.834 Y9.929 I0.6 J-1.902
X140.325 Y9.85 I0.561 J1.914
G1 X140.877
X141.036 Y9.857
X141.073 Y9.859
X141.103 Y9.86
X141.253 Y9.875
X141.398 Y9.913
X141.538 Y9.966
X141.673 Y10.031
X141.792 Y10.108
X141.904 Y10.194
X142.009 Y10.289
G3 X141.273 Y11.275 I-0.452 J0.43
G1 X140.813 Y11.04
G3 X141.103 Y9.86 I0.284 J-0.556
G1 X141.257 Y9.867
X141.447 Y9.914
X141.638 Y9.995
X141.704 Y10.032
X141.861 Y10.144
X142.018 Y10.298
X142.107 Y10.412
X142.215 Y10.601
X142.284 Y10.791
X142.322 Y10.981
X142.331 Y11.171
Y14.842
X142.317 Y14.927 Z-2.982
X142.304 Y15.009 Z-2.96
X142.292 Y15.086 Z-2.924
X142.28 Y15.155 Z-2.875
X142.259 Y15.214 Z-2.814
X142.241 Y15.261 Z-2.742
X142.228 Y15.296 Z-2.663
X142.22 Y15.317 Z-2.579
X142.217 Y15.324 Z-2.491
G0 Z5
X139.89 Y14.835
Z0.78
G1 Z-0.49 F849.6
G3 X130.726 Y22.682 Z-1.152 I-4.582 J3.923 F283.3
X139.89 Y14.835 Z-1.814 I4.582 J-3.923
X130.726 Y22.682 Z-2.475 I-4.582 J3.923
X139.89 Y14.835 Z-3.137 I4.582 J-3.923
X130.726 Y22.682 Z-3.799 I-4.582 J3.923
X139.89 Y14.835 Z-4.461 I4.582 J-3.923
X141.34 Y18.759 Z-4.61 I-4.582 J3.923
X129.275 I-6.033
X141.064 Y16.954 I6.033
X141.34 Y18.759 I-5.756 J1.805
G1 X141.356 Y20.101 F849.6
X141.37 Y20.184
X141.387 Y20.333
X141.395 Y20.482
X141.394 Y20.632
X141.386 Y20.782
X141.37 Y20.931
X141.348 Y21.08
X141.32 Y21.227
X141.286 Y21.373
X141.246 Y21.518
X140.849 Y22.8
X140.84 Y23.921
X140.803 Y24.309
X140.7 Y24.685
X140.533 Y25.037
X140.308 Y25.355
X140.031 Y25.629
X139.712 Y25.852
X139.358 Y26.016
X138.982 Y26.116
X138.593 Y26.15
X138.581 Y26.149
G2 X138.102 Y26.063 I-3.112 J16.008
X137.174 Y25.938 I-2.633 J16.094
X137.041 Y25.931 I-0.133 J1.263
G1 X133.898
G2 X133.765 Y25.938 J1.27
X132.837 Y26.063 I1.705 J16.219
X132.358 Y26.149 I2.633 J16.094
G1 X132.346 Y26.15
X131.154
X131.112 Y26.148
X130.385 Y25.02
X130.035 Y24.447
X129.71 Y23.879
X129.458 Y23.401
X129.251 Y22.973
X129.078 Y22.579
X128.931 Y22.209
X128.805 Y21.856
X128.698 Y21.518
X128.607 Y21.191
X128.531 Y20.873
X128.468 Y20.563
X128.417 Y20.26
X128.378 Y19.963
X128.351 Y19.67
X128.334 Y19.383
X128.327 Y19.1
X128.331 Y18.821
X128.344 Y18.546
X128.367 Y18.275
X128.399 Y18.008
X128.44 Y17.745
X128.489 Y17.486
X128.548 Y17.23
X128.615 Y16.979
X128.691 Y16.731
X128.775 Y16.488
X128.867 Y16.249
X128.967 Y16.015
X129.075 Y15.785
X129.19 Y15.56
X129.313 Y15.34
X129.444 Y15.125
X129.581 Y14.916
X129.726 Y14.712
X129.877 Y14.514
X130.035 Y14.321
X130.2 Y14.135
X130.37 Y13.955
X130.547 Y13.781
X130.73 Y13.614
X130.918 Y13.454
X131.111 Y13.3
X131.31 Y13.154
X131.513 Y13.015
X131.721 Y12.884
X131.934 Y12.76
X132.151 Y12.643
X132.371 Y12.535
X132.595 Y12.435
X132.823 Y12.342
X133.053 Y12.258
X133.286 Y12.182
X133.522 Y12.114
X133.76 Y12.055
X134 Y12.005
X134.241 Y11.962
X134.483 Y11.929
X134.727 Y11.904
X134.971 Y11.888
X135.216 Y11.88
X135.461 Y11.882
X135.705 Y11.892
X135.949 Y11.91
X136.192 Y11.937
X136.434 Y11.973
X136.675 Y12.018
X136.913 Y12.07
X137.15 Y12.132
X137.384 Y12.202
X137.616 Y12.28
X137.845 Y12.366
X138.071 Y12.46
X138.293 Y12.562
X138.511 Y12.672
X138.725 Y12.79
X138.935 Y12.915
X139.14 Y13.048
X139.341 Y13.187
X139.536 Y13.334
X139.726 Y13.488
X139.911 Y13.648
X140.089 Y13.815
X140.262 Y13.988
X140.428 Y14.167
X140.588 Y14.352
X140.742 Y14.542
X140.888 Y14.738
X141.027 Y14.939
X141.159 Y15.144
X141.284 Y15.354
X141.401 Y15.569
X141.511 Y15.787
X141.612 Y16.009
X141.706 Y16.235
X141.793 Y16.467
X141.886 Y16.746
X142.007 Y17.157
X142.129 Y17.633
X142.216 Y18.029
X142.279 Y18.374
X142.296 Y18.493
X142.316 Y18.651
X142.327 Y18.81
X142.331 Y18.969
Y20.276
X142.264 Y21.617
X142.246 Y22.078
X142.146 Y23.416
X142.149 Y23.444
X142.161 Y23.853
X142.105 Y24.258
X141.981 Y24.647
X141.794 Y25.011
X141.548 Y25.338
X141.251 Y25.619
X140.911 Y25.846
X140.538 Y26.013
X140.142 Y26.116
X139.735 Y26.15
G3 X139.253 Y26.036 I0.044 J-1.269
X138.557 Y24.537 I0.527 J-1.156
G1 X139.839 Y19.977
G3 X142.217 Y19.794 I1.223 J0.344
X142.331 Y20.276 I-1.156 J0.527
G1 Y24.829
X142.322 Y25.019
X142.284 Y25.209
X142.273 Y25.24
G3 X141.112 Y26.031 I-1.176 J-0.479
G1 X131.653 Y26.144
X131.154 Y26.15
X129.841
X129.632 Y26.147
X129.6 Y26.145
X129.238 Y25.567
X128.933 Y25.04
X128.666 Y24.538
X128.618 Y24.437
X128.474 Y24.093
X128.369 Y23.734
X128.306 Y23.366
X128.285 Y22.994
G3 X131.82 Y22.016 I1.921 J0.067
X130.127 Y26.09 I-2.248 J1.455
X129.632 Y26.147 I-0.554 J-2.619
G1 X129.461 Y26.145
X129.27 Y26.114
X129.08 Y26.051
X128.916 Y25.968
X128.808 Y25.894
X128.699 Y25.806
X128.594 Y25.697
X128.509 Y25.588
X128.401 Y25.399
X128.332 Y25.209
X128.319 Y25.159
X128.291 Y24.994
X128.285 Y24.829
Y16.862
X128.295 Y16.666
X128.308 Y16.516
X128.326 Y16.367
X128.351 Y16.215
X128.383 Y16.056
X128.422 Y15.894
X128.468 Y15.727
X128.522 Y15.553
X128.586 Y15.374
X128.658 Y15.191
X128.738 Y15.008
X128.826 Y14.822
X128.924 Y14.635
X129.032 Y14.446
X129.149 Y14.256
X129.276 Y14.066
X129.411 Y13.878
X129.556 Y13.692
X129.709 Y13.508
X129.87 Y13.328
X130.04 Y13.151
X130.218 Y12.979
X130.404 Y12.811
X130.598 Y12.649
X130.799 Y12.492
X131.008 Y12.341
X131.223 Y12.196
X131.445 Y12.058
X131.673 Y11.928
X131.906 Y11.805
X132.145 Y11.69
X132.389 Y11.582
X132.637 Y11.484
X132.89 Y11.393
X133.147 Y11.312
X133.407 Y11.24
X133.67 Y11.176
X133.935 Y11.122
X134.203 Y11.078
X134.473 Y11.043
X134.744 Y11.017
X135.016 Y11.001
X135.29 Y10.995
X135.563 Y10.998
X135.837 Y11.011
X136.11 Y11.034
X136.382 Y11.067
X136.653 Y11.109
X136.923 Y11.161
X137.19 Y11.222
X137.456 Y11.293
X137.719 Y11.374
X137.979 Y11.463
X138.236 Y11.562
X138.489 Y11.67
X138.738 Y11.787
X138.983 Y11.913
X139.224 Y12.048
X139.459 Y12.191
X139.69 Y12.342
X139.915 Y12.501
X140.134 Y12.669
X140.347 Y12.844
X140.554 Y13.026
X140.754 Y13.216
X140.947 Y13.413
X141.134 Y13.616
X141.313 Y13.826
X141.484 Y14.043
X141.651 Y14.269
X141.821 Y14.519
X142.041 Y14.928
X142.201 Y15.364
X142.298 Y15.818
X142.331 Y16.281
Y18.969
G3 X142.217 Y19.452 I-1.269 J-0.044
X140.833 Y20.174 I-1.156 J-0.527
G1 X129.325 Y18.067
G3 X128.399 Y17.344 I0.229 J-1.249
X128.285 Y16.862 I1.156 J-0.527
G1 Y15.515
X128.295 Y15.312
X128.308 Y15.162
X128.328 Y15.014
X128.356 Y14.866
X128.39 Y14.72
X128.429 Y14.575
X128.475 Y14.431
X128.527 Y14.283
X128.587 Y14.132
X128.655 Y13.976
X128.733 Y13.814
X128.819 Y13.649
X128.915 Y13.482
X129.018 Y13.314
X129.132 Y13.144
X129.256 Y12.972
X129.391 Y12.799
X129.535 Y12.626
X129.689 Y12.454
X129.852 Y12.285
X130.024 Y12.119
X130.206 Y11.956
X130.397 Y11.795
X130.599 Y11.638
X130.809 Y11.486
X131.028 Y11.34
X131.255 Y11.198
X131.491 Y11.064
X131.733 Y10.937
X131.982 Y10.817
X132.238 Y10.705
X132.5 Y10.601
X132.767 Y10.506
X133.04 Y10.419
X133.318 Y10.342
X133.6 Y10.275
X133.886 Y10.217
X134.175 Y10.169
X134.467 Y10.131
X134.763 Y10.103
X135.06 Y10.086
X135.358 Y10.079
X135.658 Y10.083
X135.958 Y10.098
X136.259 Y10.124
X136.559 Y10.16
X136.858 Y10.207
X137.156 Y10.264
X137.453 Y10.333
X137.747 Y10.412
X138.039 Y10.501
X138.328 Y10.601
X138.613 Y10.711
X138.895 Y10.832
X139.172 Y10.962
X139.445 Y11.103
X139.713 Y11.253
X139.975 Y11.412
X140.232 Y11.581
X140.483 Y11.76
X140.728 Y11.947
X140.965 Y12.142
X141.159 Y12.313
X141.36 Y12.504
X141.387 Y12.531
X141.665 Y12.854
X141.899 Y13.21
X142.086 Y13.594
X142.221 Y13.998
X142.303 Y14.417
X142.331 Y14.842
Y16.281
G3 X142.217 Y16.764 I-1.269 J-0.044
X140.977 Y17.504 I-1.156 J-0.527
G1 X129.47 Y16.738
G3 X128.399 Y15.997 I0.084 J-1.267
X128.285 Y15.515 I1.156 J-0.527
G1 Y14.325
X128.292 Y14.175
X128.305 Y14.026
X128.327 Y13.877
X128.356 Y13.73
X128.393 Y13.585
X128.435 Y13.441
X128.483 Y13.299
X128.537 Y13.159
X128.597 Y13.018
X128.665 Y12.872
X128.743 Y12.721
X128.83 Y12.565
X128.924 Y12.409
X129.028 Y12.25
X129.143 Y12.088
X129.268 Y11.924
X129.404 Y11.758
X129.549 Y11.593
X129.704 Y11.43
X129.869 Y11.267
X130.045 Y11.105
X130.233 Y10.945
X130.431 Y10.788
X130.639 Y10.634
X130.857 Y10.486
X131.083 Y10.342
X131.153 Y10.301
X131.544 Y10.106
X131.956 Y9.965
X132.384 Y9.879
X132.819 Y9.85
G3 X133.664 Y12.025 I-0.044 J1.269
G1 X130.444 Y15.187
G3 X128.399 Y14.807 I-0.89 J-0.906
X128.285 Y14.325 I1.156 J-0.527
G1 Y13.252
X128.292 Y13.102
X128.307 Y12.953
X128.331 Y12.805
X128.363 Y12.658
X128.402 Y12.514
X128.448 Y12.371
X128.499 Y12.23
X128.556 Y12.091
X128.618 Y11.954
X128.688 Y11.813
X128.768 Y11.665
X128.857 Y11.514
X128.955 Y11.361
X129.061 Y11.207
X129.079 Y11.182
X129.364 Y10.848
X129.69 Y10.555
X130.053 Y10.307
X130.445 Y10.11
X130.86 Y9.966
X131.29 Y9.879
X131.728 Y9.85
G3 X132.573 Y12.026 I-0.044 J1.269
G1 X130.443 Y14.115
G3 X128.399 Y13.735 I-0.889 J-0.907
X128.285 Y13.252 I1.156 J-0.527
G1 Y12.246
X128.292 Y12.096
X128.308 Y11.947
X128.334 Y11.799
X128.466 Y11.397
X128.664 Y11.022
X128.921 Y10.685
X129.23 Y10.396
X129.583 Y10.162
X129.97 Y9.99
X130.381 Y9.885
X130.803 Y9.85
G3 X131.295 Y9.92 I-0.081 J2.329
X132.942 Y12.886 I-0.574 J2.259
X128.354 Y12.739 I-2.273 J-0.723
X128.285 Y12.246 I2.315 J-0.576
G1 Y11.487
X128.292 Y11.337
X128.313 Y11.188
X128.422 Y10.874
X128.589 Y10.585
X128.808 Y10.334
X129.07 Y10.128
X129.366 Y9.975
X129.686 Y9.882
X130.018 Y9.85
G3 X131.477 Y11.939 I-0.056 J1.593
X128.377 Y11.975 I-1.556 J-0.509
X128.285 Y11.487 I1.544 J-0.545
G1 Y11.171
X128.291 Y11.006
X128.319 Y10.841
X128.332 Y10.791
X128.401 Y10.601
X128.509 Y10.412
X128.594 Y10.303
X128.699 Y10.194
X128.808 Y10.106
X128.916 Y10.032
X129.08 Y9.949
X129.27 Y9.886
X129.461 Y9.855
X129.841 Y9.85
X137.452
X137.705 Y9.863
X137.887 Y9.878
X138.077 Y9.901
X138.271 Y9.932
X138.476 Y9.972
X138.691 Y10.022
X138.912 Y10.081
X139.137 Y10.15
X139.365 Y10.23
X139.6 Y10.321
X139.835 Y10.422
X140.071 Y10.533
X140.276 Y10.638
X140.485 Y10.756
X140.683 Y10.877
X140.85 Y10.987
X141.023 Y11.11
X141.039 Y11.122
X141.414 Y11.458
X141.734 Y11.847
X141.99 Y12.281
X142.178 Y12.748
X142.293 Y13.239
X142.331 Y13.741
G3 X142.217 Y14.224 I-1.269 J-0.044
X140.318 Y14.726 I-1.156 J-0.527
G1 X136.752 Y12.148
G3 X137.452 Y9.85 I0.744 J-1.029
G1 X139.183
X139.362 Y9.859
X139.512 Y9.872
X139.66 Y9.891
X139.808 Y9.917
X139.955 Y9.948
X140.1 Y9.985
X140.244 Y10.028
X140.386 Y10.077
X140.526 Y10.13
X140.664 Y10.19
X140.799 Y10.255
X141.175 Y10.492
X141.51 Y10.784
X141.796 Y11.124
X142.026 Y11.505
X142.194 Y11.916
X142.297 Y12.349
X142.331 Y12.792
G3 X142.217 Y13.275 I-1.269 J-0.044
X140.219 Y13.698 I-1.156 J-0.527
G1 X138.384 Y12.069
G3 X138.701 Y9.964 I0.843 J-0.95
X139.183 Y9.85 I0.527 J1.156
G1 X140.325
X140.475 Y9.858
X140.624 Y9.874
X140.973 Y9.975
X141.3 Y10.135
X141.595 Y10.348
X141.85 Y10.608
X142.055 Y10.908
X142.207 Y11.239
X142.3 Y11.591
X142.331 Y11.954
G3 X142.25 Y12.444 I-1.95 J-0.068
X139.794 Y13.746 I-1.869 J-0.559
X139.834 Y9.929 I0.6 J-1.902
X140.325 Y9.85 I0.561 J1.914
G1 X140.877
X141.036 Y9.857
X141.073 Y9.859
X141.103 Y9.86
X141.253 Y9.875
X141.398 Y9.913
X141.538 Y9.966
X141.673 Y10.031
X141.792 Y10.108
X141.904 Y10.194
X142.009 Y10.289
G3 X141.273 Y11.275 I-0.452 J0.43
G1 X140.813 Y11.04
G3 X141.103 Y9.86 I0.284 J-0.556
G1 X141.257 Y9.867
X141.447 Y9.914
X141.638 Y9.995
X141.704 Y10.032
X141.861 Y10.144
X142.018 Y10.298
X142.107 Y10.412
X142.215 Y10.601
X142.284 Y10.791
X142.322 Y10.981
X142.331 Y11.171
Y14.842
X142.317 Y14.927 Z-4.602
X142.304 Y15.009 Z-4.58
X142.292 Y15.086 Z-4.544
X142.28 Y15.155 Z-4.495
X142.259 Y15.214 Z-4.434
X142.241 Y15.261 Z-4.362
X142.228 Y15.296 Z-4.283
X142.22 Y15.317 Z-4.199
X142.217 Y15.324 Z-4.111
G0 Z5
X139.89 Y14.835
Z-0.84
G1 Z-2.11 F849.6
G3 X130.726 Y22.682 Z-2.772 I-4.582 J3.923 F283.3
X139.89 Y14.835 Z-3.434 I4.582 J-3.923
X130.726 Y22.682 Z-4.095 I-4.582 J3.923
X139.89 Y14.835 Z-4.757 I4.582 J-3.923
X130.726 Y22.682 Z-5.419 I-4.582 J3.923
X139.89 Y14.835 Z-6.081 I4.582 J-3.923
X141.34 Y18.759 Z-6.23 I-4.582 J3.923
X129.275 I-6.033
X141.064 Y16.954 I6.033
X141.34 Y18.759 I-5.756 J1.805
G1 X141.356 Y20.101 F849.6
X141.37 Y20.184
X141.387 Y20.333
X141.395 Y20.482
X141.394 Y20.632
X141.386 Y20.782
X141.37 Y20.931
X141.348 Y21.08
X141.32 Y21.227
X141.286 Y21.373
X141.246 Y21.518
X140.849 Y22.8
X140.84 Y23.921
X140.803 Y24.309
X140.7 Y24.685
X140.533 Y25.037
X140.308 Y25.355
X140.031 Y25.629
X139.712 Y25.852
X139.358 Y26.016
X138.982 Y26.116
X138.593 Y26.15
X138.581 Y26.149
G2 X138.102 Y26.063 I-3.112 J16.008
X137.174 Y25.938 I-2.633 J16.094
X137.041 Y25.931 I-0.133 J1.263
G1 X133.898
G2 X133.765 Y25.938 J1.27
X132.837 Y26.063 I1.705 J16.219
X132.358 Y26.149 I2.633 J16.094
G1 X132.346 Y26.15
X131.154
X131.112 Y26.148
X130.385 Y25.02
X130.035 Y24.447
X129.71 Y23.879
X129.458 Y23.401
X129.251 Y22.973
X129.078 Y22.579
X128.931 Y22.209
X128.805 Y21.856
X128.698 Y21.518
X128.607 Y21.191
X128.531 Y20.873
X128.468 Y20.563
X128.417 Y20.26
X128.378 Y19.963
X128.351 Y19.67
X128.334 Y19.383
X128.327 Y19.1
X128.331 Y18.821
X128.344 Y18.546
X128.367 Y18.275
X128.399 Y18.008
X128.44 Y17.745
X128.489 Y17.486
X128.548 Y17.23
X128.615 Y16.979
X128.691 Y16.731
X128.775 Y16.488
X128.867 Y16.249
X128.967 Y16.015
X129.075 Y15.785
X129.19 Y15.56
X129.313 Y15.34
X129.444 Y15.125
X129.581 Y14.916
X129.726 Y14.712
X129.877 Y14.514
X130.035 Y14.321
X130.2 Y14.135
X130.37 Y13.955
X130.547 Y13.781
X130.73 Y13.614
X130.918 Y13.454
X131.111 Y13.3
X131.31 Y13.154
X131.513 Y13.015
X131.721 Y12.884
X131.934 Y12.76
X132.151 Y12.643
X132.371 Y12.535
X132.595 Y12.435
X132.823 Y12.342
X133.053 Y12.258
X133.286 Y12.182
X133.522 Y12.114
X133.76 Y12.055
X134 Y12.005
X134.241 Y11.962
X134.483 Y11.929
X134.727 Y11.904
X134.971 Y11.888
X135.216 Y11.88
X135.461 Y11.882
X135.705 Y11.892
X135.949 Y11.91
X136.192 Y11.937
X136.434 Y11.973
X136.675 Y12.018
X136.913 Y12.07
X137.15 Y12.132
X137.384 Y12.202
X137.616 Y12.28
X137.845 Y12.366
X138.071 Y12.46
X138.293 Y12.562
X138.511 Y12.672
X138.725 Y12.79
X138.935 Y12.915
X139.14 Y13.048
X139.341 Y13.187
X139.536 Y13.334
X139.726 Y13.488
X139.911 Y13.648
X140.089 Y13.815
X140.262 Y13.988
X140.428 Y14.167
X140.588 Y14.352
X140.742 Y14.542
X140.888 Y14.738
X141.027 Y14.939
X141.159 Y15.144
X141.284 Y15.354
X141.401 Y15.569
X141.511 Y15.787
X141.612 Y16.009
X141.706 Y16.235
X141.793 Y16.467
X141.886 Y16.746
X142.007 Y17.157
X142.129 Y17.633
X142.216 Y18.029
X142.279 Y18.374
X142.296 Y18.493
X142.316 Y18.651
X142.327 Y18.81
X142.331 Y18.969
Y20.276
X142.264 Y21.617
X142.246 Y22.078
X142.146 Y23.416
X142.149 Y23.444
X142.161 Y23.853
X142.105 Y24.258
X141.981 Y24.647
X141.794 Y25.011
X141.548 Y25.338
X141.251 Y25.619
X140.911 Y25.846
X140.538 Y26.013
X140.142 Y26.116
X139.735 Y26.15
G3 X139.253 Y26.036 I0.044 J-1.269
X138.557 Y24.537 I0.527 J-1.156
G1 X139.839 Y19.977
G3 X142.217 Y19.794 I1.223 J0.344
X142.331 Y20.276 I-1.156 J0.527
G1 Y24.829
X142.322 Y25.019
X142.284 Y25.209
X142.273 Y25.24
G3 X141.112 Y26.031 I-1.176 J-0.479
G1 X131.653 Y26.144
X131.154 Y26.15
X129.841
X129.632 Y26.147
X129.6 Y26.145
X129.238 Y25.567
X128.933 Y25.04
X128.666 Y24.538
X128.618 Y24.437
X128.474 Y24.093
X128.369 Y23.734
X128.306 Y23.366
X128.285 Y22.994
G3 X131.82 Y22.016 I1.921 J0.067
X130.127 Y26.09 I-2.248 J1.455
X129.632 Y26.147 I-0.554 J-2.619
G1 X129.461 Y26.145
X129.27 Y26.114
X129.08 Y26.051
X128.916 Y25.968
X128.808 Y25.894
X128.699 Y25.806
X128.594 Y25.697
X128.509 Y25.588
X128.401 Y25.399
X128.332 Y25.209
X128.319 Y25.159
X128.291 Y24.994
X128.285 Y24.829
Y16.862
X128.295 Y16.666
X128.308 Y16.516
X128.326 Y16.367
X128.351 Y16.215
X128.383 Y16.056
X128.422 Y15.894
X128.468 Y15.727
X128.522 Y15.553
X128.586 Y15.374
X128.658 Y15.191
X128.738 Y15.008
X128.826 Y14.822
X128.924 Y14.635
X129.032 Y14.446
X129.149 Y14.256
X129.276 Y14.066
X129.411 Y13.878
X129.556 Y13.692
X129.709 Y13.508
X129.87 Y13.328
X130.04 Y13.151
X130.218 Y12.979
X130.404 Y12.811
X130.598 Y12.649
X130.799 Y12.492
X131.008 Y12.341
X131.223 Y12.196
X131.445 Y12.058
X131.673 Y11.928
X131.906 Y11.805
X132.145 Y11.69
X132.389 Y11.582
X132.637 Y11.484
X132.89 Y11.393
X133.147 Y11.312
X133.407 Y11.24
X133.67 Y11.176
X133.935 Y11.122
X134.203 Y11.078
X134.473 Y11.043
X134.744 Y11.017
X135.016 Y11.001
X135.29 Y10.995
X135.563 Y10.998
X135.837 Y11.011
X136.11 Y11.034
X136.382 Y11.067
X136.653 Y11.109
X136.923 Y11.161
X137.19 Y11.222
X137.456 Y11.293
X137.719 Y11.374
X137.979 Y11.463
X138.236 Y11.562
X138.489 Y11.67
X138.738 Y11.787
X138.983 Y11.913
X139.224 Y12.048
X139.459 Y12.191
X139.69 Y12.342
X139.915 Y12.501
X140.134 Y12.669
X140.347 Y12.844
X140.554 Y13.026
X140.754 Y13.216
X140.947 Y13.413
X141.134 Y13.616
X141.313 Y13.826
X141.484 Y14.043
X141.651 Y14.269
X141.821 Y14.519
X142.041 Y14.928
X142.201 Y15.364
X142.298 Y15.818
X142.331 Y16.281
Y18.969
G3 X142.217 Y19.452 I-1.269 J-0.044
X140.833 Y20.174 I-1.156 J-0.527
G1 X129.325 Y18.067
G3 X128.399 Y17.344 I0.229 J-1.249
X128.285 Y16.862 I1.156 J-0.527
G1 Y15.515
X128.295 Y15.312
X128.308 Y15.162
X128.328 Y15.014
X128.356 Y14.866
X128.39 Y14.72
X128.429 Y14.575
X128.475 Y14.431
X128.527 Y14.283
X128.587 Y14.132
X128.655 Y13.976
X128.733 Y13.814
X128.819 Y13.649
X128.915 Y13.482
X129.018 Y13.314
X129.132 Y13.144
X129.256 Y12.972
X129.391 Y12.799
X129.535 Y12.626
X129.689 Y12.454
X129.852 Y12.285
X130.024 Y12.119
X130.206 Y11.956
X130.397 Y11.795
X130.599 Y11.638
X130.809 Y11.486
X131.028 Y11.34
X131.255 Y11.198
X131.491 Y11.064
X131.733 Y10.937
X131.982 Y10.817
X132.238 Y10.705
X132.5 Y10.601
X132.767 Y10.506
X133.04 Y10.419
X133.318 Y10.342
X133.6 Y10.275
X133.886 Y10.217
X134.175 Y10.169
X134.467 Y10.131
X134.763 Y10.103
X135.06 Y10.086
X135.358 Y10.079
X135.658 Y10.083
X135.958 Y10.098
X136.259 Y10.124
X136.559 Y10.16
X136.858 Y10.207
X137.156 Y10.264
X137.453 Y10.333
X137.747 Y10.412
X138.039 Y10.501
X138.328 Y10.601
X138.613 Y10.711
X138.895 Y10.832
X139.172 Y10.962
X139.445 Y11.103
X139.713 Y11.253
X139.975 Y11.412
X140.232 Y11.581
X140.483 Y11.76
X140.728 Y11.947
X140.965 Y12.142
X141.159 Y12.313
X141.36 Y12.504
X141.387 Y12.531
X141.665 Y12.854
X141.899 Y13.21
X142.086 Y13.594
X142.221 Y13.998
X142.303 Y14.417
X142.331 Y14.842
Y16.281
G3 X142.217 Y16.764 I-1.269 J-0.044
X140.977 Y17.504 I-1.156 J-0.527
G1 X129.47 Y16.738
G3 X128.399 Y15.997 I0.084 J-1.267
X128.285 Y15.515 I1.156 J-0.527
G1 Y14.325
X128.292 Y14.175
X128.305 Y14.026
X128.327 Y13.877
X128.356 Y13.73
X128.393 Y13.585
X128.435 Y13.441
X128.483 Y13.299
X128.537 Y13.159
X128.597 Y13.018
X128.665 Y12.872
X128.743 Y12.721
X128.83 Y12.565
X128.924 Y12.409
X129.028 Y12.25
X129.143 Y12.088
X129.268 Y11.924
X129.404 Y11.758
X129.549 Y11.593
X129.704 Y11.43
X129.869 Y11.267
X130.045 Y11.105
X130.233 Y10.945
X130.431 Y10.788
X130.639 Y10.634
X130.857 Y10.486
X131.083 Y10.342
X131.153 Y10.301
X131.544 Y10.106
X131.956 Y9.965
X132.384 Y9.879
X132.819 Y9.85
G3 X133.664 Y12.025 I-0.044 J1.269
G1 X130.444 Y15.187
G3 X128.399 Y14.807 I-0.89 J-0.906
X128.285 Y14.325 I1.156 J-0.527
G1 Y13.252
X128.292 Y13.102
X128.307 Y12.953
X128.331 Y12.805
X128.363 Y12.658
X128.402 Y12.514
X128.448 Y12.371
X128.499 Y12.23
X128.556 Y12.091
X128.618 Y11.954
X128.688 Y11.813
X128.768 Y11.665
X128.857 Y11.514
X128.955 Y11.361
X129.061 Y11.207
X129.079 Y11.182
X129.364 Y10.848
X129.69 Y10.555
X130.053 Y10.307
X130.445 Y10.11
X130.86 Y9.966
X131.29 Y9.879
X131.728 Y9.85
G3 X132.573 Y12.026 I-0.044 J1.269
G1 X130.443 Y14.115
G3 X128.399 Y13.735 I-0.889 J-0.907
X128.285 Y13.252 I1.156 J-0.527
G1 Y12.246
X128.292 Y12.096
X128.308 Y11.947
X128.334 Y11.799
X128.466 Y11.397
X128.664 Y11.022
X128.921 Y10.685
X129.23 Y10.396
X129.583 Y10.162
X129.97 Y9.99
X130.381 Y9.885
X130.803 Y9.85
G3 X131.295 Y9.92 I-0.081 J2.329
X132.942 Y12.886 I-0.574 J2.259
X128.354 Y12.739 I-2.273 J-0.723
X128.285 Y12.246 I2.315 J-0.576
G1 Y11.487
X128.292 Y11.337
X128.313 Y11.188
X128.422 Y10.874
X128.589 Y10.585
X128.808 Y10.334
X129.07 Y10.128
X129.366 Y9.975
X129.686 Y9.882
X130.018 Y9.85
G3 X131.477 Y11.939 I-0.056 J1.593
X128.377 Y11.975 I-1.556 J-0.509
X128.285 Y11.487 I1.544 J-0.545
G1 Y11.171
X128.291 Y11.006
X128.319 Y10.841
X128.332 Y10.791
X128.401 Y10.601
X128.509 Y10.412
X128.594 Y10.303
X128.699 Y10.194
X128.808 Y10.106
X128.916 Y10.032
X129.08 Y9.949
X129.27 Y9.886
X129.461 Y9.855
X129.841 Y9.85
X137.452
X137.705 Y9.863
X137.887 Y9.878
X138.077 Y9.901
X138.271 Y9.932
X138.476 Y9.972
X138.691 Y10.022
X138.912 Y10.081
X139.137 Y10.15
X139.365 Y10.23
X139.6 Y10.321
X139.835 Y10.422
X140.071 Y10.533
X140.276 Y10.638
X140.485 Y10.756
X140.683 Y10.877
X140.85 Y10.987
X141.023 Y11.11
X141.039 Y11.122
X141.414 Y11.458
X141.734 Y11.847
X141.99 Y12.281
X142.178 Y12.748
X142.293 Y13.239
X142.331 Y13.741
G3 X142.217 Y14.224 I-1.269 J-0.044
X140.318 Y14.726 I-1.156 J-0.527
G1 X136.752 Y12.148
G3 X137.452 Y9.85 I0.744 J-1.029
G1 X139.183
X139.362 Y9.859
X139.512 Y9.872
X139.66 Y9.891
X139.808 Y9.917
X139.955 Y9.948
X140.1 Y9.985
X140.244 Y10.028
X140.386 Y10.077
X140.526 Y10.13
X140.664 Y10.19
X140.799 Y10.255
X141.175 Y10.492
X141.51 Y10.784
X141.796 Y11.124
X142.026 Y11.505
X142.194 Y11.916
X142.297 Y12.349
X142.331 Y12.792
G3 X142.217 Y13.275 I-1.269 J-0.044
X140.219 Y13.698 I-1.156 J-0.527
G1 X138.384 Y12.069
G3 X138.701 Y9.964 I0.843 J-0.95
X139.183 Y9.85 I0.527 J1.156
G1 X140.325
X140.475 Y9.858
X140.624 Y9.874
X140.973 Y9.975
X141.3 Y10.135
X141.595 Y10.348
X141.85 Y10.608
X142.055 Y10.908
X142.207 Y11.239
X142.3 Y11.591
X142.331 Y11.954
G3 X142.25 Y12.444 I-1.95 J-0.068
X139.794 Y13.746 I-1.869 J-0.559
X139.834 Y9.929 I0.6 J-1.902
X140.325 Y9.85 I0.561 J1.914
G1 X140.877
X141.036 Y9.857
X141.073 Y9.859
X141.103 Y9.86
X141.253 Y9.875
X141.398 Y9.913
X141.538 Y9.966
X141.673 Y10.031
X141.792 Y10.108
X141.904 Y10.194
X142.009 Y10.289
G3 X141.273 Y11.275 I-0.452 J0.43
G1 X140.813 Y11.04
G3 X141.103 Y9.86 I0.284 J-0.556
G1 X141.257 Y9.867
X141.447 Y9.914
X141.638 Y9.995
X141.704 Y10.032
X141.861 Y10.144
X142.018 Y10.298
X142.107 Y10.412
X142.215 Y10.601
X142.284 Y10.791
X142.322 Y10.981
X142.331 Y11.171
Y14.842
G3 X142.217 Y15.324 I-1.269 J-0.044
G1 X142.158 Y15.454 Z-6.222
X142.1 Y15.582 Z-6.198
X142.043 Y15.706 Z-6.159
X141.989 Y15.826 Z-6.104
X141.937 Y15.939 Z-6.035
X141.889 Y16.045 Z-5.953
X141.845 Y16.142 Z-5.858
X141.806 Y16.228 Z-5.752
X141.771 Y16.303 Z-5.636
X141.743 Y16.366 Z-5.511
X141.72 Y16.415 Z-5.379
X141.704 Y16.451 Z-5.243
X141.694 Y16.473 Z-5.102
X141.691 Y16.48 Z-4.96
G0 Z15

(2D Contour3)
M9
X15.38 Y36.16
Z15
Z5
G1 Z2.5 F283.3
Z-0.23
G19 G2 Y34.89 Z-1.5 J-1.27
G1 Y33.62 F849.6
G17 G3 X16.65 Y32.35 I1.27
G1 X86.65
G2 X93 Y26 J-6.35
G1 Y1
G2 X86.65 Y-5.35 I-6.35
G1 X68.85
G2 X62.5 Y1 J6.35
G3 X40.8 I-10.85
G2 X34.45 Y-5.35 I-6.35
G1 X16.65
G2 X10.3 Y1 J6.35
G1 Y26
G2 X16.65 Y32.35 I6.35
G1 X86.65
G2 X93 Y26 J-6.35
G1 Y1
G2 X86.65 Y-5.35 I-6.35
G1 X68.85
G2 X62.5 Y1 J6.35
G3 X40.8 I-10.85
G2 X34.45 Y-5.35 I-6.35
G1 X16.65
G2 X10.3 Y1 J6.35
G1 Y26
G2 X16.65 Y32.35 I6.35
G3 X17.92 Y33.62 J1.27
G1 Y34.89
G19 G3 Y36.16 Z-0.23 K1.27
G0 Z5
X15.38
G1 Z1 F283.3
Z-1.73
G2 Y34.89 Z-3 J-1.27
G1 Y33.62 F849.6
G17 G3 X16.65 Y32.35 I1.27
G1 X86.65
G2 X93 Y26 J-6.35
G1 Y1
G2 X86.65 Y-5.35 I-6.35
G1 X68.85
G2 X62.5 Y1 J6.35
G3 X40.8 I-10.85
G2 X34.45 Y-5.35 I-6.35
G1 X16.65
G2 X10.3 Y1 J6.35
G1 Y26
G2 X16.65 Y32.35 I6.35
G1 X86.65
G2 X93 Y26 J-6.35
G1 Y1
G2 X86.65 Y-5.35 I-6.35
G1 X68.85
G2 X62.5 Y1 J6.35
G3 X40.8 I-10.85
G2 X34.45 Y-5.35 I-6.35
G1 X16.65
G2 X10.3 Y1 J6.35
G1 Y26
G2 X16.65 Y32.35 I6.35
G3 X17.92 Y33.62 J1.27
G1 Y34.89
G19 G3 Y36.16 Z-1.73 K1.27
G0 Z5
X15.38
G1 Z-0.5 F283.3
Z-3.23
G2 Y34.89 Z-4.5 J-1.27
G1 Y33.62 F849.6
G17 G3 X16.65 Y32.35 I1.27
G1 X86.65
G2 X93 Y26 J-6.35
G1 Y1
G2 X86.65 Y-5.35 I-6.35
G1 X68.85
G2 X62.5 Y1 J6.35
G3 X40.8 I-10.85
G2 X34.45 Y-5.35 I-6.35
G1 X16.65
G2 X10.3 Y1 J6.35
G1 Y26
G2 X16.65 Y32.35 I6.35
G1 X86.65
G2 X93 Y26 J-6.35
G1 Y1
G2 X86.65 Y-5.35 I-6.35
G1 X68.85
G2 X62.5 Y1 J6.35
G3 X40.8 I-10.85
G2 X34.45 Y-5.35 I-6.35
G1 X16.65
G2 X10.3 Y1 J6.35
G1 Y26
G2 X16.65 Y32.35 I6.35
G3 X17.92 Y33.62 J1.27
G1 Y34.89
G19 G3 Y36.16 Z-3.23 K1.27
G0 Z5
X15.38
G1 Z-2 F283.3
Z-4.73
G2 Y34.89 Z-6 J-1.27
G1 Y33.62 F849.6
G17 G3 X16.65 Y32.35 I1.27
G1 X86.65
G2 X93 Y26 J-6.35
G1 Y1
G2 X86.65 Y-5.35 I-6.35
G1 X68.85
G2 X62.5 Y1 J6.35
G3 X40.8 I-10.85
G2 X34.45 Y-5.35 I-6.35
G1 X16.65
G2 X10.3 Y1 J6.35
G1 Y26
G2 X16.65 Y32.35 I6.35
G1 X86.65
G2 X93 Y26 J-6.35
G1 Y1
G2 X86.65 Y-5.35 I-6.35
G1 X68.85
G2 X62.5 Y1 J6.35
G3 X40.8 I-10.85
G2 X34.45 Y-5.35 I-6.35
G1 X16.65
G2 X10.3 Y1 J6.35
G1 Y26
G2 X16.65 Y32.35 I6.35
G3 X17.92 Y33.62 J1.27
G1 Y34.89
G19 G3 Y36.16 Z-4.73 K1.27
G0 Z5
X15.38
G1 Z-3.5 F283.3
Z-6.23
G2 Y34.89 Z-7.5 J-1.27
G1 Y33.62 F849.6
G17 G3 X16.65 Y32.35 I1.27
G1 X86.65
G2 X93 Y26 J-6.35
G1 Y1
G2 X86.65 Y-5.35 I-6.35
G1 X68.85
G2 X62.5 Y1 J6.35
G3 X40.8 I-10.85
G2 X34.45 Y-5.35 I-6.35
G1 X16.65
G2 X10.3 Y1 J6.35
G1 Y26
G2 X16.65 Y32.35 I6.35
G1 X86.65
G2 X93 Y26 J-6.35
G1 Y1
G2 X86.65 Y-5.35 I-6.35
G1 X68.85
G2 X62.5 Y1 J6.35
G3 X40.8 I-10.85
G2 X34.45 Y-5.35 I-6.35
G1 X16.65
G2 X10.3 Y1 J6.35
G1 Y26
G2 X16.65 Y32.35 I6.35
G3 X17.92 Y33.62 J1.27
G1 Y34.89
G19 G3 Y36.16 Z-6.23 K1.27
G0 Z5
X15.38
G1 Z-5 F283.3
Z-7.73
G2 Y34.89 Z-9 J-1.27
G1 Y33.62 F849.6
G17 G3 X16.65 Y32.35 I1.27
G1 X86.65
G2 X93 Y26 J-6.35
G1 Y1
G2 X86.65 Y-5.35 I-6.35
G1 X68.85
G2 X62.5 Y1 J6.35
G3 X40.8 I-10.85
G2 X34.45 Y-5.35 I-6.35
G1 X16.65
G2 X10.3 Y1 J6.35
G1 Y26
G2 X16.65 Y32.35 I6.35
G1 X86.65
G2 X93 Y26 J-6.35
G1 Y1
G2 X86.65 Y-5.35 I-6.35
G1 X68.85
G2 X62.5 Y1 J6.35
G3 X40.8 I-10.85
G2 X34.45 Y-5.35 I-6.35
G1 X16.65
G2 X10.3 Y1 J6.35
G1 Y26
G2 X16.65 Y32.35 I6.35
G3 X17.92 Y33.62 J1.27
G1 Y34.89
G19 G3 Y36.16 Z-7.73 K1.27
G0 Z5
X15.38
G1 Z-6.5 F283.3
Z-9.23
G2 Y34.89 Z-10.5 J-1.27
G1 Y33.62 F849.6
G17 G3 X16.65 Y32.35 I1.27
G1 X86.65
G2 X93 Y26 J-6.35
G1 Y1
G2 X86.65 Y-5.35 I-6.35
G1 X68.85
G2 X62.5 Y1 J6.35
G3 X40.8 I-10.85
G2 X34.45 Y-5.35 I-6.35
G1 X16.65
G2 X10.3 Y1 J6.35
G1 Y26
G2 X16.65 Y32.35 I6.35
G1 X86.65
G2 X93 Y26 J-6.35
G1 Y1
G2 X86.65 Y-5.35 I-6.35
G1 X68.85
G2 X62.5 Y1 J6.35
G3 X40.8 I-10.85
G2 X34.45 Y-5.35 I-6.35
G1 X16.65
G2 X10.3 Y1 J6.35
G1 Y26
G2 X16.65 Y32.35 I6.35
G3 X17.92 Y33.62 J1.27
G1 Y34.89
G19 G3 Y36.16 Z-9.23 K1.27
G0 Z5
X15.38
G1 Z-8 F283.3
Z-10.73
G2 Y34.89 Z-12 J-1.27
G1 Y33.62 F849.6
G17 G3 X16.65 Y32.35 I1.27
G1 X86.65
G2 X93 Y26 J-6.35
G1 Y1
G2 X86.65 Y-5.35 I-6.35
G1 X68.85
G2 X62.5 Y1 J6.35
G3 X40.8 I-10.85
G2 X34.45 Y-5.35 I-6.35
G1 X16.65
G2 X10.3 Y1 J6.35
G1 Y26
G2 X16.65 Y32.35 I6.35
G1 X86.65
G2 X93 Y26 J-6.35
G1 Y1
G2 X86.65 Y-5.35 I-6.35
G1 X68.85
G2 X62.5 Y1 J6.35
G3 X40.8 I-10.85
G2 X34.45 Y-5.35 I-6.35
G1 X16.65
G2 X10.3 Y1 J6.35
G1 Y26
G2 X16.65 Y32.35 I6.35
G3 X17.92 Y33.62 J1.27
G1 Y34.89
G19 G3 Y36.16 Z-10.73 K1.27
G0 Z5
X15.38
G1 Z-9.5 F283.3
Z-12.23
G2 Y34.89 Z-13.5 J-1.27
G1 Y33.62 F849.6
G17 G3 X16.65 Y32.35 I1.27
G1 X86.65
G2 X93 Y26 J-6.35
G1 Y1
G2 X86.65 Y-5.35 I-6.35
G1 X68.85
G2 X62.5 Y1 J6.35
G3 X40.8 I-10.85
G2 X34.45 Y-5.35 I-6.35
G1 X16.65
G2 X10.3 Y1 J6.35
G1 Y26
G2 X16.65 Y32.35 I6.35
G1 X86.65
G2 X93 Y26 J-6.35
G1 Y1
G2 X86.65 Y-5.35 I-6.35
G1 X68.85
G2 X62.5 Y1 J6.35
G3 X40.8 I-10.85
G2 X34.45 Y-5.35 I-6.35
G1 X16.65
G2 X10.3 Y1 J6.35
G1 Y26
G2 X16.65 Y32.35 I6.35
G3 X17.92 Y33.62 J1.27
G1 Y34.89
G19 G3 Y36.16 Z-12.23 K1.27
G0 Z5
X15.38
G1 Z-11 F283.3
Z-13.73
G2 Y34.89 Z-15 J-1.27
G1 Y33.62 F849.6
G17 G3 X16.65 Y32.35 I1.27
G1 X86.65
G2 X93 Y26 J-6.35
G1 Y1
G2 X86.65 Y-5.35 I-6.35
G1 X68.85
G2 X62.5 Y1 J6.35
G3 X40.8 I-10.85
G2 X34.45 Y-5.35 I-6.35
G1 X16.65
G2 X10.3 Y1 J6.35
G1 Y26
G2 X16.65 Y32.35 I6.35
G1 X86.65
G2 X93 Y26 J-6.35
G1 Y1
G2 X86.65 Y-5.35 I-6.35
G1 X68.85
G2 X62.5 Y1 J6.35
G3 X40.8 I-10.85
G2 X34.45 Y-5.35 I-6.35
G1 X16.65
G2 X10.3 Y1 J6.35
G1 Y26
G2 X16.65 Y32.35 I6.35
G3 X17.92 Y33.62 J1.27
G1 Y34.89
G19 G3 Y36.16 Z-13.73 K1.27
G0 Z5
X15.38
G1 Z-12.5 F283.3
Z-15.23
G2 Y34.89 Z-16.5 J-1.27
G1 Y33.62 F849.6
G17 G3 X16.65 Y32.35 I1.27
G1 X86.65
G2 X93 Y26 J-6.35
G1 Y1
G2 X86.65 Y-5.35 I-6.35
G1 X68.85
G2 X62.5 Y1 J6.35
G3 X40.8 I-10.85
G2 X34.45 Y-5.35 I-6.35
G1 X16.65
G2 X10.3 Y1 J6.35
G1 Y26
G2 X16.65 Y32.35 I6.35
G1 X86.65
G2 X93 Y26 J-6.35
G1 Y1
G2 X86.65 Y-5.35 I-6.35
G1 X68.85
G2 X62.5 Y1 J6.35
G3 X40.8 I-10.85
G2 X34.45 Y-5.35 I-6.35
G1 X16.65
G2 X10.3 Y1 J6.35
G1 Y26
G2 X16.65 Y32.35 I6.35
G3 X17.92 Y33.62 J1.27
G1 Y34.89
G19 G3 Y36.16 Z-15.23 K1.27
G0 Z5
X15.38
G1 Z-14 F283.3
Z-16.73
G2 Y34.89 Z-18 J-1.27
G1 Y33.62 F849.6
G17 G3 X16.65 Y32.35 I1.27
G1 X86.65
G2 X93 Y26 J-6.35
G1 Y1
G2 X86.65 Y-5.35 I-6.35
G1 X68.85
G2 X62.5 Y1 J6.35
G3 X40.8 I-10.85
G2 X34.45 Y-5.35 I-6.35
G1 X16.65
G2 X10.3 Y1 J6.35
G1 Y26
G2 X16.65 Y32.35 I6.35
G1 X86.65
G2 X93 Y26 J-6.35
G1 Y1
G2 X86.65 Y-5.35 I-6.35
G1 X68.85
G2 X62.5 Y1 J6.35
G3 X40.8 I-10.85
G2 X34.45 Y-5.35 I-6.35
G1 X16.65
G2 X10.3 Y1 J6.35
G1 Y26
G2 X16.65 Y32.35 I6.35
G3 X17.92 Y33.62 J1.27
G1 Y34.89
G19 G3 Y36.16 Z-16.73 K1.27
G0 Z5
X15.38
G1 Z-15.5 F283.3
Z-18.23
G2 Y34.89 Z-19.5 J-1.27
G1 Y33.62 F849.6
G17 G3 X16.65 Y32.35 I1.27
G1 X86.65
G2 X93 Y26 J-6.35
G1 Y1
G2 X86.65 Y-5.35 I-6.35
G1 X68.85
G2 X62.5 Y1 J6.35
G3 X40.8 I-10.85
G2 X34.45 Y-5.35 I-6.35
G1 X16.65
G2 X10.3 Y1 J6.35
G1 Y26
G2 X16.65 Y32.35 I6.35
G1 X86.65
G2 X93 Y26 J-6.35
G1 Y1
G2 X86.65 Y-5.35 I-6.35
G1 X68.85
G2 X62.5 Y1 J6.35
G3 X40.8 I-10.85
G2 X34.45 Y-5.35 I-6.35
G1 X16.65
G2 X10.3 Y1 J6.35
G1 Y26
G2 X16.65 Y32.35 I6.35
G3 X17.92 Y33.62 J1.27
G1 Y34.89
G19 G3 Y36.16 Z-18.23 K1.27
G0 Z5
X15.38
G1 Z-17 F283.3
Z-19.73
G2 Y34.89 Z-21 J-1.27
G1 Y33.62 F849.6
G17 G3 X16.65 Y32.35 I1.27
G1 X86.65
G2 X93 Y26 J-6.35
G1 Y1
G2 X86.65 Y-5.35 I-6.35
G1 X68.85
G2 X62.5 Y1 J6.35
G3 X40.8 I-10.85
G2 X34.45 Y-5.35 I-6.35
G1 X16.65
G2 X10.3 Y1 J6.35
G1 Y26
G2 X16.65 Y32.35 I6.35
G1 X86.65
G2 X93 Y26 J-6.35
G1 Y1
G2 X86.65 Y-5.35 I-6.35
G1 X68.85
G2 X62.5 Y1 J6.35
G3 X40.8 I-10.85
G2 X34.45 Y-5.35 I-6.35
G1 X16.65
G2 X10.3 Y1 J6.35
G1 Y26
G2 X16.65 Y32.35 I6.35
G3 X17.92 Y33.62 J1.27
G1 Y34.89
G19 G3 Y36.16 Z-19.73 K1.27
G0 Z5
X15.38
G1 Z-18.5 F283.3
Z-21.23
G2 Y34.89 Z-22.5 J-1.27
G1 Y33.62 F849.6
G17 G3 X16.65 Y32.35 I1.27
G1 X86.65
G2 X93 Y26 J-6.35
G1 Y1
G2 X86.65 Y-5.35 I-6.35
G1 X68.85
G2 X62.5 Y1 J6.35
G3 X40.8 I-10.85
G2 X34.45 Y-5.35 I-6.35
G1 X16.65
G2 X10.3 Y1 J6.35
G1 Y26
G2 X16.65 Y32.35 I6.35
G1 X86.65
G2 X93 Y26 J-6.35
G1 Y1
G2 X86.65 Y-5.35 I-6.35
G1 X68.85
G2 X62.5 Y1 J6.35
G3 X40.8 I-10.85
G2 X34.45 Y-5.35 I-6.35
G1 X16.65
G2 X10.3 Y1 J6.35
G1 Y26
G2 X16.65 Y32.35 I6.35
G3 X17.92 Y33.62 J1.27
G1 Y34.89
G19 G3 Y36.16 Z-21.23 K1.27
G0 Z5
X15.38
G1 Z-20 F283.3
Z-22.73
G2 Y34.89 Z-24 J-1.27
G1 Y33.62 F849.6
G17 G3 X16.65 Y32.35 I1.27
G1 X86.65
G2 X93 Y26 J-6.35
G1 Y1
G2 X86.65 Y-5.35 I-6.35
G1 X68.85
G2 X62.5 Y1 J6.35
G3 X40.8 I-10.85
G2 X34.45 Y-5.35 I-6.35
G1 X16.65
G2 X10.3 Y1 J6.35
G1 Y26
G2 X16.65 Y32.35 I6.35
G1 X86.65
G2 X93 Y26 J-6.35
G1 Y1
G2 X86.65 Y-5.35 I-6.35
G1 X68.85
G2 X62.5 Y1 J6.35
G3 X40.8 I-10.85
G2 X34.45 Y-5.35 I-6.35
G1 X16.65
G2 X10.3 Y1 J6.35
G1 Y26
G2 X16.65 Y32.35 I6.35
G3 X17.92 Y33.62 J1.27
G1 Y34.89
G19 G3 Y36.16 Z-22.73 K1.27
G0 Z5
X15.38
G1 Z-21.5 F283.3
Z-24.23
G2 Y34.89 Z-25.5 J-1.27
G1 Y33.62 F849.6
G17 G3 X16.65 Y32.35 I1.27
G1 X86.65
G2 X93 Y26 J-6.35
G1 Y1
G2 X86.65 Y-5.35 I-6.35
G1 X68.85
G2 X62.5 Y1 J6.35
G3 X40.8 I-10.85
G2 X34.45 Y-5.35 I-6.35
G1 X16.65
G2 X10.3 Y1 J6.35
G1 Y26
G2 X16.65 Y32.35 I6.35
G1 X86.65
G2 X93 Y26 J-6.35
G1 Y1
G2 X86.65 Y-5.35 I-6.35
G1 X68.85
G2 X62.5 Y1 J6.35
G3 X40.8 I-10.85
G2 X34.45 Y-5.35 I-6.35
G1 X16.65
G2 X10.3 Y1 J6.35
G1 Y26
G2 X16.65 Y32.35 I6.35
G3 X17.92 Y33.62 J1.27
G1 Y34.89
G19 G3 Y36.16 Z-24.23 K1.27
G0 Z5
X15.38
G1 Z-23 F283.3
Z-25.73
G2 Y34.89 Z-27 J-1.27
G1 Y33.62 F849.6
G17 G3 X16.65 Y32.35 I1.27
G1 X86.65
G2 X93 Y26 J-6.35
G1 Y1
G2 X86.65 Y-5.35 I-6.35
G1 X68.85
G2 X62.5 Y1 J6.35
G3 X40.8 I-10.85
G2 X34.45 Y-5.35 I-6.35
G1 X16.65
G2 X10.3 Y1 J6.35
G1 Y26
G2 X16.65 Y32.35 I6.35
G1 X86.65
G2 X93 Y26 J-6.35
G1 Y1
G2 X86.65 Y-5.35 I-6.35
G1 X68.85
G2 X62.5 Y1 J6.35
G3 X40.8 I-10.85
G2 X34.45 Y-5.35 I-6.35
G1 X16.65
G2 X10.3 Y1 J6.35
G1 Y26
G2 X16.65 Y32.35 I6.35
G3 X17.92 Y33.62 J1.27
G1 Y34.89
G19 G3 Y36.16 Z-25.73 K1.27
G0 Z5
X15.38
G1 Z-24.5 F283.3
Z-27.23
G2 Y34.89 Z-28.5 J-1.27
G1 Y33.62 F849.6
G17 G3 X16.65 Y32.35 I1.27
G1 X86.65
G2 X93 Y26 J-6.35
G1 Y1
G2 X86.65 Y-5.35 I-6.35
G1 X68.85
G2 X62.5 Y1 J6.35
G3 X40.8 I-10.85
G2 X34.45 Y-5.35 I-6.35
G1 X16.65
G2 X10.3 Y1 J6.35
G1 Y26
G2 X16.65 Y32.35 I6.35
G1 X86.65
G2 X93 Y26 J-6.35
G1 Y1
G2 X86.65 Y-5.35 I-6.35
G1 X68.85
G2 X62.5 Y1 J6.35
G3 X40.8 I-10.85
G2 X34.45 Y-5.35 I-6.35
G1 X16.65
G2 X10.3 Y1 J6.35
G1 Y26
G2 X16.65 Y32.35 I6.35
G3 X17.92 Y33.62 J1.27
G1 Y34.89
G19 G3 Y36.16 Z-27.23 K1.27
G0 Z5
X15.38
G1 Z-26 F283.3
Z-28.73
G2 Y34.89 Z-30 J-1.27
G1 Y33.62 F849.6
G17 G3 X16.65 Y32.35 I1.27
G1 X86.65
G2 X93 Y26 J-6.35
G1 Y1
G2 X86.65 Y-5.35 I-6.35
G1 X68.85
G2 X62.5 Y1 J6.35
G3 X40.8 I-10.85
G2 X34.45 Y-5.35 I-6.35
G1 X16.65
G2 X10.3 Y1 J6.35
G1 Y26
G2 X16.65 Y32.35 I6.35
G1 X86.65
G2 X93 Y26 J-6.35
G1 Y1
G2 X86.65 Y-5.35 I-6.35
G1 X68.85
G2 X62.5 Y1 J6.35
G3 X40.8 I-10.85
G2 X34.45 Y-5.35 I-6.35
G1 X16.65
G2 X10.3 Y1 J6.35
G1 Y26
G2 X16.65 Y32.35 I6.35
G3 X17.92 Y33.62 J1.27
G1 Y34.89
G19 G3 Y36.16 Z-28.73 K1.27
G0 Z5
X15.38
G1 Z-27.5 F283.3
Z-30.23
G2 Y34.89 Z-31.5 J-1.27
G1 Y33.62 F849.6
G17 G3 X16.65 Y32.35 I1.27
G1 X86.65
G2 X93 Y26 J-6.35
G1 Y1
G2 X86.65 Y-5.35 I-6.35
G1 X68.85
G2 X62.5 Y1 J6.35
G3 X40.8 I-10.85
G2 X34.45 Y-5.35 I-6.35
G1 X16.65
G2 X10.3 Y1 J6.35
G1 Y26
G2 X16.65 Y32.35 I6.35
G1 X86.65
G2 X93 Y26 J-6.35
G1 Y1
G2 X86.65 Y-5.35 I-6.35
G1 X68.85
G2 X62.5 Y1 J6.35
G3 X40.8 I-10.85
G2 X34.45 Y-5.35 I-6.35
G1 X16.65
G2 X10.3 Y1 J6.35
G1 Y26
G2 X16.65 Y32.35 I6.35
G3 X17.92 Y33.62 J1.27
G1 Y34.89
G19 G3 Y36.16 Z-30.23 K1.27
G0 Z5
X15.38
G1 Z-29 F283.3
Z-31.73
G2 Y34.89 Z-33 J-1.27
G1 Y33.62 F849.6
G17 G3 X16.65 Y32.35 I1.27
G1 X86.65
G2 X93 Y26 J-6.35
G1 Y1
G2 X86.65 Y-5.35 I-6.35
G1 X68.85
G2 X62.5 Y1 J6.35
G3 X40.8 I-10.85
G2 X34.45 Y-5.35 I-6.35
G1 X16.65
G2 X10.3 Y1 J6.35
G1 Y26
G2 X16.65 Y32.35 I6.35
G1 X86.65
G2 X93 Y26 J-6.35
G1 Y1
G2 X86.65 Y-5.35 I-6.35
G1 X68.85
G2 X62.5 Y1 J6.35
G3 X40.8 I-10.85
G2 X34.45 Y-5.35 I-6.35
G1 X16.65
G2 X10.3 Y1 J6.35
G1 Y26
G2 X16.65 Y32.35 I6.35
G3 X17.92 Y33.62 J1.27
G1 Y34.89
G19 G3 Y36.16 Z-31.73 K1.27
G0 Z5
X15.38
G1 Z-30.5 F283.3
Z-33.23
G2 Y34.89 Z-34.5 J-1.27
G1 Y33.62 F849.6
G17 G3 X16.65 Y32.35 I1.27
G1 X86.65
G2 X93 Y26 J-6.35
G1 Y1
G2 X86.65 Y-5.35 I-6.35
G1 X68.85
G2 X62.5 Y1 J6.35
G3 X40.8 I-10.85
G2 X34.45 Y-5.35 I-6.35
G1 X16.65
G2 X10.3 Y1 J6.35
G1 Y26
G2 X16.65 Y32.35 I6.35
G1 X86.65
G2 X93 Y26 J-6.35
G1 Y1
G2 X86.65 Y-5.35 I-6.35
G1 X68.85
G2 X62.5 Y1 J6.35
G3 X40.8 I-10.85
G2 X34.45 Y-5.35 I-6.35
G1 X16.65
G2 X10.3 Y1 J6.35
G1 Y26
G2 X16.65 Y32.35 I6.35
G3 X17.92 Y33.62 J1.27
G1 Y34.89
G19 G3 Y36.16 Z-33.23 K1.27
G0 Z5
X15.38
G1 Z-32 F283.3
Z-34.73
G2 Y34.89 Z-36 J-1.27
G1 Y33.62 F849.6
G17 G3 X16.65 Y32.35 I1.27
G1 X86.65
G2 X93 Y26 J-6.35
G1 Y1
G2 X86.65 Y-5.35 I-6.35
G1 X68.85
G2 X62.5 Y1 J6.35
G3 X40.8 I-10.85
G2 X34.45 Y-5.35 I-6.35
G1 X16.65
G2 X10.3 Y1 J6.35
G1 Y26
G2 X16.65 Y32.35 I6.35
G1 X86.65
G2 X93 Y26 J-6.35
G1 Y1
G2 X86.65 Y-5.35 I-6.35
G1 X68.85
G2 X62.5 Y1 J6.35
G3 X40.8 I-10.85
G2 X34.45 Y-5.35 I-6.35
G1 X16.65
G2 X10.3 Y1 J6.35
G1 Y26
G2 X16.65 Y32.35 I6.35
G3 X17.92 Y33.62 J1.27
G1 Y34.89
G19 G3 Y36.16 Z-34.73 K1.27
G0 Z5
X15.38
G1 Z-33.5 F283.3
Z-36.23
G2 Y34.89 Z-37.5 J-1.27
G1 Y33.62 F849.6
G17 G3 X16.65 Y32.35 I1.27
G1 X86.65
G2 X93 Y26 J-6.35
G1 Y1
G2 X86.65 Y-5.35 I-6.35
G1 X68.85
G2 X62.5 Y1 J6.35
G3 X40.8 I-10.85
G2 X34.45 Y-5.35 I-6.35
G1 X16.65
G2 X10.3 Y1 J6.35
G1 Y26
G2 X16.65 Y32.35 I6.35
G1 X86.65
G2 X93 Y26 J-6.35
G1 Y1
G2 X86.65 Y-5.35 I-6.35
G1 X68.85
G2 X62.5 Y1 J6.35
G3 X40.8 I-10.85
G2 X34.45 Y-5.35 I-6.35
G1 X16.65
G2 X10.3 Y1 J6.35
G1 Y26
G2 X16.65 Y32.35 I6.35
G3 X17.92 Y33.62 J1.27
G1 Y34.89
G19 G3 Y36.16 Z-36.23 K1.27
G0 Z5
X15.38
G1 Z-35 F283.3
Z-37.73
G2 Y34.89 Z-39 J-1.27
G1 Y33.62 F849.6
G17 G3 X16.65 Y32.35 I1.27
G1 X86.65
G2 X93 Y26 J-6.35
G1 Y1
G2 X86.65 Y-5.35 I-6.35
G1 X68.85
G2 X62.5 Y1 J6.35
G3 X40.8 I-10.85
G2 X34.45 Y-5.35 I-6.35
G1 X16.65
G2 X10.3 Y1 J6.35
G1 Y26
G2 X16.65 Y32.35 I6.35
G1 X86.65
G2 X93 Y26 J-6.35
G1 Y1
G2 X86.65 Y-5.35 I-6.35
G1 X68.85
G2 X62.5 Y1 J6.35
G3 X40.8 I-10.85
G2 X34.45 Y-5.35 I-6.35
G1 X16.65
G2 X10.3 Y1 J6.35
G1 Y26
G2 X16.65 Y32.35 I6.35
G3 X17.92 Y33.62 J1.27
G1 Y34.89
G19 G3 Y36.16 Z-37.73 K1.27
G0 Z5
X15.38
G1 Z-36.5 F283.3
Z-39.23
G2 Y34.89 Z-40.5 J-1.27
G1 Y33.62 F849.6
G17 G3 X16.65 Y32.35 I1.27
G1 X86.65
G2 X93 Y26 J-6.35
G1 Y1
G2 X86.65 Y-5.35 I-6.35
G1 X68.85
G2 X62.5 Y1 J6.35
G3 X40.8 I-10.85
G2 X34.45 Y-5.35 I-6.35
G1 X16.65
G2 X10.3 Y1 J6.35
G1 Y26
G2 X16.65 Y32.35 I6.35
G1 X86.65
G2 X93 Y26 J-6.35
G1 Y1
G2 X86.65 Y-5.35 I-6.35
G1 X68.85
G2 X62.5 Y1 J6.35
G3 X40.8 I-10.85
G2 X34.45 Y-5.35 I-6.35
G1 X16.65
G2 X10.3 Y1 J6.35
G1 Y26
G2 X16.65 Y32.35 I6.35
G3 X17.92 Y33.62 J1.27
G1 Y34.89
G19 G3 Y36.16 Z-39.23 K1.27
G0 Z5
X15.38
G1 Z-38 F283.3
Z-40.73
G2 Y34.89 Z-42 J-1.27
G1 Y33.62 F849.6
G17 G3 X16.65 Y32.35 I1.27
G1 X86.65
G2 X93 Y26 J-6.35
G1 Y1
G2 X86.65 Y-5.35 I-6.35
G1 X68.85
G2 X62.5 Y1 J6.35
G3 X40.8 I-10.85
G2 X34.45 Y-5.35 I-6.35
G1 X16.65
G2 X10.3 Y1 J6.35
G1 Y26
G2 X16.65 Y32.35 I6.35
G1 X86.65
G2 X93 Y26 J-6.35
G1 Y1
G2 X86.65 Y-5.35 I-6.35
G1 X68.85
G2 X62.5 Y1 J6.35
G3 X40.8 I-10.85
G2 X34.45 Y-5.35 I-6.35
G1 X16.65
G2 X10.3 Y1 J6.35
G1 Y26
G2 X16.65 Y32.35 I6.35
G3 X17.92 Y33.62 J1.27
G1 Y34.89
G19 G3 Y36.16 Z-40.73 K1.27
G0 Z5
X15.38
G1 Z-39.5 F283.3
Z-42.23
G2 Y34.89 Z-43.5 J-1.27
G1 Y33.62 F849.6
G17 G3 X16.65 Y32.35 I1.27
G1 X86.65
G2 X93 Y26 J-6.35
G1 Y1
G2 X86.65 Y-5.35 I-6.35
G1 X68.85
G2 X62.5 Y1 J6.35
G3 X40.8 I-10.85
G2 X34.45 Y-5.35 I-6.35
G1 X16.65
G2 X10.3 Y1 J6.35
G1 Y26
G2 X16.65 Y32.35 I6.35
G1 X86.65
G2 X93 Y26 J-6.35
G1 Y1
G2 X86.65 Y-5.35 I-6.35
G1 X68.85
G2 X62.5 Y1 J6.35
G3 X40.8 I-10.85
G2 X34.45 Y-5.35 I-6.35
G1 X16.65
G2 X10.3 Y1 J6.35
G1 Y26
G2 X16.65 Y32.35 I6.35
G3 X17.92 Y33.62 J1.27
G1 Y34.89
G19 G3 Y36.16 Z-42.23 K1.27
G0 Z5
X15.38
G1 Z-41 F283.3
Z-43.73
G2 Y34.89 Z-45 J-1.27
G1 Y33.62 F849.6
G17 G3 X16.65 Y32.35 I1.27
G1 X86.65
G2 X93 Y26 J-6.35
G1 Y1
G2 X86.65 Y-5.35 I-6.35
G1 X68.85
G2 X62.5 Y1 J6.35
G3 X40.8 I-10.85
G2 X34.45 Y-5.35 I-6.35
G1 X16.65
G2 X10.3 Y1 J6.35
G1 Y26
G2 X16.65 Y32.35 I6.35
G1 X86.65
G2 X93 Y26 J-6.35
G1 Y1
G2 X86.65 Y-5.35 I-6.35
G1 X68.85
G2 X62.5 Y1 J6.35
G3 X40.8 I-10.85
G2 X34.45 Y-5.35 I-6.35
G1 X16.65
G2 X10.3 Y1 J6.35
G1 Y26
G2 X16.65 Y32.35 I6.35
G3 X17.92 Y33.62 J1.27
G1 Y34.89
G19 G3 Y36.16 Z-43.73 K1.27
G0 Z5
X15.38
G1 Z-42.5 F283.3
Z-45.23
G2 Y34.89 Z-46.5 J-1.27
G1 Y33.62 F849.6
G17 G3 X16.65 Y32.35 I1.27
G1 X86.65
G2 X93 Y26 J-6.35
G1 Y1
G2 X86.65 Y-5.35 I-6.35
G1 X68.85
G2 X62.5 Y1 J6.35
G3 X40.8 I-10.85
G2 X34.45 Y-5.35 I-6.35
G1 X16.65
G2 X10.3 Y1 J6.35
G1 Y26
G2 X16.65 Y32.35 I6.35
G1 X86.65
G2 X93 Y26 J-6.35
G1 Y1
G2 X86.65 Y-5.35 I-6.35
G1 X68.85
G2 X62.5 Y1 J6.35
G3 X40.8 I-10.85
G2 X34.45 Y-5.35 I-6.35
G1 X16.65
G2 X10.3 Y1 J6.35
G1 Y26
G2 X16.65 Y32.35 I6.35
G3 X17.92 Y33.62 J1.27
G1 Y34.89
G19 G3 Y36.16 Z-45.23 K1.27
G0 Z5
X171.62 Y-9.16
G1 Z2.5 F283.3
Z-0.23
G3 Y-7.89 Z-1.5 J1.27
G1 Y-6.62 F849.6
G17 G3 X170.35 Y-5.35 I-1.27
G1 X152.55
G2 X146.2 Y1 J6.35
G3 X124.5 I-10.85
G2 X118.15 Y-5.35 I-6.35
G1 X100.35
G2 X94 Y1 J6.35
G1 Y26
G2 X100.35 Y32.35 I6.35
G1 X170.35
G2 X176.7 Y26 J-6.35
G1 Y1
G2 X170.35 Y-5.35 I-6.35
G1 X152.55
G2 X146.2 Y1 J6.35
G3 X124.5 I-10.85
G2 X118.15 Y-5.35 I-6.35
G1 X100.35
G2 X94 Y1 J6.35
G1 Y26
G2 X100.35 Y32.35 I6.35
G1 X170.35
G2 X176.7 Y26 J-6.35
G1 Y1
G2 X170.35 Y-5.35 I-6.35
G3 X169.08 Y-6.62 J-1.27
G1 Y-7.89
G19 G2 Y-9.16 Z-0.23 K1.27
G0 Z5
X171.62
G1 Z1 F283.3
Z-1.73
G3 Y-7.89 Z-3 J1.27
G1 Y-6.62 F849.6
G17 G3 X170.35 Y-5.35 I-1.27
G1 X152.55
G2 X146.2 Y1 J6.35
G3 X124.5 I-10.85
G2 X118.15 Y-5.35 I-6.35
G1 X100.35
G2 X94 Y1 J6.35
G1 Y26
G2 X100.35 Y32.35 I6.35
G1 X170.35
G2 X176.7 Y26 J-6.35
G1 Y1
G2 X170.35 Y-5.35 I-6.35
G1 X152.55
G2 X146.2 Y1 J6.35
G3 X124.5 I-10.85
G2 X118.15 Y-5.35 I-6.35
G1 X100.35
G2 X94 Y1 J6.35
G1 Y26
G2 X100.35 Y32.35 I6.35
G1 X170.35
G2 X176.7 Y26 J-6.35
G1 Y1
G2 X170.35 Y-5.35 I-6.35
G3 X169.08 Y-6.62 J-1.27
G1 Y-7.89
G19 G2 Y-9.16 Z-1.73 K1.27
G0 Z5
X171.62
G1 Z-0.5 F283.3
Z-3.23
G3 Y-7.89 Z-4.5 J1.27
G1 Y-6.62 F849.6
G17 G3 X170.35 Y-5.35 I-1.27
G1 X152.55
G2 X146.2 Y1 J6.35
G3 X124.5 I-10.85
G2 X118.15 Y-5.35 I-6.35
G1 X100.35
G2 X94 Y1 J6.35
G1 Y26
G2 X100.35 Y32.35 I6.35
G1 X170.35
G2 X176.7 Y26 J-6.35
G1 Y1
G2 X170.35 Y-5.35 I-6.35
G1 X152.55
G2 X146.2 Y1 J6.35
G3 X124.5 I-10.85
G2 X118.15 Y-5.35 I-6.35
G1 X100.35
G2 X94 Y1 J6.35
G1 Y26
G2 X100.35 Y32.35 I6.35
G1 X170.35
G2 X176.7 Y26 J-6.35
G1 Y1
G2 X170.35 Y-5.35 I-6.35
G3 X169.08 Y-6.62 J-1.27
G1 Y-7.89
G19 G2 Y-9.16 Z-3.23 K1.27
G0 Z5
X171.62
G1 Z-2 F283.3
Z-4.73
G3 Y-7.89 Z-6 J1.27
G1 Y-6.62 F849.6
G17 G3 X170.35 Y-5.35 I-1.27
G1 X152.55
G2 X146.2 Y1 J6.35
G3 X124.5 I-10.85
G2 X118.15 Y-5.35 I-6.35
G1 X100.35
G2 X94 Y1 J6.35
G1 Y26
G2 X100.35 Y32.35 I6.35
G1 X170.35
G2 X176.7 Y26 J-6.35
G1 Y1
G2 X170.35 Y-5.35 I-6.35
G1 X152.55
G2 X146.2 Y1 J6.35
G3 X124.5 I-10.85
G2 X118.15 Y-5.35 I-6.35
G1 X100.35
G2 X94 Y1 J6.35
G1 Y26
G2 X100.35 Y32.35 I6.35
G1 X170.35
G2 X176.7 Y26 J-6.35
G1 Y1
G2 X170.35 Y-5.35 I-6.35
G3 X169.08 Y-6.62 J-1.27
G1 Y-7.89
G19 G2 Y-9.16 Z-4.73 K1.27
G0 Z5
X171.62
G1 Z-3.5 F283.3
Z-6.23
G3 Y-7.89 Z-7.5 J1.27
G1 Y-6.62 F849.6
G17 G3 X170.35 Y-5.35 I-1.27
G1 X152.55
G2 X146.2 Y1 J6.35
G3 X124.5 I-10.85
G2 X118.15 Y-5.35 I-6.35
G1 X100.35
G2 X94 Y1 J6.35
G1 Y26
G2 X100.35 Y32.35 I6.35
G1 X170.35
G2 X176.7 Y26 J-6.35
G1 Y1
G2 X170.35 Y-5.35 I-6.35
G1 X152.55
G2 X146.2 Y1 J6.35
G3 X124.5 I-10.85
G2 X118.15 Y-5.35 I-6.35
G1 X100.35
G2 X94 Y1 J6.35
G1 Y26
G2 X100.35 Y32.35 I6.35
G1 X170.35
G2 X176.7 Y26 J-6.35
G1 Y1
G2 X170.35 Y-5.35 I-6.35
G3 X169.08 Y-6.62 J-1.27
G1 Y-7.89
G19 G2 Y-9.16 Z-6.23 K1.27
G0 Z5
X171.62
G1 Z-5 F283.3
Z-7.73
G3 Y-7.89 Z-9 J1.27
G1 Y-6.62 F849.6
G17 G3 X170.35 Y-5.35 I-1.27
G1 X152.55
G2 X146.2 Y1 J6.35
G3 X124.5 I-10.85
G2 X118.15 Y-5.35 I-6.35
G1 X100.35
G2 X94 Y1 J6.35
G1 Y26
G2 X100.35 Y32.35 I6.35
G1 X170.35
G2 X176.7 Y26 J-6.35
G1 Y1
G2 X170.35 Y-5.35 I-6.35
G1 X152.55
G2 X146.2 Y1 J6.35
G3 X124.5 I-10.85
G2 X118.15 Y-5.35 I-6.35
G1 X100.35
G2 X94 Y1 J6.35
G1 Y26
G2 X100.35 Y32.35 I6.35
G1 X170.35
G2 X176.7 Y26 J-6.35
G1 Y1
G2 X170.35 Y-5.35 I-6.35
G3 X169.08 Y-6.62 J-1.27
G1 Y-7.89
G19 G2 Y-9.16 Z-7.73 K1.27
G0 Z5
X171.62
G1 Z-6.5 F283.3
Z-9.23
G3 Y-7.89 Z-10.5 J1.27
G1 Y-6.62 F849.6
G17 G3 X170.35 Y-5.35 I-1.27
G1 X152.55
G2 X146.2 Y1 J6.35
G3 X124.5 I-10.85
G2 X118.15 Y-5.35 I-6.35
G1 X100.35
G2 X94 Y1 J6.35
G1 Y26
G2 X100.35 Y32.35 I6.35
G1 X170.35
G2 X176.7 Y26 J-6.35
G1 Y1
G2 X170.35 Y-5.35 I-6.35
G1 X152.55
G2 X146.2 Y1 J6.35
G3 X124.5 I-10.85
G2 X118.15 Y-5.35 I-6.35
G1 X100.35
G2 X94 Y1 J6.35
G1 Y26
G2 X100.35 Y32.35 I6.35
G1 X170.35
G2 X176.7 Y26 J-6.35
G1 Y1
G2 X170.35 Y-5.35 I-6.35
G3 X169.08 Y-6.62 J-1.27
G1 Y-7.89
G19 G2 Y-9.16 Z-9.23 K1.27
G0 Z5
X171.62
G1 Z-8 F283.3
Z-10.73
G3 Y-7.89 Z-12 J1.27
G1 Y-6.62 F849.6
G17 G3 X170.35 Y-5.35 I-1.27
G1 X152.55
G2 X146.2 Y1 J6.35
G3 X124.5 I-10.85
G2 X118.15 Y-5.35 I-6.35
G1 X100.35
G2 X94 Y1 J6.35
G1 Y26
G2 X100.35 Y32.35 I6.35
G1 X170.35
G2 X176.7 Y26 J-6.35
G1 Y1
G2 X170.35 Y-5.35 I-6.35
G1 X152.55
G2 X146.2 Y1 J6.35
G3 X124.5 I-10.85
G2 X118.15 Y-5.35 I-6.35
G1 X100.35
G2 X94 Y1 J6.35
G1 Y26
G2 X100.35 Y32.35 I6.35
G1 X170.35
G2 X176.7 Y26 J-6.35
G1 Y1
G2 X170.35 Y-5.35 I-6.35
G3 X169.08 Y-6.62 J-1.27
G1 Y-7.89
G19 G2 Y-9.16 Z-10.73 K1.27
G0 Z5
X171.62
G1 Z-9.5 F283.3
Z-12.23
G3 Y-7.89 Z-13.5 J1.27
G1 Y-6.62 F849.6
G17 G3 X170.35 Y-5.35 I-1.27
G1 X152.55
G2 X146.2 Y1 J6.35
G3 X124.5 I-10.85
G2 X118.15 Y-5.35 I-6.35
G1 X100.35
G2 X94 Y1 J6.35
G1 Y26
G2 X100.35 Y32.35 I6.35
G1 X170.35
G2 X176.7 Y26 J-6.35
G1 Y1
G2 X170.35 Y-5.35 I-6.35
G1 X152.55
G2 X146.2 Y1 J6.35
G3 X124.5 I-10.85
G2 X118.15 Y-5.35 I-6.35
G1 X100.35
G2 X94 Y1 J6.35
G1 Y26
G2 X100.35 Y32.35 I6.35
G1 X170.35
G2 X176.7 Y26 J-6.35
G1 Y1
G2 X170.35 Y-5.35 I-6.35
G3 X169.08 Y-6.62 J-1.27
G1 Y-7.89
G19 G2 Y-9.16 Z-12.23 K1.27
G0 Z5
X171.62
G1 Z-11 F283.3
Z-13.73
G3 Y-7.89 Z-15 J1.27
G1 Y-6.62 F849.6
G17 G3 X170.35 Y-5.35 I-1.27
G1 X152.55
G2 X146.2 Y1 J6.35
G3 X124.5 I-10.85
G2 X118.15 Y-5.35 I-6.35
G1 X100.35
G2 X94 Y1 J6.35
G1 Y26
G2 X100.35 Y32.35 I6.35
G1 X170.35
G2 X176.7 Y26 J-6.35
G1 Y1
G2 X170.35 Y-5.35 I-6.35
G1 X152.55
G2 X146.2 Y1 J6.35
G3 X124.5 I-10.85
G2 X118.15 Y-5.35 I-6.35
G1 X100.35
G2 X94 Y1 J6.35
G1 Y26
G2 X100.35 Y32.35 I6.35
G1 X170.35
G2 X176.7 Y26 J-6.35
G1 Y1
G2 X170.35 Y-5.35 I-6.35
G3 X169.08 Y-6.62 J-1.27
G1 Y-7.89
G19 G2 Y-9.16 Z-13.73 K1.27
G0 Z5
X171.62
G1 Z-12.5 F283.3
Z-15.23
G3 Y-7.89 Z-16.5 J1.27
G1 Y-6.62 F849.6
G17 G3 X170.35 Y-5.35 I-1.27
G1 X152.55
G2 X146.2 Y1 J6.35
G3 X124.5 I-10.85
G2 X118.15 Y-5.35 I-6.35
G1 X100.35
G2 X94 Y1 J6.35
G1 Y26
G2 X100.35 Y32.35 I6.35
G1 X170.35
G2 X176.7 Y26 J-6.35
G1 Y1
G2 X170.35 Y-5.35 I-6.35
G1 X152.55
G2 X146.2 Y1 J6.35
G3 X124.5 I-10.85
G2 X118.15 Y-5.35 I-6.35
G1 X100.35
G2 X94 Y1 J6.35
G1 Y26
G2 X100.35 Y32.35 I6.35
G1 X170.35
G2 X176.7 Y26 J-6.35
G1 Y1
G2 X170.35 Y-5.35 I-6.35
G3 X169.08 Y-6.62 J-1.27
G1 Y-7.89
G19 G2 Y-9.16 Z-15.23 K1.27
G0 Z5
X171.62
G1 Z-14 F283.3
Z-16.73
G3 Y-7.89 Z-18 J1.27
G1 Y-6.62 F849.6
G17 G3 X170.35 Y-5.35 I-1.27
G1 X152.55
G2 X146.2 Y1 J6.35
G3 X124.5 I-10.85
G2 X118.15 Y-5.35 I-6.35
G1 X100.35
G2 X94 Y1 J6.35
G1 Y26
G2 X100.35 Y32.35 I6.35
G1 X170.35
G2 X176.7 Y26 J-6.35
G1 Y1
G2 X170.35 Y-5.35 I-6.35
G1 X152.55
G2 X146.2 Y1 J6.35
G3 X124.5 I-10.85
G2 X118.15 Y-5.35 I-6.35
G1 X100.35
G2 X94 Y1 J6.35
G1 Y26
G2 X100.35 Y32.35 I6.35
G1 X170.35
G2 X176.7 Y26 J-6.35
G1 Y1
G2 X170.35 Y-5.35 I-6.35
G3 X169.08 Y-6.62 J-1.27
G1 Y-7.89
G19 G2 Y-9.16 Z-16.73 K1.27
G0 Z5
X171.62
G1 Z-15.5 F283.3
Z-18.23
G3 Y-7.89 Z-19.5 J1.27
G1 Y-6.62 F849.6
G17 G3 X170.35 Y-5.35 I-1.27
G1 X152.55
G2 X146.2 Y1 J6.35
G3 X124.5 I-10.85
G2 X118.15 Y-5.35 I-6.35
G1 X100.35
G2 X94 Y1 J6.35
G1 Y26
G2 X100.35 Y32.35 I6.35
G1 X170.35
G2 X176.7 Y26 J-6.35
G1 Y1
G2 X170.35 Y-5.35 I-6.35
G1 X152.55
G2 X146.2 Y1 J6.35
G3 X124.5 I-10.85
G2 X118.15 Y-5.35 I-6.35
G1 X100.35
G2 X94 Y1 J6.35
G1 Y26
G2 X100.35 Y32.35 I6.35
G1 X170.35
G2 X176.7 Y26 J-6.35
G1 Y1
G2 X170.35 Y-5.35 I-6.35
G3 X169.08 Y-6.62 J-1.27
G1 Y-7.89
G19 G2 Y-9.16 Z-18.23 K1.27
G0 Z5
X171.62
G1 Z-17 F283.3
Z-19.73
G3 Y-7.89 Z-21 J1.27
G1 Y-6.62 F849.6
G17 G3 X170.35 Y-5.35 I-1.27
G1 X152.55
G2 X146.2 Y1 J6.35
G3 X124.5 I-10.85
G2 X118.15 Y-5.35 I-6.35
G1 X100.35
G2 X94 Y1 J6.35
G1 Y26
G2 X100.35 Y32.35 I6.35
G1 X170.35
G2 X176.7 Y26 J-6.35
G1 Y1
G2 X170.35 Y-5.35 I-6.35
G1 X152.55
G2 X146.2 Y1 J6.35
G3 X124.5 I-10.85
G2 X118.15 Y-5.35 I-6.35
G1 X100.35
G2 X94 Y1 J6.35
G1 Y26
G2 X100.35 Y32.35 I6.35
G1 X170.35
G2 X176.7 Y26 J-6.35
G1 Y1
G2 X170.35 Y-5.35 I-6.35
G3 X169.08 Y-6.62 J-1.27
G1 Y-7.89
G19 G2 Y-9.16 Z-19.73 K1.27
G0 Z5
X171.62
G1 Z-18.5 F283.3
Z-21.23
G3 Y-7.89 Z-22.5 J1.27
G1 Y-6.62 F849.6
G17 G3 X170.35 Y-5.35 I-1.27
G1 X152.55
G2 X146.2 Y1 J6.35
G3 X124.5 I-10.85
G2 X118.15 Y-5.35 I-6.35
G1 X100.35
G2 X94 Y1 J6.35
G1 Y26
G2 X100.35 Y32.35 I6.35
G1 X170.35
G2 X176.7 Y26 J-6.35
G1 Y1
G2 X170.35 Y-5.35 I-6.35
G1 X152.55
G2 X146.2 Y1 J6.35
G3 X124.5 I-10.85
G2 X118.15 Y-5.35 I-6.35
G1 X100.35
G2 X94 Y1 J6.35
G1 Y26
G2 X100.35 Y32.35 I6.35
G1 X170.35
G2 X176.7 Y26 J-6.35
G1 Y1
G2 X170.35 Y-5.35 I-6.35
G3 X169.08 Y-6.62 J-1.27
G1 Y-7.89
G19 G2 Y-9.16 Z-21.23 K1.27
G0 Z5
X171.62
G1 Z-20 F283.3
Z-22.73
G3 Y-7.89 Z-24 J1.27
G1 Y-6.62 F849.6
G17 G3 X170.35 Y-5.35 I-1.27
G1 X152.55
G2 X146.2 Y1 J6.35
G3 X124.5 I-10.85
G2 X118.15 Y-5.35 I-6.35
G1 X100.35
G2 X94 Y1 J6.35
G1 Y26
G2 X100.35 Y32.35 I6.35
G1 X170.35
G2 X176.7 Y26 J-6.35
G1 Y1
G2 X170.35 Y-5.35 I-6.35
G1 X152.55
G2 X146.2 Y1 J6.35
G3 X124.5 I-10.85
G2 X118.15 Y-5.35 I-6.35
G1 X100.35
G2 X94 Y1 J6.35
G1 Y26
G2 X100.35 Y32.35 I6.35
G1 X170.35
G2 X176.7 Y26 J-6.35
G1 Y1
G2 X170.35 Y-5.35 I-6.35
G3 X169.08 Y-6.62 J-1.27
G1 Y-7.89
G19 G2 Y-9.16 Z-22.73 K1.27
G0 Z5
X171.62
G1 Z-21.5 F283.3
Z-24.23
G3 Y-7.89 Z-25.5 J1.27
G1 Y-6.62 F849.6
G17 G3 X170.35 Y-5.35 I-1.27
G1 X152.55
G2 X146.2 Y1 J6.35
G3 X124.5 I-10.85
G2 X118.15 Y-5.35 I-6.35
G1 X100.35
G2 X94 Y1 J6.35
G1 Y26
G2 X100.35 Y32.35 I6.35
G1 X170.35
G2 X176.7 Y26 J-6.35
G1 Y1
G2 X170.35 Y-5.35 I-6.35
G1 X152.55
G2 X146.2 Y1 J6.35
G3 X124.5 I-10.85
G2 X118.15 Y-5.35 I-6.35
G1 X100.35
G2 X94 Y1 J6.35
G1 Y26
G2 X100.35 Y32.35 I6.35
G1 X170.35
G2 X176.7 Y26 J-6.35
G1 Y1
G2 X170.35 Y-5.35 I-6.35
G3 X169.08 Y-6.62 J-1.27
G1 Y-7.89
G19 G2 Y-9.16 Z-24.23 K1.27
G0 Z5
X171.62
G1 Z-23 F283.3
Z-25.73
G3 Y-7.89 Z-27 J1.27
G1 Y-6.62 F849.6
G17 G3 X170.35 Y-5.35 I-1.27
G1 X152.55
G2 X146.2 Y1 J6.35
G3 X124.5 I-10.85
G2 X118.15 Y-5.35 I-6.35
G1 X100.35
G2 X94 Y1 J6.35
G1 Y26
G2 X100.35 Y32.35 I6.35
G1 X170.35
G2 X176.7 Y26 J-6.35
G1 Y1
G2 X170.35 Y-5.35 I-6.35
G1 X152.55
G2 X146.2 Y1 J6.35
G3 X124.5 I-10.85
G2 X118.15 Y-5.35 I-6.35
G1 X100.35
G2 X94 Y1 J6.35
G1 Y26
G2 X100.35 Y32.35 I6.35
G1 X170.35
G2 X176.7 Y26 J-6.35
G1 Y1
G2 X170.35 Y-5.35 I-6.35
G3 X169.08 Y-6.62 J-1.27
G1 Y-7.89
G19 G2 Y-9.16 Z-25.73 K1.27
G0 Z5
X171.62
G1 Z-24.5 F283.3
Z-27.23
G3 Y-7.89 Z-28.5 J1.27
G1 Y-6.62 F849.6
G17 G3 X170.35 Y-5.35 I-1.27
G1 X152.55
G2 X146.2 Y1 J6.35
G3 X124.5 I-10.85
G2 X118.15 Y-5.35 I-6.35
G1 X100.35
G2 X94 Y1 J6.35
G1 Y26
G2 X100.35 Y32.35 I6.35
G1 X170.35
G2 X176.7 Y26 J-6.35
G1 Y1
G2 X170.35 Y-5.35 I-6.35
G1 X152.55
G2 X146.2 Y1 J6.35
G3 X124.5 I-10.85
G2 X118.15 Y-5.35 I-6.35
G1 X100.35
G2 X94 Y1 J6.35
G1 Y26
G2 X100.35 Y32.35 I6.35
G1 X170.35
G2 X176.7 Y26 J-6.35
G1 Y1
G2 X170.35 Y-5.35 I-6.35
G3 X169.08 Y-6.62 J-1.27
G1 Y-7.89
G19 G2 Y-9.16 Z-27.23 K1.27
G0 Z5
X171.62
G1 Z-26 F283.3
Z-28.73
G3 Y-7.89 Z-30 J1.27
G1 Y-6.62 F849.6
G17 G3 X170.35 Y-5.35 I-1.27
G1 X152.55
G2 X146.2 Y1 J6.35
G3 X124.5 I-10.85
G2 X118.15 Y-5.35 I-6.35
G1 X100.35
G2 X94 Y1 J6.35
G1 Y26
G2 X100.35 Y32.35 I6.35
G1 X170.35
G2 X176.7 Y26 J-6.35
G1 Y1
G2 X170.35 Y-5.35 I-6.35
G1 X152.55
G2 X146.2 Y1 J6.35
G3 X124.5 I-10.85
G2 X118.15 Y-5.35 I-6.35
G1 X100.35
G2 X94 Y1 J6.35
G1 Y26
G2 X100.35 Y32.35 I6.35
G1 X170.35
G2 X176.7 Y26 J-6.35
G1 Y1
G2 X170.35 Y-5.35 I-6.35
G3 X169.08 Y-6.62 J-1.27
G1 Y-7.89
G19 G2 Y-9.16 Z-28.73 K1.27
G0 Z5
X171.62
G1 Z-27.5 F283.3
Z-30.23
G3 Y-7.89 Z-31.5 J1.27
G1 Y-6.62 F849.6
G17 G3 X170.35 Y-5.35 I-1.27
G1 X152.55
G2 X146.2 Y1 J6.35
G3 X124.5 I-10.85
G2 X118.15 Y-5.35 I-6.35
G1 X100.35
G2 X94 Y1 J6.35
G1 Y26
G2 X100.35 Y32.35 I6.35
G1 X170.35
G2 X176.7 Y26 J-6.35
G1 Y1
G2 X170.35 Y-5.35 I-6.35
G1 X152.55
G2 X146.2 Y1 J6.35
G3 X124.5 I-10.85
G2 X118.15 Y-5.35 I-6.35
G1 X100.35
G2 X94 Y1 J6.35
G1 Y26
G2 X100.35 Y32.35 I6.35
G1 X170.35
G2 X176.7 Y26 J-6.35
G1 Y1
G2 X170.35 Y-5.35 I-6.35
G3 X169.08 Y-6.62 J-1.27
G1 Y-7.89
G19 G2 Y-9.16 Z-30.23 K1.27
G0 Z5
X171.62
G1 Z-29 F283.3
Z-31.73
G3 Y-7.89 Z-33 J1.27
G1 Y-6.62 F849.6
G17 G3 X170.35 Y-5.35 I-1.27
G1 X152.55
G2 X146.2 Y1 J6.35
G3 X124.5 I-10.85
G2 X118.15 Y-5.35 I-6.35
G1 X100.35
G2 X94 Y1 J6.35
G1 Y26
G2 X100.35 Y32.35 I6.35
G1 X170.35
G2 X176.7 Y26 J-6.35
G1 Y1
G2 X170.35 Y-5.35 I-6.35
G1 X152.55
G2 X146.2 Y1 J6.35
G3 X124.5 I-10.85
G2 X118.15 Y-5.35 I-6.35
G1 X100.35
G2 X94 Y1 J6.35
G1 Y26
G2 X100.35 Y32.35 I6.35
G1 X170.35
G2 X176.7 Y26 J-6.35
G1 Y1
G2 X170.35 Y-5.35 I-6.35
G3 X169.08 Y-6.62 J-1.27
G1 Y-7.89
G19 G2 Y-9.16 Z-31.73 K1.27
G0 Z5
X171.62
G1 Z-30.5 F283.3
Z-33.23
G3 Y-7.89 Z-34.5 J1.27
G1 Y-6.62 F849.6
G17 G3 X170.35 Y-5.35 I-1.27
G1 X152.55
G2 X146.2 Y1 J6.35
G3 X124.5 I-10.85
G2 X118.15 Y-5.35 I-6.35
G1 X100.35
G2 X94 Y1 J6.35
G1 Y26
G2 X100.35 Y32.35 I6.35
G1 X170.35
G2 X176.7 Y26 J-6.35
G1 Y1
G2 X170.35 Y-5.35 I-6.35
G1 X152.55
G2 X146.2 Y1 J6.35
G3 X124.5 I-10.85
G2 X118.15 Y-5.35 I-6.35
G1 X100.35
G2 X94 Y1 J6.35
G1 Y26
G2 X100.35 Y32.35 I6.35
G1 X170.35
G2 X176.7 Y26 J-6.35
G1 Y1
G2 X170.35 Y-5.35 I-6.35
G3 X169.08 Y-6.62 J-1.27
G1 Y-7.89
G19 G2 Y-9.16 Z-33.23 K1.27
G0 Z5
X171.62
G1 Z-32 F283.3
Z-34.73
G3 Y-7.89 Z-36 J1.27
G1 Y-6.62 F849.6
G17 G3 X170.35 Y-5.35 I-1.27
G1 X152.55
G2 X146.2 Y1 J6.35
G3 X124.5 I-10.85
G2 X118.15 Y-5.35 I-6.35
G1 X100.35
G2 X94 Y1 J6.35
G1 Y26
G2 X100.35 Y32.35 I6.35
G1 X170.35
G2 X176.7 Y26 J-6.35
G1 Y1
G2 X170.35 Y-5.35 I-6.35
G1 X152.55
G2 X146.2 Y1 J6.35
G3 X124.5 I-10.85
G2 X118.15 Y-5.35 I-6.35
G1 X100.35
G2 X94 Y1 J6.35
G1 Y26
G2 X100.35 Y32.35 I6.35
G1 X170.35
G2 X176.7 Y26 J-6.35
G1 Y1
G2 X170.35 Y-5.35 I-6.35
G3 X169.08 Y-6.62 J-1.27
G1 Y-7.89
G19 G2 Y-9.16 Z-34.73 K1.27
G0 Z5
X171.62
G1 Z-33.5 F283.3
Z-36.23
G3 Y-7.89 Z-37.5 J1.27
G1 Y-6.62 F849.6
G17 G3 X170.35 Y-5.35 I-1.27
G1 X152.55
G2 X146.2 Y1 J6.35
G3 X124.5 I-10.85
G2 X118.15 Y-5.35 I-6.35
G1 X100.35
G2 X94 Y1 J6.35
G1 Y26
G2 X100.35 Y32.35 I6.35
G1 X170.35
G2 X176.7 Y26 J-6.35
G1 Y1
G2 X170.35 Y-5.35 I-6.35
G1 X152.55
G2 X146.2 Y1 J6.35
G3 X124.5 I-10.85
G2 X118.15 Y-5.35 I-6.35
G1 X100.35
G2 X94 Y1 J6.35
G1 Y26
G2 X100.35 Y32.35 I6.35
G1 X170.35
G2 X176.7 Y26 J-6.35
G1 Y1
G2 X170.35 Y-5.35 I-6.35
G3 X169.08 Y-6.62 J-1.27
G1 Y-7.89
G19 G2 Y-9.16 Z-36.23 K1.27
G0 Z5
X171.62
G1 Z-35 F283.3
Z-37.73
G3 Y-7.89 Z-39 J1.27
G1 Y-6.62 F849.6
G17 G3 X170.35 Y-5.35 I-1.27
G1 X152.55
G2 X146.2 Y1 J6.35
G3 X124.5 I-10.85
G2 X118.15 Y-5.35 I-6.35
G1 X100.35
G2 X94 Y1 J6.35
G1 Y26
G2 X100.35 Y32.35 I6.35
G1 X170.35
G2 X176.7 Y26 J-6.35
G1 Y1
G2 X170.35 Y-5.35 I-6.35
G1 X152.55
G2 X146.2 Y1 J6.35
G3 X124.5 I-10.85
G2 X118.15 Y-5.35 I-6.35
G1 X100.35
G2 X94 Y1 J6.35
G1 Y26
G2 X100.35 Y32.35 I6.35
G1 X170.35
G2 X176.7 Y26 J-6.35
G1 Y1
G2 X170.35 Y-5.35 I-6.35
G3 X169.08 Y-6.62 J-1.27
G1 Y-7.89
G19 G2 Y-9.16 Z-37.73 K1.27
G0 Z5
X171.62
G1 Z-36.5 F283.3
Z-39.23
G3 Y-7.89 Z-40.5 J1.27
G1 Y-6.62 F849.6
G17 G3 X170.35 Y-5.35 I-1.27
G1 X152.55
G2 X146.2 Y1 J6.35
G3 X124.5 I-10.85
G2 X118.15 Y-5.35 I-6.35
G1 X100.35
G2 X94 Y1 J6.35
G1 Y26
G2 X100.35 Y32.35 I6.35
G1 X170.35
G2 X176.7 Y26 J-6.35
G1 Y1
G2 X170.35 Y-5.35 I-6.35
G1 X152.55
G2 X146.2 Y1 J6.35
G3 X124.5 I-10.85
G2 X118.15 Y-5.35 I-6.35
G1 X100.35
G2 X94 Y1 J6.35
G1 Y26
G2 X100.35 Y32.35 I6.35
G1 X170.35
G2 X176.7 Y26 J-6.35
G1 Y1
G2 X170.35 Y-5.35 I-6.35
G3 X169.08 Y-6.62 J-1.27
G1 Y-7.89
G19 G2 Y-9.16 Z-39.23 K1.27
G0 Z5
X171.62
G1 Z-38 F283.3
Z-40.73
G3 Y-7.89 Z-42 J1.27
G1 Y-6.62 F849.6
G17 G3 X170.35 Y-5.35 I-1.27
G1 X152.55
G2 X146.2 Y1 J6.35
G3 X124.5 I-10.85
G2 X118.15 Y-5.35 I-6.35
G1 X100.35
G2 X94 Y1 J6.35
G1 Y26
G2 X100.35 Y32.35 I6.35
G1 X170.35
G2 X176.7 Y26 J-6.35
G1 Y1
G2 X170.35 Y-5.35 I-6.35
G1 X152.55
G2 X146.2 Y1 J6.35
G3 X124.5 I-10.85
G2 X118.15 Y-5.35 I-6.35
G1 X100.35
G2 X94 Y1 J6.35
G1 Y26
G2 X100.35 Y32.35 I6.35
G1 X170.35
G2 X176.7 Y26 J-6.35
G1 Y1
G2 X170.35 Y-5.35 I-6.35
G3 X169.08 Y-6.62 J-1.27
G1 Y-7.89
G19 G2 Y-9.16 Z-40.73 K1.27
G0 Z5
X171.62
G1 Z-39.5 F283.3
Z-42.23
G3 Y-7.89 Z-43.5 J1.27
G1 Y-6.62 F849.6
G17 G3 X170.35 Y-5.35 I-1.27
G1 X152.55
G2 X146.2 Y1 J6.35
G3 X124.5 I-10.85
G2 X118.15 Y-5.35 I-6.35
G1 X100.35
G2 X94 Y1 J6.35
G1 Y26
G2 X100.35 Y32.35 I6.35
G1 X170.35
G2 X176.7 Y26 J-6.35
G1 Y1
G2 X170.35 Y-5.35 I-6.35
G1 X152.55
G2 X146.2 Y1 J6.35
G3 X124.5 I-10.85
G2 X118.15 Y-5.35 I-6.35
G1 X100.35
G2 X94 Y1 J6.35
G1 Y26
G2 X100.35 Y32.35 I6.35
G1 X170.35
G2 X176.7 Y26 J-6.35
G1 Y1
G2 X170.35 Y-5.35 I-6.35
G3 X169.08 Y-6.62 J-1.27
G1 Y-7.89
G19 G2 Y-9.16 Z-42.23 K1.27
G0 Z5
X171.62
G1 Z-41 F283.3
Z-43.73
G3 Y-7.89 Z-45 J1.27
G1 Y-6.62 F849.6
G17 G3 X170.35 Y-5.35 I-1.27
G1 X152.55
G2 X146.2 Y1 J6.35
G3 X124.5 I-10.85
G2 X118.15 Y-5.35 I-6.35
G1 X100.35
G2 X94 Y1 J6.35
G1 Y26
G2 X100.35 Y32.35 I6.35
G1 X170.35
G2 X176.7 Y26 J-6.35
G1 Y1
G2 X170.35 Y-5.35 I-6.35
G1 X152.55
G2 X146.2 Y1 J6.35
G3 X124.5 I-10.85
G2 X118.15 Y-5.35 I-6.35
G1 X100.35
G2 X94 Y1 J6.35
G1 Y26
G2 X100.35 Y32.35 I6.35
G1 X170.35
G2 X176.7 Y26 J-6.35
G1 Y1
G2 X170.35 Y-5.35 I-6.35
G3 X169.08 Y-6.62 J-1.27
G1 Y-7.89
G19 G2 Y-9.16 Z-43.73 K1.27
G0 Z5
X171.62
G1 Z-42.5 F283.3
Z-45.23
G3 Y-7.89 Z-46.5 J1.27
G1 Y-6.62 F849.6
G17 G3 X170.35 Y-5.35 I-1.27
G1 X152.55
G2 X146.2 Y1 J6.35
G3 X124.5 I-10.85
G2 X118.15 Y-5.35 I-6.35
G1 X100.35
G2 X94 Y1 J6.35
G1 Y26
G2 X100.35 Y32.35 I6.35
G1 X170.35
G2 X176.7 Y26 J-6.35
G1 Y1
G2 X170.35 Y-5.35 I-6.35
G1 X152.55
G2 X146.2 Y1 J6.35
G3 X124.5 I-10.85
G2 X118.15 Y-5.35 I-6.35
G1 X100.35
G2 X94 Y1 J6.35
G1 Y26
G2 X100.35 Y32.35 I6.35
G1 X170.35
G2 X176.7 Y26 J-6.35
G1 Y1
G2 X170.35 Y-5.35 I-6.35
G3 X169.08 Y-6.62 J-1.27
G1 Y-7.89
G19 G2 Y-9.16 Z-45.23 K1.27
G0 Z15
G17
M9
M30
%
