%
(1001)
(z0 top machine -5-5)
(T1  D=12.7 CR=0 - ZMIN=-44.5 - flat end mill)
G90 G94
G17
G21

(Face2)
M9
T1 M6
S6000 M3
G54
M9
G0 X34.12 Y-61.486
Z15
Z5
G1 Z0.77 F849.6
G18 G3 X32.85 Z-0.5 I-1.27
G1 X-219.85
G17 G2 Y-50.553 J5.467
G1 X32.85
G3 Y-39.62 J5.467
G1 X-219.85
G2 Y-28.686 J5.467
G1 X32.85
G3 Y-17.753 J5.467
G1 X-219.85
G2 Y-6.82 J5.467
G1 X32.85
G3 Y4.114 J5.467
G1 X-219.85
G2 Y15.047 J5.467
G1 X32.85
G18 G2 X34.12 Z0.77 K1.27
G0 Z5
Y-61.486
G1 Z-0.23 F849.6
G3 X32.85 Z-1.5 I-1.27
G1 X-219.85
G17 G2 Y-50.553 J5.467
G1 X32.85
G3 Y-39.62 J5.467
G1 X-219.85
G2 Y-28.686 J5.467
G1 X32.85
G3 Y-17.753 J5.467
G1 X-219.85
G2 Y-6.82 J5.467
G1 X32.85
G3 Y4.114 J5.467
G1 X-219.85
G2 Y15.047 J5.467
G1 X32.85
G18 G2 X34.12 Z-0.23 K1.27
G0 Z15
G17

(2D Adaptive1)
M9
G0 X-186.111 Y9.148
Z15
Z5
Z-8.72
G1 Z-9.99 F849.6
Z-11.99
G3 X-188 Y6.21 I1.526 J-3.057
G1 Y4.688
X-187.998 Y4.646
X-187.17 Y4.408
X-186.076 Y4.157
X-184.754 Y3.928
X-183.422 Y3.762
X-182.085 Y3.64
X-180.746 Y3.55
X-179.406 Y3.484
X-178.064 Y3.434
X-177.522 Y3.419
X-177.102 Y3.434
X-176.687 Y3.503
X-176.285 Y3.623
X-175.901 Y3.794
X-175.542 Y4.012
X-175.214 Y4.273
X-175.159 Y4.323
X-174.901 Y4.516
X-174.3 Y4.897
X-174.017 Y5.073
X-173.636 Y5.246
X-173.255 Y5.41
X-172.875 Y5.527
X-172.431 Y5.658
X-172.113 Y5.718
X-171.732 Y5.78
X-171.352 Y5.822
X-170.59 Y5.85
X-153.459
X-153.078 Y5.841
X-152.698 Y5.83
X-152.317 Y5.8
X-151.936 Y5.743
X-151.556 Y5.679
X-150.794 Y5.462
X-150.414 Y5.308
X-150.033 Y5.147
X-149.998 Y5.126
X-149.865 Y5.058
X-149.34 Y4.847
X-148.678 Y4.622
X-147.828 Y4.382
X-146.699 Y4.13
X-145.375 Y3.909
X-144.043 Y3.748
X-142.706 Y3.63
X-141.366 Y3.543
X-140.026 Y3.478
X-138.684 Y3.43
X-137.343 Y3.394
X-136.001 Y3.367
X-134.659 Y3.347
X-133.317 Y3.332
X-131.975 Y3.32
X-130.633 Y3.312
X-129.29 Y3.306
X-127.948 Y3.301
X-125.375 Y3.295
X-124.889 Y3.33
X-124.412 Y3.436
X-123.957 Y3.612
X-123.532 Y3.853
X-123.148 Y4.154
X-123.004 Y4.285
X-122.242 Y4.83
X-121.862 Y5.041
X-121.481 Y5.236
X-121.381 Y5.277
X-120.72 Y5.517
X-120.339 Y5.625
X-119.958 Y5.709
X-119.577 Y5.778
X-118.816 Y5.847
X-118.055 Y5.849
X-115.39 Y5.85
X-101.685
X-100.924 Y5.847
X-100.543 Y5.835
X-99.781 Y5.763
X-99.02 Y5.593
X-98.639 Y5.466
X-98.124 Y5.277
X-97.878 Y5.17
X-97.843 Y5.151
X-97.708 Y5.086
X-97.2 Y4.877
X-96.559 Y4.653
X-95.739 Y4.416
X-94.655 Y4.165
X-93.333 Y3.934
X-92.656 Y3.849
X-92.152 Y3.824
X-91.649 Y3.874
X-91.16 Y3.998
X-90.695 Y4.194
X-90.264 Y4.458
X-89.883 Y4.732
X-89.619 Y4.897
X-89.503 Y4.962
X-89.122 Y5.17
X-88.876 Y5.277
X-88.361 Y5.466
X-87.98 Y5.593
X-87.219 Y5.763
X-86.457 Y5.835
X-86.076 Y5.847
X-85.315 Y5.85
X-69.326
X-68.565 Y5.848
X-68.184 Y5.847
X-67.423 Y5.778
X-67.042 Y5.709
X-66.661 Y5.625
X-66.28 Y5.517
X-65.619 Y5.277
X-65.519 Y5.236
X-65.456 Y5.203
X-65.013 Y5.004
X-64.457 Y4.79
X-63.752 Y4.561
X-62.84 Y4.318
X-61.615 Y4.062
X-60.288 Y3.86
X-58.954 Y3.712
X-57.616 Y3.603
X-56.277 Y3.523
X-54.936 Y3.463
X-53.594 Y3.419
X-52.253 Y3.386
X-50.911 Y3.361
X-49.569 Y3.342
X-48.227 Y3.328
X-46.884 Y3.318
X-45.542 Y3.31
X-44.2 Y3.304
X-42.858 Y3.3
X-40.644 Y3.295
X-40.168 Y3.329
X-39.703 Y3.434
X-39.258 Y3.606
X-38.843 Y3.841
X-38.468 Y4.136
X-38.109 Y4.438
X-38.008 Y4.516
X-37.728 Y4.692
X-37.348 Y4.927
X-36.967 Y5.147
X-36.586 Y5.308
X-36.206 Y5.462
X-35.444 Y5.679
X-35.064 Y5.743
X-34.683 Y5.8
X-34.302 Y5.83
X-33.922 Y5.841
X-33.541 Y5.85
X-16.41
X-15.648 Y5.822
X-15.268 Y5.78
X-14.887 Y5.718
X-14.569 Y5.658
X-14.125 Y5.527
X-13.745 Y5.41
X-13.364 Y5.246
X-12.983 Y5.073
X-12.847 Y5.011
X-12.294 Y4.797
X-11.595 Y4.568
X-10.69 Y4.326
X-9.478 Y4.071
X-8.152 Y3.866
X-6.818 Y3.716
X-5.48 Y3.607
X-4.141 Y3.526
X-2.866 Y3.106
X-1.727 Y2.395
X-0.745 Y1.48
X-0.529 Y1.324
X-0.28 Y1.228
X-0.015 Y1.198
X0.249 Y1.238
X0.494 Y1.344
X0.704 Y1.508
X0.865 Y1.721
X0.966 Y1.968
X1 Y2.233
G3 X0.127 Y3.396 I-1.269 J-0.044
G1 X-11.879 Y7.334
G3 X-12.983 Y5.073 I-0.396 J-1.207
G1 X-12.7 Y4.897
X-12.099 Y4.516
X-11.841 Y4.323
X-11.635 Y4.136
X-11.223 Y3.755
X-11.056 Y3.601
X-10.838 Y3.419
X-10.567 Y3.218
X-10.235 Y2.999
X-9.85 Y2.774
X-9.374 Y2.529
X-8.149 Y1.98
X-6.945 Y1.386
X-5.764 Y0.748
X-4.76 Y0.226
X-4.113 Y-0.067
X-2.862 Y-0.554
X-1.724 Y-1.265
X-0.911 Y-2.023
X-0.674 Y-2.193
X-0.401 Y-2.297
X-0.11 Y-2.328
X0.179 Y-2.284
X0.447 Y-2.167
X0.676 Y-1.986
X0.852 Y-1.752
X0.962 Y-1.482
X1 Y-1.192
G3 X0.37 Y-0.139 I-1.269 J-0.044
G1 X-9.623 Y5.683
G3 X-11.223 Y3.755 I-0.639 J-1.097
G1 X-11.08 Y3.6
X-10.889 Y3.375
X-10.61 Y2.994
X-10.331 Y2.614
X-10.217 Y2.393
X-10.037 Y2.087
X-9.826 Y1.768
X-9.551 Y1.398
X-9.211 Y0.988
X-8.799 Y0.544
X-8.341 Y0.101
X-7.328 Y-0.779
X-6.273 Y-1.608
X-5.299 Y-2.364
X-4.66 Y-2.807
X-4.188 Y-3.097
X-3.748 Y-3.336
X-2.535 Y-3.911
X-1.439 Y-4.686
X-0.526 Y-5.619
X-0.317 Y-5.778
X-0.071 Y-5.869
X0.191 Y-5.883
X0.446 Y-5.821
X0.672 Y-5.688
X0.849 Y-5.494
X0.961 Y-5.257
X1 Y-4.997
G3 X0.584 Y-4.101 I-1.269 J-0.044
G1 X-8.217 Y3.881
G3 X-10.217 Y2.393 I-0.853 J-0.941
G1 X-9.935 Y1.853
X-9.778 Y1.472
X-9.557 Y0.855
X-9.518 Y0.711
X-9.475 Y0.502
X-9.38 Y0.135
X-9.299 Y-0.116
X-9.187 Y-0.414
X-9.033 Y-0.76
X-8.829 Y-1.161
X-8.598 Y-1.56
X-8.32 Y-1.984
X-8.008 Y-2.408
X-7.667 Y-2.823
X-7.289 Y-3.235
X-6.33 Y-4.174
X-5.365 Y-5.107
X-4.715 Y-5.694
X-4.212 Y-6.102
X-3.796 Y-6.402
X-3.445 Y-6.629
X-2.278 Y-7.293
X-1.217 Y-8.114
X-1.201 Y-8.132
X-0.971 Y-8.33
X-0.701 Y-8.468
X-0.406 Y-8.538
X-0.103 Y-8.535
X0.191 Y-8.46
X0.459 Y-8.318
X0.685 Y-8.116
X0.857 Y-7.865
X0.964 Y-7.582
X1 Y-7.28
G3 X0.634 Y-6.432 I-1.269 J-0.044
G1 X-7.32 Y1.609
G3 X-9.475 Y0.502 I-0.903 J-0.893
G1 X-9.439 Y0.33
X-9.373 Y-0.05
X-9.306 Y-0.811
X-9.302 Y-1.192
X-9.301 Y-1.401
X-9.284 Y-1.73
X-9.261 Y-1.939
X-9.225 Y-2.165
X-9.165 Y-2.438
X-9.076 Y-2.76
X-8.949 Y-3.139
X-8.776 Y-3.575
X-8.557 Y-4.048
X-8.3 Y-4.535
X-8.002 Y-5.031
X-7.674 Y-5.517
X-7.324 Y-5.977
X-6.822 Y-6.57
X-5.9 Y-7.545
X-5.273 Y-8.152
X-4.781 Y-8.579
X-4.377 Y-8.893
X-3.99 Y-9.161
X-3.657 Y-9.367
X-2.478 Y-10.008
X-1.39 Y-10.793
X-0.519 Y-11.698
X-0.312 Y-11.857
X-0.068 Y-11.949
X0.193 Y-11.965
X0.447 Y-11.905
X0.672 Y-11.772
X0.849 Y-11.58
X0.961 Y-11.344
X1 Y-11.086
G3 X0.722 Y-10.336 I-1.269 J-0.044
G1 X-7.041 Y-0.648
G3 X-9.301 Y-1.401 I-0.991 J-0.794
G1 X-9.3 Y-2.333
Y-4.236
X-9.287 Y-4.5
X-9.26 Y-4.761
X-9.214 Y-5.043
X-9.147 Y-5.353
X-9.046 Y-5.722
X-8.917 Y-6.113
X-8.743 Y-6.553
X-8.541 Y-6.994
X-8.302 Y-7.448
X-8.032 Y-7.901
X-7.734 Y-8.344
X-7.415 Y-8.767
X-7.002 Y-9.256
X-6.082 Y-10.234
X-5.149 Y-11.199
X-4.587 Y-11.729
X-4.123 Y-12.121
X-3.733 Y-12.416
X-3.398 Y-12.642
X-2.246 Y-13.33
X-1.189 Y-14.158
X-1.154 Y-14.197
X-0.93 Y-14.392
X-0.666 Y-14.528
X-0.377 Y-14.597
X-0.08 Y-14.595
X0.207 Y-14.523
X0.47 Y-14.384
X0.691 Y-14.186
X0.859 Y-13.942
X0.964 Y-13.664
X1 Y-13.369
G3 X0.699 Y-12.591 I-1.269 J-0.044
G1 X-7.063 Y-3.458
G3 X-9.3 Y-4.236 I-0.968 J-0.822
G1 Y-7.109
X-9.285 Y-7.4
X-9.259 Y-7.656
X-9.217 Y-7.919
X-9.149 Y-8.232
X-9.049 Y-8.599
X-8.908 Y-9.022
X-8.715 Y-9.512
X-8.482 Y-10.02
X-8.211 Y-10.537
X-7.901 Y-11.055
X-7.565 Y-11.555
X-7.208 Y-12.027
X-6.606 Y-12.741
X-5.687 Y-13.718
X-5.108 Y-14.277
X-4.651 Y-14.673
X-4.257 Y-14.978
X-3.888 Y-15.234
X-3.566 Y-15.431
X-2.386 Y-16.071
X-1.31 Y-16.873
X-1.26 Y-16.927
X-1.021 Y-17.127
X-0.742 Y-17.265
X-0.438 Y-17.333
X-0.127 Y-17.327
X0.174 Y-17.248
X0.448 Y-17.1
X0.679 Y-16.891
X0.854 Y-16.634
X0.963 Y-16.342
X1 Y-16.033
G3 X0.689 Y-15.244 I-1.269 J-0.044
G1 X-7.073 Y-6.32
G3 X-9.3 Y-7.109 I-0.958 J-0.833
G1 Y-10.154
X-9.287 Y-10.413
X-9.259 Y-10.676
X-9.21 Y-10.987
X-9.141 Y-11.304
X-9.039 Y-11.677
X-8.9 Y-12.096
X-8.725 Y-12.541
X-8.515 Y-12.998
X-8.269 Y-13.467
X-7.992 Y-13.93
X-7.689 Y-14.381
X-7.367 Y-14.808
X-6.952 Y-15.3
X-6.032 Y-16.278
X-5.388 Y-16.903
X-4.875 Y-17.35
X-4.47 Y-17.667
X-4.074 Y-17.943
X-3.733 Y-18.154
X-2.555 Y-18.798
X-1.456 Y-19.569
X-0.563 Y-20.478
X-0.374 Y-20.625
X-0.154 Y-20.718
X0.083 Y-20.75
X0.32 Y-20.721
X0.541 Y-20.63
X0.731 Y-20.485
X0.877 Y-20.296
X0.969 Y-20.075
X1 Y-19.838
G3 X0.722 Y-19.088 I-1.269 J-0.044
G1 X-7.04 Y-9.404
G3 X-9.3 Y-10.154 I-0.991 J-0.794
G1 Y-12.989
X-9.28 Y-13.39
X-9.253 Y-13.65
X-9.21 Y-13.916
X-9.143 Y-14.229
X-9.042 Y-14.595
X-8.916 Y-14.976
X-8.747 Y-15.403
X-8.546 Y-15.843
X-8.313 Y-16.286
X-8.049 Y-16.728
X-7.756 Y-17.164
X-7.44 Y-17.582
X-7.023 Y-18.078
X-6.103 Y-19.055
X-5.167 Y-20.017
X-4.609 Y-20.538
X-4.143 Y-20.928
X-3.765 Y-21.211
X-3.411 Y-21.447
X-2.256 Y-22.13
X-1.198 Y-22.956
X-1.189 Y-22.965
X-0.962 Y-23.163
X-0.693 Y-23.301
X-0.4 Y-23.371
X-0.098 Y-23.369
X0.195 Y-23.295
X0.461 Y-23.153
X0.686 Y-22.952
X0.857 Y-22.704
X0.964 Y-22.421
X1 Y-22.122
G3 X0.699 Y-21.344 I-1.269 J-0.044
G1 X-7.063 Y-12.211
G3 X-9.3 Y-12.989 I-0.968 J-0.822
G1 Y-16.033
X-9.29 Y-16.24
X-9.263 Y-16.495
X-9.221 Y-16.758
X-9.153 Y-17.07
X-9.054 Y-17.435
X-8.914 Y-17.854
X-8.723 Y-18.339
X-8.495 Y-18.838
X-8.227 Y-19.348
X-7.921 Y-19.86
X-7.589 Y-20.353
X-7.236 Y-20.822
X-6.66 Y-21.504
X-5.74 Y-22.482
X-5.154 Y-23.046
X-4.692 Y-23.446
X-4.295 Y-23.752
X-3.923 Y-24.01
X-3.599 Y-24.208
X-2.418 Y-24.846
X-1.338 Y-25.643
X-0.503 Y-26.525
X-0.299 Y-26.685
X-0.058 Y-26.777
X0.2 Y-26.795
X0.452 Y-26.736
X0.675 Y-26.606
X0.85 Y-26.416
X0.962 Y-26.183
X1 Y-25.927
G3 X0.73 Y-25.188 I-1.269 J-0.044
G1 X-7.032 Y-15.293
G3 X-9.3 Y-16.033 I-0.999 J-0.784
G1 Y-18.906
X-9.283 Y-19.245
X-9.256 Y-19.508
X-9.207 Y-19.813
X-9.139 Y-20.127
X-9.037 Y-20.5
X-8.9 Y-20.91
X-8.726 Y-21.353
X-8.52 Y-21.802
X-8.277 Y-22.264
X-8.004 Y-22.723
X-7.704 Y-23.169
X-7.383 Y-23.593
X-6.973 Y-24.079
X-6.054 Y-25.057
X-5.123 Y-26.024
X-4.635 Y-26.485
X-4.166 Y-26.89
X-3.768 Y-27.198
X-3.429 Y-27.431
X-2.285 Y-28.132
X-1.223 Y-28.953
X-1.143 Y-29.041
X-0.919 Y-29.233
X-0.656 Y-29.367
X-0.368 Y-29.435
X-0.073 Y-29.432
X0.213 Y-29.359
X0.474 Y-29.22
X0.694 Y-29.023
X0.86 Y-28.78
X0.965 Y-28.503
X1 Y-28.21
G3 X0.706 Y-27.441 I-1.269 J-0.044
G1 X-7.056 Y-18.137
G3 X-9.3 Y-18.906 I-0.975 J-0.814
G1 Y-21.95
X-9.288 Y-22.185
X-9.261 Y-22.444
X-9.219 Y-22.709
X-9.151 Y-23.022
X-9.05 Y-23.39
X-8.909 Y-23.817
X-8.713 Y-24.313
X-8.479 Y-24.824
X-8.204 Y-25.347
X-7.893 Y-25.869
X-7.553 Y-26.374
X-7.193 Y-26.852
X-6.523 Y-27.645
X-5.604 Y-28.623
X-5.043 Y-29.159
X-4.598 Y-29.541
X-4.208 Y-29.841
X-3.845 Y-30.089
X-3.528 Y-30.283
X-2.345 Y-30.917
X-1.275 Y-31.727
X-1.248 Y-31.756
X-1.012 Y-31.956
X-0.735 Y-32.095
X-0.433 Y-32.164
X-0.123 Y-32.159
X0.177 Y-32.081
X0.45 Y-31.935
X0.68 Y-31.727
X0.854 Y-31.472
X0.963 Y-31.182
X1 Y-30.874
G3 X0.689 Y-30.085 I-1.269 J-0.044
G1 X-7.073 Y-21.161
G3 X-9.3 Y-21.95 I-0.958 J-0.833
G1 Y-24.785
X-9.278 Y-25.229
X-9.25 Y-25.492
X-9.2 Y-25.807
X-9.13 Y-26.132
X-9.028 Y-26.504
X-8.885 Y-26.933
X-8.713 Y-27.372
X-8.501 Y-27.834
X-8.254 Y-28.304
X-7.977 Y-28.769
X-7.674 Y-29.219
X-7.352 Y-29.646
X-6.951 Y-30.121
X-6.032 Y-31.098
X-5.382 Y-31.73
X-4.869 Y-32.178
X-4.462 Y-32.496
X-4.066 Y-32.772
X-3.725 Y-32.984
X-2.547 Y-33.628
X-1.45 Y-34.4
X-0.553 Y-35.314
X-0.366 Y-35.46
X-0.147 Y-35.553
X0.088 Y-35.586
X0.324 Y-35.556
X0.544 Y-35.466
X0.733 Y-35.322
X0.878 Y-35.134
X0.969 Y-34.915
X1 Y-34.68
G3 X0.73 Y-33.94 I-1.269 J-0.044
G1 X-7.032 Y-24.046
G3 X-9.3 Y-24.785 I-0.999 J-0.784
G1 Y-25.927
X-9.32 Y-26.308
X-9.348 Y-26.688
X-9.393 Y-27.069
X-9.399 Y-27.104
X-9.422 Y-27.267
X-9.439 Y-27.463
X-9.445 Y-27.675
X-9.439 Y-27.915
X-9.42 Y-28.163
X-9.382 Y-28.446
X-9.327 Y-28.736
X-9.243 Y-29.079
X-9.124 Y-29.47
X-8.972 Y-29.886
X-8.781 Y-30.332
X-8.55 Y-30.801
X-8.289 Y-31.265
X-7.999 Y-31.721
X-7.684 Y-32.162
X-7.343 Y-32.588
X-6.448 Y-33.589
X-5.509 Y-34.547
X-4.826 Y-35.205
X-4.318 Y-35.644
X-3.907 Y-35.962
X-3.547 Y-36.211
X-2.403 Y-36.912
X-1.325 Y-37.711
X-0.683 Y-38.392
X-0.484 Y-38.554
X-0.248 Y-38.659
X0.006 Y-38.698
X0.262 Y-38.669
X0.502 Y-38.574
X0.708 Y-38.42
X0.866 Y-38.217
X0.966 Y-37.979
X1 Y-37.724
G3 X0.742 Y-37 I-1.269 J-0.044
G1 X-7.15 Y-26.616
G3 X-9.399 Y-27.104 I-1.011 J-0.768
G1 X-9.465 Y-27.449
X-9.557 Y-27.833
X-9.814 Y-28.591
X-9.862 Y-28.733
X-9.905 Y-28.889
X-9.945 Y-29.074
X-9.977 Y-29.272
X-10.001 Y-29.495
X-10.013 Y-29.74
X-10.012 Y-29.999
X-9.996 Y-30.289
X-9.963 Y-30.586
X-9.909 Y-30.909
X-9.831 Y-31.259
X-9.713 Y-31.675
X-9.566 Y-32.107
X-9.364 Y-32.611
X-9.104 Y-33.168
X-8.781 Y-33.772
X-8.417 Y-34.371
X-8.027 Y-34.943
X-7.618 Y-35.476
X-7.095 Y-36.087
X-6.169 Y-37.058
X-5.227 Y-38.014
X-4.666 Y-38.53
X-4.207 Y-38.908
X-3.831 Y-39.184
X-3.467 Y-39.423
X-2.307 Y-40.097
X-1.687 Y-40.572
X-1.4 Y-40.749
X-1.083 Y-40.865
X-0.75 Y-40.915
X-0.413 Y-40.897
X-0.086 Y-40.811
X0.216 Y-40.662
X0.482 Y-40.455
X0.702 Y-40.199
X0.865 Y-39.904
X0.966 Y-39.582
X1 Y-39.246
G3 X0.707 Y-38.477 I-1.269 J-0.044
G1 X-7.714 Y-28.37
G3 X-9.814 Y-28.591 I-0.976 J-0.813
G1 X-9.938 Y-28.848
X-10.189 Y-29.352
X-10.319 Y-29.592
X-10.372 Y-29.669
X-10.45 Y-29.797
X-10.521 Y-29.929
X-10.583 Y-30.066
X-10.647 Y-30.228
X-10.705 Y-30.401
X-10.761 Y-30.605
X-10.807 Y-30.82
X-10.848 Y-31.073
X-10.875 Y-31.338
X-10.891 Y-31.642
X-10.89 Y-31.963
X-10.869 Y-32.316
X-10.826 Y-32.701
X-10.759 Y-33.097
X-10.662 Y-33.529
X-10.534 Y-33.981
X-10.373 Y-34.454
X-10.158 Y-34.987
X-9.87 Y-35.601
X-9.485 Y-36.32
X-9.051 Y-37.034
X-8.588 Y-37.71
X-8.112 Y-38.33
X-7.628 Y-38.895
X-6.813 Y-39.747
X-6.033 Y-40.479
X-5.493 Y-40.933
X-5.02 Y-41.289
X-4.62 Y-41.557
X-4.229 Y-41.79
X-3.891 Y-41.967
X-2.67 Y-42.524
X-2.574 Y-42.588
X-2.15 Y-42.83
X-1.695 Y-43.006
X-1.219 Y-43.114
X-0.732 Y-43.15
X-0.421
X-0.23 Y-43.149
G3 X0.579 Y-41.114 I-0.193 J1.255
G1 X-8.349 Y-29.645
G3 X-10.372 Y-29.669 I-1.002 J-0.78
G1 X-10.415 Y-29.732
X-10.699 Y-30.128
X-10.989 Y-30.494
X-11.08 Y-30.597
X-11.124 Y-30.643
X-11.228 Y-30.762
X-11.32 Y-30.88
X-11.405 Y-31.004
X-11.492 Y-31.147
X-11.574 Y-31.3
X-11.657 Y-31.48
X-11.736 Y-31.676
X-11.81 Y-31.891
X-11.878 Y-32.135
X-11.935 Y-32.391
X-11.984 Y-32.682
X-12.019 Y-32.992
X-12.038 Y-33.334
X-12.039 Y-33.711
X-12.019 Y-34.114
X-11.971 Y-34.566
X-11.897 Y-35.027
X-11.785 Y-35.538
X-11.638 Y-36.074
X-11.457 Y-36.618
X-11.231 Y-37.187
X-10.944 Y-37.813
X-10.611 Y-38.445
X-10.203 Y-39.126
X-9.756 Y-39.789
X-9.281 Y-40.415
X-8.793 Y-40.993
X-8.298 Y-41.518
X-7.793 Y-41.998
X-7.367 Y-42.361
X-6.992 Y-42.637
X-6.582 Y-42.858
X-6.146 Y-43.019
X-5.69 Y-43.117
X-5.226 Y-43.15
X-0.732
G3 X-0.25 Y-43.036 I-0.044 J1.269
X0.159 Y-41.023 I-0.527 J1.156
G1 X-9.305 Y-30.697
G3 X-11.124 Y-30.643 I-0.936 J-0.858
G1 X-11.347 Y-30.874
X-11.461 Y-30.982
X-11.763 Y-31.255
X-11.841 Y-31.318
X-11.956 Y-31.402
X-12.11 Y-31.525
X-12.221 Y-31.626
X-12.326 Y-31.733
X-12.428 Y-31.851
X-12.532 Y-31.986
X-12.635 Y-32.134
X-12.743 Y-32.31
X-12.845 Y-32.498
X-12.946 Y-32.712
X-13.044 Y-32.951
X-13.132 Y-33.206
X-13.216 Y-33.498
X-13.286 Y-33.804
X-13.344 Y-34.14
X-13.388 Y-34.511
X-13.412 Y-34.894
X-13.416 Y-35.318
X-13.395 Y-35.776
X-13.348 Y-36.245
X-13.267 Y-36.764
X-13.151 Y-37.31
X-13.002 Y-37.867
X-12.808 Y-38.459
X-12.569 Y-39.073
X-12.288 Y-39.693
X-11.967 Y-40.309
X-11.609 Y-40.916
X-11.236 Y-41.475
X-10.883 Y-41.947
X-10.866 Y-41.967
X-10.532 Y-42.312
X-10.151 Y-42.605
X-9.732 Y-42.84
X-9.283 Y-43.011
X-8.814 Y-43.115
X-8.335 Y-43.15
X-5.226
G3 X-4.744 Y-43.036 I-0.044 J1.269
X-4.197 Y-41.201 I-0.527 J1.156
G1 X-10.172 Y-31.774
G3 X-11.956 Y-31.402 I-1.073 J-0.68
G1 X-12.222 Y-31.595
X-12.884 Y-32.016
X-12.983 Y-32.066
X-13.117 Y-32.134
X-13.242 Y-32.218
X-13.361 Y-32.309
X-13.475 Y-32.407
X-13.596 Y-32.522
X-13.722 Y-32.657
X-13.845 Y-32.804
X-13.974 Y-32.976
X-14.102 Y-33.166
X-14.226 Y-33.374
X-14.35 Y-33.613
X-14.466 Y-33.867
X-14.577 Y-34.149
X-14.681 Y-34.464
X-14.77 Y-34.794
X-14.848 Y-35.158
X-14.91 Y-35.556
X-14.953 Y-35.967
X-14.974 Y-36.417
X-14.971 Y-36.904
X-14.941 Y-37.401
X-14.88 Y-37.929
X-14.784 Y-38.49
X-14.652 Y-39.07
X-14.486 Y-39.653
X-14.306 Y-40.177
X-14.104 Y-40.674
X-13.908 Y-41.089
X-13.687 Y-41.5
X-13.643 Y-41.571
X-13.363 Y-41.963
X-13.028 Y-42.309
X-12.647 Y-42.603
X-12.227 Y-42.838
X-11.778 Y-43.01
X-11.308 Y-43.115
X-10.828 Y-43.15
X-8.335
G3 X-7.233 Y-41.333 I-0.044 J1.269
G1 X-11.358 Y-32.695
G3 X-12.983 Y-32.066 I-1.146 J-0.547
G1 X-13.745 Y-32.408
X-13.954 Y-32.473
X-14.114 Y-32.532
X-14.252 Y-32.591
X-14.385 Y-32.66
X-14.514 Y-32.737
X-14.647 Y-32.827
X-14.784 Y-32.931
X-14.923 Y-33.049
X-15.072 Y-33.19
X-15.219 Y-33.344
X-15.368 Y-33.52
X-15.522 Y-33.722
X-15.669 Y-33.938
X-15.816 Y-34.183
X-15.961 Y-34.456
X-16.095 Y-34.745
X-16.223 Y-35.066
X-16.342 Y-35.42
X-16.445 Y-35.789
X-16.534 Y-36.193
X-16.606 Y-36.633
X-16.655 Y-37.089
X-16.681 Y-37.562
Y-38.057
X-16.654 Y-38.559
X-16.598 Y-39.068
X-16.524 Y-39.519
X-16.424 Y-39.975
X-16.316 Y-40.363
X-16.181 Y-40.762
X-16.044 Y-41.104
X-15.882 Y-41.454
X-15.618 Y-41.871
X-15.292 Y-42.242
X-14.914 Y-42.558
X-14.491 Y-42.812
X-14.034 Y-42.998
X-13.553 Y-43.112
X-13.061 Y-43.15
X-10.828
G3 X-10.345 Y-43.036 I-0.044 J1.269
X-9.668 Y-41.477 I-0.527 J1.156
G1 X-12.415 Y-33.294
G3 X-13.954 Y-32.473 I-1.204 J-0.404
G1 X-14.125 Y-32.527
X-14.506 Y-32.639
X-14.887 Y-32.718
X-15.087 Y-32.751
X-15.233 Y-32.782
X-15.378 Y-32.823
X-15.518 Y-32.875
X-15.656 Y-32.935
X-15.8 Y-33.007
X-15.947 Y-33.091
X-16.108 Y-33.195
X-16.27 Y-33.312
X-16.435 Y-33.447
X-16.61 Y-33.605
X-16.783 Y-33.78
X-16.957 Y-33.976
X-17.136 Y-34.201
X-17.308 Y-34.444
X-17.476 Y-34.71
X-17.643 Y-35.008
X-17.8 Y-35.329
X-17.944 Y-35.669
X-18.078 Y-36.041
X-18.197 Y-36.436
X-18.298 Y-36.85
X-18.377 Y-37.277
X-18.434 Y-37.715
X-18.468 Y-38.162
X-18.477 Y-38.614
X-18.463 Y-39.051
X-18.428 Y-39.454
X-18.371 Y-39.855
X-18.301 Y-40.207
X-18.206 Y-40.577
X-18.105 Y-40.899
X-17.983 Y-41.225
X-17.849 Y-41.533
X-17.608 Y-41.929
X-17.308 Y-42.282
X-16.957 Y-42.584
X-16.562 Y-42.827
X-16.134 Y-43.005
X-15.684 Y-43.113
X-15.222 Y-43.15
X-13.061
G3 X-11.868 Y-41.594 I-0.044 J1.269
G1 X-13.692 Y-33.724
G3 X-15.087 Y-32.751 I-1.237 J-0.287
G1 X-15.268 Y-32.78
X-15.648 Y-32.822
X-16.144 Y-32.84
X-16.333 Y-32.857
X-16.482 Y-32.878
X-16.629 Y-32.909
X-16.773 Y-32.949
X-16.922 Y-32.999
X-17.08 Y-33.063
X-17.251 Y-33.142
X-17.423 Y-33.233
X-17.604 Y-33.342
X-17.795 Y-33.472
X-17.985 Y-33.617
X-18.18 Y-33.783
X-18.382 Y-33.974
X-18.58 Y-34.184
X-18.775 Y-34.414
X-18.971 Y-34.673
X-19.163 Y-34.956
X-19.344 Y-35.257
X-19.515 Y-35.582
X-19.676 Y-35.932
X-19.823 Y-36.302
X-19.953 Y-36.689
X-20.063 Y-37.087
X-20.152 Y-37.496
X-20.22 Y-37.914
X-20.265 Y-38.337
X-20.288 Y-38.764
X-20.287 Y-39.166
X-20.265 Y-39.551
X-20.224 Y-39.926
X-20.168 Y-40.259
X-20.09 Y-40.61
X-20.004 Y-40.917
X-19.899 Y-41.227
X-19.856 Y-41.334
X-19.667 Y-41.72
X-19.423 Y-42.073
X-19.129 Y-42.387
X-18.792 Y-42.653
X-18.419 Y-42.867
X-18.019 Y-43.023
X-17.599 Y-43.118
X-17.171 Y-43.15
X-15.222
G3 X-14.74 Y-43.036 I-0.044 J1.269
X-14.004 Y-41.739 I-0.527 J1.156
G1 X-14.88 Y-33.968
G3 X-16.144 Y-32.84 I-1.262 J-0.142
G1 X-16.41 Y-32.85
X-17.552
X-17.719 Y-32.858
X-17.868 Y-32.874
X-18.016 Y-32.899
X-18.17 Y-32.933
X-18.338 Y-32.981
X-18.51 Y-33.039
X-18.692 Y-33.113
X-18.887 Y-33.204
X-19.083 Y-33.309
X-19.286 Y-33.433
X-19.499 Y-33.579
X-19.712 Y-33.742
X-19.925 Y-33.925
X-20.143 Y-34.133
X-20.36 Y-34.365
X-20.571 Y-34.616
X-20.776 Y-34.888
X-20.976 Y-35.187
X-21.168 Y-35.51
X-21.347 Y-35.852
X-21.51 Y-36.21
X-21.657 Y-36.584
X-21.785 Y-36.972
X-21.893 Y-37.37
X-21.981 Y-37.778
X-22.046 Y-38.19
X-22.088 Y-38.603
X-22.107 Y-38.986
X-22.105 Y-39.38
X-22.084 Y-39.725
X-22.042 Y-40.086
X-21.988 Y-40.407
X-21.915 Y-40.729
X-21.828 Y-41.035
X-21.731 Y-41.315
X-21.706 Y-41.378
X-21.519 Y-41.755
X-21.279 Y-42.1
X-20.991 Y-42.406
X-20.661 Y-42.666
X-20.296 Y-42.874
X-19.904 Y-43.026
X-19.494 Y-43.119
X-19.074 Y-43.15
X-17.171
G3 X-16.689 Y-43.036 I-0.044 J1.269
X-15.947 Y-41.819 I-0.527 J1.156
G1 X-16.328 Y-34.057
G3 X-17.069 Y-32.964 I-1.268 J-0.062
X-17.552 Y-32.85 I-0.527 J-1.156
G1 X-19.19
X-19.339 Y-32.857
X-19.489 Y-32.873
X-19.646 Y-32.899
X-19.813 Y-32.935
X-19.987 Y-32.983
X-20.175 Y-33.047
X-20.372 Y-33.125
X-20.572 Y-33.218
X-20.785 Y-33.33
X-21.004 Y-33.462
X-21.223 Y-33.611
X-21.448 Y-33.781
X-21.678 Y-33.976
X-21.905 Y-34.192
X-22.127 Y-34.426
X-22.348 Y-34.686
X-22.564 Y-34.97
X-22.773 Y-35.278
X-22.968 Y-35.603
X-23.15 Y-35.946
X-23.316 Y-36.306
X-23.465 Y-36.68
X-23.596 Y-37.068
X-23.706 Y-37.464
X-23.794 Y-37.867
X-23.861 Y-38.275
X-23.905 Y-38.681
X-23.925 Y-39.053
X-23.924 Y-39.437
X-23.906 Y-39.775
X-23.867 Y-40.127
X-23.815 Y-40.442
X-23.746 Y-40.757
X-23.662 Y-41.058
X-23.587 Y-41.278
X-23.419 Y-41.672
X-23.192 Y-42.034
X-22.911 Y-42.358
X-22.584 Y-42.634
X-22.217 Y-42.855
X-21.821 Y-43.018
X-21.405 Y-43.117
X-20.978 Y-43.15
X-19.074
G3 X-18.592 Y-43.036 I-0.044 J1.269
X-17.849 Y-41.862 I-0.527 J1.156
G1 X-17.964 Y-34.1
G3 X-18.707 Y-32.964 I-1.27 J-0.019
X-19.19 Y-32.85 I-0.527 J-1.156
G1 X-20.807
X-21.054 Y-32.862
X-21.204 Y-32.878
X-21.368 Y-32.904
X-21.539 Y-32.941
X-21.719 Y-32.991
X-21.916 Y-33.057
X-22.117 Y-33.136
X-22.325 Y-33.231
X-22.546 Y-33.348
X-22.77 Y-33.482
X-22.995 Y-33.633
X-23.227 Y-33.809
X-23.462 Y-34.008
X-23.694 Y-34.226
X-23.921 Y-34.465
X-24.147 Y-34.729
X-24.368 Y-35.018
X-24.579 Y-35.328
X-24.777 Y-35.656
X-24.961 Y-36.001
X-25.13 Y-36.363
X-25.279 Y-36.737
X-25.411 Y-37.124
X-25.521 Y-37.519
X-25.61 Y-37.92
X-25.678 Y-38.326
X-25.721 Y-38.714
X-25.743 Y-39.116
X-25.744 Y-39.471
X-25.725 Y-39.828
X-25.689 Y-40.164
X-25.638 Y-40.474
X-25.568 Y-40.796
X-25.49 Y-41.078
X-25.392 Y-41.37
X-25.209 Y-41.748
X-24.971 Y-42.094
X-24.684 Y-42.402
X-24.355 Y-42.663
X-23.991 Y-42.872
X-23.599 Y-43.025
X-23.19 Y-43.119
X-22.771 Y-43.15
X-20.978
G3 X-20.496 Y-43.036 I-0.044 J1.269
X-19.753 Y-41.909 I-0.527 J1.156
G1 X-19.581 Y-34.147
G3 X-20.324 Y-32.964 I-1.27 J0.028
X-20.807 Y-32.85 I-0.527 J-1.156
G1 X-22.616
X-22.809 Y-32.86
X-22.961 Y-32.876
X-23.129 Y-32.902
X-23.302 Y-32.94
X-23.489 Y-32.991
X-23.689 Y-33.057
X-23.893 Y-33.138
X-24.106 Y-33.236
X-24.331 Y-33.354
X-24.558 Y-33.489
X-24.788 Y-33.644
X-25.024 Y-33.822
X-25.263 Y-34.023
X-25.497 Y-34.244
X-25.728 Y-34.486
X-25.956 Y-34.753
X-26.179 Y-35.044
X-26.392 Y-35.356
X-26.592 Y-35.686
X-26.778 Y-36.034
X-26.947 Y-36.397
X-27.098 Y-36.774
X-27.23 Y-37.162
X-27.341 Y-37.557
X-27.431 Y-37.959
X-27.498 Y-38.363
X-27.542 Y-38.759
X-27.563 Y-39.124
X-27.564 Y-39.493
X-27.547 Y-39.822
X-27.51 Y-40.167
X-27.461 Y-40.472
X-27.393 Y-40.785
X-27.312 Y-41.078
X-27.221 Y-41.351
X-27.035 Y-41.733
X-26.795 Y-42.083
X-26.506 Y-42.394
X-26.174 Y-42.658
X-25.806 Y-42.869
X-25.41 Y-43.024
X-24.997 Y-43.118
X-24.573 Y-43.15
X-22.771
G3 X-22.288 Y-43.036 I-0.044 J1.269
X-21.545 Y-41.906 I-0.527 J1.156
G1 X-21.39 Y-34.145
G3 X-22.134 Y-32.964 I-1.27 J0.025
X-22.616 Y-32.85 I-0.527 J-1.156
G1 X-24.404
X-24.596 Y-32.86
X-24.75 Y-32.876
X-24.919 Y-32.903
X-25.094 Y-32.941
X-25.283 Y-32.992
X-25.485 Y-33.059
X-25.691 Y-33.14
X-25.907 Y-33.239
X-26.134 Y-33.359
X-26.363 Y-33.495
X-26.595 Y-33.651
X-26.834 Y-33.832
X-27.074 Y-34.035
X-27.31 Y-34.256
X-27.543 Y-34.5
X-27.773 Y-34.77
X-27.998 Y-35.063
X-28.212 Y-35.377
X-28.412 Y-35.708
X-28.598 Y-36.056
X-28.767 Y-36.419
X-28.918 Y-36.794
X-29.049 Y-37.18
X-29.16 Y-37.573
X-29.249 Y-37.973
X-29.316 Y-38.376
X-29.359 Y-38.765
X-29.38 Y-39.13
X-29.381 Y-39.494
X-29.364 Y-39.822
X-29.327 Y-40.165
X-29.278 Y-40.469
X-29.21 Y-40.782
X-29.13 Y-41.073
X-29.038 Y-41.347
X-28.852 Y-41.73
X-28.612 Y-42.081
X-28.322 Y-42.392
X-27.989 Y-42.657
X-27.62 Y-42.869
X-27.224 Y-43.024
X-26.809 Y-43.118
X-26.384 Y-43.15
X-24.573
G3 X-24.091 Y-43.036 I-0.044 J1.269
X-23.348 Y-41.908 I-0.527 J1.156
G1 X-23.179 Y-34.147
G3 X-23.922 Y-32.964 I-1.27 J0.028
X-24.404 Y-32.85 I-0.527 J-1.156
G1 X-26.136
X-26.4 Y-32.863
X-26.555 Y-32.879
X-26.726 Y-32.907
X-26.901 Y-32.945
X-27.092 Y-32.997
X-27.294 Y-33.064
X-27.501 Y-33.145
X-27.719 Y-33.245
X-27.947 Y-33.365
X-28.176 Y-33.502
X-28.409 Y-33.659
X-28.649 Y-33.84
X-28.89 Y-34.043
X-29.126 Y-34.265
X-29.359 Y-34.51
X-29.59 Y-34.78
X-29.815 Y-35.074
X-30.029 Y-35.387
X-30.23 Y-35.718
X-30.415 Y-36.065
X-30.584 Y-36.428
X-30.734 Y-36.801
X-30.865 Y-37.187
X-30.975 Y-37.579
X-31.064 Y-37.977
X-31.131 Y-38.379
X-31.174 Y-38.767
X-31.195 Y-39.131
X-31.196 Y-39.495
X-31.179 Y-39.822
X-31.142 Y-40.165
X-31.093 Y-40.468
X-31.025 Y-40.781
X-30.945 Y-41.072
X-30.853 Y-41.346
X-30.848 Y-41.358
X-30.664 Y-41.738
X-30.425 Y-42.087
X-30.136 Y-42.397
X-29.805 Y-42.66
X-29.439 Y-42.871
X-29.045 Y-43.025
X-28.633 Y-43.118
X-28.211 Y-43.15
X-26.384
G3 X-25.902 Y-43.036 I-0.044 J1.269
X-25.159 Y-41.921 I-0.527 J1.156
G1 X-24.911 Y-34.16
G3 X-25.654 Y-32.964 I-1.269 J0.041
X-26.136 Y-32.85 I-0.527 J-1.156
G1 X-28.04
X-28.203 Y-32.858
X-28.36 Y-32.875
X-28.531 Y-32.902
X-28.707 Y-32.94
X-28.899 Y-32.992
X-29.103 Y-33.06
X-29.31 Y-33.142
X-29.529 Y-33.242
X-29.758 Y-33.363
X-29.987 Y-33.499
X-30.221 Y-33.657
X-30.462 Y-33.839
X-30.704 Y-34.042
X-30.94 Y-34.265
X-31.174 Y-34.51
X-31.405 Y-34.78
X-31.63 Y-35.074
X-31.844 Y-35.388
X-32.044 Y-35.719
X-32.23 Y-36.066
X-32.399 Y-36.428
X-32.549 Y-36.802
X-32.68 Y-37.187
X-32.79 Y-37.579
X-32.879 Y-37.977
X-32.946 Y-38.379
X-32.989 Y-38.768
X-33.009 Y-39.133
X-33.01 Y-39.498
X-32.993 Y-39.825
X-32.957 Y-40.169
X-32.908 Y-40.472
X-32.84 Y-40.786
X-32.759 Y-41.077
X-32.685 Y-41.3
X-32.52 Y-41.689
X-32.297 Y-42.047
X-32.021 Y-42.367
X-31.698 Y-42.639
X-31.337 Y-42.859
X-30.946 Y-43.019
X-30.536 Y-43.117
X-30.115 Y-43.15
X-28.211
G3 X-27.729 Y-43.036 I-0.044 J1.269
X-26.986 Y-41.909 I-0.527 J1.156
G1 X-26.814 Y-34.147
G3 X-27.557 Y-32.964 I-1.27 J0.028
X-28.04 Y-32.85 I-0.527 J-1.156
G1 X-29.849
X-30.018 Y-32.858
X-30.174 Y-32.875
X-30.345 Y-32.902
X-30.522 Y-32.94
X-30.714 Y-32.993
X-30.917 Y-33.06
X-31.124 Y-33.142
X-31.344 Y-33.242
X-31.573 Y-33.363
X-31.802 Y-33.5
X-32.036 Y-33.657
X-32.277 Y-33.839
X-32.518 Y-34.043
X-32.755 Y-34.265
X-32.988 Y-34.51
X-33.219 Y-34.78
X-33.444 Y-35.074
X-33.659 Y-35.388
X-33.859 Y-35.719
X-34.045 Y-36.066
X-34.214 Y-36.429
X-34.364 Y-36.803
X-34.495 Y-37.188
X-34.605 Y-37.581
X-34.694 Y-37.979
X-34.761 Y-38.381
X-34.804 Y-38.765
X-34.826 Y-39.163
X-34.827 Y-39.512
X-34.809 Y-39.868
X-34.773 Y-40.198
X-34.723 Y-40.508
X-34.654 Y-40.824
X-34.578 Y-41.103
X-34.48 Y-41.393
X-34.3 Y-41.766
X-34.065 Y-42.108
X-33.783 Y-42.411
X-33.458 Y-42.669
X-33.099 Y-42.876
X-32.713 Y-43.027
X-32.309 Y-43.119
X-31.895 Y-43.15
X-30.115
G3 X-29.632 Y-43.036 I-0.044 J1.269
X-28.89 Y-41.924 I-0.527 J1.156
G1 X-28.624 Y-34.163
G3 X-29.367 Y-32.964 I-1.269 J0.043
X-29.849 Y-32.85 I-0.527 J-1.156
G1 X-31.637
X-31.833 Y-32.86
X-31.99 Y-32.876
X-32.161 Y-32.904
X-32.337 Y-32.942
X-32.529 Y-32.994
X-32.733 Y-33.062
X-32.94 Y-33.143
X-33.159 Y-33.244
X-33.388 Y-33.364
X-33.617 Y-33.501
X-33.851 Y-33.659
X-34.092 Y-33.84
X-34.333 Y-34.044
X-34.57 Y-34.266
X-34.804 Y-34.511
X-35.035 Y-34.782
X-35.26 Y-35.076
X-35.474 Y-35.389
X-35.675 Y-35.721
X-35.861 Y-36.07
X-36.031 Y-36.434
X-36.182 Y-36.812
X-36.314 Y-37.2
X-36.425 Y-37.594
X-36.515 Y-37.996
X-36.582 Y-38.4
X-36.626 Y-38.793
X-36.646 Y-39.158
X-36.647 Y-39.524
X-36.63 Y-39.851
X-36.594 Y-40.194
X-36.545 Y-40.497
X-36.477 Y-40.809
X-36.397 Y-41.099
X-36.306 Y-41.372
X-36.123 Y-41.749
X-35.886 Y-42.095
X-35.599 Y-42.402
X-35.271 Y-42.663
X-34.907 Y-42.873
X-34.516 Y-43.026
X-34.107 Y-43.119
X-33.689 Y-43.15
X-31.895
G3 X-30.67 Y-41.923 I-0.044 J1.269
G1 X-30.412 Y-34.161
G3 X-31.155 Y-32.964 I-1.269 J0.042
X-31.637 Y-32.85 I-0.527 J-1.156
G1 X-33.464
X-33.647 Y-32.859
X-33.804 Y-32.876
X-33.975 Y-32.903
X-34.151 Y-32.941
X-34.343 Y-32.994
X-34.547 Y-33.061
X-34.754 Y-33.143
X-34.973 Y-33.243
X-35.202 Y-33.364
X-35.432 Y-33.501
X-35.666 Y-33.659
X-35.908 Y-33.841
X-36.15 Y-34.045
X-36.387 Y-34.268
X-36.621 Y-34.514
X-36.853 Y-34.785
X-37.079 Y-35.08
X-37.294 Y-35.395
X-37.495 Y-35.728
X-37.682 Y-36.076
X-37.851 Y-36.44
X-38.002 Y-36.816
X-38.134 Y-37.203
X-38.244 Y-37.596
X-38.333 Y-37.996
X-38.4 Y-38.399
X-38.444 Y-38.788
X-38.464 Y-39.152
X-38.465 Y-39.515
X-38.448 Y-39.842
X-38.412 Y-40.184
X-38.363 Y-40.486
X-38.295 Y-40.799
X-38.215 Y-41.089
X-38.124 Y-41.362
X-37.94 Y-41.741
X-37.701 Y-42.089
X-37.413 Y-42.398
X-37.083 Y-42.661
X-36.717 Y-42.871
X-36.324 Y-43.025
X-35.913 Y-43.119
X-35.492 Y-43.15
X-33.689
G3 X-33.206 Y-43.036 I-0.044 J1.269
X-32.464 Y-41.918 I-0.527 J1.156
G1 X-32.239 Y-34.156
G3 X-33.464 Y-32.85 I-1.269 J0.037
G1 X-35.273
X-35.462 Y-32.859
X-35.619 Y-32.876
X-35.791 Y-32.903
X-35.967 Y-32.941
X-36.16 Y-32.994
X-36.364 Y-33.062
X-36.571 Y-33.144
X-36.791 Y-33.244
X-37.02 Y-33.365
X-37.25 Y-33.502
X-37.485 Y-33.66
X-37.727 Y-33.843
X-37.969 Y-34.047
X-38.206 Y-34.27
X-38.44 Y-34.516
X-38.672 Y-34.787
X-38.898 Y-35.082
X-39.113 Y-35.396
X-39.314 Y-35.728
X-39.5 Y-36.076
X-39.669 Y-36.44
X-39.819 Y-36.814
X-39.951 Y-37.2
X-40.061 Y-37.593
X-40.15 Y-37.992
X-40.217 Y-38.394
X-40.26 Y-38.781
X-40.281 Y-39.145
Y-39.509
X-40.265 Y-39.835
X-40.228 Y-40.178
X-40.179 Y-40.48
X-40.111 Y-40.793
X-40.031 Y-41.083
X-39.94 Y-41.356
X-39.922 Y-41.401
X-39.742 Y-41.772
X-39.508 Y-42.113
X-39.227 Y-42.415
X-38.904 Y-42.671
X-38.546 Y-42.877
X-38.162 Y-43.028
X-37.759 Y-43.119
X-37.348 Y-43.15
X-35.492
G3 X-35.01 Y-43.036 I-0.044 J1.269
X-34.267 Y-41.917 I-0.527 J1.156
G1 X-34.048 Y-34.155
G3 X-34.791 Y-32.964 I-1.269 J0.036
X-35.273 Y-32.85 I-0.527 J-1.156
G1 X-37.082
X-37.28 Y-32.86
X-37.437 Y-32.876
X-37.609 Y-32.904
X-37.785 Y-32.942
X-37.978 Y-32.995
X-38.182 Y-33.062
X-38.389 Y-33.144
X-38.609 Y-33.245
X-38.838 Y-33.365
X-39.068 Y-33.503
X-39.303 Y-33.661
X-39.545 Y-33.843
X-39.786 Y-34.047
X-40.023 Y-34.27
X-40.258 Y-34.515
X-40.489 Y-34.786
X-40.715 Y-35.081
X-40.929 Y-35.395
X-41.13 Y-35.727
X-41.316 Y-36.074
X-41.485 Y-36.437
X-41.635 Y-36.811
X-41.766 Y-37.197
X-41.876 Y-37.589
X-41.965 Y-37.988
X-42.032 Y-38.39
X-42.076 Y-38.781
X-42.097 Y-39.148
Y-39.517
X-42.08 Y-39.846
X-42.044 Y-40.19
X-41.995 Y-40.495
X-41.926 Y-40.807
X-41.846 Y-41.098
X-41.755 Y-41.371
X-41.572 Y-41.749
X-41.334 Y-42.095
X-41.048 Y-42.402
X-40.72 Y-42.663
X-40.356 Y-42.873
X-39.965 Y-43.026
X-39.556 Y-43.119
X-39.137 Y-43.15
X-37.348
G3 X-36.123 Y-41.924 I-0.044 J1.269
G1 X-35.857 Y-34.163
G3 X-37.082 Y-32.85 I-1.269 J0.043
G1 X-38.871
X-39.099 Y-32.861
X-39.256 Y-32.878
X-39.427 Y-32.905
X-39.604 Y-32.943
X-39.796 Y-32.996
X-40 Y-33.064
X-40.207 Y-33.145
X-40.427 Y-33.246
X-40.656 Y-33.367
X-40.886 Y-33.504
X-41.12 Y-33.661
X-41.362 Y-33.844
X-41.603 Y-34.047
X-41.84 Y-34.27
X-42.074 Y-34.515
X-42.305 Y-34.786
X-42.531 Y-35.08
X-42.745 Y-35.394
X-42.946 Y-35.726
X-43.132 Y-36.074
X-43.301 Y-36.438
X-43.452 Y-36.813
X-43.583 Y-37.2
X-43.694 Y-37.593
X-43.783 Y-37.993
X-43.85 Y-38.396
X-43.894 Y-38.785
X-43.914 Y-39.15
X-43.915 Y-39.514
X-43.898 Y-39.84
X-43.862 Y-40.183
X-43.813 Y-40.485
X-43.745 Y-40.798
X-43.665 Y-41.088
X-43.574 Y-41.361
X-43.389 Y-41.741
X-43.151 Y-42.089
X-42.863 Y-42.398
X-42.532 Y-42.66
X-42.166 Y-42.871
X-41.773 Y-43.025
X-41.361 Y-43.119
X-40.94 Y-43.15
X-39.137
G3 X-38.655 Y-43.036 I-0.044 J1.269
X-37.912 Y-41.924 I-0.527 J1.156
G1 X-37.646 Y-34.163
G3 X-38.388 Y-32.964 I-1.269 J0.044
X-38.871 Y-32.85 I-0.527 J-1.156
G1 X-40.774
X-40.924 Y-32.857
X-41.081 Y-32.875
X-41.254 Y-32.903
X-41.432 Y-32.942
X-41.625 Y-32.996
X-41.83 Y-33.065
X-42.039 Y-33.149
X-42.259 Y-33.251
X-42.489 Y-33.373
X-42.72 Y-33.512
X-42.955 Y-33.672
X-43.196 Y-33.855
X-43.438 Y-34.062
X-43.676 Y-34.288
X-43.91 Y-34.535
X-44.14 Y-34.807
X-44.365 Y-35.103
X-44.579 Y-35.42
X-44.78 Y-35.754
X-44.965 Y-36.104
X-45.132 Y-36.469
X-45.281 Y-36.845
X-45.411 Y-37.231
X-45.519 Y-37.624
X-45.607 Y-38.024
X-45.672 Y-38.426
X-45.713 Y-38.809
X-45.732 Y-39.176
X-45.731 Y-39.535
X-45.713 Y-39.862
X-45.675 Y-40.203
X-45.625 Y-40.503
X-45.555 Y-40.817
X-45.474 Y-41.104
X-45.381 Y-41.379
X-45.197 Y-41.755
X-44.958 Y-42.1
X-44.672 Y-42.406
X-44.343 Y-42.666
X-43.979 Y-42.874
X-43.589 Y-43.026
X-43.18 Y-43.119
X-42.762 Y-43.15
X-40.94
G3 X-40.458 Y-43.036 I-0.044 J1.269
X-39.715 Y-41.908 I-0.527 J1.156
G1 X-39.549 Y-34.146
G3 X-40.774 Y-32.85 I-1.27 J0.027
G1 X-42.506
X-42.733 Y-32.861
X-42.892 Y-32.878
X-43.061 Y-32.905
X-43.238 Y-32.943
X-43.431 Y-32.996
X-43.633 Y-33.063
X-43.841 Y-33.145
X-44.062 Y-33.246
X-44.29 Y-33.366
X-44.519 Y-33.503
X-44.755 Y-33.662
X-44.997 Y-33.844
X-45.237 Y-34.047
X-45.473 Y-34.269
X-45.708 Y-34.516
X-45.941 Y-34.787
X-46.166 Y-35.082
X-46.379 Y-35.395
X-46.58 Y-35.726
X-46.765 Y-36.073
X-46.934 Y-36.436
X-47.085 Y-36.81
X-47.216 Y-37.196
X-47.326 Y-37.587
X-47.415 Y-37.986
X-47.482 Y-38.388
X-47.526 Y-38.78
X-47.546 Y-39.142
X-47.547 Y-39.509
X-47.53 Y-39.835
X-47.494 Y-40.178
X-47.444 Y-40.482
X-47.377 Y-40.793
X-47.296 Y-41.085
X-47.205 Y-41.357
X-47.2 Y-41.37
X-47.017 Y-41.748
X-46.779 Y-42.095
X-46.493 Y-42.402
X-46.164 Y-42.663
X-45.8 Y-42.872
X-45.409 Y-43.025
X-45 Y-43.119
X-44.581 Y-43.15
X-42.762
G3 X-42.28 Y-43.036 I-0.044 J1.269
X-41.537 Y-41.923 I-0.527 J1.156
G1 X-41.281 Y-34.161
G3 X-42.506 Y-32.85 I-1.269 J0.042
G1 X-44.41
X-44.559 Y-32.857
X-44.717 Y-32.875
X-44.89 Y-32.903
X-45.069 Y-32.943
X-45.261 Y-32.997
X-45.467 Y-33.066
X-45.676 Y-33.15
X-45.895 Y-33.252
X-46.126 Y-33.374
X-46.357 Y-33.514
X-46.591 Y-33.673
X-46.832 Y-33.857
X-47.074 Y-34.063
X-47.312 Y-34.289
X-47.545 Y-34.536
X-47.775 Y-34.808
X-48 Y-35.104
X-48.214 Y-35.421
X-48.414 Y-35.755
X-48.598 Y-36.105
X-48.766 Y-36.47
X-48.915 Y-36.845
X-49.044 Y-37.232
X-49.152 Y-37.625
X-49.239 Y-38.024
X-49.304 Y-38.427
X-49.345 Y-38.81
X-49.364 Y-39.178
X-49.363 Y-39.539
X-49.344 Y-39.867
X-49.306 Y-40.208
X-49.256 Y-40.509
X-49.186 Y-40.823
X-49.105 Y-41.11
X-49.011 Y-41.385
X-48.827 Y-41.76
X-48.59 Y-42.104
X-48.304 Y-42.409
X-47.976 Y-42.667
X-47.613 Y-42.875
X-47.224 Y-43.027
X-46.817 Y-43.119
X-46.4 Y-43.15
X-44.581
G3 X-44.099 Y-43.036 I-0.044 J1.269
X-43.356 Y-41.909 I-0.527 J1.156
G1 X-43.184 Y-34.147
G3 X-44.41 Y-32.85 I-1.27 J0.028
G1 X-46.104
X-46.369 Y-32.863
X-46.528 Y-32.88
X-46.697 Y-32.907
X-46.873 Y-32.945
X-47.066 Y-32.998
X-47.268 Y-33.065
X-47.475 Y-33.146
X-47.696 Y-33.248
X-47.924 Y-33.367
X-48.152 Y-33.504
X-48.388 Y-33.662
X-48.63 Y-33.845
X-48.87 Y-34.047
X-49.106 Y-34.269
X-49.341 Y-34.516
X-49.573 Y-34.787
X-49.798 Y-35.081
X-50.011 Y-35.394
X-50.212 Y-35.725
X-50.397 Y-36.072
X-50.566 Y-36.435
X-50.717 Y-36.809
X-50.848 Y-37.195
X-50.958 Y-37.588
X-51.047 Y-37.987
X-51.114 Y-38.389
X-51.158 Y-38.782
X-51.178 Y-39.144
X-51.179 Y-39.511
X-51.162 Y-39.838
X-51.126 Y-40.181
X-51.077 Y-40.485
X-51.009 Y-40.796
X-50.929 Y-41.087
X-50.838 Y-41.359
X-50.653 Y-41.739
X-50.414 Y-42.088
X-50.126 Y-42.397
X-49.795 Y-42.66
X-49.429 Y-42.871
X-49.035 Y-43.025
X-48.623 Y-43.118
X-48.202 Y-43.15
X-46.4
G3 X-45.918 Y-43.036 I-0.044 J1.269
X-45.175 Y-41.929 I-0.527 J1.156
G1 X-44.879 Y-34.168
G3 X-45.621 Y-32.964 I-1.269 J0.048
X-46.104 Y-32.85 I-0.527 J-1.156
G1 X-48.007
X-48.179 Y-32.859
X-48.337 Y-32.875
X-48.508 Y-32.902
X-48.685 Y-32.941
X-48.877 Y-32.993
X-49.081 Y-33.061
X-49.288 Y-33.143
X-49.508 Y-33.243
X-49.737 Y-33.364
X-49.967 Y-33.501
X-50.202 Y-33.659
X-50.443 Y-33.841
X-50.685 Y-34.045
X-50.921 Y-34.268
X-51.155 Y-34.513
X-51.387 Y-34.784
X-51.612 Y-35.078
X-51.827 Y-35.393
X-52.028 Y-35.724
X-52.213 Y-36.072
X-52.383 Y-36.435
X-52.533 Y-36.81
X-52.665 Y-37.196
X-52.775 Y-37.589
X-52.864 Y-37.988
X-52.931 Y-38.39
X-52.974 Y-38.778
X-52.995 Y-39.142
X-52.996 Y-39.506
X-52.979 Y-39.832
X-52.942 Y-40.175
X-52.893 Y-40.477
X-52.825 Y-40.79
X-52.745 Y-41.081
X-52.654 Y-41.354
X-52.469 Y-41.735
X-52.229 Y-42.085
X-51.94 Y-42.395
X-51.608 Y-42.658
X-51.241 Y-42.87
X-50.846 Y-43.024
X-50.433 Y-43.118
X-50.01 Y-43.15
X-48.202
G3 X-46.977 Y-41.913 I-0.044 J1.269
G1 X-46.782 Y-34.151
G3 X-48.007 Y-32.85 I-1.27 J0.032
G1 X-49.739
X-50.001 Y-32.863
X-50.157 Y-32.879
X-50.328 Y-32.907
X-50.505 Y-32.945
X-50.697 Y-32.997
X-50.9 Y-33.065
X-51.107 Y-33.147
X-51.326 Y-33.247
X-51.556 Y-33.368
X-51.785 Y-33.504
X-52.019 Y-33.662
X-52.261 Y-33.844
X-52.502 Y-34.048
X-52.739 Y-34.27
X-52.973 Y-34.516
X-53.204 Y-34.786
X-53.429 Y-35.081
X-53.643 Y-35.395
X-53.844 Y-35.726
X-54.03 Y-36.074
X-54.199 Y-36.436
X-54.349 Y-36.81
X-54.48 Y-37.195
X-54.59 Y-37.587
X-54.679 Y-37.986
X-54.746 Y-38.388
X-54.789 Y-38.775
X-54.81 Y-39.139
X-54.811 Y-39.502
X-54.794 Y-39.829
X-54.757 Y-40.172
X-54.708 Y-40.474
X-54.64 Y-40.787
X-54.56 Y-41.078
X-54.469 Y-41.351
X-54.283 Y-41.733
X-54.043 Y-42.083
X-53.754 Y-42.394
X-53.422 Y-42.658
X-53.054 Y-42.869
X-52.658 Y-43.024
X-52.244 Y-43.118
X-51.821 Y-43.15
X-50.01
G3 X-48.785 Y-41.925 I-0.044 J1.269
G1 X-48.514 Y-34.164
G3 X-49.257 Y-32.964 I-1.269 J0.044
X-49.739 Y-32.85 I-0.527 J-1.156
G1 X-51.643
X-51.811 Y-32.858
X-51.968 Y-32.875
X-52.139 Y-32.902
X-52.316 Y-32.94
X-52.509 Y-32.993
X-52.713 Y-33.061
X-52.92 Y-33.143
X-53.14 Y-33.243
X-53.369 Y-33.364
X-53.599 Y-33.501
X-53.834 Y-33.659
X-54.075 Y-33.841
X-54.317 Y-34.045
X-54.553 Y-34.268
X-54.788 Y-34.513
X-55.019 Y-34.784
X-55.244 Y-35.078
X-55.459 Y-35.392
X-55.659 Y-35.723
X-55.845 Y-36.071
X-56.014 Y-36.433
X-56.164 Y-36.807
X-56.295 Y-37.193
X-56.405 Y-37.584
X-56.494 Y-37.983
X-56.561 Y-38.385
X-56.604 Y-38.772
X-56.625 Y-39.136
X-56.626 Y-39.5
X-56.609 Y-39.826
X-56.572 Y-40.169
X-56.523 Y-40.472
X-56.455 Y-40.785
X-56.375 Y-41.076
X-56.304 Y-41.288
X-56.138 Y-41.68
X-55.913 Y-42.04
X-55.635 Y-42.362
X-55.311 Y-42.636
X-54.948 Y-42.857
X-54.555 Y-43.018
X-54.141 Y-43.117
X-53.718 Y-43.15
X-51.821
G3 X-50.596 Y-41.91 I-0.044 J1.269
G1 X-50.417 Y-34.148
G3 X-51.643 Y-32.85 I-1.27 J0.029
G1 X-53.452
X-53.629 Y-32.859
X-53.786 Y-32.875
X-53.957 Y-32.903
X-54.134 Y-32.941
X-54.326 Y-32.993
X-54.53 Y-33.061
X-54.737 Y-33.143
X-54.956 Y-33.243
X-55.186 Y-33.364
X-55.415 Y-33.501
X-55.65 Y-33.659
X-55.891 Y-33.841
X-56.132 Y-34.044
X-56.369 Y-34.267
X-56.603 Y-34.512
X-56.834 Y-34.783
X-57.059 Y-35.077
X-57.274 Y-35.391
X-57.474 Y-35.722
X-57.66 Y-36.069
X-57.829 Y-36.432
X-57.979 Y-36.805
X-58.11 Y-37.191
X-58.22 Y-37.583
X-58.309 Y-37.981
X-58.375 Y-38.382
X-58.418 Y-38.764
X-58.44 Y-39.161
X-58.441 Y-39.509
X-58.423 Y-39.864
X-58.388 Y-40.194
X-58.338 Y-40.503
X-58.269 Y-40.82
X-58.192 Y-41.098
X-58.095 Y-41.389
X-57.913 Y-41.763
X-57.679 Y-42.106
X-57.395 Y-42.41
X-57.07 Y-42.668
X-56.71 Y-42.875
X-56.323 Y-43.027
X-55.918 Y-43.119
X-55.503 Y-43.15
X-53.718
G3 X-53.235 Y-43.036 I-0.044 J1.269
X-52.493 Y-41.924 I-0.527 J1.156
G1 X-52.227 Y-34.163
G3 X-52.97 Y-32.964 I-1.269 J0.043
X-53.452 Y-32.85 I-0.527 J-1.156
G1 X-55.24
X-55.446 Y-32.86
X-55.603 Y-32.877
X-55.774 Y-32.904
X-55.951 Y-32.942
X-56.143 Y-32.995
X-56.346 Y-33.062
X-56.553 Y-33.144
X-56.773 Y-33.245
X-57.002 Y-33.365
X-57.231 Y-33.502
X-57.466 Y-33.66
X-57.707 Y-33.841
X-57.948 Y-34.045
X-58.184 Y-34.268
X-58.418 Y-34.513
X-58.649 Y-34.783
X-58.874 Y-35.077
X-59.088 Y-35.39
X-59.289 Y-35.722
X-59.476 Y-36.071
X-59.645 Y-36.434
X-59.796 Y-36.812
X-59.928 Y-37.199
X-60.039 Y-37.593
X-60.128 Y-37.995
X-60.196 Y-38.398
X-60.239 Y-38.79
X-60.26 Y-39.156
X-60.261 Y-39.521
X-60.244 Y-39.849
X-60.207 Y-40.192
X-60.158 Y-40.494
X-60.09 Y-40.807
X-60.011 Y-41.096
X-59.919 Y-41.369
X-59.736 Y-41.747
X-59.498 Y-42.094
X-59.212 Y-42.401
X-58.883 Y-42.663
X-58.519 Y-42.872
X-58.127 Y-43.025
X-57.718 Y-43.119
X-57.299 Y-43.15
X-55.503
G3 X-54.278 Y-41.924 I-0.044 J1.269
G1 X-54.015 Y-34.162
G3 X-55.24 Y-32.85 I-1.269 J0.043
G1 X-57.067
X-57.261 Y-32.86
X-57.418 Y-32.876
X-57.589 Y-32.903
X-57.765 Y-32.942
X-57.957 Y-32.994
X-58.161 Y-33.062
X-58.368 Y-33.143
X-58.587 Y-33.244
X-58.817 Y-33.364
X-59.046 Y-33.501
X-59.281 Y-33.659
X-59.522 Y-33.842
X-59.764 Y-34.045
X-60.001 Y-34.268
X-60.235 Y-34.514
X-60.467 Y-34.785
X-60.693 Y-35.081
X-60.908 Y-35.395
X-61.109 Y-35.727
X-61.295 Y-36.076
X-61.465 Y-36.44
X-61.615 Y-36.815
X-61.747 Y-37.202
X-61.857 Y-37.595
X-61.946 Y-37.994
X-62.014 Y-38.397
X-62.057 Y-38.786
X-62.077 Y-39.15
X-62.078 Y-39.514
X-62.061 Y-39.84
X-62.025 Y-40.183
X-61.976 Y-40.485
X-61.908 Y-40.797
X-61.828 Y-41.087
X-61.737 Y-41.36
X-61.553 Y-41.74
X-61.314 Y-42.088
X-61.026 Y-42.397
X-60.695 Y-42.66
X-60.329 Y-42.871
X-59.936 Y-43.025
X-59.524 Y-43.119
X-59.103 Y-43.15
X-57.299
G3 X-56.073 Y-41.919 I-0.044 J1.269
G1 X-55.842 Y-34.157
G3 X-56.584 Y-32.964 I-1.269 J0.038
X-57.067 Y-32.85 I-0.527 J-1.156
G1 X-58.876
X-59.077 Y-32.86
X-59.234 Y-32.876
X-59.405 Y-32.904
X-59.581 Y-32.942
X-59.774 Y-32.995
X-59.978 Y-33.062
X-60.185 Y-33.144
X-60.405 Y-33.245
X-60.634 Y-33.365
X-60.864 Y-33.502
X-61.099 Y-33.661
X-61.341 Y-33.843
X-61.582 Y-34.047
X-61.819 Y-34.27
X-62.054 Y-34.516
X-62.285 Y-34.787
X-62.511 Y-35.082
X-62.726 Y-35.396
X-62.927 Y-35.728
X-63.113 Y-36.076
X-63.282 Y-36.439
X-63.432 Y-36.813
X-63.564 Y-37.199
X-63.674 Y-37.592
X-63.763 Y-37.991
X-63.83 Y-38.393
X-63.873 Y-38.78
X-63.893 Y-39.144
X-63.894 Y-39.507
X-63.877 Y-39.834
X-63.841 Y-40.177
X-63.792 Y-40.479
X-63.724 Y-40.792
X-63.644 Y-41.082
X-63.553 Y-41.355
X-63.538 Y-41.392
X-63.357 Y-41.765
X-63.122 Y-42.107
X-62.84 Y-42.411
X-62.515 Y-42.669
X-62.155 Y-42.876
X-61.769 Y-43.027
X-61.364 Y-43.119
X-60.951 Y-43.15
X-59.103
G3 X-58.62 Y-43.036 I-0.044 J1.269
X-57.878 Y-41.918 I-0.527 J1.156
G1 X-57.651 Y-34.156
G3 X-58.394 Y-32.964 I-1.269 J0.037
X-58.876 Y-32.85 I-0.527 J-1.156
G1 X-60.685
X-60.894 Y-32.86
X-61.051 Y-32.877
X-61.222 Y-32.904
X-61.399 Y-32.942
X-61.592 Y-32.995
X-61.795 Y-33.063
X-62.003 Y-33.145
X-62.223 Y-33.245
X-62.452 Y-33.366
X-62.682 Y-33.503
X-62.917 Y-33.661
X-63.158 Y-33.843
X-63.4 Y-34.047
X-63.636 Y-34.27
X-63.871 Y-34.515
X-64.102 Y-34.786
X-64.328 Y-35.081
X-64.542 Y-35.395
X-64.743 Y-35.726
X-64.929 Y-36.074
X-65.098 Y-36.437
X-65.248 Y-36.811
X-65.379 Y-37.196
X-65.489 Y-37.588
X-65.578 Y-37.987
X-65.645 Y-38.389
X-65.688 Y-38.78
X-65.709 Y-39.146
X-65.71 Y-39.514
X-65.693 Y-39.843
X-65.656 Y-40.187
X-65.607 Y-40.491
X-65.539 Y-40.804
X-65.459 Y-41.094
X-65.368 Y-41.367
X-65.184 Y-41.746
X-64.946 Y-42.093
X-64.659 Y-42.4
X-64.33 Y-42.662
X-63.965 Y-42.872
X-63.574 Y-43.025
X-63.163 Y-43.119
X-62.744 Y-43.15
X-60.951
G3 X-59.726 Y-41.924 I-0.044 J1.269
G1 X-59.46 Y-34.163
G3 X-60.685 Y-32.85 I-1.269 J0.043
G1 X-62.474
X-62.713 Y-32.862
X-62.87 Y-32.878
X-63.041 Y-32.906
X-63.217 Y-32.944
X-63.41 Y-32.996
X-63.613 Y-33.064
X-63.82 Y-33.146
X-64.04 Y-33.246
X-64.269 Y-33.367
X-64.499 Y-33.504
X-64.733 Y-33.662
X-64.975 Y-33.844
X-65.216 Y-34.048
X-65.453 Y-34.27
X-65.687 Y-34.516
X-65.918 Y-34.786
X-66.143 Y-35.08
X-66.358 Y-35.394
X-66.558 Y-35.726
X-66.744 Y-36.074
X-66.914 Y-36.437
X-67.064 Y-36.812
X-67.196 Y-37.199
X-67.306 Y-37.592
X-67.395 Y-37.991
X-67.462 Y-38.394
X-67.506 Y-38.783
X-67.526 Y-39.147
X-67.527 Y-39.511
X-67.51 Y-39.838
X-67.474 Y-40.18
X-67.425 Y-40.483
X-67.357 Y-40.795
X-67.277 Y-41.085
X-67.186 Y-41.358
X-67.001 Y-41.739
X-66.762 Y-42.087
X-66.474 Y-42.397
X-66.143 Y-42.66
X-65.776 Y-42.871
X-65.383 Y-43.025
X-64.97 Y-43.118
X-64.549 Y-43.15
X-62.744
G3 X-61.519 Y-41.925 I-0.044 J1.269
G1 X-61.249 Y-34.163
G3 X-62.474 Y-32.85 I-1.269 J0.044
G1 X-64.377
X-64.527 Y-32.857
X-64.684 Y-32.874
X-64.856 Y-32.902
X-65.033 Y-32.94
X-65.226 Y-32.993
X-65.43 Y-33.061
X-65.637 Y-33.143
X-65.857 Y-33.244
X-66.087 Y-33.365
X-66.317 Y-33.503
X-66.552 Y-33.661
X-66.793 Y-33.844
X-67.035 Y-34.048
X-67.272 Y-34.271
X-67.506 Y-34.517
X-67.738 Y-34.789
X-67.963 Y-35.084
X-68.178 Y-35.399
X-68.379 Y-35.731
X-68.564 Y-36.079
X-68.733 Y-36.443
X-68.883 Y-36.817
X-69.014 Y-37.203
X-69.124 Y-37.596
X-69.213 Y-37.995
X-69.279 Y-38.397
X-69.322 Y-38.784
X-69.342 Y-39.149
X-69.343 Y-39.511
X-69.326 Y-39.838
X-69.289 Y-40.18
X-69.24 Y-40.482
X-69.171 Y-40.795
X-69.091 Y-41.085
X-69 Y-41.358
X-68.815 Y-41.739
X-68.575 Y-42.088
X-68.287 Y-42.397
X-67.955 Y-42.66
X-67.589 Y-42.871
X-67.195 Y-43.025
X-66.782 Y-43.118
X-66.36 Y-43.15
X-64.549
G3 X-64.067 Y-43.036 I-0.044 J1.269
X-63.324 Y-41.909 I-0.527 J1.156
G1 X-63.152 Y-34.147
G3 X-63.895 Y-32.964 I-1.27 J0.028
X-64.377 Y-32.85 I-0.527 J-1.156
G1 X-66.109
X-66.346 Y-32.862
X-66.504 Y-32.878
X-66.674 Y-32.906
X-66.851 Y-32.944
X-67.043 Y-32.996
X-67.246 Y-33.064
X-67.454 Y-33.146
X-67.673 Y-33.246
X-67.902 Y-33.367
X-68.132 Y-33.504
X-68.367 Y-33.662
X-68.608 Y-33.844
X-68.849 Y-34.047
X-69.086 Y-34.27
X-69.32 Y-34.515
X-69.552 Y-34.786
X-69.777 Y-35.081
X-69.991 Y-35.394
X-70.192 Y-35.726
X-70.377 Y-36.073
X-70.546 Y-36.436
X-70.696 Y-36.809
X-70.828 Y-37.195
X-70.938 Y-37.587
X-71.026 Y-37.986
X-71.093 Y-38.388
X-71.137 Y-38.776
X-71.157 Y-39.139
X-71.158 Y-39.503
X-71.141 Y-39.83
X-71.105 Y-40.173
X-71.056 Y-40.475
X-70.988 Y-40.788
X-70.908 Y-41.079
X-70.816 Y-41.352
X-70.811 Y-41.365
X-70.627 Y-41.744
X-70.389 Y-42.091
X-70.102 Y-42.399
X-69.772 Y-42.661
X-69.407 Y-42.872
X-69.015 Y-43.025
X-68.604 Y-43.119
X-68.184 Y-43.15
X-66.36
G3 X-65.878 Y-43.036 I-0.044 J1.269
X-65.135 Y-41.922 I-0.527 J1.156
G1 X-64.884 Y-34.16
G3 X-65.627 Y-32.964 I-1.269 J0.041
X-66.109 Y-32.85 I-0.527 J-1.156
G1 X-68.013
X-68.162 Y-32.857
X-68.32 Y-32.874
X-68.492 Y-32.902
X-68.669 Y-32.941
X-68.862 Y-32.994
X-69.066 Y-33.062
X-69.274 Y-33.144
X-69.494 Y-33.246
X-69.724 Y-33.367
X-69.954 Y-33.505
X-70.189 Y-33.663
X-70.43 Y-33.846
X-70.672 Y-34.051
X-70.909 Y-34.275
X-71.142 Y-34.52
X-71.373 Y-34.791
X-71.598 Y-35.087
X-71.813 Y-35.402
X-72.013 Y-35.734
X-72.198 Y-36.082
X-72.367 Y-36.445
X-72.516 Y-36.819
X-72.647 Y-37.205
X-72.756 Y-37.597
X-72.844 Y-37.996
X-72.911 Y-38.398
X-72.953 Y-38.785
X-72.973 Y-39.151
Y-39.514
X-72.956 Y-39.842
X-72.919 Y-40.185
X-72.869 Y-40.487
X-72.801 Y-40.8
X-72.72 Y-41.09
X-72.628 Y-41.364
X-72.443 Y-41.743
X-72.204 Y-42.091
X-71.916 Y-42.399
X-71.586 Y-42.661
X-71.22 Y-42.872
X-70.827 Y-43.025
X-70.416 Y-43.119
X-69.995 Y-43.15
X-68.184
G3 X-66.959 Y-41.909 I-0.044 J1.269
G1 X-66.787 Y-34.147
G3 X-68.013 Y-32.85 I-1.27 J0.028
G1 X-69.822
X-69.976 Y-32.858
X-70.133 Y-32.874
X-70.304 Y-32.901
X-70.481 Y-32.94
X-70.674 Y-32.992
X-70.877 Y-33.06
X-71.084 Y-33.142
X-71.304 Y-33.242
X-71.533 Y-33.363
X-71.762 Y-33.5
X-71.997 Y-33.658
X-72.239 Y-33.84
X-72.48 Y-34.043
X-72.716 Y-34.266
X-72.951 Y-34.512
X-73.182 Y-34.782
X-73.408 Y-35.077
X-73.622 Y-35.39
X-73.822 Y-35.722
X-74.008 Y-36.069
X-74.177 Y-36.432
X-74.327 Y-36.806
X-74.458 Y-37.192
X-74.568 Y-37.584
X-74.657 Y-37.983
X-74.725 Y-38.385
X-74.768 Y-38.775
X-74.789 Y-39.139
Y-39.504
X-74.772 Y-39.83
X-74.736 Y-40.173
X-74.687 Y-40.477
X-74.619 Y-40.789
X-74.539 Y-41.08
X-74.448 Y-41.353
X-74.262 Y-41.734
X-74.023 Y-42.084
X-73.733 Y-42.394
X-73.401 Y-42.658
X-73.034 Y-42.87
X-72.639 Y-43.024
X-72.225 Y-43.118
X-71.802 Y-43.15
X-69.995
G3 X-69.512 Y-43.036 I-0.044 J1.269
X-68.769 Y-41.909 I-0.527 J1.156
G1 X-68.596 Y-34.148
G3 X-69.822 Y-32.85 I-1.27 J0.028
G1 X-71.61
X-71.794 Y-32.859
X-71.951 Y-32.876
X-72.122 Y-32.903
X-72.298 Y-32.941
X-72.49 Y-32.994
X-72.694 Y-33.061
X-72.901 Y-33.143
X-73.12 Y-33.243
X-73.35 Y-33.364
X-73.579 Y-33.501
X-73.813 Y-33.659
X-74.055 Y-33.841
X-74.296 Y-34.044
X-74.533 Y-34.267
X-74.766 Y-34.512
X-74.998 Y-34.783
X-75.223 Y-35.077
X-75.437 Y-35.391
X-75.638 Y-35.722
X-75.824 Y-36.07
X-75.993 Y-36.433
X-76.143 Y-36.806
X-76.274 Y-37.192
X-76.384 Y-37.584
X-76.473 Y-37.983
X-76.54 Y-38.385
X-76.583 Y-38.773
X-76.604 Y-39.137
X-76.605 Y-39.501
X-76.588 Y-39.827
X-76.551 Y-40.17
X-76.503 Y-40.473
X-76.434 Y-40.786
X-76.354 Y-41.077
X-76.263 Y-41.35
X-76.077 Y-41.732
X-75.837 Y-42.082
X-75.548 Y-42.393
X-75.215 Y-42.657
X-74.847 Y-42.869
X-74.451 Y-43.024
X-74.037 Y-43.118
X-73.613 Y-43.15
X-71.802
G3 X-70.577 Y-41.912 I-0.044 J1.269
G1 X-70.385 Y-34.151
G3 X-71.61 Y-32.85 I-1.27 J0.031
G1 X-73.342
X-73.613 Y-32.864
X-73.77 Y-32.88
X-73.94 Y-32.907
X-74.117 Y-32.945
X-74.308 Y-32.998
X-74.512 Y-33.065
X-74.719 Y-33.147
X-74.938 Y-33.247
X-75.167 Y-33.368
X-75.396 Y-33.505
X-75.63 Y-33.662
X-75.871 Y-33.844
X-76.113 Y-34.047
X-76.349 Y-34.27
X-76.583 Y-34.515
X-76.814 Y-34.785
X-77.039 Y-35.079
X-77.253 Y-35.393
X-77.454 Y-35.724
X-77.639 Y-36.071
X-77.808 Y-36.434
X-77.958 Y-36.807
X-78.089 Y-37.193
X-78.199 Y-37.584
X-78.288 Y-37.983
X-78.355 Y-38.385
X-78.398 Y-38.772
X-78.419 Y-39.136
Y-39.499
X-78.402 Y-39.825
X-78.366 Y-40.168
X-78.317 Y-40.471
X-78.249 Y-40.784
X-78.169 Y-41.075
X-78.077 Y-41.348
X-77.892 Y-41.731
X-77.651 Y-42.081
X-77.362 Y-42.392
X-77.029 Y-42.657
X-76.66 Y-42.869
X-76.264 Y-43.024
X-75.85 Y-43.118
X-75.426 Y-43.15
X-73.613
G3 X-72.389 Y-41.925 I-0.044 J1.269
G1 X-72.117 Y-34.164
G3 X-73.342 Y-32.85 I-1.269 J0.044
G1 X-75.246
X-75.422 Y-32.859
X-75.579 Y-32.875
X-75.751 Y-32.903
X-75.927 Y-32.941
X-76.12 Y-32.993
X-76.323 Y-33.061
X-76.531 Y-33.143
X-76.75 Y-33.244
X-76.98 Y-33.364
X-77.209 Y-33.501
X-77.444 Y-33.659
X-77.685 Y-33.841
X-77.926 Y-34.045
X-78.163 Y-34.267
X-78.397 Y-34.512
X-78.628 Y-34.783
X-78.853 Y-35.077
X-79.068 Y-35.391
X-79.268 Y-35.722
X-79.454 Y-36.069
X-79.623 Y-36.432
X-79.773 Y-36.805
X-79.904 Y-37.191
X-80.014 Y-37.582
X-80.102 Y-37.981
X-80.169 Y-38.383
X-80.213 Y-38.77
X-80.233 Y-39.134
X-80.234 Y-39.497
X-80.217 Y-39.824
X-80.181 Y-40.167
X-80.132 Y-40.47
X-80.063 Y-40.783
X-79.983 Y-41.074
X-79.913 Y-41.284
X-79.747 Y-41.676
X-79.522 Y-42.038
X-79.243 Y-42.36
X-78.918 Y-42.635
X-78.554 Y-42.856
X-78.16 Y-43.018
X-77.745 Y-43.117
X-77.321 Y-43.15
X-75.426
G3 X-74.2 Y-41.91 I-0.044 J1.269
G1 X-74.02 Y-34.149
G3 X-75.246 Y-32.85 I-1.27 J0.029
G1 X-77.055
X-77.239 Y-32.859
X-77.396 Y-32.876
X-77.567 Y-32.903
X-77.744 Y-32.941
X-77.936 Y-32.994
X-78.14 Y-33.061
X-78.347 Y-33.143
X-78.566 Y-33.244
X-78.795 Y-33.364
X-79.025 Y-33.501
X-79.259 Y-33.659
X-79.5 Y-33.841
X-79.742 Y-34.044
X-79.978 Y-34.267
X-80.212 Y-34.512
X-80.443 Y-34.782
X-80.668 Y-35.076
X-80.882 Y-35.39
X-81.083 Y-35.721
X-81.268 Y-36.068
X-81.437 Y-36.431
X-81.587 Y-36.804
X-81.718 Y-37.189
X-81.828 Y-37.581
X-81.917 Y-37.98
X-81.984 Y-38.381
X-82.026 Y-38.762
X-82.049 Y-39.158
X-82.05 Y-39.506
X-82.031 Y-39.862
X-81.996 Y-40.191
X-81.946 Y-40.501
X-81.877 Y-40.817
X-81.8 Y-41.096
X-81.703 Y-41.387
X-81.521 Y-41.761
X-81.286 Y-42.104
X-81.003 Y-42.409
X-80.677 Y-42.667
X-80.316 Y-42.875
X-79.929 Y-43.027
X-79.523 Y-43.119
X-79.108 Y-43.15
X-77.321
G3 X-76.838 Y-43.036 I-0.044 J1.269
X-76.096 Y-41.924 I-0.527 J1.156
G1 X-75.83 Y-34.163
G3 X-76.573 Y-32.964 I-1.269 J0.043
X-77.055 Y-32.85 I-0.527 J-1.156
G1 X-78.843
X-79.056 Y-32.861
X-79.213 Y-32.877
X-79.384 Y-32.904
X-79.56 Y-32.942
X-79.752 Y-32.995
X-79.956 Y-33.063
X-80.163 Y-33.144
X-80.382 Y-33.245
X-80.611 Y-33.365
X-80.84 Y-33.502
X-81.075 Y-33.66
X-81.315 Y-33.841
X-81.557 Y-34.045
X-81.793 Y-34.267
X-82.027 Y-34.512
X-82.258 Y-34.783
X-82.483 Y-35.077
X-82.697 Y-35.39
X-82.897 Y-35.721
X-83.084 Y-36.07
X-83.253 Y-36.433
X-83.405 Y-36.81
X-83.536 Y-37.198
X-83.647 Y-37.592
X-83.736 Y-37.993
X-83.803 Y-38.396
X-83.847 Y-38.789
X-83.868 Y-39.154
X-83.869 Y-39.519
X-83.852 Y-39.847
X-83.815 Y-40.19
X-83.766 Y-40.493
X-83.698 Y-40.805
X-83.619 Y-41.095
X-83.527 Y-41.368
X-83.344 Y-41.746
X-83.106 Y-42.093
X-82.819 Y-42.401
X-82.49 Y-42.662
X-82.125 Y-42.872
X-81.734 Y-43.025
X-81.324 Y-43.119
X-80.904 Y-43.15
X-79.108
G3 X-78.626 Y-43.036 I-0.044 J1.269
X-77.883 Y-41.924 I-0.527 J1.156
G1 X-77.618 Y-34.163
G3 X-78.843 Y-32.85 I-1.269 J0.043
G1 X-80.67
X-80.87 Y-32.86
X-81.027 Y-32.876
X-81.198 Y-32.904
X-81.374 Y-32.942
X-81.566 Y-32.994
X-81.77 Y-33.062
X-81.977 Y-33.144
X-82.196 Y-33.244
X-82.425 Y-33.365
X-82.655 Y-33.502
X-82.889 Y-33.659
X-83.131 Y-33.842
X-83.372 Y-34.045
X-83.609 Y-34.268
X-83.844 Y-34.514
X-84.075 Y-34.785
X-84.301 Y-35.08
X-84.516 Y-35.395
X-84.717 Y-35.727
X-84.903 Y-36.075
X-85.073 Y-36.439
X-85.223 Y-36.814
X-85.355 Y-37.201
X-85.465 Y-37.594
X-85.554 Y-37.993
X-85.621 Y-38.396
X-85.665 Y-38.785
X-85.685 Y-39.149
X-85.686 Y-39.512
X-85.669 Y-39.839
X-85.633 Y-40.181
X-85.584 Y-40.484
X-85.516 Y-40.796
X-85.436 Y-41.086
X-85.345 Y-41.359
X-85.16 Y-41.739
X-84.921 Y-42.088
X-84.633 Y-42.397
X-84.302 Y-42.66
X-83.936 Y-42.871
X-83.543 Y-43.025
X-83.13 Y-43.119
X-82.709 Y-43.15
X-80.904
G3 X-80.422 Y-43.036 I-0.044 J1.269
X-79.679 Y-41.919 I-0.527 J1.156
G1 X-79.445 Y-34.158
G3 X-80.67 Y-32.85 I-1.269 J0.038
G1 X-82.479
X-82.685 Y-32.86
X-82.842 Y-32.877
X-83.013 Y-32.904
X-83.19 Y-32.942
X-83.382 Y-32.995
X-83.586 Y-33.063
X-83.793 Y-33.144
X-84.013 Y-33.245
X-84.243 Y-33.366
X-84.472 Y-33.503
X-84.707 Y-33.661
X-84.949 Y-33.843
X-85.19 Y-34.047
X-85.427 Y-34.27
X-85.662 Y-34.516
X-85.893 Y-34.787
X-86.119 Y-35.081
X-86.334 Y-35.396
X-86.535 Y-35.727
X-86.72 Y-36.075
X-86.89 Y-36.438
X-87.04 Y-36.813
X-87.171 Y-37.199
X-87.281 Y-37.591
X-87.37 Y-37.99
X-87.437 Y-38.392
X-87.48 Y-38.78
X-87.501 Y-39.143
X-87.502 Y-39.507
X-87.485 Y-39.833
X-87.449 Y-40.176
X-87.4 Y-40.478
X-87.332 Y-40.791
X-87.252 Y-41.081
X-87.16 Y-41.354
X-87.147 Y-41.388
X-86.965 Y-41.762
X-86.73 Y-42.105
X-86.447 Y-42.409
X-86.121 Y-42.668
X-85.761 Y-42.875
X-85.374 Y-43.027
X-84.968 Y-43.119
X-84.554 Y-43.15
X-82.709
G3 X-82.227 Y-43.036 I-0.044 J1.269
X-81.484 Y-41.918 I-0.527 J1.156
G1 X-81.254 Y-34.157
G3 X-82.479 Y-32.85 I-1.269 J0.038
G1 X-84.288
X-84.502 Y-32.861
X-84.659 Y-32.877
X-84.831 Y-32.905
X-85.007 Y-32.943
X-85.2 Y-32.995
X-85.404 Y-33.063
X-85.611 Y-33.145
X-85.831 Y-33.245
X-86.06 Y-33.366
X-86.29 Y-33.503
X-86.525 Y-33.661
X-86.766 Y-33.843
X-87.008 Y-34.047
X-87.244 Y-34.27
X-87.479 Y-34.515
X-87.71 Y-34.786
X-87.935 Y-35.081
X-88.15 Y-35.395
X-88.351 Y-35.726
X-88.536 Y-36.074
X-88.705 Y-36.437
X-88.855 Y-36.81
X-88.987 Y-37.196
X-89.097 Y-37.588
X-89.185 Y-37.987
X-89.252 Y-38.388
X-89.296 Y-38.779
X-89.317 Y-39.145
X-89.318 Y-39.512
X-89.301 Y-39.841
X-89.264 Y-40.185
X-89.215 Y-40.489
X-89.147 Y-40.802
X-89.067 Y-41.092
X-88.975 Y-41.365
X-88.791 Y-41.744
X-88.553 Y-42.092
X-88.266 Y-42.4
X-87.937 Y-42.662
X-87.572 Y-42.872
X-87.179 Y-43.025
X-86.769 Y-43.119
X-86.349 Y-43.15
X-84.554
G3 X-84.071 Y-43.036 I-0.044 J1.269
X-83.329 Y-41.924 I-0.527 J1.156
G1 X-83.063 Y-34.163
G3 X-83.806 Y-32.964 I-1.269 J0.043
X-84.288 Y-32.85 I-0.527 J-1.156
G1 X-85.315
X-86.076 Y-32.847
X-86.227 Y-32.85
X-86.379 Y-32.861
X-86.537 Y-32.881
X-86.713 Y-32.913
X-86.899 Y-32.958
X-87.092 Y-33.015
X-87.3 Y-33.089
X-87.515 Y-33.18
X-87.734 Y-33.286
X-87.964 Y-33.413
X-88.202 Y-33.562
X-88.438 Y-33.728
X-88.675 Y-33.916
X-88.917 Y-34.129
X-89.157 Y-34.365
X-89.39 Y-34.621
X-89.616 Y-34.897
X-89.836 Y-35.197
X-90.045 Y-35.519
X-90.241 Y-35.86
X-90.422 Y-36.217
X-90.585 Y-36.586
X-90.728 Y-36.967
X-90.851 Y-37.356
X-90.953 Y-37.752
X-91.033 Y-38.153
X-91.091 Y-38.555
X-91.124 Y-38.922
X-91.137 Y-39.298
X-91.13 Y-39.641
X-91.106 Y-39.977
X-91.063 Y-40.305
X-91.009 Y-40.603
X-90.933 Y-40.915
X-90.851 Y-41.191
X-90.749 Y-41.474
X-90.536 Y-41.88
X-90.259 Y-42.245
X-89.925 Y-42.558
X-89.543 Y-42.812
X-89.124 Y-42.998
X-88.68 Y-43.112
X-88.224 Y-43.15
X-86.349
G3 X-85.866 Y-43.036 I-0.044 J1.269
X-85.124 Y-41.919 I-0.527 J1.156
G1 X-84.892 Y-34.152
G3 X-86.076 Y-32.847 I-1.269 J0.038
G1 X-86.457 Y-32.835
X-87.08 Y-32.777
X-87.219 Y-32.763
X-87.334 Y-32.737
X-87.482 Y-32.712
X-87.631 Y-32.698
X-87.781 Y-32.694
X-87.931 Y-32.699
X-88.094 Y-32.713
X-88.273 Y-32.738
X-88.457 Y-32.774
X-88.654 Y-32.824
X-88.865 Y-32.889
X-89.08 Y-32.969
X-89.304 Y-33.067
X-89.54 Y-33.185
X-89.779 Y-33.322
X-90.02 Y-33.477
X-90.266 Y-33.655
X-90.516 Y-33.858
X-90.763 Y-34.082
X-91.005 Y-34.325
X-91.242 Y-34.592
X-91.475 Y-34.884
X-91.699 Y-35.199
X-91.909 Y-35.532
X-92.105 Y-35.882
X-92.284 Y-36.246
X-92.444 Y-36.623
X-92.584 Y-37.011
X-92.703 Y-37.406
X-92.801 Y-37.807
X-92.876 Y-38.213
X-92.93 Y-38.619
X-92.959 Y-39
X-92.967 Y-39.367
X-92.955 Y-39.73
X-92.927 Y-40.05
X-92.879 Y-40.39
X-92.818 Y-40.696
X-92.745 Y-40.984
X-92.651 Y-41.284
X-92.468 Y-41.679
X-92.228 Y-42.042
X-91.936 Y-42.364
X-91.598 Y-42.638
X-91.223 Y-42.858
X-90.819 Y-43.019
X-90.395 Y-43.117
X-89.962 Y-43.15
X-88.224
G3 X-87.002 Y-41.979 I-0.044 J1.269
G1 X-86.388 Y-34.065
G3 X-87.334 Y-32.737 I-1.266 J0.098
G1 X-87.98 Y-32.593
X-88.361 Y-32.466
X-88.466 Y-32.428
X-88.609 Y-32.383
X-88.755 Y-32.35
X-88.903 Y-32.327
X-89.053 Y-32.314
X-89.215 Y-32.308
X-89.384 Y-32.311
X-89.566 Y-32.324
X-89.765 Y-32.349
X-89.969 Y-32.386
X-90.184 Y-32.437
X-90.414 Y-32.506
X-90.651 Y-32.59
X-90.892 Y-32.691
X-91.144 Y-32.813
X-91.405 Y-32.958
X-91.665 Y-33.121
X-91.926 Y-33.304
X-92.19 Y-33.513
X-92.456 Y-33.747
X-92.716 Y-34.003
X-92.968 Y-34.279
X-93.212 Y-34.578
X-93.448 Y-34.9
X-93.673 Y-35.244
X-93.882 Y-35.608
X-94.074 Y-35.987
X-94.247 Y-36.379
X-94.398 Y-36.78
X-94.527 Y-37.19
X-94.634 Y-37.605
X-94.718 Y-38.022
X-94.778 Y-38.441
X-94.812 Y-38.817
X-94.826 Y-39.209
X-94.819 Y-39.557
X-94.793 Y-39.907
X-94.751 Y-40.239
X-94.694 Y-40.546
X-94.618 Y-40.864
X-94.534 Y-41.144
X-94.499 Y-41.242
X-94.319 Y-41.645
X-94.079 Y-42.015
X-93.785 Y-42.344
X-93.445 Y-42.625
X-93.066 Y-42.851
X-92.656 Y-43.016
X-92.227 Y-43.116
X-91.787 Y-43.15
X-89.962
G3 X-88.746 Y-42.042 I-0.044 J1.269
G1 X-87.684 Y-33.766
G3 X-88.466 Y-32.428 I-1.26 J0.162
G1 X-88.741 Y-32.327
X-89.122 Y-32.165
X-89.423 Y-32.016
X-89.447 Y-32.002
X-89.58 Y-31.933
X-89.72 Y-31.878
X-89.864 Y-31.834
X-90.009 Y-31.799
X-90.16 Y-31.772
X-90.32 Y-31.752
X-90.498 Y-31.739
X-90.687 Y-31.736
X-90.885 Y-31.744
X-91.1 Y-31.764
X-91.328 Y-31.797
X-91.562 Y-31.845
X-91.807 Y-31.909
X-92.067 Y-31.992
X-92.333 Y-32.093
X-92.601 Y-32.212
X-92.88 Y-32.354
X-93.167 Y-32.521
X-93.454 Y-32.709
X-93.738 Y-32.918
X-94.023 Y-33.153
X-94.308 Y-33.414
X-94.588 Y-33.701
X-94.859 Y-34.01
X-95.118 Y-34.341
X-95.364 Y-34.692
X-95.596 Y-35.066
X-95.811 Y-35.455
X-96.006 Y-35.862
X-96.179 Y-36.278
X-96.329 Y-36.703
X-96.456 Y-37.135
X-96.558 Y-37.568
X-96.636 Y-38.005
X-96.689 Y-38.432
X-96.716 Y-38.828
X-96.722 Y-39.231
X-96.708 Y-39.583
X-96.673 Y-39.953
X-96.625 Y-40.28
X-96.557 Y-40.609
X-96.475 Y-40.921
X-96.384 Y-41.205
X-96.336 Y-41.329
X-96.155 Y-41.715
X-95.917 Y-42.069
X-95.629 Y-42.383
X-95.297 Y-42.651
X-94.928 Y-42.865
X-94.531 Y-43.022
X-94.116 Y-43.118
X-93.69 Y-43.15
X-91.787
G3 X-91.305 Y-43.036 I-0.044 J1.269
X-90.584 Y-42.123 I-0.527 J1.156
G1 X-88.877 Y-33.319
G3 X-89.087 Y-32.342 I-1.247 J0.242
X-89.447 Y-32.002 I-1.036 J-0.734
G1 X-89.503 Y-31.969
X-89.883 Y-31.728
X-90.264 Y-31.447
X-90.389 Y-31.364
X-90.519 Y-31.288
X-90.653 Y-31.222
X-90.792 Y-31.165
X-90.934 Y-31.117
X-91.086 Y-31.074
X-91.255 Y-31.035
X-91.437 Y-31.005
X-91.628 Y-30.983
X-91.839 Y-30.97
X-92.062 Y-30.969
X-92.293 Y-30.981
X-92.54 Y-31.006
X-92.803 Y-31.048
X-93.073 Y-31.106
X-93.351 Y-31.182
X-93.644 Y-31.279
X-93.946 Y-31.398
X-94.251 Y-31.537
X-94.559 Y-31.699
X-94.874 Y-31.887
X-95.194 Y-32.102
X-95.512 Y-32.341
X-95.824 Y-32.604
X-96.13 Y-32.892
X-96.431 Y-33.207
X-96.723 Y-33.548
X-97.004 Y-33.914
X-97.27 Y-34.303
X-97.517 Y-34.711
X-97.744 Y-35.135
X-97.949 Y-35.574
X-98.13 Y-36.022
X-98.285 Y-36.479
X-98.415 Y-36.939
X-98.518 Y-37.4
X-98.595 Y-37.861
X-98.646 Y-38.318
X-98.671 Y-38.742
X-98.672 Y-39.172
X-98.653 Y-39.551
X-98.613 Y-39.93
X-98.557 Y-40.279
X-98.485 Y-40.609
X-98.395 Y-40.936
X-98.298 Y-41.226
X-98.253 Y-41.342
X-98.067 Y-41.726
X-97.826 Y-42.078
X-97.535 Y-42.39
X-97.201 Y-42.655
X-96.832 Y-42.868
X-96.435 Y-43.023
X-96.019 Y-43.118
X-95.594 Y-43.15
X-93.69
G3 X-92.513 Y-42.228 I-0.044 J1.269
G1 X-89.832 Y-32.788
G3 X-90.264 Y-31.447 I-1.222 J0.347
G1 X-90.645 Y-31.166
X-91.025 Y-30.805
X-91.052 Y-30.777
X-91.158 Y-30.671
X-91.276 Y-30.579
X-91.401 Y-30.495
X-91.531 Y-30.42
X-91.665 Y-30.353
X-91.811 Y-30.29
X-91.968 Y-30.231
X-92.145 Y-30.177
X-92.335 Y-30.129
X-92.535 Y-30.089
X-92.754 Y-30.059
X-92.99 Y-30.039
X-93.235 Y-30.032
X-93.495 Y-30.038
X-93.775 Y-30.06
X-94.064 Y-30.098
X-94.361 Y-30.155
X-94.673 Y-30.231
X-94.999 Y-30.331
X-95.128 Y-30.377
X-95.538 Y-30.559
X-95.919 Y-30.795
X-96.265 Y-31.08
X-96.355 Y-31.166
X-97.117 Y-31.728
X-97.348 Y-31.899
X-97.664 Y-32.16
X-97.98 Y-32.452
X-98.29 Y-32.77
X-98.589 Y-33.113
X-98.875 Y-33.479
X-99.149 Y-33.871
X-99.407 Y-34.288
X-99.646 Y-34.726
X-99.864 Y-35.181
X-100.058 Y-35.65
X-100.226 Y-36.127
X-100.367 Y-36.611
X-100.48 Y-37.096
X-100.566 Y-37.58
X-100.624 Y-38.062
X-100.656 Y-38.529
X-100.661 Y-38.961
X-100.643 Y-39.385
X-100.607 Y-39.761
X-100.549 Y-40.143
X-100.48 Y-40.477
X-100.389 Y-40.823
X-100.29 Y-41.128
X-100.236 Y-41.269
X-100.047 Y-41.668
X-99.801 Y-42.033
X-99.502 Y-42.358
X-99.158 Y-42.634
X-98.777 Y-42.856
X-98.367 Y-43.018
X-97.937 Y-43.117
X-97.497 Y-43.15
X-95.594
G3 X-94.374 Y-41.764 I-0.044 J1.269
G1 X-95.21 Y-32.707
G3 X-97.117 Y-31.728 I-1.265 J-0.117
G1 X-97.497 Y-31.969
X-97.577 Y-32.016
X-97.878 Y-32.165
X-98.259 Y-32.327
X-98.639 Y-32.466
X-98.755 Y-32.504
X-98.966 Y-32.587
X-99.137 Y-32.665
X-99.329 Y-32.764
X-99.522 Y-32.879
X-99.731 Y-33.018
X-99.947 Y-33.179
X-100.163 Y-33.36
X-100.391 Y-33.573
X-100.617 Y-33.808
X-100.838 Y-34.065
X-101.061 Y-34.354
X-101.28 Y-34.671
X-101.487 Y-35.009
X-101.68 Y-35.369
X-101.86 Y-35.75
X-102.023 Y-36.152
X-102.167 Y-36.568
X-102.289 Y-36.996
X-102.387 Y-37.43
X-102.462 Y-37.87
X-102.513 Y-38.311
X-102.538 Y-38.724
X-102.541 Y-39.146
X-102.523 Y-39.518
X-102.485 Y-39.893
X-102.43 Y-40.24
X-102.36 Y-40.567
X-102.271 Y-40.896
X-102.176 Y-41.185
X-102.137 Y-41.282
X-101.947 Y-41.679
X-101.7 Y-42.042
X-101.401 Y-42.364
X-101.057 Y-42.639
X-100.677 Y-42.859
X-100.268 Y-43.019
X-99.839 Y-43.117
X-99.401 Y-43.15
X-97.497
G3 X-96.279 Y-41.749 I-0.044 J1.269
G1 X-97.133 Y-33.59
G3 X-98.755 Y-32.504 I-1.263 J-0.132
G1 X-99.02 Y-32.593
X-99.781 Y-32.763
X-100.053 Y-32.789
X-100.227 Y-32.814
X-100.374 Y-32.844
X-100.528 Y-32.884
X-100.691 Y-32.936
X-100.861 Y-33.001
X-101.048 Y-33.085
X-101.238 Y-33.182
X-101.437 Y-33.298
X-101.648 Y-33.437
X-101.858 Y-33.592
X-102.074 Y-33.77
X-102.297 Y-33.976
X-102.516 Y-34.2
X-102.731 Y-34.446
X-102.945 Y-34.721
X-103.155 Y-35.021
X-103.354 Y-35.341
X-103.539 Y-35.679
X-103.711 Y-36.039
X-103.866 Y-36.414
X-104.004 Y-36.805
X-104.121 Y-37.207
X-104.217 Y-37.616
X-104.291 Y-38.032
X-104.342 Y-38.45
X-104.368 Y-38.835
X-104.373 Y-39.235
X-104.358 Y-39.588
X-104.324 Y-39.948
X-104.274 Y-40.282
X-104.208 Y-40.597
X-104.124 Y-40.917
X-104.033 Y-41.199
X-103.993 Y-41.302
X-103.808 Y-41.694
X-103.566 Y-42.053
X-103.273 Y-42.372
X-102.936 Y-42.643
X-102.561 Y-42.861
X-102.158 Y-43.02
X-101.736 Y-43.117
X-101.304 Y-43.15
X-99.401
G3 X-98.178 Y-41.794 I-0.044 J1.269
G1 X-98.712 Y-33.971
G3 X-100.053 Y-32.789 I-1.267 J-0.086
G1 X-100.543 Y-32.835
X-100.924 Y-32.847
X-101.514 Y-32.849
X-101.663 Y-32.857
X-101.812 Y-32.875
X-101.965 Y-32.901
X-102.126 Y-32.938
X-102.304 Y-32.989
X-102.487 Y-33.052
X-102.679 Y-33.131
X-102.885 Y-33.228
X-103.093 Y-33.341
X-103.307 Y-33.472
X-103.531 Y-33.627
X-103.756 Y-33.801
X-103.979 Y-33.994
X-104.205 Y-34.212
X-104.432 Y-34.456
X-104.653 Y-34.72
X-104.864 Y-35.004
X-105.069 Y-35.312
X-105.262 Y-35.64
X-105.444 Y-35.99
X-105.608 Y-36.355
X-105.755 Y-36.733
X-105.882 Y-37.122
X-105.988 Y-37.519
X-106.073 Y-37.923
X-106.136 Y-38.331
X-106.174 Y-38.72
X-106.191 Y-39.105
X-106.188 Y-39.473
X-106.166 Y-39.814
X-106.124 Y-40.163
X-106.071 Y-40.47
X-105.996 Y-40.794
X-105.912 Y-41.085
X-105.813 Y-41.37
X-105.794 Y-41.416
X-105.61 Y-41.785
X-105.373 Y-42.123
X-105.089 Y-42.422
X-104.765 Y-42.676
X-104.406 Y-42.88
X-104.021 Y-43.029
X-103.619 Y-43.12
X-103.208 Y-43.15
X-101.304
G3 X-100.822 Y-43.036 I-0.044 J1.269
X-100.079 Y-41.847 I-0.527 J1.156
G1 X-100.284 Y-34.085
G3 X-101.514 Y-32.849 I-1.27 J-0.034
G1 X-103.131 Y-32.85
X-103.329 Y-32.86
X-103.478 Y-32.876
X-103.641 Y-32.902
X-103.809 Y-32.938
X-103.992 Y-32.988
X-104.186 Y-33.052
X-104.384 Y-33.13
X-104.594 Y-33.227
X-104.814 Y-33.342
X-105.034 Y-33.474
X-105.26 Y-33.626
X-105.494 Y-33.803
X-105.727 Y-33.999
X-105.957 Y-34.215
X-106.185 Y-34.455
X-106.412 Y-34.72
X-106.633 Y-35.009
X-106.842 Y-35.315
X-107.039 Y-35.64
X-107.223 Y-35.984
X-107.391 Y-36.345
X-107.541 Y-36.72
X-107.673 Y-37.106
X-107.783 Y-37.5
X-107.873 Y-37.901
X-107.94 Y-38.306
X-107.985 Y-38.711
X-108.006 Y-39.079
X-108.007 Y-39.461
X-107.989 Y-39.797
X-107.952 Y-40.145
X-107.901 Y-40.46
X-107.834 Y-40.769
X-107.751 Y-41.07
X-107.672 Y-41.307
X-107.508 Y-41.694
X-107.285 Y-42.051
X-107.01 Y-42.37
X-106.689 Y-42.641
X-106.329 Y-42.86
X-105.94 Y-43.02
X-105.531 Y-43.117
X-105.111 Y-43.15
X-103.208
G3 X-102.725 Y-43.036 I-0.044 J1.269
X-101.982 Y-41.893 I-0.527 J1.156
G1 X-101.905 Y-34.132
G3 X-103.131 Y-32.85 I-1.27 J0.013
G1 X-104.94
X-105.09 Y-32.857
X-105.241 Y-32.874
X-105.409 Y-32.901
X-105.584 Y-32.94
X-105.77 Y-32.991
X-105.97 Y-33.059
X-106.176 Y-33.14
X-106.388 Y-33.238
X-106.612 Y-33.357
X-106.841 Y-33.495
X-107.069 Y-33.65
X-107.304 Y-33.828
X-107.543 Y-34.031
X-107.778 Y-34.253
X-108.007 Y-34.496
X-108.234 Y-34.763
X-108.456 Y-35.055
X-108.669 Y-35.369
X-108.868 Y-35.7
X-109.052 Y-36.048
X-109.221 Y-36.412
X-109.37 Y-36.788
X-109.5 Y-37.176
X-109.61 Y-37.571
X-109.698 Y-37.972
X-109.764 Y-38.377
X-109.806 Y-38.765
X-109.827 Y-39.166
Y-39.517
X-109.807 Y-39.876
X-109.771 Y-40.207
X-109.719 Y-40.519
X-109.649 Y-40.836
X-109.571 Y-41.115
X-109.473 Y-41.407
X-109.292 Y-41.777
X-109.057 Y-42.116
X-108.776 Y-42.417
X-108.453 Y-42.673
X-108.095 Y-42.878
X-107.711 Y-43.028
X-107.309 Y-43.119
X-106.898 Y-43.15
X-105.111
G3 X-104.629 Y-43.036 I-0.044 J1.269
X-103.886 Y-41.909 I-0.527 J1.156
G1 X-103.714 Y-34.147
G3 X-104.457 Y-32.964 I-1.27 J0.028
X-104.94 Y-32.85 I-0.527 J-1.156
G1 X-106.634
X-106.868 Y-32.862
X-107.022 Y-32.878
X-107.191 Y-32.905
X-107.365 Y-32.942
X-107.554 Y-32.994
X-107.755 Y-33.061
X-107.959 Y-33.141
X-108.176 Y-33.241
X-108.402 Y-33.36
X-108.629 Y-33.495
X-108.861 Y-33.651
X-109.101 Y-33.832
X-109.34 Y-34.034
X-109.574 Y-34.254
X-109.807 Y-34.498
X-110.037 Y-34.768
X-110.262 Y-35.061
X-110.475 Y-35.373
X-110.675 Y-35.704
X-110.861 Y-36.053
X-111.031 Y-36.416
X-111.183 Y-36.795
X-111.315 Y-37.183
X-111.426 Y-37.579
X-111.516 Y-37.982
X-111.583 Y-38.386
X-111.628 Y-38.784
X-111.648 Y-39.149
X-111.649 Y-39.518
X-111.632 Y-39.847
X-111.596 Y-40.191
X-111.546 Y-40.495
X-111.479 Y-40.807
X-111.398 Y-41.098
X-111.307 Y-41.37
X-111.124 Y-41.748
X-110.886 Y-42.094
X-110.6 Y-42.402
X-110.271 Y-42.663
X-109.907 Y-42.872
X-109.516 Y-43.025
X-109.107 Y-43.119
X-108.688 Y-43.15
X-106.898
G3 X-106.416 Y-43.036 I-0.044 J1.269
X-105.673 Y-41.924 I-0.527 J1.156
G1 X-105.409 Y-34.162
G3 X-106.152 Y-32.964 I-1.269 J0.043
X-106.634 Y-32.85 I-0.527 J-1.156
G1 X-108.46
X-108.664 Y-32.86
X-108.819 Y-32.876
X-108.989 Y-32.904
X-109.165 Y-32.942
X-109.355 Y-32.994
X-109.558 Y-33.061
X-109.764 Y-33.142
X-109.982 Y-33.242
X-110.21 Y-33.362
X-110.439 Y-33.499
X-110.673 Y-33.656
X-110.913 Y-33.837
X-111.154 Y-34.041
X-111.391 Y-34.263
X-111.624 Y-34.508
X-111.856 Y-34.779
X-112.081 Y-35.074
X-112.296 Y-35.388
X-112.497 Y-35.721
X-112.684 Y-36.069
X-112.853 Y-36.433
X-113.004 Y-36.809
X-113.136 Y-37.196
X-113.246 Y-37.59
X-113.336 Y-37.99
X-113.403 Y-38.394
X-113.446 Y-38.783
X-113.467 Y-39.148
X-113.468 Y-39.512
X-113.451 Y-39.839
X-113.414 Y-40.182
X-113.366 Y-40.484
X-113.297 Y-40.797
X-113.218 Y-41.087
X-113.126 Y-41.36
X-112.942 Y-41.74
X-112.703 Y-42.088
X-112.415 Y-42.397
X-112.084 Y-42.66
X-111.718 Y-42.871
X-111.325 Y-43.025
X-110.913 Y-43.119
X-110.492 Y-43.15
X-108.688
G3 X-107.463 Y-41.918 I-0.044 J1.269
G1 X-107.235 Y-34.156
G3 X-108.46 Y-32.85 I-1.269 J0.037
G1 X-110.27
X-110.471 Y-32.86
X-110.628 Y-32.876
X-110.799 Y-32.904
X-110.975 Y-32.942
X-111.167 Y-32.994
X-111.37 Y-33.062
X-111.577 Y-33.144
X-111.796 Y-33.244
X-112.026 Y-33.364
X-112.255 Y-33.501
X-112.49 Y-33.659
X-112.731 Y-33.841
X-112.972 Y-34.045
X-113.209 Y-34.268
X-113.443 Y-34.513
X-113.675 Y-34.784
X-113.901 Y-35.079
X-114.115 Y-35.394
X-114.316 Y-35.725
X-114.502 Y-36.073
X-114.671 Y-36.437
X-114.822 Y-36.811
X-114.953 Y-37.197
X-115.063 Y-37.59
X-115.152 Y-37.989
X-115.219 Y-38.391
X-115.263 Y-38.779
X-115.283 Y-39.143
X-115.284 Y-39.506
X-115.267 Y-39.833
X-115.231 Y-40.176
X-115.182 Y-40.478
X-115.114 Y-40.791
X-115.034 Y-41.081
X-114.942 Y-41.354
X-114.926 Y-41.396
X-114.745 Y-41.768
X-114.511 Y-42.11
X-114.229 Y-42.412
X-113.905 Y-42.67
X-113.546 Y-42.876
X-113.161 Y-43.027
X-112.757 Y-43.119
X-112.344 Y-43.15
X-110.492
G3 X-109.266 Y-41.917 I-0.044 J1.269
G1 X-109.044 Y-34.156
G3 X-109.787 Y-32.964 I-1.269 J0.036
X-110.27 Y-32.85 I-0.527 J-1.156
G1 X-112.079
X-112.286 Y-32.86
X-112.443 Y-32.877
X-112.614 Y-32.904
X-112.79 Y-32.942
X-112.983 Y-32.995
X-113.186 Y-33.063
X-113.393 Y-33.144
X-113.613 Y-33.245
X-113.842 Y-33.365
X-114.072 Y-33.502
X-114.307 Y-33.66
X-114.548 Y-33.843
X-114.79 Y-34.046
X-115.026 Y-34.269
X-115.261 Y-34.515
X-115.492 Y-34.785
X-115.717 Y-35.08
X-115.932 Y-35.394
X-116.133 Y-35.725
X-116.318 Y-36.073
X-116.487 Y-36.436
X-116.638 Y-36.81
X-116.769 Y-37.195
X-116.879 Y-37.587
X-116.968 Y-37.986
X-117.035 Y-38.388
X-117.078 Y-38.779
X-117.099 Y-39.146
X-117.1 Y-39.514
X-117.083 Y-39.843
X-117.046 Y-40.188
X-116.997 Y-40.492
X-116.929 Y-40.805
X-116.849 Y-41.095
X-116.757 Y-41.369
X-116.574 Y-41.747
X-116.336 Y-42.093
X-116.05 Y-42.401
X-115.721 Y-42.662
X-115.356 Y-42.872
X-114.965 Y-43.025
X-114.555 Y-43.119
X-114.136 Y-43.15
X-112.344
G3 X-111.862 Y-43.036 I-0.044 J1.269
X-111.119 Y-41.924 I-0.527 J1.156
G1 X-110.854 Y-34.163
G3 X-111.596 Y-32.964 I-1.269 J0.043
X-112.079 Y-32.85 I-0.527 J-1.156
G1 X-113.867
X-114.103 Y-32.862
X-114.26 Y-32.878
X-114.431 Y-32.906
X-114.608 Y-32.944
X-114.8 Y-32.996
X-115.004 Y-33.064
X-115.211 Y-33.146
X-115.43 Y-33.246
X-115.659 Y-33.367
X-115.889 Y-33.504
X-116.124 Y-33.661
X-116.365 Y-33.843
X-116.606 Y-34.047
X-116.843 Y-34.27
X-117.077 Y-34.515
X-117.308 Y-34.785
X-117.533 Y-35.08
X-117.747 Y-35.394
X-117.948 Y-35.725
X-118.134 Y-36.073
X-118.304 Y-36.437
X-118.454 Y-36.812
X-118.586 Y-37.198
X-118.696 Y-37.592
X-118.785 Y-37.991
X-118.852 Y-38.395
X-118.896 Y-38.784
X-118.916 Y-39.148
X-118.917 Y-39.512
X-118.9 Y-39.838
X-118.864 Y-40.181
X-118.815 Y-40.483
X-118.747 Y-40.796
X-118.667 Y-41.086
X-118.576 Y-41.359
X-118.391 Y-41.739
X-118.152 Y-42.088
X-117.864 Y-42.397
X-117.533 Y-42.66
X-117.167 Y-42.871
X-116.774 Y-43.025
X-116.361 Y-43.119
X-115.94 Y-43.15
X-114.136
G3 X-112.911 Y-41.925 I-0.044 J1.269
G1 X-112.642 Y-34.163
G3 X-113.867 Y-32.85 I-1.269 J0.044
G1 X-115.771
X-115.92 Y-32.857
X-116.078 Y-32.874
X-116.25 Y-32.902
X-116.427 Y-32.941
X-116.62 Y-32.994
X-116.824 Y-33.062
X-117.032 Y-33.145
X-117.252 Y-33.246
X-117.482 Y-33.368
X-117.712 Y-33.506
X-117.947 Y-33.664
X-118.188 Y-33.847
X-118.43 Y-34.052
X-118.668 Y-34.277
X-118.902 Y-34.523
X-119.133 Y-34.794
X-119.358 Y-35.09
X-119.573 Y-35.406
X-119.773 Y-35.738
X-119.959 Y-36.087
X-120.127 Y-36.451
X-120.277 Y-36.826
X-120.407 Y-37.212
X-120.517 Y-37.605
X-120.605 Y-38.004
X-120.671 Y-38.406
X-120.713 Y-38.792
X-120.733 Y-39.157
Y-39.519
X-120.716 Y-39.846
X-120.679 Y-40.187
X-120.629 Y-40.489
X-120.56 Y-40.802
X-120.48 Y-41.091
X-120.388 Y-41.365
X-120.203 Y-41.744
X-119.964 Y-42.092
X-119.676 Y-42.4
X-119.345 Y-42.662
X-118.98 Y-42.872
X-118.587 Y-43.025
X-118.176 Y-43.119
X-117.755 Y-43.15
X-115.94
G3 X-114.715 Y-41.909 I-0.044 J1.269
G1 X-114.545 Y-34.147
G3 X-115.771 Y-32.85 I-1.27 J0.028
G1 X-117.503
X-117.736 Y-32.862
X-117.894 Y-32.878
X-118.064 Y-32.905
X-118.241 Y-32.944
X-118.434 Y-32.996
X-118.636 Y-33.064
X-118.843 Y-33.145
X-119.064 Y-33.246
X-119.293 Y-33.366
X-119.522 Y-33.503
X-119.757 Y-33.661
X-119.999 Y-33.844
X-120.239 Y-34.047
X-120.476 Y-34.269
X-120.71 Y-34.515
X-120.942 Y-34.786
X-121.167 Y-35.081
X-121.381 Y-35.394
X-121.582 Y-35.726
X-121.768 Y-36.073
X-121.937 Y-36.436
X-122.087 Y-36.809
X-122.218 Y-37.195
X-122.328 Y-37.587
X-122.417 Y-37.986
X-122.484 Y-38.388
X-122.527 Y-38.777
X-122.548 Y-39.14
X-122.549 Y-39.505
X-122.532 Y-39.831
X-122.495 Y-40.174
X-122.446 Y-40.478
X-122.378 Y-40.79
X-122.298 Y-41.081
X-122.207 Y-41.353
X-122.201 Y-41.367
X-122.018 Y-41.746
X-121.78 Y-42.093
X-121.493 Y-42.4
X-121.164 Y-42.662
X-120.799 Y-42.872
X-120.407 Y-43.025
X-119.997 Y-43.119
X-119.577 Y-43.15
X-117.755
G3 X-117.273 Y-43.036 I-0.044 J1.269
X-116.53 Y-41.922 I-0.527 J1.156
G1 X-116.278 Y-34.16
G3 X-117.02 Y-32.964 I-1.269 J0.041
X-117.503 Y-32.85 I-0.527 J-1.156
G1 X-119.406
X-119.556 Y-32.857
X-119.713 Y-32.874
X-119.886 Y-32.903
X-120.064 Y-32.941
X-120.256 Y-32.995
X-120.461 Y-33.064
X-120.669 Y-33.146
X-120.889 Y-33.248
X-121.119 Y-33.37
X-121.35 Y-33.508
X-121.584 Y-33.667
X-121.825 Y-33.85
X-122.067 Y-34.055
X-122.305 Y-34.28
X-122.538 Y-34.526
X-122.769 Y-34.797
X-122.993 Y-35.093
X-123.208 Y-35.409
X-123.408 Y-35.742
X-123.593 Y-36.09
X-123.761 Y-36.454
X-123.91 Y-36.829
X-124.04 Y-37.215
X-124.149 Y-37.607
X-124.237 Y-38.006
X-124.303 Y-38.408
X-124.345 Y-38.794
X-124.364 Y-39.161
Y-39.523
X-124.346 Y-39.851
X-124.309 Y-40.193
X-124.259 Y-40.495
X-124.19 Y-40.809
X-124.109 Y-41.097
X-124.017 Y-41.372
X-123.832 Y-41.75
X-123.593 Y-42.096
X-123.306 Y-42.403
X-122.977 Y-42.664
X-122.612 Y-42.873
X-122.22 Y-43.026
X-121.811 Y-43.119
X-121.391 Y-43.15
X-119.577
G3 X-118.352 Y-41.909 I-0.044 J1.269
G1 X-118.181 Y-34.147
G3 X-119.406 Y-32.85 I-1.27 J0.028
G1 X-121.1
X-121.372 Y-32.864
X-121.529 Y-32.88
X-121.699 Y-32.907
X-121.875 Y-32.945
X-122.068 Y-32.998
X-122.27 Y-33.065
X-122.477 Y-33.147
X-122.697 Y-33.248
X-122.926 Y-33.368
X-123.155 Y-33.504
X-123.39 Y-33.662
X-123.631 Y-33.845
X-123.872 Y-34.048
X-124.108 Y-34.27
X-124.342 Y-34.515
X-124.574 Y-34.786
X-124.799 Y-35.081
X-125.013 Y-35.394
X-125.213 Y-35.724
X-125.398 Y-36.072
X-125.567 Y-36.434
X-125.718 Y-36.808
X-125.849 Y-37.194
X-125.959 Y-37.586
X-126.048 Y-37.985
X-126.115 Y-38.387
X-126.158 Y-38.778
X-126.179 Y-39.141
X-126.18 Y-39.507
X-126.163 Y-39.833
X-126.127 Y-40.176
X-126.077 Y-40.48
X-126.01 Y-40.792
X-125.929 Y-41.083
X-125.838 Y-41.355
X-125.653 Y-41.736
X-125.414 Y-42.086
X-125.125 Y-42.395
X-124.794 Y-42.659
X-124.427 Y-42.87
X-124.032 Y-43.024
X-123.619 Y-43.118
X-123.197 Y-43.15
X-121.391
G3 X-120.167 Y-41.928 I-0.044 J1.269
G1 X-119.875 Y-34.167
G3 X-121.1 Y-32.85 I-1.269 J0.048
G1 X-123.004
X-123.181 Y-32.859
X-123.338 Y-32.875
X-123.51 Y-32.903
X-123.687 Y-32.941
X-123.879 Y-32.994
X-124.083 Y-33.061
X-124.29 Y-33.143
X-124.51 Y-33.244
X-124.739 Y-33.364
X-124.969 Y-33.501
X-125.203 Y-33.659
X-125.444 Y-33.841
X-125.686 Y-34.045
X-125.923 Y-34.267
X-126.157 Y-34.513
X-126.388 Y-34.783
X-126.613 Y-35.078
X-126.828 Y-35.392
X-127.029 Y-35.724
X-127.214 Y-36.071
X-127.383 Y-36.434
X-127.534 Y-36.808
X-127.665 Y-37.194
X-127.775 Y-37.586
X-127.864 Y-37.985
X-127.931 Y-38.388
X-127.974 Y-38.775
X-127.995 Y-39.139
X-127.996 Y-39.503
X-127.979 Y-39.829
X-127.942 Y-40.172
X-127.893 Y-40.475
X-127.825 Y-40.788
X-127.745 Y-41.078
X-127.654 Y-41.351
X-127.469 Y-41.733
X-127.229 Y-42.083
X-126.939 Y-42.394
X-126.607 Y-42.658
X-126.239 Y-42.87
X-125.844 Y-43.024
X-125.43 Y-43.118
X-125.007 Y-43.15
X-123.197
G3 X-122.715 Y-43.036 I-0.044 J1.269
X-121.972 Y-41.912 I-0.527 J1.156
G1 X-121.778 Y-34.151
G3 X-123.004 Y-32.85 I-1.27 J0.032
G1 X-124.736
X-125.002 Y-32.863
X-125.159 Y-32.88
X-125.33 Y-32.907
X-125.506 Y-32.945
X-125.698 Y-32.998
X-125.901 Y-33.065
X-126.108 Y-33.147
X-126.328 Y-33.247
X-126.557 Y-33.368
X-126.786 Y-33.505
X-127.021 Y-33.662
X-127.261 Y-33.844
X-127.503 Y-34.048
X-127.739 Y-34.27
X-127.973 Y-34.515
X-128.204 Y-34.786
X-128.43 Y-35.08
X-128.644 Y-35.394
X-128.844 Y-35.725
X-129.03 Y-36.072
X-129.199 Y-36.435
X-129.349 Y-36.808
X-129.48 Y-37.194
X-129.59 Y-37.586
X-129.679 Y-37.984
X-129.746 Y-38.386
X-129.789 Y-38.773
X-129.81 Y-39.137
Y-39.5
X-129.793 Y-39.827
X-129.757 Y-40.17
X-129.708 Y-40.472
X-129.64 Y-40.785
X-129.56 Y-41.076
X-129.468 Y-41.349
X-129.283 Y-41.732
X-129.043 Y-42.082
X-128.753 Y-42.393
X-128.42 Y-42.657
X-128.052 Y-42.869
X-127.656 Y-43.024
X-127.242 Y-43.118
X-126.818 Y-43.15
X-125.007
G3 X-123.782 Y-41.925 I-0.044 J1.269
G1 X-123.511 Y-34.164
G3 X-124.254 Y-32.964 I-1.269 J0.044
X-124.736 Y-32.85 I-0.527 J-1.156
G1 X-126.639
X-126.812 Y-32.859
X-126.969 Y-32.875
X-127.141 Y-32.902
X-127.317 Y-32.941
X-127.51 Y-32.993
X-127.714 Y-33.061
X-127.921 Y-33.143
X-128.141 Y-33.243
X-128.37 Y-33.364
X-128.6 Y-33.501
X-128.834 Y-33.659
X-129.076 Y-33.841
X-129.317 Y-34.045
X-129.554 Y-34.267
X-129.788 Y-34.513
X-130.019 Y-34.783
X-130.244 Y-35.078
X-130.458 Y-35.391
X-130.659 Y-35.723
X-130.845 Y-36.07
X-131.014 Y-36.432
X-131.164 Y-36.806
X-131.295 Y-37.191
X-131.405 Y-37.583
X-131.494 Y-37.982
X-131.56 Y-38.384
X-131.604 Y-38.771
X-131.624 Y-39.135
X-131.625 Y-39.498
X-131.608 Y-39.825
X-131.572 Y-40.168
X-131.523 Y-40.471
X-131.455 Y-40.784
X-131.374 Y-41.075
X-131.304 Y-41.286
X-131.138 Y-41.678
X-130.913 Y-42.039
X-130.635 Y-42.361
X-130.31 Y-42.635
X-129.946 Y-42.856
X-129.552 Y-43.018
X-129.138 Y-43.117
X-128.714 Y-43.15
X-126.818
G3 X-126.336 Y-43.036 I-0.044 J1.269
X-125.593 Y-41.91 I-0.527 J1.156
G1 X-125.414 Y-34.149
G3 X-126.157 Y-32.964 I-1.27 J0.029
X-126.639 Y-32.85 I-0.527 J-1.156
G1 X-128.449
X-128.629 Y-32.859
X-128.786 Y-32.875
X-128.958 Y-32.903
X-129.134 Y-32.941
X-129.326 Y-32.994
X-129.53 Y-33.061
X-129.737 Y-33.143
X-129.957 Y-33.243
X-130.186 Y-33.364
X-130.415 Y-33.501
X-130.65 Y-33.659
X-130.891 Y-33.841
X-131.132 Y-34.044
X-131.369 Y-34.267
X-131.603 Y-34.512
X-131.834 Y-34.782
X-132.059 Y-35.077
X-132.273 Y-35.39
X-132.474 Y-35.722
X-132.659 Y-36.069
X-132.828 Y-36.431
X-132.978 Y-36.805
X-133.109 Y-37.19
X-133.219 Y-37.582
X-133.308 Y-37.98
X-133.375 Y-38.381
X-133.417 Y-38.763
X-133.44 Y-39.159
X-133.441 Y-39.507
X-133.422 Y-39.863
X-133.387 Y-40.192
X-133.337 Y-40.502
X-133.268 Y-40.818
X-133.192 Y-41.097
X-133.094 Y-41.388
X-132.913 Y-41.762
X-132.678 Y-42.105
X-132.394 Y-42.409
X-132.069 Y-42.668
X-131.708 Y-42.875
X-131.321 Y-43.027
X-130.916 Y-43.119
X-130.501 Y-43.15
X-128.714
G3 X-127.489 Y-41.924 I-0.044 J1.269
G1 X-127.224 Y-34.163
G3 X-127.966 Y-32.964 I-1.269 J0.043
X-128.449 Y-32.85 I-0.527 J-1.156
G1 X-130.237
X-130.447 Y-32.86
X-130.603 Y-32.877
X-130.774 Y-32.904
X-130.951 Y-32.942
X-131.143 Y-32.995
X-131.346 Y-33.063
X-131.553 Y-33.144
X-131.773 Y-33.245
X-132.002 Y-33.365
X-132.231 Y-33.502
X-132.465 Y-33.66
X-132.706 Y-33.841
X-132.948 Y-34.045
X-133.184 Y-34.267
X-133.418 Y-34.513
X-133.649 Y-34.783
X-133.874 Y-35.077
X-134.088 Y-35.39
X-134.289 Y-35.722
X-134.475 Y-36.071
X-134.644 Y-36.434
X-134.796 Y-36.811
X-134.928 Y-37.198
X-135.038 Y-37.593
X-135.128 Y-37.994
X-135.195 Y-38.397
X-135.239 Y-38.789
X-135.259 Y-39.155
X-135.26 Y-39.52
X-135.243 Y-39.848
X-135.207 Y-40.191
X-135.158 Y-40.493
X-135.09 Y-40.806
X-135.01 Y-41.096
X-134.919 Y-41.368
X-134.735 Y-41.747
X-134.497 Y-42.093
X-134.211 Y-42.401
X-133.882 Y-42.662
X-133.517 Y-42.872
X-133.126 Y-43.025
X-132.716 Y-43.119
X-132.297 Y-43.15
X-130.501
G3 X-129.276 Y-41.924 I-0.044 J1.269
G1 X-129.012 Y-34.162
G3 X-129.755 Y-32.964 I-1.269 J0.043
X-130.237 Y-32.85 I-0.527 J-1.156
G1 X-132.063
X-132.261 Y-32.86
X-132.418 Y-32.876
X-132.589 Y-32.904
X-132.765 Y-32.942
X-132.957 Y-32.994
X-133.161 Y-33.062
X-133.368 Y-33.144
X-133.587 Y-33.244
X-133.816 Y-33.365
X-134.046 Y-33.502
X-134.28 Y-33.659
X-134.522 Y-33.842
X-134.763 Y-34.045
X-135 Y-34.268
X-135.235 Y-34.514
X-135.467 Y-34.785
X-135.692 Y-35.08
X-135.907 Y-35.395
X-136.108 Y-35.727
X-136.294 Y-36.076
X-136.464 Y-36.439
X-136.615 Y-36.814
X-136.746 Y-37.201
X-136.857 Y-37.594
X-136.946 Y-37.994
X-137.013 Y-38.397
X-137.056 Y-38.785
X-137.077 Y-39.149
X-137.078 Y-39.513
X-137.061 Y-39.839
X-137.024 Y-40.182
X-136.975 Y-40.484
X-136.907 Y-40.797
X-136.827 Y-41.087
X-136.736 Y-41.36
X-136.552 Y-41.74
X-136.313 Y-42.088
X-136.025 Y-42.397
X-135.694 Y-42.66
X-135.328 Y-42.871
X-134.934 Y-43.025
X-134.522 Y-43.119
X-134.101 Y-43.15
X-132.297
G3 X-131.814 Y-43.036 I-0.044 J1.269
X-131.072 Y-41.919 I-0.527 J1.156
G1 X-130.838 Y-34.157
G3 X-131.581 Y-32.964 I-1.269 J0.038
X-132.063 Y-32.85 I-0.527 J-1.156
G1 X-133.873
X-134.076 Y-32.86
X-134.233 Y-32.877
X-134.404 Y-32.904
X-134.581 Y-32.942
X-134.774 Y-32.995
X-134.977 Y-33.063
X-135.185 Y-33.144
X-135.404 Y-33.245
X-135.634 Y-33.365
X-135.864 Y-33.503
X-136.098 Y-33.661
X-136.34 Y-33.843
X-136.582 Y-34.047
X-136.819 Y-34.27
X-137.053 Y-34.516
X-137.285 Y-34.787
X-137.51 Y-35.082
X-137.725 Y-35.396
X-137.926 Y-35.728
X-138.112 Y-36.076
X-138.281 Y-36.439
X-138.431 Y-36.813
X-138.563 Y-37.199
X-138.673 Y-37.591
X-138.762 Y-37.99
X-138.829 Y-38.392
X-138.872 Y-38.78
X-138.893 Y-39.144
Y-39.507
X-138.877 Y-39.834
X-138.84 Y-40.176
X-138.791 Y-40.478
X-138.723 Y-40.791
X-138.643 Y-41.081
X-138.552 Y-41.355
X-138.538 Y-41.39
X-138.357 Y-41.763
X-138.122 Y-42.106
X-137.839 Y-42.41
X-137.513 Y-42.668
X-137.153 Y-42.875
X-136.766 Y-43.027
X-136.361 Y-43.119
X-135.947 Y-43.15
X-134.101
G3 X-132.876 Y-41.918 I-0.044 J1.269
G1 X-132.647 Y-34.157
G3 X-133.39 Y-32.964 I-1.269 J0.037
X-133.873 Y-32.85 I-0.527 J-1.156
G1 X-135.682
X-135.894 Y-32.861
X-136.051 Y-32.877
X-136.222 Y-32.904
X-136.399 Y-32.943
X-136.591 Y-32.995
X-136.795 Y-33.063
X-137.002 Y-33.145
X-137.222 Y-33.245
X-137.451 Y-33.366
X-137.681 Y-33.503
X-137.916 Y-33.661
X-138.157 Y-33.843
X-138.399 Y-34.047
X-138.636 Y-34.27
X-138.87 Y-34.515
X-139.101 Y-34.786
X-139.327 Y-35.081
X-139.541 Y-35.395
X-139.742 Y-35.726
X-139.928 Y-36.074
X-140.097 Y-36.437
X-140.247 Y-36.81
X-140.378 Y-37.196
X-140.488 Y-37.588
X-140.577 Y-37.987
X-140.644 Y-38.389
X-140.687 Y-38.779
X-140.708 Y-39.145
X-140.709 Y-39.513
X-140.692 Y-39.842
X-140.655 Y-40.186
X-140.606 Y-40.49
X-140.538 Y-40.802
X-140.458 Y-41.093
X-140.367 Y-41.366
X-140.183 Y-41.745
X-139.945 Y-42.092
X-139.658 Y-42.4
X-139.329 Y-42.662
X-138.964 Y-42.872
X-138.572 Y-43.025
X-138.161 Y-43.119
X-137.742 Y-43.15
X-135.947
G3 X-134.722 Y-41.924 I-0.044 J1.269
G1 X-134.457 Y-34.163
G3 X-135.682 Y-32.85 I-1.269 J0.043
G1 X-137.47
X-137.712 Y-32.862
X-137.869 Y-32.879
X-138.04 Y-32.906
X-138.217 Y-32.944
X-138.409 Y-32.997
X-138.613 Y-33.064
X-138.82 Y-33.146
X-139.039 Y-33.247
X-139.269 Y-33.367
X-139.498 Y-33.504
X-139.733 Y-33.662
X-139.974 Y-33.844
X-140.215 Y-34.048
X-140.452 Y-34.27
X-140.686 Y-34.516
X-140.917 Y-34.786
X-141.142 Y-35.08
X-141.357 Y-35.394
X-141.558 Y-35.726
X-141.743 Y-36.074
X-141.913 Y-36.437
X-142.063 Y-36.812
X-142.195 Y-37.198
X-142.305 Y-37.591
X-142.394 Y-37.991
X-142.461 Y-38.394
X-142.504 Y-38.782
X-142.525 Y-39.147
X-142.526 Y-39.51
X-142.509 Y-39.837
X-142.473 Y-40.18
X-142.424 Y-40.482
X-142.356 Y-40.795
X-142.276 Y-41.085
X-142.184 Y-41.358
X-142 Y-41.738
X-141.761 Y-42.087
X-141.472 Y-42.396
X-141.141 Y-42.66
X-140.775 Y-42.871
X-140.381 Y-43.025
X-139.969 Y-43.118
X-139.547 Y-43.15
X-137.742
G3 X-137.259 Y-43.036 I-0.044 J1.269
X-136.517 Y-41.925 I-0.527 J1.156
G1 X-136.245 Y-34.164
G3 X-136.988 Y-32.964 I-1.269 J0.044
X-137.47 Y-32.85 I-0.527 J-1.156
G1 X-139.374
X-139.524 Y-32.858
X-139.681 Y-32.874
X-139.852 Y-32.901
X-140.029 Y-32.94
X-140.222 Y-32.992
X-140.426 Y-33.06
X-140.633 Y-33.142
X-140.853 Y-33.243
X-141.082 Y-33.363
X-141.312 Y-33.5
X-141.547 Y-33.658
X-141.789 Y-33.841
X-142.03 Y-34.044
X-142.267 Y-34.267
X-142.502 Y-34.513
X-142.733 Y-34.784
X-142.959 Y-35.079
X-143.173 Y-35.393
X-143.374 Y-35.725
X-143.56 Y-36.073
X-143.73 Y-36.436
X-143.88 Y-36.81
X-144.011 Y-37.196
X-144.121 Y-37.589
X-144.21 Y-37.988
X-144.277 Y-38.39
X-144.32 Y-38.778
X-144.341 Y-39.142
X-144.342 Y-39.505
X-144.325 Y-39.832
X-144.289 Y-40.174
X-144.24 Y-40.477
X-144.172 Y-40.79
X-144.092 Y-41.08
X-144 Y-41.353
X-143.815 Y-41.735
X-143.575 Y-42.084
X-143.286 Y-42.395
X-142.954 Y-42.658
X-142.587 Y-42.87
X-142.192 Y-43.024
X-141.779 Y-43.118
X-141.356 Y-43.15
X-139.547
G3 X-139.065 Y-43.036 I-0.044 J1.269
X-138.322 Y-41.909 I-0.527 J1.156
G1 X-138.148 Y-34.148
G3 X-139.374 Y-32.85 I-1.27 J0.028
G1 X-141.106
X-141.346 Y-32.862
X-141.502 Y-32.878
X-141.674 Y-32.906
X-141.85 Y-32.944
X-142.042 Y-32.996
X-142.246 Y-33.064
X-142.453 Y-33.146
X-142.672 Y-33.246
X-142.901 Y-33.367
X-143.131 Y-33.504
X-143.366 Y-33.662
X-143.607 Y-33.844
X-143.848 Y-34.047
X-144.085 Y-34.27
X-144.319 Y-34.515
X-144.55 Y-34.786
X-144.776 Y-35.08
X-144.99 Y-35.394
X-145.191 Y-35.726
X-145.376 Y-36.073
X-145.545 Y-36.436
X-145.695 Y-36.809
X-145.826 Y-37.195
X-145.936 Y-37.587
X-146.025 Y-37.986
X-146.092 Y-38.387
X-146.135 Y-38.775
X-146.156 Y-39.139
X-146.157 Y-39.502
X-146.14 Y-39.828
X-146.104 Y-40.171
X-146.055 Y-40.474
X-145.986 Y-40.787
X-145.906 Y-41.077
X-145.815 Y-41.35
X-145.81 Y-41.363
X-145.626 Y-41.743
X-145.388 Y-42.09
X-145.1 Y-42.399
X-144.77 Y-42.661
X-144.405 Y-42.871
X-144.012 Y-43.025
X-143.601 Y-43.119
X-143.18 Y-43.15
X-141.356
G3 X-140.873 Y-43.036 I-0.044 J1.269
X-140.131 Y-41.922 I-0.527 J1.156
G1 X-139.881 Y-34.16
G3 X-141.106 Y-32.85 I-1.269 J0.041
G1 X-143.009
X-143.159 Y-32.857
X-143.316 Y-32.874
X-143.488 Y-32.902
X-143.665 Y-32.94
X-143.858 Y-32.993
X-144.062 Y-33.061
X-144.269 Y-33.143
X-144.489 Y-33.244
X-144.719 Y-33.365
X-144.949 Y-33.502
X-145.184 Y-33.661
X-145.425 Y-33.843
X-145.667 Y-34.047
X-145.904 Y-34.271
X-146.137 Y-34.516
X-146.369 Y-34.787
X-146.594 Y-35.082
X-146.808 Y-35.396
X-147.009 Y-35.728
X-147.194 Y-36.076
X-147.363 Y-36.439
X-147.513 Y-36.813
X-147.643 Y-37.198
X-147.753 Y-37.59
X-147.842 Y-37.989
X-147.908 Y-38.391
X-147.951 Y-38.779
X-147.971 Y-39.144
X-147.972 Y-39.508
X-147.955 Y-39.835
X-147.918 Y-40.178
X-147.869 Y-40.481
X-147.8 Y-40.795
X-147.72 Y-41.085
X-147.628 Y-41.358
X-147.443 Y-41.739
X-147.204 Y-42.088
X-146.915 Y-42.397
X-146.584 Y-42.66
X-146.217 Y-42.871
X-145.823 Y-43.025
X-145.411 Y-43.118
X-144.989 Y-43.15
X-143.18
G3 X-141.955 Y-41.909 I-0.044 J1.269
G1 X-141.784 Y-34.147
G3 X-143.009 Y-32.85 I-1.27 J0.028
G1 X-144.818
X-144.975 Y-32.858
X-145.132 Y-32.874
X-145.303 Y-32.902
X-145.48 Y-32.94
X-145.672 Y-32.992
X-145.876 Y-33.06
X-146.083 Y-33.142
X-146.303 Y-33.242
X-146.532 Y-33.363
X-146.761 Y-33.5
X-146.996 Y-33.658
X-147.238 Y-33.84
X-147.479 Y-34.043
X-147.715 Y-34.266
X-147.949 Y-34.511
X-148.181 Y-34.782
X-148.406 Y-35.077
X-148.62 Y-35.39
X-148.821 Y-35.721
X-149.006 Y-36.069
X-149.175 Y-36.432
X-149.326 Y-36.806
X-149.457 Y-37.191
X-149.567 Y-37.584
X-149.656 Y-37.983
X-149.723 Y-38.385
X-149.766 Y-38.774
X-149.787 Y-39.137
X-149.788 Y-39.502
X-149.771 Y-39.828
X-149.734 Y-40.172
X-149.685 Y-40.475
X-149.617 Y-40.787
X-149.537 Y-41.078
X-149.446 Y-41.351
X-149.26 Y-41.733
X-149.02 Y-42.083
X-148.731 Y-42.394
X-148.399 Y-42.658
X-148.031 Y-42.869
X-147.636 Y-43.024
X-147.222 Y-43.118
X-146.798 Y-43.15
X-144.989
G3 X-143.764 Y-41.909 I-0.044 J1.269
G1 X-143.593 Y-34.147
G3 X-144.818 Y-32.85 I-1.27 J0.028
G1 X-146.607
X-146.793 Y-32.859
X-146.949 Y-32.876
X-147.12 Y-32.903
X-147.297 Y-32.941
X-147.489 Y-32.994
X-147.693 Y-33.061
X-147.9 Y-33.143
X-148.119 Y-33.244
X-148.348 Y-33.364
X-148.578 Y-33.501
X-148.812 Y-33.659
X-149.053 Y-33.841
X-149.295 Y-34.044
X-149.531 Y-34.267
X-149.765 Y-34.512
X-149.996 Y-34.782
X-150.221 Y-35.077
X-150.436 Y-35.391
X-150.636 Y-35.722
X-150.822 Y-36.07
X-150.991 Y-36.432
X-151.141 Y-36.806
X-151.272 Y-37.192
X-151.382 Y-37.584
X-151.471 Y-37.982
X-151.538 Y-38.384
X-151.581 Y-38.772
X-151.602 Y-39.136
X-151.603 Y-39.499
X-151.586 Y-39.826
X-151.549 Y-40.169
X-151.501 Y-40.472
X-151.432 Y-40.785
X-151.352 Y-41.076
X-151.261 Y-41.349
X-151.075 Y-41.731
X-150.835 Y-42.082
X-150.545 Y-42.393
X-150.212 Y-42.657
X-149.844 Y-42.869
X-149.448 Y-43.024
X-149.034 Y-43.118
X-148.61 Y-43.15
X-146.798
G3 X-146.316 Y-43.036 I-0.044 J1.269
X-145.573 Y-41.912 I-0.527 J1.156
G1 X-145.381 Y-34.151
G3 X-146.607 Y-32.85 I-1.27 J0.031
G1 X-148.339
X-148.612 Y-32.864
X-148.768 Y-32.88
X-148.939 Y-32.907
X-149.115 Y-32.945
X-149.307 Y-32.998
X-149.51 Y-33.065
X-149.717 Y-33.147
X-149.936 Y-33.247
X-150.165 Y-33.368
X-150.395 Y-33.505
X-150.629 Y-33.662
X-150.87 Y-33.844
X-151.111 Y-34.047
X-151.347 Y-34.27
X-151.581 Y-34.515
X-151.812 Y-34.785
X-152.037 Y-35.079
X-152.251 Y-35.393
X-152.452 Y-35.724
X-152.637 Y-36.071
X-152.806 Y-36.433
X-152.956 Y-36.807
X-153.087 Y-37.192
X-153.197 Y-37.584
X-153.286 Y-37.982
X-153.353 Y-38.384
X-153.396 Y-38.771
X-153.416 Y-39.135
X-153.417 Y-39.498
X-153.4 Y-39.825
X-153.364 Y-40.168
X-153.315 Y-40.47
X-153.247 Y-40.783
X-153.167 Y-41.074
X-153.075 Y-41.348
X-152.89 Y-41.73
X-152.649 Y-42.081
X-152.359 Y-42.392
X-152.026 Y-42.657
X-151.658 Y-42.869
X-151.262 Y-43.024
X-150.847 Y-43.118
X-150.423 Y-43.15
X-148.61
G3 X-148.128 Y-43.036 I-0.044 J1.269
X-147.385 Y-41.925 I-0.527 J1.156
G1 X-147.114 Y-34.164
G3 X-147.857 Y-32.964 I-1.269 J0.044
X-148.339 Y-32.85 I-0.527 J-1.156
G1 X-150.242
X-150.421 Y-32.859
X-150.578 Y-32.875
X-150.749 Y-32.903
X-150.926 Y-32.941
X-151.118 Y-32.994
X-151.322 Y-33.061
X-151.529 Y-33.143
X-151.749 Y-33.244
X-151.978 Y-33.364
X-152.208 Y-33.501
X-152.442 Y-33.659
X-152.683 Y-33.841
X-152.925 Y-34.044
X-153.161 Y-34.267
X-153.395 Y-34.512
X-153.626 Y-34.783
X-153.851 Y-35.077
X-154.066 Y-35.391
X-154.266 Y-35.722
X-154.452 Y-36.069
X-154.62 Y-36.431
X-154.771 Y-36.805
X-154.902 Y-37.19
X-155.011 Y-37.582
X-155.1 Y-37.98
X-155.167 Y-38.382
X-155.21 Y-38.769
X-155.231 Y-39.133
X-155.232 Y-39.497
X-155.215 Y-39.823
X-155.178 Y-40.166
X-155.13 Y-40.469
X-155.061 Y-40.782
X-154.981 Y-41.073
X-154.911 Y-41.283
X-154.745 Y-41.675
X-154.52 Y-42.037
X-154.241 Y-42.359
X-153.915 Y-42.635
X-153.551 Y-42.856
X-153.157 Y-43.018
X-152.742 Y-43.117
X-152.317 Y-43.15
X-150.423
G3 X-149.94 Y-43.036 I-0.044 J1.269
X-149.197 Y-41.91 I-0.527 J1.156
G1 X-149.017 Y-34.149
G3 X-150.242 Y-32.85 I-1.27 J0.03
G1 X-152.052
X-152.238 Y-32.859
X-152.394 Y-32.876
X-152.565 Y-32.903
X-152.742 Y-32.941
X-152.934 Y-32.994
X-153.138 Y-33.061
X-153.345 Y-33.143
X-153.564 Y-33.244
X-153.793 Y-33.364
X-154.023 Y-33.501
X-154.257 Y-33.659
X-154.498 Y-33.841
X-154.74 Y-34.044
X-154.976 Y-34.267
X-155.21 Y-34.512
X-155.441 Y-34.782
X-155.666 Y-35.076
X-155.88 Y-35.39
X-156.081 Y-35.721
X-156.266 Y-36.068
X-156.435 Y-36.43
X-156.585 Y-36.804
X-156.716 Y-37.189
X-156.826 Y-37.581
X-156.915 Y-37.979
X-156.982 Y-38.38
X-157.024 Y-38.762
X-157.047 Y-39.158
Y-39.506
X-157.029 Y-39.861
X-156.994 Y-40.191
X-156.944 Y-40.5
X-156.875 Y-40.817
X-156.798 Y-41.095
X-156.701 Y-41.386
X-156.519 Y-41.761
X-156.284 Y-42.104
X-156 Y-42.408
X-155.674 Y-42.667
X-155.314 Y-42.875
X-154.926 Y-43.027
X-154.52 Y-43.119
X-154.105 Y-43.15
X-152.317
G3 X-151.835 Y-43.036 I-0.044 J1.269
X-151.092 Y-41.924 I-0.527 J1.156
G1 X-150.827 Y-34.163
G3 X-151.569 Y-32.964 I-1.269 J0.043
X-152.052 Y-32.85 I-0.527 J-1.156
G1 X-153.84
X-154.054 Y-32.861
X-154.211 Y-32.877
X-154.382 Y-32.904
X-154.558 Y-32.943
X-154.75 Y-32.995
X-154.954 Y-33.063
X-155.161 Y-33.144
X-155.38 Y-33.245
X-155.609 Y-33.365
X-155.838 Y-33.502
X-156.073 Y-33.66
X-156.313 Y-33.841
X-156.555 Y-34.045
X-156.791 Y-34.267
X-157.025 Y-34.512
X-157.256 Y-34.782
X-157.481 Y-35.076
X-157.694 Y-35.39
X-157.895 Y-35.721
X-158.082 Y-36.07
X-158.251 Y-36.433
X-158.402 Y-36.81
X-158.534 Y-37.197
X-158.645 Y-37.592
X-158.734 Y-37.993
X-158.801 Y-38.396
X-158.845 Y-38.788
X-158.866 Y-39.153
X-158.867 Y-39.519
X-158.85 Y-39.846
X-158.813 Y-40.189
X-158.764 Y-40.492
X-158.696 Y-40.805
X-158.616 Y-41.095
X-158.525 Y-41.367
X-158.341 Y-41.746
X-158.104 Y-42.093
X-157.817 Y-42.401
X-157.487 Y-42.662
X-157.123 Y-42.872
X-156.731 Y-43.025
X-156.321 Y-43.119
X-155.902 Y-43.15
X-154.105
G3 X-153.623 Y-43.036 I-0.044 J1.269
X-152.88 Y-41.924 I-0.527 J1.156
G1 X-152.615 Y-34.163
G3 X-153.358 Y-32.964 I-1.269 J0.043
X-153.84 Y-32.85 I-0.527 J-1.156
G1 X-155.666
X-155.868 Y-32.86
X-156.025 Y-32.876
X-156.196 Y-32.904
X-156.372 Y-32.942
X-156.564 Y-32.994
X-156.768 Y-33.062
X-156.975 Y-33.144
X-157.194 Y-33.244
X-157.423 Y-33.365
X-157.653 Y-33.502
X-157.887 Y-33.659
X-158.129 Y-33.842
X-158.37 Y-34.045
X-158.607 Y-34.268
X-158.841 Y-34.514
X-159.073 Y-34.785
X-159.299 Y-35.08
X-159.514 Y-35.395
X-159.715 Y-35.727
X-159.901 Y-36.075
X-160.07 Y-36.439
X-160.221 Y-36.814
X-160.353 Y-37.2
X-160.463 Y-37.593
X-160.552 Y-37.993
X-160.619 Y-38.396
X-160.662 Y-38.784
X-160.683 Y-39.149
X-160.684 Y-39.512
X-160.667 Y-39.839
X-160.63 Y-40.181
X-160.582 Y-40.483
X-160.514 Y-40.796
X-160.434 Y-41.086
X-160.342 Y-41.359
X-160.158 Y-41.739
X-159.919 Y-42.088
X-159.631 Y-42.397
X-159.3 Y-42.66
X-158.934 Y-42.871
X-158.54 Y-43.025
X-158.128 Y-43.118
X-157.706 Y-43.15
X-155.902
G3 X-154.676 Y-41.919 I-0.044 J1.269
G1 X-154.441 Y-34.158
G3 X-155.666 Y-32.85 I-1.269 J0.038
G1 X-157.475
X-157.683 Y-32.86
X-157.84 Y-32.877
X-158.011 Y-32.904
X-158.188 Y-32.942
X-158.38 Y-32.995
X-158.584 Y-33.063
X-158.791 Y-33.144
X-159.011 Y-33.245
X-159.24 Y-33.366
X-159.47 Y-33.503
X-159.705 Y-33.661
X-159.947 Y-33.843
X-160.188 Y-34.047
X-160.425 Y-34.27
X-160.659 Y-34.516
X-160.891 Y-34.786
X-161.117 Y-35.081
X-161.331 Y-35.396
X-161.532 Y-35.727
X-161.718 Y-36.075
X-161.887 Y-36.438
X-162.038 Y-36.812
X-162.169 Y-37.198
X-162.279 Y-37.591
X-162.368 Y-37.99
X-162.435 Y-38.392
X-162.478 Y-38.779
X-162.499 Y-39.143
X-162.5 Y-39.507
X-162.483 Y-39.833
X-162.446 Y-40.176
X-162.397 Y-40.478
X-162.329 Y-40.791
X-162.249 Y-41.081
X-162.158 Y-41.354
X-162.145 Y-41.387
X-161.963 Y-41.761
X-161.728 Y-42.104
X-161.445 Y-42.409
X-161.119 Y-42.668
X-160.758 Y-42.875
X-160.371 Y-43.027
X-159.965 Y-43.119
X-159.55 Y-43.15
X-157.706
G3 X-156.481 Y-41.919 I-0.044 J1.269
G1 X-156.25 Y-34.157
G3 X-156.993 Y-32.964 I-1.269 J0.038
X-157.475 Y-32.85 I-0.527 J-1.156
G1 X-159.285
X-159.5 Y-32.861
X-159.657 Y-32.877
X-159.829 Y-32.905
X-160.005 Y-32.943
X-160.198 Y-32.995
X-160.401 Y-33.063
X-160.609 Y-33.145
X-160.828 Y-33.246
X-161.058 Y-33.366
X-161.288 Y-33.503
X-161.522 Y-33.661
X-161.764 Y-33.843
X-162.005 Y-34.047
X-162.242 Y-34.27
X-162.476 Y-34.515
X-162.708 Y-34.786
X-162.933 Y-35.081
X-163.147 Y-35.395
X-163.348 Y-35.726
X-163.534 Y-36.074
X-163.703 Y-36.436
X-163.853 Y-36.81
X-163.984 Y-37.196
X-164.094 Y-37.588
X-164.183 Y-37.986
X-164.25 Y-38.388
X-164.294 Y-38.779
X-164.314 Y-39.145
X-164.315 Y-39.512
X-164.298 Y-39.841
X-164.262 Y-40.184
X-164.212 Y-40.488
X-164.144 Y-40.801
X-164.064 Y-41.092
X-163.973 Y-41.365
X-163.789 Y-41.744
X-163.551 Y-42.091
X-163.264 Y-42.399
X-162.934 Y-42.661
X-162.569 Y-42.872
X-162.177 Y-43.025
X-161.766 Y-43.119
X-161.346 Y-43.15
X-159.55
G3 X-159.068 Y-43.036 I-0.044 J1.269
X-158.325 Y-41.924 I-0.527 J1.156
G1 X-158.06 Y-34.163
G3 X-158.802 Y-32.964 I-1.269 J0.043
X-159.285 Y-32.85 I-0.527 J-1.156
G1 X-161.073
X-161.319 Y-32.862
X-161.475 Y-32.879
X-161.647 Y-32.906
X-161.823 Y-32.944
X-162.015 Y-32.997
X-162.219 Y-33.064
X-162.426 Y-33.146
X-162.646 Y-33.247
X-162.875 Y-33.367
X-163.105 Y-33.504
X-163.339 Y-33.662
X-163.58 Y-33.844
X-163.822 Y-34.048
X-164.058 Y-34.27
X-164.292 Y-34.516
X-164.523 Y-34.786
X-164.749 Y-35.08
X-164.963 Y-35.394
X-165.164 Y-35.726
X-165.349 Y-36.074
X-165.519 Y-36.437
X-165.669 Y-36.811
X-165.801 Y-37.198
X-165.911 Y-37.591
X-166 Y-37.99
X-166.067 Y-38.393
X-166.11 Y-38.782
X-166.131 Y-39.146
X-166.132 Y-39.509
X-166.115 Y-39.836
X-166.079 Y-40.179
X-166.03 Y-40.481
X-165.962 Y-40.794
X-165.882 Y-41.084
X-165.79 Y-41.357
X-165.606 Y-41.738
X-165.366 Y-42.087
X-165.078 Y-42.396
X-164.747 Y-42.659
X-164.38 Y-42.87
X-163.986 Y-43.025
X-163.574 Y-43.118
X-163.152 Y-43.15
X-161.346
G3 X-160.863 Y-43.036 I-0.044 J1.269
X-160.121 Y-41.925 I-0.527 J1.156
G1 X-159.848 Y-34.164
G3 X-160.591 Y-32.964 I-1.269 J0.045
X-161.073 Y-32.85 I-0.527 J-1.156
G1 X-162.977
X-163.13 Y-32.858
X-163.287 Y-32.874
X-163.459 Y-32.902
X-163.635 Y-32.94
X-163.828 Y-32.992
X-164.032 Y-33.06
X-164.239 Y-33.142
X-164.459 Y-33.243
X-164.689 Y-33.363
X-164.918 Y-33.5
X-165.153 Y-33.658
X-165.395 Y-33.841
X-165.636 Y-34.045
X-165.873 Y-34.267
X-166.108 Y-34.513
X-166.339 Y-34.784
X-166.565 Y-35.079
X-166.779 Y-35.393
X-166.98 Y-35.725
X-167.166 Y-36.073
X-167.335 Y-36.436
X-167.486 Y-36.81
X-167.617 Y-37.196
X-167.727 Y-37.588
X-167.816 Y-37.987
X-167.883 Y-38.389
X-167.926 Y-38.777
X-167.947 Y-39.141
X-167.948 Y-39.504
X-167.931 Y-39.831
X-167.894 Y-40.174
X-167.845 Y-40.476
X-167.777 Y-40.789
X-167.697 Y-41.08
X-167.606 Y-41.353
X-167.421 Y-41.734
X-167.181 Y-42.084
X-166.892 Y-42.394
X-166.56 Y-42.658
X-166.192 Y-42.87
X-165.797 Y-43.024
X-165.384 Y-43.118
X-164.961 Y-43.15
X-163.152
G3 X-161.926 Y-41.909 I-0.044 J1.269
G1 X-161.751 Y-34.148
G3 X-162.977 Y-32.85 I-1.27 J0.029
G1 X-164.709
X-164.952 Y-32.862
X-165.109 Y-32.879
X-165.28 Y-32.906
X-165.456 Y-32.944
X-165.648 Y-32.997
X-165.852 Y-33.064
X-166.059 Y-33.146
X-166.278 Y-33.246
X-166.508 Y-33.367
X-166.737 Y-33.504
X-166.972 Y-33.662
X-167.213 Y-33.844
X-167.454 Y-34.047
X-167.691 Y-34.27
X-167.925 Y-34.515
X-168.156 Y-34.786
X-168.381 Y-35.08
X-168.596 Y-35.394
X-168.796 Y-35.725
X-168.982 Y-36.073
X-169.151 Y-36.436
X-169.301 Y-36.809
X-169.432 Y-37.195
X-169.542 Y-37.587
X-169.631 Y-37.985
X-169.698 Y-38.387
X-169.741 Y-38.774
X-169.762 Y-39.138
X-169.763 Y-39.501
X-169.746 Y-39.828
X-169.709 Y-40.171
X-169.66 Y-40.473
X-169.592 Y-40.786
X-169.512 Y-41.077
X-169.421 Y-41.35
X-169.417 Y-41.361
X-169.232 Y-41.741
X-168.994 Y-42.089
X-168.706 Y-42.398
X-168.375 Y-42.66
X-168.009 Y-42.871
X-167.616 Y-43.025
X-167.204 Y-43.119
X-166.783 Y-43.15
X-164.961
G3 X-164.479 Y-43.036 I-0.044 J1.269
X-163.736 Y-41.922 I-0.527 J1.156
G1 X-163.484 Y-34.16
G3 X-164.226 Y-32.964 I-1.269 J0.041
X-164.709 Y-32.85 I-0.527 J-1.156
G1 X-166.612
X-166.763 Y-32.858
X-166.92 Y-32.874
X-167.091 Y-32.901
X-167.268 Y-32.94
X-167.461 Y-32.992
X-167.665 Y-33.06
X-167.872 Y-33.142
X-168.092 Y-33.243
X-168.321 Y-33.363
X-168.551 Y-33.5
X-168.786 Y-33.658
X-169.027 Y-33.84
X-169.269 Y-34.044
X-169.506 Y-34.267
X-169.74 Y-34.512
X-169.971 Y-34.783
X-170.196 Y-35.077
X-170.411 Y-35.391
X-170.611 Y-35.723
X-170.797 Y-36.07
X-170.966 Y-36.433
X-171.116 Y-36.806
X-171.247 Y-37.192
X-171.357 Y-37.584
X-171.446 Y-37.982
X-171.513 Y-38.384
X-171.556 Y-38.773
X-171.577 Y-39.137
X-171.578 Y-39.502
X-171.561 Y-39.829
X-171.524 Y-40.172
X-171.475 Y-40.476
X-171.407 Y-40.789
X-171.327 Y-41.08
X-171.236 Y-41.353
X-171.05 Y-41.734
X-170.811 Y-42.084
X-170.522 Y-42.394
X-170.189 Y-42.658
X-169.822 Y-42.87
X-169.427 Y-43.024
X-169.014 Y-43.118
X-168.591 Y-43.15
X-166.783
G3 X-165.558 Y-41.909 I-0.044 J1.269
G1 X-165.387 Y-34.147
G3 X-166.612 Y-32.85 I-1.27 J0.028
G1 X-168.421
X-168.581 Y-32.858
X-168.738 Y-32.874
X-168.909 Y-32.902
X-169.086 Y-32.94
X-169.278 Y-32.993
X-169.482 Y-33.06
X-169.689 Y-33.142
X-169.908 Y-33.243
X-170.138 Y-33.363
X-170.367 Y-33.5
X-170.602 Y-33.658
X-170.843 Y-33.84
X-171.085 Y-34.044
X-171.321 Y-34.266
X-171.555 Y-34.511
X-171.786 Y-34.782
X-172.011 Y-35.076
X-172.226 Y-35.39
X-172.426 Y-35.721
X-172.612 Y-36.069
X-172.781 Y-36.432
X-172.931 Y-36.805
X-173.062 Y-37.191
X-173.173 Y-37.583
X-173.261 Y-37.982
X-173.328 Y-38.385
X-173.372 Y-38.772
X-173.392 Y-39.136
X-173.393 Y-39.5
X-173.376 Y-39.827
X-173.34 Y-40.17
X-173.291 Y-40.472
X-173.223 Y-40.785
X-173.143 Y-41.076
X-173.051 Y-41.35
X-172.866 Y-41.732
X-172.625 Y-42.082
X-172.336 Y-42.393
X-172.003 Y-42.657
X-171.635 Y-42.869
X-171.239 Y-43.024
X-170.825 Y-43.118
X-170.401 Y-43.15
X-168.591
G3 X-168.108 Y-43.036 I-0.044 J1.269
X-167.365 Y-41.908 I-0.527 J1.156
G1 X-167.196 Y-34.147
G3 X-167.939 Y-32.964 I-1.27 J0.028
X-168.421 Y-32.85 I-0.527 J-1.156
G1 X-170.21
X-170.398 Y-32.859
X-170.555 Y-32.876
X-170.726 Y-32.903
X-170.903 Y-32.941
X-171.095 Y-32.994
X-171.298 Y-33.062
X-171.505 Y-33.143
X-171.725 Y-33.244
X-171.954 Y-33.364
X-172.183 Y-33.501
X-172.418 Y-33.659
X-172.659 Y-33.841
X-172.9 Y-34.044
X-173.137 Y-34.267
X-173.371 Y-34.512
X-173.602 Y-34.782
X-173.827 Y-35.077
X-174.041 Y-35.391
X-174.242 Y-35.722
X-174.427 Y-36.069
X-174.596 Y-36.432
X-174.747 Y-36.805
X-174.878 Y-37.191
X-174.988 Y-37.583
X-175.076 Y-37.981
X-175.143 Y-38.383
X-175.187 Y-38.771
X-175.207 Y-39.135
X-175.208 Y-39.498
X-175.191 Y-39.825
X-175.155 Y-40.168
X-175.106 Y-40.471
X-175.038 Y-40.784
X-174.957 Y-41.075
X-174.866 Y-41.348
X-174.68 Y-41.73
X-174.44 Y-42.081
X-174.15 Y-42.392
X-173.817 Y-42.657
X-173.448 Y-42.869
X-173.052 Y-43.024
X-172.638 Y-43.118
X-172.214 Y-43.15
X-170.401
G3 X-169.919 Y-43.036 I-0.044 J1.269
X-169.176 Y-41.912 I-0.527 J1.156
G1 X-168.984 Y-34.151
G3 X-170.21 Y-32.85 I-1.27 J0.031
G1 X-170.59
X-171.352 Y-32.822
X-171.655 Y-32.788
X-171.849 Y-32.776
X-171.999 Y-32.775
X-172.149 Y-32.783
X-172.314 Y-32.801
X-172.489 Y-32.83
X-172.671 Y-32.87
X-172.871 Y-32.925
X-173.078 Y-32.994
X-173.291 Y-33.079
X-173.516 Y-33.183
X-173.75 Y-33.306
X-173.983 Y-33.447
X-174.222 Y-33.609
X-174.468 Y-33.795
X-174.712 Y-34.002
X-174.951 Y-34.229
X-175.188 Y-34.479
X-175.422 Y-34.754
X-175.649 Y-35.052
X-175.865 Y-35.37
X-176.066 Y-35.706
X-176.253 Y-36.057
X-176.422 Y-36.423
X-176.572 Y-36.8
X-176.703 Y-37.189
X-176.813 Y-37.583
X-176.901 Y-37.985
