%
(1001)
(origin stock top)
(T1  D=21 CR=0 - ZMIN=-12 - flat end mill)
G90 G94
G17
G21

(bottom_right)
M9
T1 M6
S6500 M3
G54
G0 X-267.52 Y-219.642
Z15
Z5
Z2.55
G3 X-272.631 Y-200.358 Z-0.744 I-2.555 J9.642 F333.3
X-267.52 Y-219.642 Z-4.037 I2.555 J-9.642
X-272.631 Y-200.358 Z-7.331 I-2.555 J9.642
X-267.52 Y-219.642 Z-10.625 I2.555 J-9.642
X-260.1 Y-210 Z-12 I-2.555 J9.642
X-280.05 I-9.975
X-260.1 I9.975
G1 X-260.099 Y-209.584 F850
X-260.07 Y-209.17
X-260.015 Y-208.758
X-259.691 Y-207.127
X-259.617 Y-206.895
X-259.552 Y-206.635
X-259.499 Y-206.347
X-259.46 Y-206.033
X-259.439 Y-205.692
X-259.44 Y-205.325
X-259.464 Y-204.935
X-259.516 Y-204.523
X-259.597 Y-204.091
X-259.711 Y-203.642
X-259.86 Y-203.179
X-260.045 Y-202.704
X-260.269 Y-202.221
X-260.532 Y-201.733
X-260.837 Y-201.245
X-261.182 Y-200.76
X-261.57 Y-200.282
X-261.998 Y-199.815
X-262.468 Y-199.364
X-262.977 Y-198.931
X-263.525 Y-198.521
X-264.109 Y-198.137
X-264.728 Y-197.784
X-265.379 Y-197.464
X-266.06 Y-197.18
X-266.768 Y-196.935
X-267.499 Y-196.731
X-268.25 Y-196.571
X-269.019 Y-196.456
X-269.801 Y-196.389
X-270.593 Y-196.369
X-271.391 Y-196.399
X-272.191 Y-196.479
X-272.991 Y-196.609
X-273.785 Y-196.789
X-274.572 Y-197.019
X-275.346 Y-197.298
X-276.105 Y-197.626
X-276.844 Y-198.002
X-277.562 Y-198.425
X-278.255 Y-198.892
X-278.919 Y-199.402
X-279.551 Y-199.954
X-280.15 Y-200.546
X-280.713 Y-201.174
X-281.236 Y-201.837
X-281.718 Y-202.533
X-282.157 Y-203.257
X-282.551 Y-204.009
X-282.898 Y-204.784
X-283.196 Y-205.58
X-283.445 Y-206.394
X-283.644 Y-207.222
X-283.791 Y-208.061
X-283.886 Y-208.908
X-283.929 Y-209.761
X-283.919 Y-210.614
X-283.856 Y-211.466
X-283.741 Y-212.312
X-283.573 Y-213.15
X-283.354 Y-213.977
X-283.084 Y-214.788
X-282.765 Y-215.582
X-282.397 Y-216.354
X-281.982 Y-217.103
X-281.522 Y-217.824
X-281.017 Y-218.516
X-280.471 Y-219.175
X-279.885 Y-219.799
X-279.262 Y-220.387
X-278.603 Y-220.934
X-277.912 Y-221.44
X-277.191 Y-221.902
X-276.443 Y-222.319
X-275.67 Y-222.689
X-274.876 Y-223.01
X-274.063 Y-223.282
X-273.236 Y-223.503
X-272.396 Y-223.672
X-271.547 Y-223.79
X-270.692 Y-223.854
X-269.836 Y-223.866
X-268.98 Y-223.825
X-268.128 Y-223.731
X-267.284 Y-223.585
X-266.45 Y-223.386
X-265.63 Y-223.137
X-264.827 Y-222.837
X-264.044 Y-222.489
X-263.284 Y-222.092
X-262.55 Y-221.65
X-261.845 Y-221.163
X-261.171 Y-220.633
X-260.532 Y-220.063
X-259.928 Y-219.454
X-259.364 Y-218.809
X-258.84 Y-218.131
X-258.359 Y-217.421
X-257.923 Y-216.683
X-257.167 Y-215.202
X-256.497 Y-213.699
X-256.029 Y-212.445
X-255.685 Y-211.316
X-255.434 Y-210.264
X-255.261 Y-209.27
X-255.155 Y-208.306
X-255.109 Y-207.365
X-255.121 Y-206.445
X-255.189 Y-205.545
X-255.311 Y-204.661
X-255.486 Y-203.793
X-255.713 Y-202.939
X-255.993 Y-202.101
X-256.326 Y-201.28
X-256.709 Y-200.477
X-257.145 Y-199.695
X-257.631 Y-198.936
X-258.167 Y-198.203
X-258.752 Y-197.499
X-259.386 Y-196.825
X-260.067 Y-196.185
X-260.794 Y-195.583
X-261.565 Y-195.02
X-262.378 Y-194.501
X-263.229 Y-194.029
X-264.117 Y-193.605
X-265.037 Y-193.235
X-265.987 Y-192.918
X-266.963 Y-192.659
X-267.962 Y-192.459
X-268.978 Y-192.321
X-270.008 Y-192.244
X-271.047 Y-192.231
X-272.091 Y-192.283
X-273.136 Y-192.4
X-274.178 Y-192.583
X-275.211 Y-192.83
X-276.232 Y-193.142
X-277.236 Y-193.519
X-278.219 Y-193.958
X-279.177 Y-194.46
X-280.105 Y-195.021
X-280.999 Y-195.641
X-281.856 Y-196.317
X-282.672 Y-197.046
X-283.443 Y-197.827
X-284.167 Y-198.655
X-284.839 Y-199.528
X-285.457 Y-200.443
X-286.018 Y-201.396
X-286.52 Y-202.384
X-286.961 Y-203.402
X-287.338 Y-204.447
X-287.651 Y-205.514
X-287.897 Y-206.599
X-288.076 Y-207.699
X-288.187 Y-208.809
X-288.229 Y-209.924
X-288.202 Y-211.041
X-288.107 Y-212.154
X-287.942 Y-213.26
X-287.709 Y-214.355
X-287.409 Y-215.433
X-287.043 Y-216.491
X-286.612 Y-217.525
X-286.118 Y-218.531
X-285.563 Y-219.504
X-284.948 Y-220.442
X-284.276 Y-221.34
X-283.55 Y-222.195
X-282.773 Y-223.004
X-281.947 Y-223.763
X-281.075 Y-224.47
X-280.161 Y-225.121
X-279.209 Y-225.715
X-278.222 Y-226.25
X-277.203 Y-226.722
X-276.157 Y-227.13
X-275.088 Y-227.474
X-274 Y-227.75
X-272.896 Y-227.959
X-271.782 Y-228.099
X-270.661 Y-228.17
X-269.538 Y-228.171
X-268.417 Y-228.104
X-267.302 Y-227.967
X-266.198 Y-227.761
X-265.108 Y-227.488
X-264.037 Y-227.148
X-262.99 Y-226.742
X-261.969 Y-226.273
X-260.98 Y-225.741
X-260.025 Y-225.149
X-259.108 Y-224.5
X-258.233 Y-223.795
X-257.311 Y-222.952
X-256.367 Y-221.976
X-255.466 Y-220.921
X-254.614 Y-219.789
X-253.829 Y-218.6
X-253.126 Y-217.377
X-252.512 Y-216.135
X-251.986 Y-214.885
X-251.548 Y-213.63
X-251.195 Y-212.376
X-250.925 Y-211.123
X-250.735 Y-209.873
X-250.624 Y-208.63
X-250.591 Y-207.396
X-250.633 Y-206.174
X-250.75 Y-204.966
X-250.941 Y-203.775
X-251.203 Y-202.602
X-251.537 Y-201.451
X-251.94 Y-200.324
X-252.412 Y-199.225
X-252.952 Y-198.155
X-253.559 Y-197.118
X-254.23 Y-196.118
X-254.965 Y-195.157
X-255.762 Y-194.239
X-256.618 Y-193.367
X-257.532 Y-192.545
X-258.5 Y-191.777
X-259.52 Y-191.066
X-260.589 Y-190.415
X-261.702 Y-189.828
X-262.857 Y-189.307
X-264.049 Y-188.856
X-265.274 Y-188.478
X-266.527 Y-188.174
X-267.803 Y-187.946
X-269.098 Y-187.798
X-270.406 Y-187.729
X-271.723 Y-187.741
X-273.042 Y-187.835
X-274.359 Y-188.011
X-275.668 Y-188.269
X-276.963 Y-188.609
X-278.24 Y-189.029
X-279.493 Y-189.53
X-280.717 Y-190.109
X-281.907 Y-190.765
X-283.057 Y-191.495
X-284.163 Y-192.297
X-285.221 Y-193.168
X-286.225 Y-194.105
X-287.171 Y-195.105
X-288.056 Y-196.163
X-288.875 Y-197.276
X-289.625 Y-198.44
X-290.303 Y-199.65
X-290.906 Y-200.901
X-291.431 Y-202.189
X-291.876 Y-203.509
X-292.24 Y-204.855
X-292.52 Y-206.223
X-292.714 Y-207.607
X-292.824 Y-209.001
X-292.846 Y-210.4
X-292.783 Y-211.799
X-292.633 Y-213.193
X-292.397 Y-214.575
X-292.075 Y-215.941
X-291.67 Y-217.285
X-291.183 Y-218.602
X-290.615 Y-219.887
X-289.968 Y-221.135
X-289.245 Y-222.341
X-288.449 Y-223.5
X-287.582 Y-224.609
X-286.649 Y-225.661
X-285.652 Y-226.655
X-284.595 Y-227.585
X-283.483 Y-228.448
X-282.32 Y-229.241
X-281.109 Y-229.96
X-279.856 Y-230.604
X-278.566 Y-231.169
X-277.243 Y-231.653
X-275.893 Y-232.055
X-274.52 Y-232.372
X-273.131 Y-232.604
X-271.729 Y-232.75
X-270.321 Y-232.809
X-268.912 Y-232.781
X-267.508 Y-232.666
X-266.113 Y-232.464
X-264.733 Y-232.177
X-263.374 Y-231.805
X-262.04 Y-231.349
X-260.735 Y-230.812
X-259.447 Y-230.185
X-258.167 Y-229.462
X-256.902 Y-228.64
X-255.662 Y-227.721
X-254.457 Y-226.706
X-253.3 Y-225.603
X-252.204 Y-224.42
X-251.178 Y-223.165
X-250.231 Y-221.849
X-249.369 Y-220.48
X-248.597 Y-219.067
X-247.917 Y-217.617
X-247.332 Y-216.137
X-246.843 Y-214.634
X-246.451 Y-213.116
X-246.155 Y-211.586
X-245.955 Y-210.052
X-245.852 Y-208.517
X-245.843 Y-206.988
X-245.929 Y-205.468
X-246.107 Y-203.963
X-246.378 Y-202.476
X-246.738 Y-201.011
X-247.188 Y-199.574
X-247.726 Y-198.169
X-248.349 Y-196.799
X-249.057 Y-195.468
X-249.847 Y-194.183
X-250.716 Y-192.945
X-251.663 Y-191.761
X-252.684 Y-190.633
X-253.777 Y-189.568
X-254.938 Y-188.567
X-256.163 Y-187.637
X-257.449 Y-186.781
X-258.792 Y-186.002
X-260.186 Y-185.305
X-261.627 Y-184.692
X-263.109 Y-184.168
X-264.628 Y-183.734
X-266.177 Y-183.393
X-267.751 Y-183.147
X-269.344 Y-182.999
X-270.949 Y-182.949
X-272.56 Y-182.998
X-274.172 Y-183.147
X-275.777 Y-183.397
X-277.368 Y-183.746
X-278.941 Y-184.195
X-280.487 Y-184.742
X-282.002 Y-185.385
X-283.478 Y-186.122
X-284.909 Y-186.951
X-286.291 Y-187.87
X-287.615 Y-188.875
X-288.876 Y-189.959
X-290.067 Y-191.119
X-291.185 Y-192.35
X-292.225 Y-193.648
X-293.183 Y-195.006
X-294.057 Y-196.421
X-294.843 Y-197.886
X-295.538 Y-199.397
X-296.14 Y-200.947
X-296.647 Y-202.53
X-297.056 Y-204.142
X-297.367 Y-205.775
X-297.578 Y-207.425
X-297.689 Y-209.084
X-297.7 Y-210.746
X-297.609 Y-212.407
X-297.419 Y-214.059
X-297.129 Y-215.696
X-296.74 Y-217.313
X-296.255 Y-218.903
X-295.674 Y-220.461
X-295.001 Y-221.981
X-294.237 Y-223.458
X-293.386 Y-224.887
X-292.45 Y-226.261
X-291.433 Y-227.577
X-290.339 Y-228.829
X-289.172 Y-230.013
X-287.935 Y-231.124
X-286.634 Y-232.16
X-285.273 Y-233.115
X-283.857 Y-233.987
X-282.391 Y-234.772
X-280.881 Y-235.467
X-279.332 Y-236.071
X-277.749 Y-236.58
X-276.139 Y-236.994
X-274.506 Y-237.31
X-272.858 Y-237.527
X-271.199 Y-237.646
X-269.536 Y-237.664
X-267.876 Y-237.582
X-266.223 Y-237.401
X-264.584 Y-237.122
X-262.964 Y-236.744
X-261.37 Y-236.271
X-259.807 Y-235.704
X-258.28 Y-235.046
X-256.794 Y-234.301
X-255.353 Y-233.47
X-253.962 Y-232.56
X-252.624 Y-231.573
X-251.341 Y-230.515
X-250.119 Y-229.388
X-248.959 Y-228.197
X-247.866 Y-226.944
X-246.843 Y-225.632
X-245.894 Y-224.267
X-245.02 Y-222.853
X-244.224 Y-221.393
X-243.507 Y-219.893
X-242.873 Y-218.355
X-242.323 Y-216.786
X-241.86 Y-215.189
X-241.487 Y-213.569
X-241.204 Y-211.93
X-241.013 Y-210.279
X-240.915 Y-208.619
X-240.909 Y-206.956
X-240.997 Y-205.296
X-241.177 Y-203.643
X-241.45 Y-202.002
X-241.814 Y-200.38
X-242.268 Y-198.781
X-242.812 Y-197.209
X-243.445 Y-195.672
X-244.163 Y-194.172
X-244.966 Y-192.716
X-245.851 Y-191.308
X-246.813 Y-189.952
X-247.85 Y-188.653
X-248.959 Y-187.413
X-250.134 Y-186.237
X-251.373 Y-185.128
X-252.672 Y-184.09
X-254.026 Y-183.125
X-255.432 Y-182.237
X-256.885 Y-181.43
X-258.381 Y-180.704
X-259.915 Y-180.061
X-261.481 Y-179.504
X-263.076 Y-179.031
X-264.693 Y-178.646
X-266.329 Y-178.348
X-267.979 Y-178.14
X-269.637 Y-178.022
X-271.3 Y-177.994
X-272.961 Y-178.056
X-274.617 Y-178.206
X-276.263 Y-178.442
X-277.894 Y-178.765
X-279.506 Y-179.175
X-281.093 Y-179.671
X-282.651 Y-180.25
X-284.177 Y-180.911
X-285.667 Y-181.65
X-287.116 Y-182.465
X-288.52 Y-183.355
X-289.876 Y-184.319
X-291.178 Y-185.352
X-292.425 Y-186.452
X-293.613 Y-187.615
X-294.741 Y-188.837
X-295.804 Y-190.116
X-296.799 Y-191.448
X-297.722 Y-192.831
X-298.572 Y-194.26
X-299.348 Y-195.731
X-300.047 Y-197.239
X-300.669 Y-198.781
X-301.211 Y-200.353
X-301.67 Y-201.951
X-302.046 Y-203.571
X-302.338 Y-205.208
X-302.545 Y-206.858
X-302.67 Y-208.516
X-302.71 Y-210.178
X-302.663 Y-211.84
X-302.531 Y-213.498
X-302.313 Y-215.146
X-302.012 Y-216.781
X-301.628 Y-218.399
X-301.163 Y-219.996
X-300.617 Y-221.566
X-299.991 Y-223.107
X-299.286 Y-224.613
X-298.505 Y-226.08
X-297.65 Y-227.507
X-296.725 Y-228.888
X-295.732 Y-230.222
X-294.671 Y-231.502
X-293.545 Y-232.726
X-292.358 Y-233.89
X-291.114 Y-234.993
X-289.815 Y-236.031
X-288.466 Y-237.003
X-287.069 Y-237.906
X-285.628 Y-238.735
X-284.146 Y-239.488
X-282.627 Y-240.165
X-281.076 Y-240.765
X-279.497 Y-241.286
X-277.894 Y-241.727
X-276.27 Y-242.085
X-274.63 Y-242.358
X-272.978 Y-242.547
X-271.319 Y-242.653
X-269.656 Y-242.674
X-267.995 Y-242.613
X-266.338 Y-242.467
X-264.691 Y-242.237
X-263.059 Y-241.922
X-261.444 Y-241.526
X-259.851 Y-241.049
X-258.283 Y-240.495
X-256.745 Y-239.864
X-255.239 Y-239.158
X-253.77 Y-238.379
X-252.341 Y-237.529
X-250.955 Y-236.612
X-249.613 Y-235.629
X-248.32 Y-234.584
X-247.076 Y-233.48
X-245.887 Y-232.319
X-244.754 Y-231.102
X-243.68 Y-229.832
X-242.668 Y-228.513
X-241.718 Y-227.148
X-240.832 Y-225.741
X-240.012 Y-224.295
X-239.26 Y-222.812
X-238.579 Y-221.295
X-237.972 Y-219.747
X-237.438 Y-218.172
X-236.98 Y-216.574
X-236.596 Y-214.956
X-236.289 Y-213.322
X-236.06 Y-211.675
X-235.91 Y-210.019
X-235.841 Y-208.357
X-235.851 Y-206.695
X-235.94 Y-205.034
X-236.107 Y-203.38
X-236.352 Y-201.735
X-236.676 Y-200.105
X-237.079 Y-198.491
X-237.56 Y-196.9
X-238.117 Y-195.333
X-238.749 Y-193.795
X-239.454 Y-192.289
X-240.229 Y-190.818
X-241.075 Y-189.386
X-241.989 Y-187.998
X-242.969 Y-186.655
X-244.013 Y-185.36
X-245.117 Y-184.117
X-246.278 Y-182.926
X-247.494 Y-181.792
X-248.763 Y-180.718
X-250.082 Y-179.706
X-251.449 Y-178.759
X-252.859 Y-177.878
X-254.309 Y-177.064
X-255.795 Y-176.318
X-257.314 Y-175.642
X-258.863 Y-175.038
X-260.44 Y-174.509
X-262.039 Y-174.055
X-263.658 Y-173.676
X-265.293 Y-173.372
X-266.94 Y-173.144
X-268.596 Y-172.992
X-270.257 Y-172.916
X-271.919 Y-172.918
X-273.58 Y-172.998
X-275.236 Y-173.153
X-276.882 Y-173.385
X-278.517 Y-173.69
X-280.136 Y-174.07
X-281.736 Y-174.523
X-283.313 Y-175.049
X-284.865 Y-175.646
X-286.387 Y-176.314
X-287.878 Y-177.05
X-289.335 Y-177.852
X-290.754 Y-178.719
X-292.133 Y-179.648
X-293.468 Y-180.639
X-294.757 Y-181.69
X-295.997 Y-182.798
X-297.186 Y-183.96
X-298.322 Y-185.174
X-299.403 Y-186.437
X-300.427 Y-187.747
X-301.391 Y-189.102
X-302.293 Y-190.499
X-303.131 Y-191.935
X-303.905 Y-193.406
X-304.613 Y-194.911
X-305.253 Y-196.446
X-305.825 Y-198.007
X-306.327 Y-199.592
X-306.758 Y-201.198
X-307.116 Y-202.822
X-307.402 Y-204.46
X-307.615 Y-206.109
X-307.755 Y-207.766
X-307.823 Y-209.427
X-307.817 Y-211.09
X-307.737 Y-212.75
X-307.582 Y-214.406
X-307.355 Y-216.053
X-307.055 Y-217.689
X-306.683 Y-219.309
X-306.241 Y-220.912
X-305.729 Y-222.494
X-305.148 Y-224.052
X-304.497 Y-225.582
X-303.779 Y-227.082
X-302.996 Y-228.548
X-302.149 Y-229.979
X-301.24 Y-231.372
X-300.271 Y-232.723
X-299.244 Y-234.031
X-298.16 Y-235.291
X-297.02 Y-236.502
X-295.828 Y-237.662
X-294.587 Y-238.768
X-293.298 Y-239.819
X-291.965 Y-240.812
X-290.59 Y-241.747
X-289.174 Y-242.619
X-287.721 Y-243.427
X-286.234 Y-244.171
X-284.715 Y-244.848
X-283.169 Y-245.459
X-281.597 Y-246.001
X-280.003 Y-246.475
X-278.39 Y-246.877
X-276.76 Y-247.207
X-275.117 Y-247.465
X-273.465 Y-247.65
X-271.806 Y-247.763
X-270.144 Y-247.804
X-268.481 Y-247.773
X-266.822 Y-247.668
X-265.169 Y-247.491
X-263.525 Y-247.24
X-261.894 Y-246.918
X-260.278 Y-246.526
X-258.68 Y-246.065
X-257.104 Y-245.537
X-255.551 Y-244.942
X-254.025 Y-244.281
X-252.53 Y-243.555
X-251.066 Y-242.765
X-249.637 Y-241.915
X-248.245 Y-241.006
X-246.891 Y-240.04
X-245.579 Y-239.02
X-244.309 Y-237.946
X-243.086 Y-236.819
X-241.911 Y-235.643
X-240.786 Y-234.419
X-239.712 Y-233.15
X-238.691 Y-231.837
X-237.724 Y-230.485
X-236.812 Y-229.094
X-235.958 Y-227.667
X-235.164 Y-226.206
X-234.432 Y-224.714
X-233.761 Y-223.192
X-233.155 Y-221.644
X-232.611 Y-220.072
X-232.133 Y-218.48
X-231.72 Y-216.869
X-231.374 Y-215.243
X-231.096 Y-213.604
X-230.887 Y-211.954
X-230.747 Y-210.297
X-230.675 Y-208.636
X-230.672 Y-206.973
X-230.738 Y-205.312
X-230.872 Y-203.654
X-231.075 Y-202.004
X-231.347 Y-200.364
X-231.689 Y-198.737
X-232.099 Y-197.125
X-232.575 Y-195.532
X-233.117 Y-193.96
X-233.724 Y-192.412
X-234.394 Y-190.89
X-235.128 Y-189.398
X-235.924 Y-187.939
X-236.781 Y-186.514
X-237.697 Y-185.126
X-238.67 Y-183.778
X-239.697 Y-182.47
X-240.778 Y-181.206
X-241.909 Y-179.988
X-243.091 Y-178.818
X-244.321 Y-177.7
X-245.597 Y-176.633
X-246.916 Y-175.621
X-248.275 Y-174.663
X-249.673 Y-173.762
X-251.105 Y-172.918
X-252.571 Y-172.134
X-254.069 Y-171.411
X-255.595 Y-170.751
X-257.147 Y-170.155
X-258.723 Y-169.623
X-260.318 Y-169.155
X-261.931 Y-168.751
X-263.559 Y-168.413
X-265.2 Y-168.141
X-266.85 Y-167.937
X-268.507 Y-167.8
X-270.168 Y-167.731
X-271.831 Y-167.729
X-273.492 Y-167.794
X-275.15 Y-167.925
X-276.801 Y-168.121
X-278.443 Y-168.383
X-280.073 Y-168.712
X-281.688 Y-169.106
X-283.287 Y-169.565
X-284.865 Y-170.087
X-286.422 Y-170.672
X-287.954 Y-171.317
X-289.46 Y-172.022
X-290.937 Y-172.786
X-292.382 Y-173.608
X-293.793 Y-174.487
X-295.168 Y-175.423
X-296.505 Y-176.411
X-297.802 Y-177.452
X-299.057 Y-178.543
X-300.269 Y-179.681
X-301.436 Y-180.866
X-302.554 Y-182.096
X-303.623 Y-183.37
X-304.641 Y-184.685
X-305.606 Y-186.039
X-306.517 Y-187.429
X-307.374 Y-188.855
X-308.175 Y-190.312
X-308.919 Y-191.799
X-309.604 Y-193.314
X-310.229 Y-194.855
X-310.792 Y-196.419
X-311.293 Y-198.004
X-311.733 Y-199.608
X-312.11 Y-201.228
X-312.424 Y-202.86
X-312.676 Y-204.504
X-312.863 Y-206.156
X-312.985 Y-207.814
X-313.041 Y-209.476
X-313.033 Y-211.139
X-312.959 Y-212.8
X-312.822 Y-214.457
X-312.621 Y-216.108
X-312.357 Y-217.749
X-312.03 Y-219.38
X-311.639 Y-220.996
X-311.185 Y-222.595
X-310.668 Y-224.176
X-310.091 Y-225.735
X-309.454 Y-227.271
X-308.758 Y-228.781
X-308.006 Y-230.264
X-307.196 Y-231.716
X-306.331 Y-233.136
X-305.411 Y-234.521
X-304.437 Y-235.869
X-303.411 Y-237.177
X-302.336 Y-238.446
X-301.213 Y-239.672
X-300.044 Y-240.854
X-298.83 Y-241.991
X-297.574 Y-243.08
X-296.275 Y-244.118
X-294.937 Y-245.105
X-293.562 Y-246.04
X-292.151 Y-246.92
X-290.708 Y-247.746
X-289.234 Y-248.516
X-287.732 Y-249.229
X-286.204 Y-249.884
X-284.651 Y-250.478
X-283.076 Y-251.011
X-281.481 Y-251.482
X-279.869 Y-251.892
X-278.243 Y-252.239
X-276.605 Y-252.524
X-274.957 Y-252.746
X-273.302 Y-252.905
X-271.642 Y-252.999
X-269.98 Y-253.028
X-268.317 Y-252.993
X-266.657 Y-252.894
X-265.003 Y-252.731
X-263.355 Y-252.506
X-261.718 Y-252.218
X-260.092 Y-251.869
X-258.481 Y-251.459
X-256.886 Y-250.987
X-255.311 Y-250.454
X-253.757 Y-249.862
X-252.227 Y-249.212
X-250.722 Y-248.505
X-249.244 Y-247.744
X-247.795 Y-246.928
X-246.377 Y-246.06
X-244.992 Y-245.139
X-243.643 Y-244.167
X-242.331 Y-243.146
X-241.057 Y-242.077
X-239.824 Y-240.962
X-238.632 Y-239.803
X-237.482 Y-238.601
X-236.377 Y-237.359
X-235.317 Y-236.078
X-234.306 Y-234.758
X-233.344 Y-233.402
X-232.432 Y-232.012
X-231.571 Y-230.589
X-230.763 Y-229.136
X-230.008 Y-227.654
X-229.307 Y-226.147
X-228.66 Y-224.615
X-228.07 Y-223.06
X-227.538 Y-221.485
X-227.064 Y-219.891
X-226.649 Y-218.281
X-226.293 Y-216.657
X-225.997 Y-215.021
X-225.76 Y-213.375
X-225.583 Y-211.722
X-225.466 Y-210.063
X-225.411 Y-208.401
X-225.417 Y-206.738
X-225.485 Y-205.077
X-225.614 Y-203.419
X-225.805 Y-201.767
X-226.055 Y-200.124
X-226.366 Y-198.49
X-226.736 Y-196.869
X-227.165 Y-195.263
X-227.654 Y-193.673
X-228.201 Y-192.103
X-228.807 Y-190.555
X-229.47 Y-189.03
X-230.188 Y-187.53
X-230.96 Y-186.058
X-231.786 Y-184.615
X-232.664 Y-183.203
X-233.594 Y-181.824
X-234.574 Y-180.481
X-235.603 Y-179.175
X-236.68 Y-177.908
X-237.803 Y-176.682
X-238.97 Y-175.497
X-240.179 Y-174.356
X-241.429 Y-173.259
X-242.717 Y-172.209
X-244.044 Y-171.206
X-245.407 Y-170.253
X-246.804 Y-169.351
X-248.232 Y-168.501
X-249.691 Y-167.703
X-251.178 Y-166.959
X-252.691 Y-166.268
X-254.227 Y-165.633
X-255.786 Y-165.053
X-257.364 Y-164.531
X-258.961 Y-164.066
X-260.573 Y-163.66
X-262.199 Y-163.312
X-263.836 Y-163.023
X-265.483 Y-162.792
X-267.137 Y-162.621
X-268.796 Y-162.508
X-270.458 Y-162.454
X-272.121 Y-162.461
X-273.782 Y-162.528
X-275.44 Y-162.654
X-277.092 Y-162.839
X-278.737 Y-163.083
X-280.372 Y-163.385
X-281.996 Y-163.744
X-283.606 Y-164.16
X-285.2 Y-164.633
X-286.776 Y-165.163
X-288.332 Y-165.748
X-289.867 Y-166.388
X-291.378 Y-167.082
X-292.863 Y-167.829
X-294.322 Y-168.628
X-295.751 Y-169.477
X-297.151 Y-170.375
X-298.517 Y-171.322
X-299.85 Y-172.317
X-301.146 Y-173.358
X-302.405 Y-174.444
X-303.626 Y-175.573
X-304.806 Y-176.745
X-305.944 Y-177.957
X-307.04 Y-179.207
X-308.092 Y-180.495
X-309.098 Y-181.819
X-310.057 Y-183.177
X-310.968 Y-184.568
X-311.829 Y-185.99
X-312.641 Y-187.442
X-313.401 Y-188.92
X-314.11 Y-190.424
X-314.767 Y-191.952
X-315.371 Y-193.501
X-315.92 Y-195.07
X-316.414 Y-196.658
X-316.852 Y-198.262
X-317.235 Y-199.88
X-317.561 Y-201.511
X-317.83 Y-203.152
X-318.043 Y-204.801
X-318.198 Y-206.456
X-318.297 Y-208.116
X-318.338 Y-209.778
X-318.321 Y-211.441
X-318.246 Y-213.102
X-318.114 Y-214.759
X-317.924 Y-216.411
X-317.678 Y-218.056
X-317.375 Y-219.691
X-317.016 Y-221.314
X-316.601 Y-222.924
X-316.132 Y-224.519
X-315.607 Y-226.097
X-315.027 Y-227.656
X-314.394 Y-229.193
X-313.709 Y-230.708
X-312.971 Y-232.198
X-312.183 Y-233.662
X-311.345 Y-235.098
X-310.458 Y-236.505
X-309.523 Y-237.88
X-308.542 Y-239.222
X-307.514 Y-240.529
X-306.441 Y-241.8
X-305.326 Y-243.033
X-304.169 Y-244.227
X-302.971 Y-245.38
X-301.734 Y-246.492
X-300.461 Y-247.561
X-299.151 Y-248.585
X-297.807 Y-249.564
X-296.429 Y-250.495
X-295.02 Y-251.378
X-293.582 Y-252.212
X-292.115 Y-252.996
X-290.623 Y-253.729
X-289.106 Y-254.411
X-287.567 Y-255.04
X-286.008 Y-255.617
X-284.429 Y-256.138
X-282.833 Y-256.605
X-281.222 Y-257.017
X-279.598 Y-257.373
X-277.962 Y-257.673
X-276.318 Y-257.916
X-274.666 Y-258.104
X-273.008 Y-258.235
X-271.347 Y-258.309
X-269.684 Y-258.326
X-268.022 Y-258.285
X-266.362 Y-258.188
X-264.706 Y-258.034
X-263.057 Y-257.823
X-261.416 Y-257.557
X-259.784 Y-257.236
X-258.165 Y-256.86
X-256.559 Y-256.429
X-254.968 Y-255.944
X-253.395 Y-255.406
X-251.841 Y-254.815
X-250.308 Y-254.171
X-248.797 Y-253.478
X-247.309 Y-252.734
X-245.848 Y-251.941
X-244.413 Y-251.1
X-243.007 Y-250.213
X-241.631 Y-249.279
X-240.287 Y-248.3
X-238.976 Y-247.277
X-237.7 Y-246.212
X-236.459 Y-245.105
X-235.256 Y-243.957
X-234.09 Y-242.772
X-232.964 Y-241.548
X-231.878 Y-240.289
X-230.834 Y-238.995
X-229.832 Y-237.668
X-228.875 Y-236.308
X-227.964 Y-234.918
X-227.098 Y-233.498
X-226.279 Y-232.051
X-225.507 Y-230.578
X-224.784 Y-229.081
X-224.11 Y-227.561
X-223.485 Y-226.02
X-222.912 Y-224.459
X-222.389 Y-222.881
X-221.92 Y-221.286
X-221.503 Y-219.676
X-221.139 Y-218.054
X-220.828 Y-216.42
X-220.57 Y-214.777
X-220.367 Y-213.127
X-220.217 Y-211.471
X-220.121 Y-209.811
X-220.08 Y-208.149
X-220.095 Y-206.486
X-220.164 Y-204.825
X-220.288 Y-203.167
X-220.467 Y-201.514
X-220.7 Y-199.867
X-220.987 Y-198.23
X-221.327 Y-196.602
X-221.72 Y-194.986
X-222.166 Y-193.385
X-222.666 Y-191.799
X-223.218 Y-190.23
X-223.821 Y-188.681
X-224.476 Y-187.152
X-225.18 Y-185.646
X-225.933 Y-184.164
X-226.734 Y-182.707
X-227.583 Y-181.277
X-228.478 Y-179.876
X-229.419 Y-178.505
X-230.405 Y-177.166
X-231.435 Y-175.86
X-232.507 Y-174.59
X-233.621 Y-173.355
X-234.774 Y-172.157
X-235.966 Y-170.997
X-237.195 Y-169.877
X-238.459 Y-168.798
X-239.758 Y-167.76
X-241.091 Y-166.766
X-242.456 Y-165.816
X-243.852 Y-164.912
X-245.276 Y-164.054
X-246.727 Y-163.242
X-248.204 Y-162.478
X-249.705 Y-161.763
X-251.228 Y-161.096
X-252.772 Y-160.478
X-254.335 Y-159.911
X-255.915 Y-159.396
X-257.512 Y-158.932
X-259.123 Y-158.521
X-260.747 Y-158.161
X-262.381 Y-157.855
X-264.024 Y-157.6
X-265.675 Y-157.399
X-267.331 Y-157.25
X-268.991 Y-157.155
X-270.653 Y-157.112
X-272.316 Y-157.124
X-273.977 Y-157.19
X-275.636 Y-157.309
X-277.29 Y-157.481
X-278.937 Y-157.706
X-280.577 Y-157.982
X-282.207 Y-158.311
X-283.825 Y-158.691
X-285.431 Y-159.122
X-287.023 Y-159.604
X-288.598 Y-160.137
X-290.155 Y-160.721
X-291.692 Y-161.353
X-293.209 Y-162.034
X-294.704 Y-162.762
X-296.175 Y-163.538
X-297.621 Y-164.359
X-299.04 Y-165.224
X-300.432 Y-166.135
X-301.794 Y-167.089
X-303.125 Y-168.086
X-304.423 Y-169.124
X-305.688 Y-170.203
X-306.918 Y-171.322
X-308.113 Y-172.478
X-309.271 Y-173.671
X-310.392 Y-174.9
X-311.473 Y-176.163
X-312.514 Y-177.459
X-313.514 Y-178.788
X-314.471 Y-180.147
X-315.385 Y-181.537
X-316.255 Y-182.954
X-317.08 Y-184.397
X-317.86 Y-185.866
X-318.593 Y-187.358
X-319.28 Y-188.872
X-319.92 Y-190.407
X-320.511 Y-191.961
X-321.053 Y-193.533
X-321.546 Y-195.121
X-321.988 Y-196.724
X-322.38 Y-198.34
X-322.721 Y-199.967
X-323.012 Y-201.605
X-323.251 Y-203.25
X-323.44 Y-204.902
X-323.578 Y-206.559
X-323.664 Y-208.22
X-323.697 Y-209.882
X-323.679 Y-211.545
X-323.608 Y-213.206
X-323.486 Y-214.864
X-323.312 Y-216.518
X-323.087 Y-218.165
X-322.811 Y-219.805
X-322.485 Y-221.435
X-322.108 Y-223.055
X-321.682 Y-224.662
X-321.205 Y-226.255
X-320.678 Y-227.832
X-320.103 Y-229.392
X-319.479 Y-230.933
X-318.808 Y-232.455
X-318.09 Y-233.954
X-317.326 Y-235.431
X-316.517 Y-236.884
X-315.663 Y-238.311
X-314.766 Y-239.711
X-313.825 Y-241.082
X-312.842 Y-242.423
X-311.818 Y-243.732
X-310.753 Y-245.01
X-309.649 Y-246.253
X-308.507 Y-247.462
X-307.329 Y-248.635
X-306.115 Y-249.771
X-304.867 Y-250.87
X-303.585 Y-251.929
X-302.271 Y-252.948
X-300.926 Y-253.925
X-299.55 Y-254.859
X-298.147 Y-255.751
X-296.716 Y-256.598
X-295.26 Y-257.401
X-293.78 Y-258.159
X-292.277 Y-258.871
X-290.754 Y-259.536
X-289.21 Y-260.154
X-287.648 Y-260.724
X-286.068 Y-261.244
X-284.474 Y-261.715
X-282.865 Y-262.136
X-281.244 Y-262.507
X-279.613 Y-262.828
X-277.972 Y-263.099
X-276.324 Y-263.319
X-274.67 Y-263.489
X-273.012 Y-263.608
X-271.35 Y-263.675
X-269.688 Y-263.69
X-268.025 Y-263.654
X-266.365 Y-263.566
X-264.708 Y-263.428
X-263.056 Y-263.239
X-261.41 Y-263
X-259.773 Y-262.711
X-258.145 Y-262.372
X-256.528 Y-261.984
X-254.924 Y-261.547
X-253.334 Y-261.061
X-251.76 Y-260.526
X-250.202 Y-259.943
X-248.663 Y-259.314
X-247.144 Y-258.639
X-245.645 Y-257.918
X-244.169 Y-257.154
X-242.716 Y-256.345
X-241.288 Y-255.493
X-239.886 Y-254.599
X-238.512 Y-253.663
X-237.166 Y-252.686
X-235.851 Y-251.669
X-234.566 Y-250.613
X-233.313 Y-249.52
X-232.094 Y-248.39
X-230.908 Y-247.224
X-229.757 Y-246.025
X-228.641 Y-244.791
X-227.563 Y-243.526
X-226.523 Y-242.228
X-225.522 Y-240.901
X-224.561 Y-239.544
X-223.641 Y-238.159
X-222.762 Y-236.747
X-221.925 Y-235.31
X-221.131 Y-233.85
X-220.38 Y-232.366
X-219.673 Y-230.861
X-219.01 Y-229.336
X-218.393 Y-227.792
X-217.822 Y-226.231
X-217.298 Y-224.652
X-216.822 Y-223.059
X-216.392 Y-221.453
X-216.011 Y-219.835
X-215.677 Y-218.206
X-215.391 Y-216.568
X-215.154 Y-214.922
X-214.965 Y-213.27
X-214.825 Y-211.613
X-214.735 Y-209.953
X-214.695 Y-208.291
X-214.704 Y-206.628
X-214.763 Y-204.966
X-214.872 Y-203.307
X-215.029 Y-201.652
X-215.236 Y-200.002
X-215.491 Y-198.359
X-215.794 Y-196.724
X-216.146 Y-195.099
X-216.546 Y-193.485
X-216.995 Y-191.884
X-217.491 Y-190.297
X-218.035 Y-188.726
X-218.626 Y-187.171
X-219.262 Y-185.635
X-219.943 Y-184.118
X-220.669 Y-182.623
X-221.439 Y-181.149
X-222.252 Y-179.698
X-223.108 Y-178.273
X-224.007 Y-176.874
X-224.947 Y-175.502
X-225.928 Y-174.16
X-226.948 Y-172.847
X-228.007 Y-171.565
X-229.103 Y-170.314
X-230.235 Y-169.097
X-231.403 Y-167.913
X-232.605 Y-166.765
X-233.841 Y-165.652
X-235.109 Y-164.577
X-236.409 Y-163.54
X-237.739 Y-162.542
X-239.099 Y-161.584
X-240.486 Y-160.667
X-241.899 Y-159.791
X-243.337 Y-158.957
X-244.799 Y-158.165
X-246.284 Y-157.416
X-247.79 Y-156.711
X-249.316 Y-156.051
X-250.861 Y-155.436
X-252.423 Y-154.867
X-254.002 Y-154.345
X-255.595 Y-153.869
X-257.201 Y-153.44
X-258.82 Y-153.058
X-260.448 Y-152.724
X-262.086 Y-152.436
X-263.731 Y-152.196
X-265.383 Y-152.004
X-267.04 Y-151.86
X-268.7 Y-151.765
X-270.362 Y-151.719
X-272.024 Y-151.722
X-273.686 Y-151.773
X-275.346 Y-151.872
X-277.002 Y-152.018
X-278.654 Y-152.213
X-280.299 Y-152.454
X-281.936 Y-152.743
X-283.565 Y-153.079
X-285.183 Y-153.462
X-286.789 Y-153.892
X-288.382 Y-154.369
X-289.96 Y-154.892
X-291.523 Y-155.46
X-293.069 Y-156.072
X-294.597 Y-156.729
X-296.105 Y-157.428
X-297.593 Y-158.171
X-299.059 Y-158.955
X-300.502 Y-159.781
X-301.92 Y-160.649
X-303.313 Y-161.558
X-304.679 Y-162.506
X-306.017 Y-163.493
X-307.326 Y-164.518
X-308.606 Y-165.58
X-309.855 Y-166.677
X-311.072 Y-167.81
X-312.257 Y-168.976
X-313.408 Y-170.176
X-314.525 Y-171.408
X-315.605 Y-172.672
X-316.649 Y-173.966
X-317.655 Y-175.29
X-318.623 Y-176.642
X-319.552 Y-178.021
X-320.442 Y-179.425
X-321.292 Y-180.855
X-322.101 Y-182.307
X-322.869 Y-183.782
X-323.595 Y-185.278
X-324.278 Y-186.794
X-324.917 Y-188.329
X-325.512 Y-189.882
X-326.063 Y-191.451
X-326.568 Y-193.035
X-327.029 Y-194.632
X-327.444 Y-196.242
X-327.814 Y-197.863
X-328.139 Y-199.494
X-328.417 Y-201.133
X-328.649 Y-202.78
X-328.834 Y-204.432
X-328.972 Y-206.089
X-329.062 Y-207.75
X-329.105 Y-209.412
X-329.101 Y-211.075
X-329.05 Y-212.737
X-328.953 Y-214.396
X-328.809 Y-216.053
X-328.618 Y-217.705
X-328.381 Y-219.351
X-328.099 Y-220.989
X-327.769 Y-222.619
X-327.393 Y-224.239
X-326.972 Y-225.847
X-326.504 Y-227.443
X-325.992 Y-229.025
X-325.436 Y-230.592
X-324.836 Y-232.142
X-324.192 Y-233.675
X-323.506 Y-235.19
X-322.778 Y-236.685
X-322.008 Y-238.159
X-321.197 Y-239.61
X-320.345 Y-241.038
X-319.452 Y-242.441
X-318.52 Y-243.818
X-317.549 Y-245.168
X-316.541 Y-246.49
X-315.496 Y-247.783
X-314.416 Y-249.047
X-313.3 Y-250.28
X-312.151 Y-251.482
X-310.968 Y-252.651
X-309.753 Y-253.785
X-308.506 Y-254.885
X-307.228 Y-255.949
X-305.92 Y-256.976
X-304.584 Y-257.966
X-303.221 Y-258.918
X-301.831 Y-259.831
X-300.417 Y-260.705
X-298.979 Y-261.54
X-297.518 Y-262.334
X-296.035 Y-263.087
X-294.532 Y-263.797
X-293.009 Y-264.464
X-291.468 Y-265.088
X-289.909 Y-265.668
X-288.335 Y-266.204
X-286.747 Y-266.695
X-285.145 Y-267.142
X-283.532 Y-267.544
X-281.908 Y-267.901
X-280.275 Y-268.213
X-278.633 Y-268.478
X-276.985 Y-268.697
X-275.331 Y-268.87
X-273.673 Y-268.995
X-272.012 Y-269.074
X-270.35 Y-269.106
X-268.687 Y-269.092
X-267.025 Y-269.031
X-265.366 Y-268.925
X-263.71 Y-268.773
X-262.059 Y-268.575
X-260.415 Y-268.331
X-258.777 Y-268.041
X-257.149 Y-267.706
X-255.53 Y-267.325
X-253.923 Y-266.899
X-252.328 Y-266.429
X-250.747 Y-265.915
X-249.18 Y-265.357
X-247.629 Y-264.758
X-246.096 Y-264.116
X-244.58 Y-263.432
X-243.083 Y-262.707
X-241.607 Y-261.942
X-240.153 Y-261.136
X-238.722 Y-260.29
X-237.314 Y-259.405
X-235.931 Y-258.482
X-234.573 Y-257.521
X-233.243 Y-256.524
X-231.939 Y-255.492
X-230.664 Y-254.425
X-229.418 Y-253.324
X-228.202 Y-252.19
X-227.018 Y-251.023
X-225.865 Y-249.824
X-224.746 Y-248.595
X-223.661 Y-247.335
X-222.61 Y-246.046
X-221.594 Y-244.73
X-220.615 Y-243.386
X-219.672 Y-242.017
X-218.765 Y-240.623
X-217.897 Y-239.205
X-217.066 Y-237.764
X-216.275 Y-236.302
X-215.523 Y-234.819
X-214.813 Y-233.315
X-214.143 Y-231.793
X-213.515 Y-230.254
X-212.929 Y-228.698
X-212.385 Y-227.126
X-211.884 Y-225.541
X-211.425 Y-223.943
X-211.009 Y-222.333
X-210.636 Y-220.713
X-210.307 Y-219.083
X-210.023 Y-217.445
X-209.783 Y-215.799
X-209.588 Y-214.148
X-209.438 Y-212.492
X-209.334 Y-210.832
X-209.274 Y-209.171
X-209.259 Y-207.508
X-209.289 Y-205.846
X-209.363 Y-204.185
X-209.482 Y-202.526
X-209.646 Y-200.871
X-209.854 Y-199.222
X-210.108 Y-197.578
X-210.406 Y-195.943
X-210.749 Y-194.316
X-211.137 Y-192.699
X-211.568 Y-191.093
X-212.042 Y-189.499
X-212.559 Y-187.919
X-213.119 Y-186.353
X-213.72 Y-184.803
X-214.363 Y-183.269
X-215.047 Y-181.754
X-215.773 Y-180.258
X-216.539 Y-178.782
X-217.345 Y-177.328
X-218.19 Y-175.896
X-219.075 Y-174.488
X-219.996 Y-173.104
X-220.955 Y-171.746
X-221.95 Y-170.414
X-222.981 Y-169.109
X-224.046 Y-167.832
X-225.145 Y-166.584
X-226.278 Y-165.367
X-227.443 Y-164.181
X-228.64 Y-163.027
X-229.869 Y-161.906
X-231.127 Y-160.819
X-232.414 Y-159.766
X-233.729 Y-158.748
X-235.07 Y-157.766
X-236.438 Y-156.82
X-237.83 Y-155.911
X-239.246 Y-155.039
X-240.685 Y-154.206
X-242.146 Y-153.412
X-243.628 Y-152.658
X-245.129 Y-151.944
X-246.65 Y-151.271
X-248.188 Y-150.64
X-249.742 Y-150.049
X-251.312 Y-149.5
X-252.895 Y-148.993
X-254.492 Y-148.528
X-256.1 Y-148.106
X-257.719 Y-147.726
X-259.347 Y-147.39
X-260.984 Y-147.098
X-262.628 Y-146.85
X-264.279 Y-146.646
X-265.934 Y-146.486
X-267.592 Y-146.371
X-269.254 Y-146.299
X-270.916 Y-146.271
X-272.579 Y-146.287
X-274.24 Y-146.347
X-275.9 Y-146.45
X-277.556 Y-146.598
X-279.208 Y-146.789
X-280.854 Y-147.025
X-282.493 Y-147.304
X-284.124 Y-147.626
X-285.746 Y-147.992
X-287.358 Y-148.4
X-288.959 Y-148.85
X-290.547 Y-149.342
X-292.122 Y-149.876
X-293.682 Y-150.45
X-295.227 Y-151.065
X-296.755 Y-151.721
X-298.265 Y-152.417
X-299.757 Y-153.152
X-301.228 Y-153.927
X-302.678 Y-154.74
X-304.107 Y-155.59
X-305.513 Y-156.478
X-306.895 Y-157.403
X-308.253 Y-158.363
X-309.585 Y-159.358
X-310.891 Y-160.387
X-312.17 Y-161.449
X-313.42 Y-162.545
X-314.641 Y-163.674
X-315.832 Y-164.834
X-316.992 Y-166.025
X-318.121 Y-167.246
X-319.218 Y-168.496
X-320.281 Y-169.774
X-321.311 Y-171.08
X-322.307 Y-172.411
X-323.268 Y-173.768
X-324.194 Y-175.149
X-325.084 Y-176.554
X-325.936 Y-177.981
X-326.751 Y-179.431
X-327.528 Y-180.901
X-328.266 Y-182.391
X-328.965 Y-183.9
X-329.624 Y-185.426
X-330.244 Y-186.969
X-330.824 Y-188.527
X-331.363 Y-190.1
X-331.862 Y-191.686
X-332.32 Y-193.285
X-332.736 Y-194.895
X-333.11 Y-196.515
X-333.441 Y-198.144
X-333.73 Y-199.782
X-333.976 Y-201.426
X-334.18 Y-203.077
X-334.34 Y-204.732
X-334.458 Y-206.39
X-334.533 Y-208.051
X-334.566 Y-209.714
X-334.555 Y-211.376
X-334.502 Y-213.038
X-334.406 Y-214.698
X-334.267 Y-216.355
X-334.085 Y-218.008
X-333.859 Y-219.655
X-333.591 Y-221.296
X-333.281 Y-222.93
X-332.929 Y-224.555
X-332.534 Y-226.17
X-332.099 Y-227.775
X-331.622 Y-229.368
X-331.105 Y-230.948
X-330.547 Y-232.514
X-329.949 Y-234.066
X-329.311 Y-235.601
X-328.633 Y-237.12
X-327.916 Y-238.62
X-327.16 Y-240.101
X-326.367 Y-241.562
X-325.536 Y-243.002
X-324.668 Y-244.42
X-323.764 Y-245.816
X-322.824 Y-247.188
X-321.85 Y-248.535
X-320.841 Y-249.857
X-319.799 Y-251.153
X-318.723 Y-252.421
X-317.615 Y-253.66
X-316.475 Y-254.87
X-315.304 Y-256.051
X-314.103 Y-257.201
X-312.873 Y-258.32
X-311.614 Y-259.406
X-310.328 Y-260.46
X-309.016 Y-261.481
X-307.677 Y-262.468
X-306.314 Y-263.42
X-304.927 Y-264.336
X-303.516 Y-265.217
X-302.083 Y-266.06
X-300.629 Y-266.866
X-299.154 Y-267.634
X-297.66 Y-268.364
X-296.148 Y-269.055
X-294.618 Y-269.707
X-293.073 Y-270.32
X-291.512 Y-270.893
X-289.937 Y-271.426
X-288.349 Y-271.918
X-286.748 Y-272.369
X-285.137 Y-272.779
X-283.515 Y-273.147
X-281.884 Y-273.472
X-280.246 Y-273.756
X-278.601 Y-273.997
X-276.95 Y-274.196
X-275.295 Y-274.353
X-273.636 Y-274.468
X-271.975 Y-274.54
X-270.312 Y-274.57
X-268.65 Y-274.557
X-266.988 Y-274.502
X-265.328 Y-274.404
X-263.671 Y-274.263
X-262.018 Y-274.08
X-260.371 Y-273.855
X-258.73 Y-273.588
X-257.096 Y-273.28
X-255.471 Y-272.93
X-253.854 Y-272.539
X-252.249 Y-272.107
X-250.654 Y-271.635
X-249.072 Y-271.123
X-247.504 Y-270.571
X-245.95 Y-269.979
X-244.412 Y-269.348
X-242.89 Y-268.678
X-241.385 Y-267.971
X-239.899 Y-267.225
X-238.432 Y-266.443
X-236.985 Y-265.624
X-235.559 Y-264.769
X-234.154 Y-263.878
X-232.772 Y-262.954
X-231.414 Y-261.995
X-230.08 Y-261.002
X-228.772 Y-259.976
X-227.489 Y-258.917
X-226.234 Y-257.827
X-225.006 Y-256.706
X-223.806 Y-255.555
X-222.635 Y-254.374
X-221.494 Y-253.165
X-220.384 Y-251.927
X-219.304 Y-250.663
X-218.255 Y-249.372
X-217.239 Y-248.056
X-216.257 Y-246.715
X-215.307 Y-245.35
X-214.392 Y-243.961
X-213.512 Y-242.551
X-212.667 Y-241.119
X-211.858 Y-239.666
X-211.085 Y-238.194
X-210.349 Y-236.703
X-209.65 Y-235.194
X-208.988 Y-233.669
X-208.364 Y-232.128
X-207.779 Y-230.571
X-207.232 Y-229.001
X-206.725 Y-227.418
X-206.257 Y-225.822
X-205.828 Y-224.215
X-205.44 Y-222.599
X-205.093 Y-220.973
X-204.785 Y-219.339
X-204.519 Y-217.697
X-204.293 Y-216.05
X-204.107 Y-214.398
X-203.963 Y-212.741
X-203.86 Y-211.082
X-203.798 Y-209.42
X-203.777 Y-207.757
X-203.798 Y-206.095
X-203.861 Y-204.433
X-203.965 Y-202.774
X-204.11 Y-201.117
X-204.297 Y-199.465
X-204.524 Y-197.818
X-204.792 Y-196.177
X-205.101 Y-194.543
X-205.45 Y-192.917
X-205.84 Y-191.301
X-206.269 Y-189.695
X-206.739 Y-188.1
X-207.248 Y-186.517
X-207.797 Y-184.947
X-208.385 Y-183.392
X-209.011 Y-181.851
X-209.675 Y-180.327
X-210.378 Y-178.82
X-211.117 Y-177.331
X-211.893 Y-175.86
X-212.705 Y-174.409
X-213.553 Y-172.979
X-214.437 Y-171.57
X-215.355 Y-170.184
X-216.307 Y-168.821
X-217.294 Y-167.483
X-218.313 Y-166.169
X-219.365 Y-164.881
X-220.448 Y-163.619
X-221.562 Y-162.385
X-222.707 Y-161.179
X-223.881 Y-160.002
X-225.083 Y-158.854
X-226.314 Y-157.735
X-227.572 Y-156.648
X-228.857 Y-155.592
X-230.167 Y-154.569
X-231.503 Y-153.579
X-232.862 Y-152.621
X-234.245 Y-151.698
X-235.651 Y-150.809
X-237.077 Y-149.956
X-238.525 Y-149.137
X-239.992 Y-148.355
X-241.478 Y-147.609
X-242.982 Y-146.899
X-244.503 Y-146.227
X-246.039 Y-145.593
X-247.592 Y-144.996
X-249.158 Y-144.438
X-250.738 Y-143.919
X-252.33 Y-143.439
X-253.933 Y-142.998
X-255.546 Y-142.597
X-257.169 Y-142.235
X-258.801 Y-141.913
X-260.439 Y-141.631
X-262.084 Y-141.39
X-263.735 Y-141.188
X-265.39 Y-141.026
X-267.048 Y-140.906
X-268.709 Y-140.826
X-270.371 Y-140.787
X-272.034 Y-140.788
X-273.696 Y-140.83
X-275.357 Y-140.913
X-277.015 Y-141.035
X-278.67 Y-141.199
X-280.32 Y-141.402
X-281.965 Y-141.645
X-283.604 Y-141.928
X-285.235 Y-142.25
X-286.858 Y-142.613
X-288.471 Y-143.014
X-290.074 Y-143.455
X-291.666 Y-143.935
X-293.246 Y-144.453
X-294.813 Y-145.009
X-296.366 Y-145.603
X-297.905 Y-146.234
X-299.427 Y-146.902
X-300.933 Y-147.607
X-302.422 Y-148.348
X-303.892 Y-149.124
X-305.343 Y-149.936
X-306.774 Y-150.783
X-308.185 Y-151.664
X-309.573 Y-152.579
X-310.939 Y-153.527
X-312.282 Y-154.507
X-313.6 Y-155.52
X-314.895 Y-156.564
X-316.163 Y-157.639
X-317.405 Y-158.744
X-318.621 Y-159.879
X-319.809 Y-161.042
X-320.969 Y-162.233
X-322.1 Y-163.453
X-323.201 Y-164.699
X-324.271 Y-165.971
X-325.311 Y-167.268
X-326.32 Y-168.59
X-327.296 Y-169.936
X-328.24 Y-171.305
X-329.151 Y-172.696
X-330.028 Y-174.108
X-330.872 Y-175.541
X-331.681 Y-176.994
X-332.455 Y-178.466
X-333.194 Y-179.955
X-333.896 Y-181.462
X-334.562 Y-182.986
X-335.192 Y-184.525
X-335.784 Y-186.078
X-336.34 Y-187.646
X-336.857 Y-189.226
X-337.337 Y-190.818
X-337.779 Y-192.421
X-338.182 Y-194.034
X-338.547 Y-195.656
X-338.873 Y-197.287
X-339.16 Y-198.924
X-339.408 Y-200.569
X-339.617 Y-202.218
X-339.786 Y-203.872
X-339.915 Y-205.53
X-340.005 Y-207.19
X-340.055 Y-208.852
X-340.065 Y-210.515
X-340.036 Y-212.178
X-339.968 Y-213.839
X-339.86 Y-215.498
X-339.712 Y-217.154
X-339.526 Y-218.807
X-339.3 Y-220.454
X-339.035 Y-222.095
X-338.73 Y-223.73
X-338.387 Y-225.357
X-338.004 Y-226.975
X-337.584 Y-228.584
X-337.125 Y-230.182
X-336.629 Y-231.769
X-336.095 Y-233.344
X-335.523 Y-234.905
X-334.915 Y-236.453
X-334.27 Y-237.985
X-333.59 Y-239.502
X-332.873 Y-241.003
X-332.121 Y-242.485
X-331.333 Y-243.95
X-330.51 Y-245.395
X-329.654 Y-246.82
X-328.764 Y-248.225
X-327.841 Y-249.607
X-326.885 Y-250.968
X-325.897 Y-252.306
X-324.878 Y-253.619
X-323.828 Y-254.909
X-322.747 Y-256.173
X-321.638 Y-257.411
X-320.499 Y-258.622
X-319.331 Y-259.806
X-318.135 Y-260.961
X-316.912 Y-262.088
X-315.663 Y-263.185
X-314.388 Y-264.253
X-313.088 Y-265.289
X-311.764 Y-266.295
X-310.416 Y-267.269
X-309.046 Y-268.211
X-307.654 Y-269.12
X-306.241 Y-269.996
X-304.807 Y-270.838
X-303.354 Y-271.646
X-301.882 Y-272.419
X-300.391 Y-273.157
X-298.884 Y-273.859
X-297.36 Y-274.524
X-295.821 Y-275.154
X-294.268 Y-275.747
X-292.701 Y-276.303
X-291.121 Y-276.822
X-289.53 Y-277.303
X-287.927 Y-277.747
X-286.315 Y-278.153
X-284.693 Y-278.52
X-283.063 Y-278.849
X-281.426 Y-279.139
X-279.782 Y-279.389
X-278.133 Y-279.601
X-276.479 Y-279.774
X-274.822 Y-279.907
X-273.162 Y-280.002
X-271.5 Y-280.057
X-269.837 Y-280.073
X-268.175 Y-280.05
X-266.513 Y-279.988
X-264.853 Y-279.887
X-263.196 Y-279.747
X-261.543 Y-279.568
X-259.895 Y-279.35
X-258.252 Y-279.093
X-256.616 Y-278.797
X-254.987 Y-278.463
X-253.366 Y-278.091
X-251.755 Y-277.682
X-250.153 Y-277.234
X-248.563 Y-276.75
X-246.984 Y-276.229
X-245.417 Y-275.671
X-243.864 Y-275.077
X-242.326 Y-274.447
X-240.802 Y-273.781
X-239.294 Y-273.08
X-237.804 Y-272.344
X-236.33 Y-271.573
X-234.875 Y-270.768
X-233.439 Y-269.93
X-232.023 Y-269.059
X-230.627 Y-268.156
X-229.252 Y-267.22
X-227.899 Y-266.254
X-226.569 Y-265.256
X-225.262 Y-264.228
X-223.979 Y-263.17
X-222.721 Y-262.083
X-221.489 Y-260.967
X-220.282 Y-259.823
X-219.102 Y-258.651
X-217.95 Y-257.453
X-216.825 Y-256.228
X-215.729 Y-254.978
X-214.661 Y-253.703
X-213.623 Y-252.404
X-212.615 Y-251.082
X-211.637 Y-249.737
X-210.691 Y-248.37
X-209.776 Y-246.982
X-208.893 Y-245.573
X-208.043 Y-244.144
X-207.226 Y-242.696
X-206.442 Y-241.229
X-205.692 Y-239.745
X-204.977 Y-238.244
X-204.295 Y-236.727
X-203.649 Y-235.195
X-203.038 Y-233.649
X-202.462 Y-232.089
X-201.923 Y-230.516
X-201.419 Y-228.932
X-200.951 Y-227.336
X-200.521 Y-225.73
X-200.127 Y-224.114
X-199.771 Y-222.49
X-199.452 Y-220.858
X-199.171 Y-219.219
X-198.928 Y-217.575
X-198.722 Y-215.925
X-198.554 Y-214.27
X-198.424 Y-212.613
X-198.332 Y-210.952
X-198.278 Y-209.291
X-198.262 Y-207.628
X-198.284 Y-205.965
X-198.344 Y-204.304
X-198.443 Y-202.644
X-198.58 Y-200.987
X-198.756 Y-199.333
X-198.969 Y-197.684
X-199.22 Y-196.041
X-199.509 Y-194.403
X-199.835 Y-192.773
X-200.199 Y-191.15
X-200.599 Y-189.536
X-201.037 Y-187.932
X-201.511 Y-186.339
X-202.022 Y-184.756
X-202.568 Y-183.186
X-203.152 Y-181.629
X-203.771 Y-180.085
X-204.425 Y-178.557
X-205.115 Y-177.044
X-205.839 Y-175.547
X-206.597 Y-174.067
X-207.389 Y-172.605
X-208.214 Y-171.162
X-209.072 Y-169.738
X-209.963 Y-168.333
X-210.885 Y-166.95
X-211.839 Y-165.588
X-212.824 Y-164.248
X-213.839 Y-162.932
X-214.885 Y-161.639
X-215.961 Y-160.371
X-217.065 Y-159.127
X-218.197 Y-157.91
X-219.357 Y-156.718
X-220.544 Y-155.554
X-221.757 Y-154.417
X-222.996 Y-153.308
X-224.259 Y-152.227
X-225.547 Y-151.176
X-226.859 Y-150.154
X-228.194 Y-149.162
X-229.551 Y-148.201
X-230.93 Y-147.272
X-232.33 Y-146.375
X-233.75 Y-145.51
X-235.189 Y-144.678
X-236.647 Y-143.878
X-238.123 Y-143.112
X-239.616 Y-142.38
X-241.125 Y-141.682
X-242.65 Y-141.019
X-244.189 Y-140.39
X-245.742 Y-139.796
X-247.308 Y-139.237
X-248.887 Y-138.715
X-250.477 Y-138.228
X-252.077 Y-137.778
X-253.688 Y-137.365
X-255.307 Y-136.988
X-256.935 Y-136.648
X-258.57 Y-136.345
X-260.211 Y-136.079
X-261.858 Y-135.851
X-263.51 Y-135.659
X-265.166 Y-135.505
X-266.824 Y-135.387
X-268.485 Y-135.308
X-270.147 Y-135.266
X-271.81 Y-135.261
X-273.472 Y-135.295
X-275.134 Y-135.366
X-276.793 Y-135.475
X-278.449 Y-135.621
X-280.102 Y-135.804
X-281.75 Y-136.024
X-283.393 Y-136.281
X-285.029 Y-136.575
X-286.659 Y-136.905
X-288.281 Y-137.272
X-289.894 Y-137.675
X-291.497 Y-138.115
X-293.091 Y-138.59
X-294.673 Y-139.101
X-296.243 Y-139.648
X-297.801 Y-140.229
X-299.345 Y-140.846
X-300.875 Y-141.497
X-302.391 Y-142.182
X-303.89 Y-142.9
X-305.373 Y-143.652
X-306.839 Y-144.437
X-308.287 Y-145.254
X-309.717 Y-146.103
X-311.127 Y-146.984
X-312.517 Y-147.896
X-313.887 Y-148.839
X-315.235 Y-149.812
X-316.56 Y-150.816
X-317.863 Y-151.849
X-319.143 Y-152.91
X-320.399 Y-154
X-321.63 Y-155.118
X-322.836 Y-156.262
X-324.017 Y-157.433
X-325.171 Y-158.63
X-326.299 Y-159.852
X-327.399 Y-161.099
X-328.471 Y-162.37
X-329.514 Y-163.665
X-330.528 Y-164.982
X-331.513 Y-166.322
X-332.467 Y-167.684
X-333.392 Y-169.066
X-334.285 Y-170.468
X-335.147 Y-171.89
X-335.977 Y-173.331
X-336.775 Y-174.79
X-337.541 Y-176.266
X-338.274 Y-177.758
X-338.973 Y-179.266
X-339.64 Y-180.79
X-340.272 Y-182.328
X-340.87 Y-183.879
X-341.433 Y-185.444
X-341.961 Y-187.02
X-342.454 Y-188.608
X-342.912 Y-190.207
X-343.335 Y-191.815
X-343.722 Y-193.432
X-344.073 Y-195.057
X-344.388 Y-196.69
X-344.667 Y-198.329
X-344.91 Y-199.974
X-345.117 Y-201.624
X-345.287 Y-203.278
X-345.421 Y-204.935
X-345.517 Y-206.595
X-345.577 Y-208.257
X-345.6 Y-209.919
X-345.586 Y-211.582
X-345.535 Y-213.244
X-345.448 Y-214.904
X-345.325 Y-216.563
X-345.164 Y-218.218
X-344.968 Y-219.869
X-344.735 Y-221.515
X-344.466 Y-223.156
X-344.161 Y-224.79
X-343.82 Y-226.418
X-343.443 Y-228.037
X-343.03 Y-229.648
X-342.581 Y-231.249
X-342.098 Y-232.84
X-341.579 Y-234.42
X-341.026 Y-235.988
X-340.438 Y-237.543
X-339.816 Y-239.085
X-339.16 Y-240.613
X-338.471 Y-242.127
X-337.749 Y-243.624
X-336.995 Y-245.106
X-336.208 Y-246.571
X-335.388 Y-248.017
X-334.537 Y-249.446
X-333.654 Y-250.855
X-332.741 Y-252.244
X-331.797 Y-253.613
X-330.823 Y-254.961
X-329.82 Y-256.287
X-328.787 Y-257.59
X-327.727 Y-258.871
X-326.638 Y-260.128
X-325.523 Y-261.361
X-324.38 Y-262.569
X-323.211 Y-263.751
X-322.017 Y-264.908
X-320.797 Y-266.038
X-319.552 Y-267.141
X-318.284 Y-268.215
X-316.992 Y-269.262
X-315.677 Y-270.28
X-314.34 Y-271.269
X-312.982 Y-272.228
X-311.603 Y-273.157
X-310.204 Y-274.056
X-308.786 Y-274.923
X-307.348 Y-275.76
X-305.893 Y-276.564
X-304.421 Y-277.337
X-302.932 Y-278.077
X-301.427 Y-278.784
X-299.907 Y-279.457
X-298.372 Y-280.096
X-296.823 Y-280.702
X-295.262 Y-281.274
X-293.688 Y-281.811
X-292.103 Y-282.313
X-290.507 Y-282.781
X-288.902 Y-283.213
X-287.287 Y-283.61
X-285.664 Y-283.972
X-284.034 Y-284.298
X-282.397 Y-284.589
X-280.754 Y-284.843
X-279.105 Y-285.061
X-277.452 Y-285.243
X-275.796 Y-285.388
X-274.137 Y-285.497
X-272.476 Y-285.569
X-270.813 Y-285.606
X-269.151
X-267.488 Y-285.57
X-265.827 Y-285.497
X-264.168 Y-285.388
X-262.511 Y-285.244
X-260.858 Y-285.063
X-259.21 Y-284.847
X-257.566 Y-284.594
X-255.929 Y-284.305
X-254.298 Y-283.981
X-252.675 Y-283.621
X-251.06 Y-283.226
X-249.453 Y-282.796
X-247.857 Y-282.332
X-246.271 Y-281.833
X-244.696 Y-281.3
X-243.132 Y-280.733
X-241.582 Y-280.133
X-240.045 Y-279.499
X-238.521 Y-278.832
X-237.013 Y-278.133
X-235.52 Y-277.401
X-234.043 Y-276.637
X-232.583 Y-275.841
X-231.141 Y-275.014
X-229.717 Y-274.156
X-228.311 Y-273.268
X-226.925 Y-272.349
X-225.558 Y-271.402
X-224.213 Y-270.425
X-222.888 Y-269.42
X-221.585 Y-268.387
X-220.305 Y-267.326
X-219.048 Y-266.238
X-217.814 Y-265.124
X-216.604 Y-263.983
X-215.419 Y-262.816
X-214.259 Y-261.625
X-213.125 Y-260.409
X-212.018 Y-259.168
X-210.937 Y-257.905
X-209.883 Y-256.619
X-208.857 Y-255.311
X-207.858 Y-253.981
X-206.888 Y-252.63
X-205.948 Y-251.259
X-205.036 Y-249.869
X-204.154 Y-248.459
X-203.303 Y-247.031
X-202.482 Y-245.585
X-201.692 Y-244.122
X-200.934 Y-242.642
X-200.207 Y-241.146
X-199.513 Y-239.635
X-198.851 Y-238.11
X-198.221 Y-236.571
X-197.624 Y-235.019
X-197.06 Y-233.455
X-196.53 Y-231.879
X-196.033 Y-230.292
X-195.57 Y-228.695
X-195.141 Y-227.089
X-194.746 Y-225.474
X-194.386 Y-223.851
X-194.061 Y-222.22
X-193.771 Y-220.583
X-193.516 Y-218.94
X-193.296 Y-217.291
X-193.111 Y-215.639
X-192.961 Y-213.983
X-192.846 Y-212.324
X-192.767 Y-210.663
X-192.723 Y-209.001
X-192.715 Y-207.338
X-192.742 Y-205.676
X-192.804 Y-204.014
X-192.902 Y-202.354
X-193.035 Y-200.697
X-193.204 Y-199.043
X-193.408 Y-197.393
X-193.648 Y-195.747
X-193.922 Y-194.107
X-194.232 Y-192.474
X-194.576 Y-190.847
X-194.955 Y-189.228
X-195.368 Y-187.617
X-195.816 Y-186.016
X-196.297 Y-184.424
X-196.812 Y-182.844
X-197.361 Y-181.274
X-197.943 Y-179.716
X-198.558 Y-178.172
X-199.207 Y-176.641
X-199.888 Y-175.124
X-200.602 Y-173.622
X-201.347 Y-172.136
X-202.124 Y-170.666
X-202.932 Y-169.213
X-203.771 Y-167.777
X-204.64 Y-166.359
X-205.539 Y-164.961
X-206.468 Y-163.582
X-207.426 Y-162.222
X-208.413 Y-160.884
X-209.427 Y-159.567
X-210.47 Y-158.272
X-211.54 Y-156.999
X-212.638 Y-155.75
X-213.762 Y-154.524
X-214.911 Y-153.323
X-216.086 Y-152.147
X-217.286 Y-150.995
X-218.51 Y-149.87
X-219.757 Y-148.77
X-221.028 Y-147.698
X-222.32 Y-146.652
X-223.635 Y-145.634
X-224.971 Y-144.644
X-226.328 Y-143.683
X-227.705 Y-142.751
X-229.101 Y-141.848
X-230.517 Y-140.976
X-231.951 Y-140.134
X-233.402 Y-139.322
X-234.87 Y-138.542
X-236.354 Y-137.792
X-237.854 Y-137.074
X-239.369 Y-136.388
X-240.897 Y-135.734
X-242.439 Y-135.112
X-243.994 Y-134.523
X-245.561 Y-133.967
X-247.14 Y-133.444
X-248.729 Y-132.955
X-250.328 Y-132.499
X-251.936 Y-132.078
X-253.553 Y-131.691
X-255.178 Y-131.338
X-256.81 Y-131.019
X-258.449 Y-130.735
X-260.092 Y-130.485
X-261.741 Y-130.269
X-263.394 Y-130.088
X-265.05 Y-129.942
X-266.709 Y-129.831
X-268.37 Y-129.754
X-270.033 Y-129.713
X-271.695 Y-129.706
X-273.358 Y-129.734
X-275.019 Y-129.797
X-276.679 Y-129.896
X-278.337 Y-130.029
X-279.991 Y-130.197
X-281.641 Y-130.399
X-283.287 Y-130.636
X-284.928 Y-130.908
X-286.562 Y-131.213
X-288.19 Y-131.552
X-289.81 Y-131.925
X-291.422 Y-132.332
X-293.026 Y-132.772
X-294.62 Y-133.246
X-296.203 Y-133.753
X-297.776 Y-134.293
X-299.337 Y-134.866
X-300.885 Y-135.471
X-302.421 Y-136.109
X-303.943 Y-136.779
X-305.451 Y-137.479
X-306.944 Y-138.212
X-308.421 Y-138.974
X-309.882 Y-139.768
X-311.327 Y-140.591
X-312.754 Y-141.444
X-314.163 Y-142.327
X-315.554 Y-143.239
X-316.925 Y-144.179
X-318.276 Y-145.148
X-319.607 Y-146.145
X-320.917 Y-147.169
X-322.205 Y-148.22
X-323.471 Y-149.298
X-324.715 Y-150.402
X-325.935 Y-151.531
X-327.132 Y-152.686
X-328.305 Y-153.864
X-329.453 Y-155.067
X-330.576 Y-156.293
X-331.674 Y-157.542
X-332.745 Y-158.813
X-333.79 Y-160.107
X-334.808 Y-161.421
X-335.799 Y-162.757
X-336.761 Y-164.113
X-337.695 Y-165.489
X-338.601 Y-166.883
X-339.477 Y-168.296
X-340.324 Y-169.727
X-341.142 Y-171.175
X-341.929 Y-172.639
X-342.687 Y-174.12
X-343.413 Y-175.615
X-344.109 Y-177.125
X-344.773 Y-178.65
X-345.406 Y-180.187
X-346.008 Y-181.737
X-346.576 Y-183.3
X-347.113 Y-184.874
X-347.616 Y-186.458
X-348.087 Y-188.053
X-348.525 Y-189.657
X-348.929 Y-191.27
X-349.301 Y-192.891
X-349.639 Y-194.519
X-349.943 Y-196.153
X-350.214 Y-197.794
X-350.452 Y-199.44
X-350.655 Y-201.09
X-350.825 Y-202.744
X-350.96 Y-204.401
X-351.061 Y-206.061
X-351.128 Y-207.722
X-351.161 Y-209.385
X-351.159 Y-211.047
X-351.123 Y-212.71
X-351.052 Y-214.371
X-350.948 Y-216.031
X-350.809 Y-217.688
X-350.637 Y-219.341
X-350.431 Y-220.991
X-350.191 Y-222.637
X-349.918 Y-224.277
X-349.611 Y-225.911
X-349.27 Y-227.538
X-348.896 Y-229.159
X-348.489 Y-230.771
X-348.048 Y-232.374
X-347.575 Y-233.968
X-347.069 Y-235.552
X-346.53 Y-237.125
X-345.959 Y-238.686
X-345.356 Y-240.236
X-344.722 Y-241.773
X-344.056 Y-243.297
X-343.36 Y-244.807
X-342.632 Y-246.302
X-341.874 Y-247.782
X-341.086 Y-249.246
X-340.269 Y-250.694
X-339.421 Y-252.124
X-338.544 Y-253.537
X-337.638 Y-254.931
X-336.704 Y-256.307
X-335.742 Y-257.663
X-334.752 Y-258.999
X-333.734 Y-260.314
X-332.69 Y-261.608
X-331.62 Y-262.881
X-330.525 Y-264.131
X-329.403 Y-265.359
X-328.257 Y-266.564
X-327.087 Y-267.745
X-325.892 Y-268.902
X-324.675 Y-270.034
X-323.434 Y-271.14
X-322.17 Y-272.221
X-320.884 Y-273.276
X-319.578 Y-274.304
X-318.25 Y-275.305
X-316.902 Y-276.278
X-315.534 Y-277.224
X-314.147 Y-278.141
X-312.742 Y-279.03
X-311.319 Y-279.891
X-309.879 Y-280.722
X-308.422 Y-281.523
X-306.949 Y-282.294
X-305.461 Y-283.035
X-303.957 Y-283.746
X-302.44 Y-284.425
X-300.908 Y-285.073
X-299.364 Y-285.689
X-297.807 Y-286.273
X-296.239 Y-286.826
X-294.66 Y-287.346
X-293.07 Y-287.834
X-291.471 Y-288.289
X-289.863 Y-288.712
X-288.246 Y-289.101
X-286.622 Y-289.458
X-284.991 Y-289.782
X-283.354 Y-290.072
X-281.711 Y-290.329
X-280.064 Y-290.552
X-278.412 Y-290.741
X-276.756 Y-290.896
X-275.098 Y-291.017
X-273.437 Y-291.104
X-271.775 Y-291.158
X-270.113 Y-291.177
X-268.45 Y-291.163
X-266.788 Y-291.115
X-265.127 Y-291.034
X-263.469 Y-290.918
X-261.812 Y-290.77
X-260.16 Y-290.587
X-258.511 Y-290.371
X-256.867 Y-290.122
X-255.229 Y-289.839
X-253.596 Y-289.523
X-251.97 Y-289.174
X-250.352 Y-288.792
X-248.742 Y-288.377
X-247.141 Y-287.929
X-245.549 Y-287.45
X-243.967 Y-286.938
X-242.395 Y-286.395
X-240.835 Y-285.82
X-239.286 Y-285.214
X-237.75 Y-284.577
X-236.228 Y-283.91
X-234.718 Y-283.212
X-233.224 Y-282.483
X-231.744 Y-281.725
X-230.28 Y-280.937
X-228.832 Y-280.119
X-227.401 Y-279.273
X-225.987 Y-278.398
X-224.591 Y-277.495
X-223.213 Y-276.564
X-221.854 Y-275.605
X-220.515 Y-274.62
X-219.195 Y-273.609
X-217.896 Y-272.571
X-216.617 Y-271.508
X-215.36 Y-270.42
X-214.125 Y-269.306
X-212.913 Y-268.169
X-211.723 Y-267.007
X-210.557 Y-265.821
X-209.415 Y-264.613
X-208.298 Y-263.381
X-207.205 Y-262.128
X-206.137 Y-260.853
X-205.095 Y-259.558
X-204.079 Y-258.242
X-203.089 Y-256.906
X-202.126 Y-255.551
X-201.189 Y-254.177
X-200.281 Y-252.784
X-199.399 Y-251.374
X-198.547 Y-249.947
X-197.722 Y-248.503
X-196.927 Y-247.042
X-196.161 Y-245.567
X-195.425 Y-244.076
X-194.718 Y-242.57
X-194.042 Y-241.051
X-193.396 Y-239.519
X-192.781 Y-237.975
X-192.196 Y-236.418
X-191.642 Y-234.85
X-191.119 Y-233.272
X-190.628 Y-231.684
X-190.168 Y-230.086
X-189.74 Y-228.479
X-189.343 Y-226.864
X-188.98 Y-225.242
X-188.648 Y-223.612
X-188.35 Y-221.976
X-188.084 Y-220.335
X-187.851 Y-218.689
X-187.651 Y-217.038
X-187.483 Y-215.384
X-187.349 Y-213.727
X-187.247 Y-212.067
X-187.178 Y-210.406
X-187.143 Y-208.743
X-187.14 Y-207.08
X-187.17 Y-205.418
X-187.233 Y-203.756
X-187.329 Y-202.096
X-187.459 Y-200.439
X-187.621 Y-198.784
X-187.817 Y-197.133
X-188.046 Y-195.486
X-188.308 Y-193.844
X-188.602 Y-192.207
X-188.929 Y-190.577
X-189.288 Y-188.953
X-189.679 Y-187.337
X-190.102 Y-185.729
X-190.557 Y-184.13
X-191.044 Y-182.54
X-191.563 Y-180.96
X-192.112 Y-179.391
X-192.693 Y-177.833
X-193.304 Y-176.287
X-193.947 Y-174.753
X-194.62 Y-173.233
X-195.324 Y-171.726
X-196.057 Y-170.234
X-196.82 Y-168.757
X-197.613 Y-167.295
X-198.434 Y-165.849
X-199.284 Y-164.42
X-200.162 Y-163.008
X-201.067 Y-161.613
X-202.001 Y-160.237
X-202.961 Y-158.88
X-203.948 Y-157.542
X-204.962 Y-156.224
X-206.001 Y-154.926
X-207.066 Y-153.649
X-208.157 Y-152.394
X-209.273 Y-151.161
X-210.413 Y-149.951
X-211.576 Y-148.763
X-212.764 Y-147.599
X-213.973 Y-146.458
X-215.206 Y-145.342
X-216.46 Y-144.25
X-217.735 Y-143.183
X-219.032 Y-142.142
X-220.348 Y-141.127
X-221.685 Y-140.137
X-223.04 Y-139.175
X-224.415 Y-138.239
X-225.808 Y-137.331
X-227.219 Y-136.451
X-228.647 Y-135.6
X-230.092 Y-134.776
X-231.552 Y-133.982
X-233.028 Y-133.217
X-234.519 Y-132.48
X-236.024 Y-131.774
X-237.543 Y-131.097
X-239.075 Y-130.45
X-240.619 Y-129.834
X-242.175 Y-129.247
X-243.742 Y-128.692
X-245.32 Y-128.168
X-246.908 Y-127.675
X-248.506 Y-127.213
X-250.112 Y-126.783
X-251.726 Y-126.386
X-253.348 Y-126.02
X-254.977 Y-125.686
X-256.612 Y-125.384
X-258.253 Y-125.115
X-259.899 Y-124.877
X-261.549 Y-124.672
X-263.203 Y-124.499
X-264.86 Y-124.359
X-266.519 Y-124.251
X-268.18 Y-124.175
X-269.842 Y-124.132
X-271.505 Y-124.122
X-273.167 Y-124.144
X-274.829 Y-124.2
X-276.49 Y-124.288
X-278.148 Y-124.409
X-279.804 Y-124.562
X-281.456 Y-124.747
X-283.104 Y-124.965
X-284.748 Y-125.215
X-286.387 Y-125.496
X-288.02 Y-125.81
X-289.646 Y-126.155
X-291.266 Y-126.532
X-292.878 Y-126.941
X-294.481 Y-127.38
X-296.076 Y-127.851
X-297.661 Y-128.353
X-299.236 Y-128.886
X-300.8 Y-129.45
X-302.353 Y-130.044
X-303.894 Y-130.669
X-305.423 Y-131.323
X-306.939 Y-132.007
X-308.441 Y-132.72
X-309.928 Y-133.463
X-311.402 Y-134.233
X-312.86 Y-135.033
X-314.302 Y-135.86
X-315.728 Y-136.715
X-317.137 Y-137.598
X-318.529 Y-138.508
X-319.903 Y-139.444
X-321.258 Y-140.408
X-322.594 Y-141.397
X-323.911 Y-142.413
X-325.207 Y-143.454
X-326.484 Y-144.52
X-327.739 Y-145.61
X-328.973 Y-146.725
X-330.185 Y-147.863
X-331.375 Y-149.024
X-332.542 Y-150.208
X-333.687 Y-151.414
X-334.808 Y-152.642
X-335.905 Y-153.892
X-336.978 Y-155.162
X-338.025 Y-156.453
X-339.048 Y-157.764
X-340.045 Y-159.095
X-341.016 Y-160.445
X-341.96 Y-161.814
X-342.878 Y-163.2
X-343.768 Y-164.604
X-344.632 Y-166.025
X-345.468 Y-167.463
X-346.276 Y-168.916
X-347.056 Y-170.384
X-347.808 Y-171.867
X-348.531 Y-173.365
X-349.225 Y-174.875
X-349.89 Y-176.399
X-350.526 Y-177.936
X-351.132 Y-179.484
X-351.707 Y-181.044
X-352.252 Y-182.615
X-352.766 Y-184.197
X-353.25 Y-185.787
X-353.703 Y-187.387
X-354.125 Y-188.995
X-354.517 Y-190.612
X-354.877 Y-192.235
X-355.206 Y-193.865
X-355.503 Y-195.501
X-355.769 Y-197.142
X-356.004 Y-198.788
X-356.207 Y-200.438
X-356.379 Y-202.092
X-356.518 Y-203.749
X-356.625 Y-205.408
X-356.7 Y-207.069
X-356.743 Y-208.732
X-356.754 Y-210.394
X-356.732 Y-212.057
X-356.679 Y-213.719
X-356.594 Y-215.379
X-356.477 Y-217.038
X-356.328 Y-218.694
X-356.148 Y-220.347
X-355.936 Y-221.996
X-355.693 Y-223.641
X-355.418 Y-225.281
X-355.111 Y-226.915
X-354.774 Y-228.543
X-354.405 Y-230.165
X-354.004 Y-231.779
X-353.573 Y-233.384
X-353.11 Y-234.981
X-352.617 Y-236.569
X-352.093 Y-238.148
X-351.54 Y-239.715
X-350.956 Y-241.272
X-350.343 Y-242.818
X-349.7 Y-244.351
X-349.028 Y-245.872
X-348.327 Y-247.38
X-347.597 Y-248.874
X-346.839 Y-250.354
X-346.053 Y-251.819
X-345.238 Y-253.269
X-344.396 Y-254.702
X-343.526 Y-256.119
X-342.629 Y-257.519
X-341.705 Y-258.902
X-340.755 Y-260.266
X-339.779 Y-261.612
X-338.777 Y-262.939
X-337.75 Y-264.247
X-336.698 Y-265.535
X-335.622 Y-266.802
X-334.521 Y-268.049
X-333.398 Y-269.274
X-332.25 Y-270.478
X-331.081 Y-271.659
X-329.888 Y-272.818
X-328.674 Y-273.954
X-327.438 Y-275.066
X-326.18 Y-276.154
X-324.902 Y-277.217
X-323.603 Y-278.256
X-322.285 Y-279.27
X-320.948 Y-280.258
X-319.592 Y-281.22
X-318.218 Y-282.156
X-316.826 Y-283.066
X-315.417 Y-283.95
X-313.992 Y-284.806
X-312.551 Y-285.634
X-311.094 Y-286.436
X-309.621 Y-287.209
X-308.135 Y-287.953
X-306.634 Y-288.669
X-305.12 Y-289.356
X-303.592 Y-290.013
X-302.053 Y-290.641
X-300.501 Y-291.239
X-298.939 Y-291.808
X-297.365 Y-292.346
X-295.782 Y-292.854
X-294.19 Y-293.332
X-292.588 Y-293.78
X-290.979 Y-294.197
X-289.362 Y-294.583
X-287.737 Y-294.938
X-286.106 Y-295.263
X-284.47 Y-295.556
X-282.828 Y-295.818
X-281.181 Y-296.048
X-279.53 Y-296.246
X-277.876 Y-296.412
X-276.218 Y-296.547
X-274.559 Y-296.65
X-272.897 Y-296.721
X-271.235 Y-296.761
X-269.572 Y-296.769
X-267.91 Y-296.746
X-266.248 Y-296.691
X-264.588 Y-296.605
X-262.929 Y-296.487
X-261.273 Y-296.338
X-259.62 Y-296.157
X-257.971 Y-295.945
X-256.326 Y-295.702
X-254.686 Y-295.427
X-253.052 Y-295.121
X-251.424 Y-294.783
X-249.802 Y-294.415
X-248.188 Y-294.016
X-246.582 Y-293.587
X-244.984 Y-293.128
X-243.395 Y-292.638
X-241.815 Y-292.119
X-240.245 Y-291.57
X-238.687 Y-290.991
X-237.139 Y-290.384
X-235.603 Y-289.747
X-234.079 Y-289.082
X-232.568 Y-288.388
X-231.07 Y-287.665
X-229.587 Y-286.914
X-228.118 Y-286.135
X-226.664 Y-285.329
X-225.225 Y-284.495
X-223.802 Y-283.635
X-222.396 Y-282.748
X-221.006 Y-281.834
X-219.634 Y-280.895
X-218.28 Y-279.931
X-216.943 Y-278.941
X-215.626 Y-277.927
X-214.327 Y-276.888
X-213.049 Y-275.826
X-211.79 Y-274.739
X-210.552 Y-273.629
X-209.335 Y-272.496
X-208.139 Y-271.341
X-206.966 Y-270.163
X-205.814 Y-268.963
X-204.686 Y-267.742
X-203.58 Y-266.5
X-202.498 Y-265.238
X-201.439 Y-263.956
X-200.405 Y-262.654
X-199.395 Y-261.333
X-198.409 Y-259.994
X-197.448 Y-258.637
X-196.513 Y-257.262
X-195.604 Y-255.87
X-194.72 Y-254.461
X-193.863 Y-253.037
X-193.033 Y-251.596
X-192.23 Y-250.14
X-191.455 Y-248.669
X-190.707 Y-247.184
X-189.987 Y-245.685
X-189.295 Y-244.173
X-188.631 Y-242.648
X-187.996 Y-241.112
X-187.39 Y-239.564
X-186.812 Y-238.005
X-186.263 Y-236.435
X-185.743 Y-234.856
X-185.253 Y-233.267
X-184.792 Y-231.669
X-184.361 Y-230.063
X-183.961 Y-228.449
X-183.59 Y-226.828
X-183.25 Y-225.201
X-182.941 Y-223.567
X-182.663 Y-221.928
X-182.415 Y-220.284
X-182.197 Y-218.635
X-182.011 Y-216.983
X-181.855 Y-215.327
X-181.73 Y-213.669
X-181.635 Y-212.009
X-181.572 Y-210.348
X-181.539 Y-208.685
X-181.538 Y-207.023
X-181.567 Y-205.36
X-181.627 Y-203.698
X-181.718 Y-202.038
X-181.841 Y-200.38
X-181.995 Y-198.724
X-182.179 Y-197.072
X-182.395 Y-195.423
X-182.642 Y-193.779
X-182.919 Y-192.139
X-183.226 Y-190.505
X-183.564 Y-188.877
X-183.932 Y-187.256
X-184.331 Y-185.641
X-184.759 Y-184.035
X-185.217 Y-182.436
X-185.704 Y-180.847
X-186.221 Y-179.266
X-186.768 Y-177.696
X-187.344 Y-176.136
X-187.949 Y-174.587
X-188.583 Y-173.05
X-189.246 Y-171.525
X-189.937 Y-170.013
X-190.657 Y-168.514
X-191.404 Y-167.029
X-192.179 Y-165.558
X-192.981 Y-164.101
X-193.81 Y-162.66
X-194.666 Y-161.234
X-195.548 Y-159.824
X-196.456 Y-158.432
X-197.389 Y-157.056
X-198.348 Y-155.697
X-199.333 Y-154.357
X-200.342 Y-153.036
X-201.376 Y-151.734
X-202.434 Y-150.451
X-203.516 Y-149.188
X-204.621 Y-147.946
X-205.75 Y-146.725
X-206.901 Y-145.525
X-208.074 Y-144.347
X-209.268 Y-143.19
X-210.484 Y-142.056
X-211.721 Y-140.945
X-212.978 Y-139.856
X-214.255 Y-138.791
X-215.552 Y-137.75
X-216.867 Y-136.733
X-218.201 Y-135.741
X-219.554 Y-134.774
X-220.924 Y-133.832
X-222.312 Y-132.916
X-223.717 Y-132.027
X-225.138 Y-131.163
X-226.575 Y-130.326
X-228.027 Y-129.516
X-229.494 Y-128.733
X-230.975 Y-127.977
X-232.469 Y-127.249
X-233.977 Y-126.548
X-235.498 Y-125.876
X-237.031 Y-125.231
X-238.575 Y-124.615
X-240.13 Y-124.027
X-241.696 Y-123.468
X-243.272 Y-122.938
X-244.858 Y-122.438
X-246.453 Y-121.968
X-248.056 Y-121.527
X-249.667 Y-121.116
X-251.286 Y-120.735
X-252.911 Y-120.384
X-254.543 Y-120.062
X-256.18 Y-119.771
X-257.822 Y-119.51
X-259.468 Y-119.279
X-261.119 Y-119.079
X-262.773 Y-118.908
X-264.43 Y-118.768
X-266.089 Y-118.659
X-267.75 Y-118.58
X-269.412 Y-118.531
X-271.075 Y-118.514
X-272.737 Y-118.527
X-274.399 Y-118.571
X-276.06 Y-118.646
X-277.72 Y-118.751
X-279.377 Y-118.887
X-281.032 Y-119.053
X-282.683 Y-119.25
X-284.33 Y-119.476
X-285.973 Y-119.733
X-287.611 Y-120.019
X-289.243 Y-120.336
X-290.869 Y-120.682
X-292.489 Y-121.057
X-294.102 Y-121.462
X-295.707 Y-121.897
X-297.303 Y-122.361
X-298.891 Y-122.855
X-300.47 Y-123.378
X-302.038 Y-123.929
X-303.596 Y-124.51
X-305.144 Y-125.119
X-306.68 Y-125.756
X-308.204 Y-126.42
X-309.715 Y-127.113
X-311.214 Y-127.832
X-312.7 Y-128.579
X-314.172 Y-129.353
X-315.629 Y-130.153
X-317.072 Y-130.98
X-318.499 Y-131.833
X-319.911 Y-132.711
X-321.306 Y-133.616
X-322.685 Y-134.546
X-324.046 Y-135.501
X-325.389 Y-136.48
X-326.714 Y-137.485
X-328.021 Y-138.513
X-329.309 Y-139.565
X-330.578 Y-140.64
X-331.826 Y-141.737
X-333.055 Y-142.857
X-334.263 Y-144
X-335.451 Y-145.164
X-336.617 Y-146.349
X-337.762 Y-147.555
X-338.884 Y-148.782
X-339.984 Y-150.028
X-341.062 Y-151.295
X-342.115 Y-152.581
X-343.145 Y-153.887
X-344.151 Y-155.21
X-345.133 Y-156.552
X-346.09 Y-157.912
X-347.023 Y-159.289
X-347.93 Y-160.682
X-348.812 Y-162.092
X-349.668 Y-163.517
X-350.499 Y-164.957
X-351.303 Y-166.413
X-352.081 Y-167.882
X-352.833 Y-169.365
X-353.557 Y-170.862
X-354.255 Y-172.371
X-354.924 Y-173.893
X-355.566 Y-175.427
X-356.18 Y-176.973
X-356.766 Y-178.529
X-357.323 Y-180.095
X-357.851 Y-181.672
X-358.351 Y-183.258
X-358.823 Y-184.852
X-359.265 Y-186.455
X-359.678 Y-188.066
X-360.063 Y-189.683
X-360.418 Y-191.308
X-360.744 Y-192.938
X-361.04 Y-194.574
X-361.307 Y-196.216
X-361.545 Y-197.861
X-361.752 Y-199.511
X-361.93 Y-201.164
X-362.077 Y-202.82
X-362.194 Y-204.479
X-362.281 Y-206.14
X-362.338 Y-207.801
X-362.365 Y-209.464
X-362.362 Y-211.127
X-362.329 Y-212.789
X-362.266 Y-214.451
X-362.173 Y-216.111
X-362.05 Y-217.769
X-361.897 Y-219.425
X-361.715 Y-221.077
X-361.503 Y-222.727
X-361.262 Y-224.372
X-360.99 Y-226.012
X-360.69 Y-227.648
X-360.359 Y-229.277
X-359.999 Y-230.9
X-359.609 Y-232.517
X-359.191 Y-234.126
X-358.743 Y-235.727
X-358.266 Y-237.32
X-357.761 Y-238.904
X-357.227 Y-240.479
X-356.665 Y-242.044
X-356.075 Y-243.599
X-355.457 Y-245.142
X-354.812 Y-246.675
X-354.139 Y-248.195
X-353.44 Y-249.704
X-352.713 Y-251.199
X-351.959 Y-252.681
X-351.178 Y-254.149
X-350.371 Y-255.603
X-349.538 Y-257.042
X-348.678 Y-258.465
X-347.794 Y-259.873
X-346.883 Y-261.265
X-345.948 Y-262.639
X-344.988 Y-263.997
X-344.005 Y-265.338
X-342.997 Y-266.66
X-341.965 Y-267.964
X-340.911 Y-269.25
X-339.833 Y-270.516
X-338.733 Y-271.763
X-337.611 Y-272.99
X-336.467 Y-274.197
X-335.301 Y-275.382
X-334.114 Y-276.547
X-332.906 Y-277.689
X-331.677 Y-278.81
X-330.429 Y-279.908
X-329.161 Y-280.983
X-327.873 Y-282.035
X-326.567 Y-283.064
X-325.243 Y-284.069
X-323.9 Y-285.051
X-322.541 Y-286.008
X-321.164 Y-286.941
X-319.771 Y-287.848
X-318.362 Y-288.731
X-316.937 Y-289.589
X-315.498 Y-290.42
X-314.043 Y-291.226
X-312.574 Y-292.005
X-311.091 Y-292.757
X-309.595 Y-293.482
X-308.086 Y-294.18
X-306.564 Y-294.851
X-305.031 Y-295.494
X-303.486 Y-296.11
X-301.931 Y-296.697
X-300.365 Y-297.257
X-298.79 Y-297.789
X-297.205 Y-298.292
X-295.611 Y-298.767
X-294.01 Y-299.213
X-292.4 Y-299.631
X-290.783 Y-300.019
X-289.16 Y-300.379
X-287.53 Y-300.709
X-285.895 Y-301.01
X-284.255 Y-301.281
X-282.609 Y-301.522
X-280.96 Y-301.734
X-279.307 Y-301.916
X-277.652 Y-302.068
X-275.993 Y-302.191
X-274.333 Y-302.284
X-272.672 Y-302.347
X-271.009 Y-302.381
X-269.347 Y-302.385
X-267.684 Y-302.359
X-266.022 Y-302.304
X-264.362 Y-302.22
X-262.703 Y-302.105
X-261.046 Y-301.961
X-259.393 Y-301.788
X-257.742 Y-301.584
X-256.096 Y-301.351
X-254.454 Y-301.088
X-252.817 Y-300.796
X-251.186 Y-300.475
X-249.56 Y-300.125
X-247.941 Y-299.746
X-246.329 Y-299.338
X-244.725 Y-298.902
X-243.128 Y-298.437
X-241.54 Y-297.945
X-239.961 Y-297.424
X-238.392 Y-296.875
X-236.832 Y-296.299
X-235.282 Y-295.696
X-233.744 Y-295.065
X-232.217 Y-294.406
X-230.703 Y-293.72
X-229.2 Y-293.008
X-227.711 Y-292.268
X-226.235 Y-291.503
X-224.773 Y-290.711
X-223.325 Y-289.894
X-221.891 Y-289.051
X-220.473 Y-288.184
X-219.07 Y-287.291
X-217.683 Y-286.374
X-216.312 Y-285.433
X-214.958 Y-284.468
X-213.621 Y-283.479
X-212.302 Y-282.467
X-211.001 Y-281.432
X-209.718 Y-280.374
X-208.454 Y-279.294
X-207.21 Y-278.191
X-205.985 Y-277.066
X-204.78 Y-275.92
X-203.596 Y-274.753
X-202.432 Y-273.565
X-201.29 Y-272.357
X-200.169 Y-271.129
X-199.069 Y-269.882
X-197.991 Y-268.616
X-196.936 Y-267.331
X-195.903 Y-266.028
X-194.894 Y-264.707
X-193.907 Y-263.368
X-192.944 Y-262.013
X-192.005 Y-260.641
X-191.09 Y-259.252
X-190.2 Y-257.848
X-189.334 Y-256.428
X-188.494 Y-254.993
X-187.68 Y-253.543
X-186.891 Y-252.08
X-186.128 Y-250.603
X-185.39 Y-249.112
X-184.679 Y-247.609
X-183.994 Y-246.094
X-183.336 Y-244.567
X-182.705 Y-243.029
X-182.1 Y-241.48
X-181.523 Y-239.921
X-180.973 Y-238.352
X-180.45 Y-236.773
X-179.955 Y-235.186
X-179.488 Y-233.59
X-179.049 Y-231.986
X-178.639 Y-230.375
X-178.257 Y-228.756
X-177.904 Y-227.132
X-177.579 Y-225.501
X-177.283 Y-223.865
X-177.016 Y-222.223
X-176.778 Y-220.578
X-176.568 Y-218.928
X-176.387 Y-217.276
X-176.235 Y-215.62
X-176.112 Y-213.962
X-176.018 Y-212.301
X-175.953 Y-210.64
X-175.917 Y-208.978
X-175.91 Y-207.315
X-175.932 Y-205.652
X-175.984 Y-203.99
X-176.065 Y-202.33
X-176.176 Y-200.671
X-176.316 Y-199.014
X-176.485 Y-197.36
X-176.683 Y-195.709
X-176.91 Y-194.061
X-177.165 Y-192.418
X-177.45 Y-190.78
X-177.763 Y-189.147
X-178.104 Y-187.52
X-178.474 Y-185.899
X-178.872 Y-184.284
X-179.298 Y-182.677
X-179.752 Y-181.078
X-180.235 Y-179.486
X-180.745 Y-177.904
X-181.284 Y-176.331
X-181.85 Y-174.767
X-182.443 Y-173.214
X-183.064 Y-171.672
X-183.712 Y-170.14
X-184.387 Y-168.621
X-185.088 Y-167.113
X-185.816 Y-165.618
X-186.569 Y-164.136
X-187.349 Y-162.667
X-188.154 Y-161.212
X-188.984 Y-159.771
X-189.839 Y-158.345
X-190.719 Y-156.935
X-191.623 Y-155.539
X-192.552 Y-154.16
X-193.505 Y-152.798
X-194.482 Y-151.452
X-195.483 Y-150.124
X-196.507 Y-148.814
X-197.554 Y-147.522
X-198.623 Y-146.249
X-199.715 Y-144.995
X-200.828 Y-143.76
X-201.963 Y-142.544
X-203.119 Y-141.349
X-204.295 Y-140.174
X-205.492 Y-139.02
X-206.708 Y-137.886
X-207.945 Y-136.774
X-209.2 Y-135.684
X-210.474 Y-134.616
X-211.767 Y-133.57
X-213.078 Y-132.547
X-214.406 Y-131.547
X-215.753 Y-130.571
X-217.116 Y-129.619
X-218.495 Y-128.691
X-219.891 Y-127.787
X-221.302 Y-126.908
X-222.729 Y-126.053
X-224.169 Y-125.224
X-225.625 Y-124.419
X-227.094 Y-123.64
X-228.576 Y-122.887
X-230.071 Y-122.159
X-231.579 Y-121.458
X-233.098 Y-120.782
X-234.629 Y-120.133
X-236.171 Y-119.511
X-237.724 Y-118.916
X-239.286 Y-118.349
X-240.859 Y-117.809
X-242.441 Y-117.296
X-244.031 Y-116.812
X-245.63 Y-116.355
X-247.237 Y-115.926
X-248.85 Y-115.525
X-250.471 Y-115.152
X-252.097 Y-114.807
X-253.729 Y-114.49
X-255.367 Y-114.201
X-257.009 Y-113.941
X-258.656 Y-113.709
X-260.306 Y-113.506
X-261.96 Y-113.331
X-263.616 Y-113.184
X-265.274 Y-113.067
X-266.935 Y-112.979
X-268.597 Y-112.92
X-270.259 Y-112.89
X-271.922 Y-112.888
X-273.584 Y-112.916
X-275.246 Y-112.972
X-276.907 Y-113.057
X-278.566 Y-113.171
X-280.222 Y-113.313
X-281.876 Y-113.484
X-283.527 Y-113.683
X-285.174 Y-113.91
X-286.817 Y-114.166
X-288.456 Y-114.449
X-290.089 Y-114.761
X-291.716 Y-115.101
X-293.338 Y-115.47
X-294.953 Y-115.866
X-296.56 Y-116.291
X-298.16 Y-116.743
X-299.752 Y-117.223
X-301.336 Y-117.73
X-302.91 Y-118.265
X-304.475 Y-118.826
X-306.031 Y-119.414
X-307.575 Y-120.029
X-309.109 Y-120.671
X-310.632 Y-121.338
X-312.144 Y-122.032
X-313.643 Y-122.751
X-315.129 Y-123.496
X-316.603 Y-124.266
X-318.063 Y-125.061
X-319.51 Y-125.881
X-320.942 Y-126.726
X-322.359 Y-127.596
X-323.76 Y-128.49
X-325.147 Y-129.409
X-326.517 Y-130.351
X-327.871 Y-131.316
X-329.208 Y-132.305
X-330.528 Y-133.316
X-331.83 Y-134.349
X-333.115 Y-135.405
X-334.381 Y-136.483
X-335.629 Y-137.582
X-336.858 Y-138.702
X-338.068 Y-139.842
X-339.258 Y-141.004
X-340.428 Y-142.185
X-341.577 Y-143.386
X-342.706 Y-144.607
X-343.814 Y-145.847
X-344.9 Y-147.107
X-345.964 Y-148.384
X-347.006 Y-149.68
X-348.025 Y-150.993
X-349.023 Y-152.324
X-349.997 Y-153.671
X-350.948 Y-155.035
X-351.876 Y-156.415
X-352.78 Y-157.811
X-353.66 Y-159.221
X-354.516 Y-160.647
X-355.348 Y-162.086
X-356.155 Y-163.54
X-356.938 Y-165.007
X-357.695 Y-166.487
X-358.427 Y-167.98
X-359.133 Y-169.486
X-359.813 Y-171.003
X-360.466 Y-172.532
X-361.094 Y-174.072
X-361.695 Y-175.622
X-362.269 Y-177.183
X-362.817 Y-178.752
X-363.338 Y-180.331
X-363.832 Y-181.919
X-364.299 Y-183.515
X-364.739 Y-185.118
X-365.152 Y-186.729
X-365.538 Y-188.347
X-365.895 Y-189.97
X-366.226 Y-191.6
X-366.528 Y-193.235
X-366.803 Y-194.875
X-367.049 Y-196.519
X-367.267 Y-198.168
X-367.457 Y-199.82
X-367.618 Y-201.475
X-367.751 Y-203.132
X-367.856 Y-204.791
X-367.932 Y-206.452
X-367.981 Y-208.114
X-368.001 Y-209.777
X-367.993 Y-211.44
X-367.956 Y-213.102
X-367.892 Y-214.764
X-367.8 Y-216.424
X-367.679 Y-218.082
X-367.53 Y-219.738
X-367.354 Y-221.392
X-367.149 Y-223.042
X-366.916 Y-224.688
X-366.654 Y-226.33
X-366.365 Y-227.968
X-366.047 Y-229.6
X-365.702 Y-231.226
X-365.329 Y-232.847
X-364.929 Y-234.46
X-364.501 Y-236.067
X-364.046 Y-237.667
X-363.564 Y-239.258
X-363.055 Y-240.841
X-362.52 Y-242.415
X-361.958 Y-243.98
X-361.369 Y-245.535
X-360.755 Y-247.08
X-360.114 Y-248.615
X-359.448 Y-250.138
X-358.755 Y-251.649
X-358.036 Y-253.149
X-357.292 Y-254.636
X-356.523 Y-256.11
X-355.729 Y-257.571
X-354.91 Y-259.018
X-354.066 Y-260.451
X-353.198 Y-261.869
X-352.306 Y-263.272
X-351.391 Y-264.66
X-350.452 Y-266.033
X-349.49 Y-267.389
X-348.506 Y-268.729
X-347.499 Y-270.052
X-346.469 Y-271.358
X-345.418 Y-272.646
X-344.346 Y-273.917
X-343.251 Y-275.168
X-342.135 Y-276.401
X-340.999 Y-277.615
X-339.842 Y-278.809
X-338.664 Y-279.983
X-337.467 Y-281.137
X-336.25 Y-282.27
X-335.015 Y-283.383
X-333.76 Y-284.474
X-332.488 Y-285.544
X-331.197 Y-286.593
X-329.889 Y-287.619
X-328.563 Y-288.623
X-327.221 Y-289.605
X-325.863 Y-290.564
X-324.489 Y-291.499
X-323.099 Y-292.412
X-321.693 Y-293.301
X-320.273 Y-294.165
X-318.838 Y-295.005
X-317.389 Y-295.821
X-315.926 Y-296.611
X-314.45 Y-297.377
X-312.961 Y-298.117
X-311.46 Y-298.832
X-309.947 Y-299.522
X-308.422 Y-300.185
X-306.887 Y-300.823
X-305.341 Y-301.435
X-303.785 Y-302.021
X-302.219 Y-302.58
X-300.644 Y-303.113
X-299.06 Y-303.619
X-297.468 Y-304.099
X-295.868 Y-304.551
X-294.26 Y-304.976
X-292.646 Y-305.374
X-291.025 Y-305.744
X-289.398 Y-306.086
X-287.765 Y-306.401
X-286.127 Y-306.688
X-284.485 Y-306.947
X-282.838 Y-307.178
X-281.188 Y-307.382
X-279.534 Y-307.557
X-277.878 Y-307.705
X-276.22 Y-307.825
X-274.56 Y-307.917
X-272.898 Y-307.981
X-271.236 Y-308.017
X-269.573 Y-308.025
X-267.91 Y-308.005
X-266.248 Y-307.958
X-264.587 Y-307.881
X-262.928 Y-307.777
X-261.27 Y-307.645
X-259.615 Y-307.484
X-257.963 Y-307.296
X-256.315 Y-307.079
X-254.67 Y-306.835
X-253.029 Y-306.564
X-251.394 Y-306.265
X-249.763 Y-305.938
X-248.139 Y-305.584
X-246.52 Y-305.204
X-244.908 Y-304.796
X-243.303 Y-304.361
X-241.706 Y-303.9
X-240.116 Y-303.412
X-238.535 Y-302.897
X-236.963 Y-302.356
X-235.4 Y-301.789
X-233.847 Y-301.195
X-232.304 Y-300.575
X-230.772 Y-299.93
X-229.25 Y-299.258
X-227.741 Y-298.562
X-226.243 Y-297.84
X-224.757 Y-297.093
X-223.284 Y-296.322
X-221.824 Y-295.526
X-220.377 Y-294.706
X-218.945 Y-293.863
X-217.526 Y-292.995
X-216.122 Y-292.105
X-214.733 Y-291.191
X-213.359 Y-290.254
X-212.001 Y-289.295
X-210.659 Y-288.313
X-209.334 Y-287.308
X-208.026 Y-286.282
X-206.735 Y-285.234
X-205.462 Y-284.164
X-204.207 Y-283.074
X-202.97 Y-281.963
X-201.752 Y-280.831
X-200.552 Y-279.679
X-199.372 Y-278.508
X-198.212 Y-277.317
X-197.071 Y-276.107
X-195.95 Y-274.879
X-194.85 Y-273.632
X-193.771 Y-272.367
X-192.712 Y-271.085
X-191.675 Y-269.786
X-190.659 Y-268.469
X-189.666 Y-267.136
X-188.695 Y-265.786
X-187.746 Y-264.42
X-186.821 Y-263.039
X-185.918 Y-261.643
X-185.039 Y-260.231
X-184.183 Y-258.806
X-183.351 Y-257.366
X-182.543 Y-255.913
X-181.759 Y-254.447
X-180.999 Y-252.968
X-180.264 Y-251.476
X-179.553 Y-249.973
X-178.868 Y-248.458
X-178.207 Y-246.932
X-177.571 Y-245.396
X-176.961 Y-243.849
X-176.376 Y-242.293
X-175.818 Y-240.726
X-175.286 Y-239.151
X-174.78 Y-237.567
X-174.3 Y-235.975
X-173.847 Y-234.375
X-173.421 Y-232.768
X-173.021 Y-231.154
X-172.648 Y-229.534
X-172.302 Y-227.907
X-171.982 Y-226.276
X-171.69 Y-224.639
X-171.425 Y-222.997
X-171.186 Y-221.352
X-170.975 Y-219.702
X-170.791 Y-218.05
X-170.635 Y-216.395
X-170.505 Y-214.737
X-170.403 Y-213.077
X-170.329 Y-211.416
X-170.283 Y-209.754
X-170.264 Y-208.091
X-170.273 Y-206.429
X-170.31 Y-204.766
X-170.374 Y-203.105
X-170.465 Y-201.445
X-170.585 Y-199.786
X-170.731 Y-198.13
X-170.905 Y-196.476
X-171.106 Y-194.826
X-171.335 Y-193.179
X-171.59 Y-191.536
X-171.873 Y-189.897
X-172.182 Y-188.263
X-172.519 Y-186.635
X-172.882 Y-185.012
X-173.272 Y-183.396
X-173.69 Y-181.787
X-174.134 Y-180.184
X-174.604 Y-178.59
X-175.101 Y-177.003
X-175.625 Y-175.425
X-176.174 Y-173.855
X-176.75 Y-172.295
X-177.351 Y-170.745
X-177.978 Y-169.205
X-178.63 Y-167.676
X-179.308 Y-166.157
X-180.01 Y-164.65
X-180.737 Y-163.154
X-181.489 Y-161.671
X-182.265 Y-160.201
X-183.065 Y-158.743
X-183.889 Y-157.299
X-184.737 Y-155.869
X-185.608 Y-154.453
X-186.504 Y-153.052
X-187.422 Y-151.665
X-188.363 Y-150.295
X-189.327 Y-148.94
X-190.314 Y-147.601
X-191.322 Y-146.279
X-192.352 Y-144.974
X-193.404 Y-143.686
X-194.476 Y-142.415
X-195.57 Y-141.163
X-196.683 Y-139.928
X-197.818 Y-138.712
X-198.971 Y-137.515
X-200.145 Y-136.337
X-201.337 Y-135.178
X-202.549 Y-134.039
X-203.779 Y-132.921
X-205.028 Y-131.823
X-206.295 Y-130.746
X-207.58 Y-129.69
X-208.881 Y-128.656
X-210.2 Y-127.644
X-211.536 Y-126.653
X-212.887 Y-125.684
X-214.255 Y-124.738
X-215.637 Y-123.815
X-217.035 Y-122.914
X-218.447 Y-122.037
X-219.874 Y-121.183
X-221.314 Y-120.352
X-222.768 Y-119.545
X-224.235 Y-118.762
X-225.714 Y-118.003
X-227.206 Y-117.268
X-228.71 Y-116.559
X-230.225 Y-115.874
X-231.752 Y-115.215
X-233.289 Y-114.581
X-234.836 Y-113.972
X-236.393 Y-113.389
X-237.96 Y-112.832
X-239.535 Y-112.3
X-241.119 Y-111.795
X-242.712 Y-111.315
X-244.311 Y-110.862
X-245.918 Y-110.435
X-247.532 Y-110.034
X-249.152 Y-109.659
X-250.778 Y-109.311
X-252.409 Y-108.99
X-254.046 Y-108.695
X-255.687 Y-108.427
X-257.332 Y-108.187
X-258.981 Y-107.973
X-260.633 Y-107.787
X-262.288 Y-107.628
X-263.946 Y-107.496
X-265.605 Y-107.391
X-267.266 Y-107.313
X-268.928 Y-107.263
X-270.591 Y-107.24
X-272.254 Y-107.244
X-273.916 Y-107.275
X-275.578 Y-107.333
X-277.238 Y-107.418
X-278.897 Y-107.531
X-280.554 Y-107.67
X-282.209 Y-107.836
X-283.86 Y-108.029
X-285.508 Y-108.248
X-287.153 Y-108.495
X-288.793 Y-108.769
X-290.428 Y-109.07
X-292.058 Y-109.397
X-293.683 Y-109.751
X-295.302 Y-110.131
X-296.914 Y-110.538
X-298.519 Y-110.971
X-300.117 Y-111.431
X-301.708 Y-111.916
X-303.29 Y-112.426
X-304.864 Y-112.963
X-306.429 Y-113.525
X-307.984 Y-114.112
X-309.53 Y-114.724
X-311.066 Y-115.361
X-312.592 Y-116.023
X-314.106 Y-116.71
X-315.609 Y-117.421
X-317.1 Y-118.157
X-318.579 Y-118.917
X-320.045 Y-119.701
X-321.499 Y-120.508
X-322.939 Y-121.34
X-324.365 Y-122.194
X-325.777 Y-123.072
X-327.175 Y-123.972
X-328.558 Y-124.895
X-329.926 Y-125.84
X-331.279 Y-126.808
X-332.615 Y-127.797
X-333.936 Y-128.807
X-335.24 Y-129.839
X-336.527 Y-130.891
X-337.798 Y-131.964
X-339.05 Y-133.057
X-340.285 Y-134.171
X-341.501 Y-135.305
X-342.699 Y-136.458
X-343.878 Y-137.63
X-345.038 Y-138.822
X-346.178 Y-140.032
X-347.299 Y-141.261
X-348.399 Y-142.507
X-349.479 Y-143.771
X-350.539 Y-145.053
X-351.578 Y-146.351
X-352.595 Y-147.666
X-353.592 Y-148.997
X-354.566 Y-150.344
X-355.52 Y-151.707
X-356.451 Y-153.084
X-357.359 Y-154.477
X-358.246 Y-155.883
X-359.109 Y-157.305
X-359.949 Y-158.739
X-360.766 Y-160.188
X-361.559 Y-161.649
X-362.329 Y-163.123
X-363.074 Y-164.609
X-363.795 Y-166.108
X-364.492 Y-167.617
X-365.165 Y-169.138
X-365.813 Y-170.669
X-366.436 Y-172.211
X-367.034 Y-173.762
X-367.608 Y-175.323
X-368.156 Y-176.893
X-368.679 Y-178.471
X-369.176 Y-180.058
X-369.648 Y-181.652
X-370.095 Y-183.254
X-370.515 Y-184.862
X-370.91 Y-186.478
X-371.278 Y-188.099
X-371.62 Y-189.726
X-371.935 Y-191.359
X-372.224 Y-192.996
X-372.487 Y-194.638
X-372.723 Y-196.284
X-372.932 Y-197.934
X-373.115 Y-199.586
X-373.272 Y-201.242
X-373.401 Y-202.899
X-373.505 Y-204.559
X-373.581 Y-206.22
X-373.631 Y-207.882
X-373.654 Y-209.545
X-373.651 Y-211.207
X-373.621 Y-212.87
X-373.564 Y-214.532
X-373.481 Y-216.192
X-373.37 Y-217.851
X-373.233 Y-219.508
X-373.069 Y-221.163
X-372.878 Y-222.815
X-372.661 Y-224.463
X-372.417 Y-226.108
X-372.147 Y-227.749
X-371.851 Y-229.385
X-371.528 Y-231.016
X-371.179 Y-232.642
X-370.804 Y-234.262
X-370.403 Y-235.875
X-369.976 Y-237.482
X-369.524 Y-239.082
X-369.046 Y-240.675
X-368.543 Y-242.26
X-368.014 Y-243.836
X-367.46 Y-245.404
X-366.881 Y-246.963
X-366.276 Y-248.512
X-365.647 Y-250.051
X-364.993 Y-251.579
X-364.315 Y-253.097
X-363.612 Y-254.604
X-362.885 Y-256.1
X-362.134 Y-257.583
X-361.359 Y-259.055
X-360.561 Y-260.513
X-359.74 Y-261.959
X-358.895 Y-263.391
X-358.028 Y-264.81
X-357.138 Y-266.214
X-356.226 Y-267.604
X-355.291 Y-268.98
X-354.335 Y-270.34
X-353.357 Y-271.685
X-352.358 Y-273.014
X-351.337 Y-274.326
X-350.295 Y-275.622
X-349.232 Y-276.901
X-348.149 Y-278.163
X-347.046 Y-279.407
X-345.923 Y-280.633
X-344.78 Y-281.841
X-343.618 Y-283.03
X-342.437 Y-284.201
X-341.238 Y-285.352
X-340.02 Y-286.485
X-338.785 Y-287.597
X-337.531 Y-288.69
X-336.261 Y-289.762
X-334.973 Y-290.814
X-333.669 Y-291.846
X-332.348 Y-292.856
X-331.012 Y-293.845
X-329.659 Y-294.812
X-328.291 Y-295.758
X-326.908 Y-296.681
X-325.511 Y-297.582
X-324.099 Y-298.46
X-322.673 Y-299.315
X-321.234 Y-300.148
X-319.781 Y-300.957
X-318.316 Y-301.743
X-316.838 Y-302.505
X-315.348 Y-303.243
X-313.847 Y-303.958
X-312.334 Y-304.649
X-310.811 Y-305.315
X-309.277 Y-305.957
X-307.733 Y-306.574
X-306.18 Y-307.167
X-304.617 Y-307.734
X-303.045 Y-308.276
X-301.464 Y-308.793
X-299.876 Y-309.285
X-298.28 Y-309.751
X-296.676 Y-310.191
X-295.066 Y-310.605
X-293.449 Y-310.994
X-291.827 Y-311.356
X-290.198 Y-311.693
X-288.565 Y-312.003
X-286.926 Y-312.287
X-285.284 Y-312.545
X-283.637 Y-312.777
X-281.987 Y-312.983
X-280.334 Y-313.162
X-278.679 Y-313.315
X-277.021 Y-313.442
X-275.361 Y-313.542
X-273.7 Y-313.616
X-272.038 Y-313.663
X-270.375 Y-313.683
X-268.712 Y-313.676
X-267.05 Y-313.643
X-265.388 Y-313.584
X-263.728 Y-313.498
X-262.069 Y-313.385
X-260.412 Y-313.246
X-258.757 Y-313.081
X-257.106 Y-312.889
X-255.457 Y-312.671
X-253.813 Y-312.427
X-252.172 Y-312.157
X-250.536 Y-311.861
X-248.904 Y-311.539
X-247.278 Y-311.191
X-245.658 Y-310.818
X-244.044 Y-310.419
X-242.436 Y-309.994
X-240.836 Y-309.543
X-239.243 Y-309.068
X-237.657 Y-308.567
X-236.08 Y-308.04
X-234.511 Y-307.489
X-232.951 Y-306.913
X-231.401 Y-306.312
X-229.86 Y-305.687
X-228.329 Y-305.038
X-226.809 Y-304.364
X-225.3 Y-303.667
X-223.802 Y-302.946
X-222.315 Y-302.201
X-220.84 Y-301.433
X-219.377 Y-300.642
X-217.927 Y-299.829
X-216.49 Y-298.992
X-215.067 Y-298.133
X-213.657 Y-297.251
X-212.262 Y-296.347
X-210.88 Y-295.421
X-209.514 Y-294.474
X-208.163 Y-293.505
X-206.827 Y-292.515
X-205.507 Y-291.504
X-204.203 Y-290.472
X-202.915 Y-289.42
X-201.645 Y-288.347
X-200.391 Y-287.255
X-199.154 Y-286.144
X-197.935 Y-285.013
X-196.734 Y-283.863
X-195.551 Y-282.695
X-194.386 Y-281.508
X-193.24 Y-280.304
X-192.113 Y-279.081
X-191.006 Y-277.841
X-189.918 Y-276.583
X-188.85 Y-275.309
X-187.802 Y-274.018
X-186.775 Y-272.71
X-185.768 Y-271.387
X-184.782 Y-270.048
X-183.818 Y-268.693
X-182.875 Y-267.324
X-181.953 Y-265.94
X-181.053 Y-264.542
X-180.175 Y-263.13
X-179.319 Y-261.704
X-178.486 Y-260.265
X-177.675 Y-258.814
X-176.887 Y-257.35
X-176.122 Y-255.873
X-175.38 Y-254.385
X-174.661 Y-252.886
X-173.966 Y-251.375
X-173.295 Y-249.854
X-172.648 Y-248.322
X-172.025 Y-246.781
X-171.426 Y-245.23
X-170.852 Y-243.669
X-170.303 Y-242.1
X-169.777 Y-240.522
X-169.277 Y-238.936
X-168.802 Y-237.343
X-168.351 Y-235.743
X-167.926 Y-234.135
X-167.526 Y-232.521
X-167.151 Y-230.901
X-166.801 Y-229.276
X-166.477 Y-227.645
X-166.179 Y-226.009
X-165.906 Y-224.369
X-165.658 Y-222.725
X-165.437 Y-221.077
X-165.241 Y-219.426
X-165.072 Y-217.771
X-164.929 Y-216.115
X-164.811 Y-214.456
X-164.72 Y-212.796
X-164.655 Y-211.135
X-164.615 Y-209.472
X-164.602 Y-207.81
X-164.615 Y-206.147
X-164.654 Y-204.485
X-164.719 Y-202.823
X-164.81 Y-201.163
X-164.927 Y-199.504
X-165.07 Y-197.848
X-165.238 Y-196.193
X-165.433 Y-194.542
X-165.653 Y-192.894
X-165.899 Y-191.25
X-166.171 Y-189.609
X-166.469 Y-187.973
X-166.793 Y-186.342
X-167.142 Y-184.717
X-167.516 Y-183.097
X-167.916 Y-181.483
X-168.342 Y-179.875
X-168.792 Y-178.275
X-169.268 Y-176.681
X-169.768 Y-175.096
X-170.294 Y-173.518
X-170.843 Y-171.949
X-171.418 Y-170.389
X-172.016 Y-168.837
X-172.639 Y-167.296
X-173.286 Y-165.764
X-173.957 Y-164.242
X-174.651 Y-162.732
X-175.37 Y-161.232
X-176.111 Y-159.744
X-176.876 Y-158.268
X-177.665 Y-156.804
X-178.476 Y-155.352
X-179.309 Y-153.913
X-180.166 Y-152.488
X-181.044 Y-151.076
X-181.945 Y-149.679
X-182.867 Y-148.295
X-183.811 Y-146.926
X-184.776 Y-145.572
X-185.762 Y-144.234
X-186.769 Y-142.91
X-187.797 Y-141.603
X-188.845 Y-140.312
X-189.912 Y-139.038
X-191 Y-137.78
X-192.107 Y-136.539
X-193.234 Y-135.316
X-194.38 Y-134.111
X-195.544 Y-132.924
X-196.727 Y-131.756
X-197.928 Y-130.606
X-199.147 Y-129.475
X-200.383 Y-128.363
X-201.637 Y-127.271
X-202.908 Y-126.199
X-204.195 Y-125.146
X-205.498 Y-124.114
X-206.818 Y-123.102
X-208.153 Y-122.111
X-209.503 Y-121.141
X-210.869 Y-120.192
X-212.249 Y-119.264
X-213.643 Y-118.358
X-215.051 Y-117.474
X-216.473 Y-116.612
X-217.908 Y-115.772
X-219.356 Y-114.955
X-220.817 Y-114.161
X-222.29 Y-113.389
X-223.775 Y-112.641
X-225.271 Y-111.915
X-226.778 Y-111.214
X-228.296 Y-110.536
X-229.825 Y-109.881
X-231.364 Y-109.251
X-232.912 Y-108.644
X-234.469 Y-108.062
X-236.036 Y-107.504
X-237.61 Y-106.97
X-239.193 Y-106.461
X-240.784 Y-105.977
X-242.382 Y-105.517
X-243.987 Y-105.082
X-245.598 Y-104.672
X-247.216 Y-104.287
X-248.839 Y-103.927
X-250.468 Y-103.593
X-252.102 Y-103.284
X-253.74 Y-103.001
X-255.383 Y-102.743
X-257.029 Y-102.511
X-258.679 Y-102.304
X-260.332 Y-102.123
X-261.987 Y-101.968
X-263.645 Y-101.838
X-265.305 Y-101.734
X-266.965 Y-101.655
X-268.627 Y-101.603
X-270.29 Y-101.576
X-271.953 Y-101.574
X-273.615 Y-101.598
X-275.277 Y-101.648
X-276.938 Y-101.724
X-278.598 Y-101.826
X-280.256 Y-101.953
X-281.911 Y-102.106
X-283.565 Y-102.284
X-285.215 Y-102.489
X-286.862 Y-102.718
X-288.505 Y-102.973
X-290.144 Y-103.254
X-291.778 Y-103.56
X-293.407 Y-103.891
X-295.032 Y-104.247
X-296.65 Y-104.628
X-298.263 Y-105.034
X-299.869 Y-105.465
X-301.468 Y-105.92
X-303.06 Y-106.4
X-304.644 Y-106.904
X-306.221 Y-107.433
X-307.789 Y-107.986
X-309.348 Y-108.563
X-310.898 Y-109.164
X-312.439 Y-109.789
X-313.97 Y-110.438
X-315.491 Y-111.11
X-317.001 Y-111.806
X-318.5 Y-112.525
X-319.989 Y-113.266
X-321.465 Y-114.031
X-322.93 Y-114.818
X-324.382 Y-115.628
X-325.822 Y-116.46
X-327.248 Y-117.314
X-328.662 Y-118.19
X-330.062 Y-119.087
X-331.448 Y-120.005
X-332.82 Y-120.945
X-334.177 Y-121.906
X-335.519 Y-122.887
X-336.846 Y-123.889
X-338.157 Y-124.911
X-339.453 Y-125.954
X-340.732 Y-127.016
X-341.995 Y-128.098
X-343.241 Y-129.198
X-344.47 Y-130.318
X-345.682 Y-131.457
X-346.876 Y-132.614
X-348.052 Y-133.79
X-349.21 Y-134.983
X-350.349 Y-136.194
X-351.47 Y-137.422
X-352.572 Y-138.667
X-353.655 Y-139.929
X-354.719 Y-141.207
X-355.763 Y-142.501
X-356.787 Y-143.811
X-357.79 Y-145.137
X-358.773 Y-146.478
X-359.736 Y-147.834
X-360.678 Y-149.204
X-361.598 Y-150.589
X-362.497 Y-151.987
X-363.375 Y-153.4
X-364.231 Y-154.825
X-365.065 Y-156.264
X-365.876 Y-157.715
X-366.666 Y-159.178
X-367.433 Y-160.653
X-368.177 Y-162.14
X-368.899 Y-163.638
X-369.598 Y-165.147
X-370.273 Y-166.666
X-370.926 Y-168.196
X-371.555 Y-169.735
X-372.16 Y-171.284
X-372.742 Y-172.841
X-373.3 Y-174.408
X-373.833 Y-175.982
X-374.343 Y-177.565
X-374.828 Y-179.156
X-375.289 Y-180.753
X-375.725 Y-182.358
X-376.137 Y-183.969
X-376.524 Y-185.586
X-376.886 Y-187.209
X-377.224 Y-188.837
X-377.536 Y-190.47
X-377.824 Y-192.107
X-378.087 Y-193.749
X-378.325 Y-195.395
X-378.537 Y-197.044
X-378.725 Y-198.696
X-378.887 Y-200.351
X-379.024 Y-202.008
X-379.136 Y-203.667
X-379.222 Y-205.328
X-379.283 Y-206.989
X-379.318 Y-208.652
X-379.329 Y-210.314
X-379.313 Y-211.977
X-379.273 Y-213.639
X-379.207 Y-215.301
X-379.115 Y-216.961
X-378.999 Y-218.62
X-378.857 Y-220.276
X-378.689 Y-221.931
X-378.497 Y-223.582
X-378.279 Y-225.231
X-378.037 Y-226.876
X-377.769 Y-228.517
X-377.477 Y-230.154
X-377.16 Y-231.786
X-376.818 Y-233.413
X-376.451 Y-235.035
X-376.059 Y-236.651
X-375.643 Y-238.26
X-375.202 Y-239.864
X-374.737 Y-241.46
X-374.247 Y-243.049
X-373.733 Y-244.631
X-373.196 Y-246.204
X-372.634 Y-247.769
X-372.049 Y-249.325
X-371.439 Y-250.872
X-370.807 Y-252.41
X-370.151 Y-253.938
X-369.472 Y-255.456
X-368.77 Y-256.963
X-368.045 Y-258.459
X-367.297 Y-259.945
X-366.527 Y-261.418
X-365.735 Y-262.88
X-364.92 Y-264.33
X-364.084 Y-265.767
X-363.225 Y-267.191
X-362.345 Y-268.602
X-361.444 Y-269.999
X-360.521 Y-271.382
X-359.578 Y-272.751
X-358.614 Y-274.106
X-357.629 Y-275.446
X-356.624 Y-276.77
X-355.598 Y-278.079
X-354.553 Y-279.373
X-353.489 Y-280.65
X-352.405 Y-281.911
X-351.302 Y-283.155
X-350.18 Y-284.383
X-349.04 Y-285.593
X-347.882 Y-286.786
X-346.706 Y-287.961
X-345.511 Y-289.118
X-344.3 Y-290.257
X-343.071 Y-291.377
X-341.825 Y-292.478
X-340.563 Y-293.56
X-339.284 Y-294.623
X-337.989 Y-295.666
X-336.678 Y-296.689
X-335.353 Y-297.693
X-334.011 Y-298.676
X-332.656 Y-299.638
X-331.285 Y-300.58
X-329.901 Y-301.5
X-328.502 Y-302.4
X-327.09 Y-303.278
X-325.665 Y-304.135
X-324.227 Y-304.97
X-322.777 Y-305.783
X-321.315 Y-306.574
X-319.84 Y-307.343
X-318.354 Y-308.089
X-316.857 Y-308.813
X-315.349 Y-309.513
X-313.831 Y-310.191
X-312.302 Y-310.845
X-310.764 Y-311.476
X-309.216 Y-312.083
X-307.659 Y-312.667
X-306.093 Y-313.227
X-304.52 Y-313.764
X-302.938 Y-314.276
X-301.348 Y-314.764
X-299.752 Y-315.228
X-298.148 Y-315.668
X-296.538 Y-316.084
X-294.922 Y-316.475
X-293.3 Y-316.841
X-291.673 Y-317.183
X-290.041 Y-317.5
X-288.404 Y-317.793
X-286.763 Y-318.06
X-285.118 Y-318.303
X-283.469 Y-318.52
X-281.818 Y-318.712
X-280.163 Y-318.88
X-278.507 Y-319.022
X-276.848 Y-319.139
X-275.188 Y-319.231
X-273.526 Y-319.298
X-271.864 Y-319.34
X-270.202 Y-319.356
X-268.539 Y-319.347
X-266.876 Y-319.313
X-265.215 Y-319.255
X-263.554 Y-319.171
X-261.895 Y-319.062
X-260.238 Y-318.928
X-258.582 Y-318.769
X-256.93 Y-318.585
X-255.28 Y-318.376
X-253.634 Y-318.142
X-251.992 Y-317.883
X-250.353 Y-317.599
X-248.719 Y-317.291
X-247.09 Y-316.958
X-245.466 Y-316.601
X-243.848 Y-316.219
X-242.236 Y-315.813
X-240.63 Y-315.382
X-239.03 Y-314.928
X-237.438 Y-314.449
X-235.853 Y-313.947
X-234.275 Y-313.421
X-232.706 Y-312.871
X-231.145 Y-312.297
X-229.593 Y-311.701
X-228.05 Y-311.081
X-226.517 Y-310.438
X-224.993 Y-309.772
X-223.48 Y-309.084
X-221.977 Y-308.372
X-220.485 Y-307.639
X-219.004 Y-306.882
X-217.535 Y-306.104
X-216.077 Y-305.304
X-214.632 Y-304.482
X-213.199 Y-303.639
X-211.779 Y-302.774
X-210.372 Y-301.888
X-208.978 Y-300.981
X-207.598 Y-300.053
X-206.232 Y-299.105
X-204.88 Y-298.137
X-203.543 Y-297.148
X-202.221 Y-296.14
X-200.914 Y-295.112
X-199.623 Y-294.065
X-198.347 Y-292.999
X-197.087 Y-291.913
X-195.844 Y-290.809
X-194.617 Y-289.687
X-193.407 Y-288.546
X-192.215 Y-287.387
X-191.04 Y-286.211
X-189.882 Y-285.017
X-188.742 Y-283.807
X-187.621 Y-282.579
X-186.518 Y-281.335
X-185.433 Y-280.074
X-184.368 Y-278.798
X-183.322 Y-277.506
X-182.294 Y-276.198
X-181.287 Y-274.875
X-180.299 Y-273.538
X-179.331 Y-272.186
X-178.384 Y-270.82
X-177.456 Y-269.439
X-176.55 Y-268.046
X-175.664 Y-266.638
X-174.799 Y-265.218
X-173.956 Y-263.785
X-173.134 Y-262.34
X-172.334 Y-260.882
X-171.555 Y-259.413
X-170.799 Y-257.932
X-170.064 Y-256.441
X-169.352 Y-254.938
X-168.662 Y-253.425
X-167.995 Y-251.902
X-167.35 Y-250.37
X-166.728 Y-248.827
X-166.13 Y-247.276
X-165.554 Y-245.716
X-165.001 Y-244.148
X-164.472 Y-242.572
X-163.966 Y-240.988
X-163.484 Y-239.396
X-163.026 Y-237.798
X-162.591 Y-236.193
X-162.181 Y-234.582
X-161.794 Y-232.965
X-161.432 Y-231.342
X-161.094 Y-229.714
X-160.78 Y-228.081
X-160.49 Y-226.444
X-160.225 Y-224.802
X-159.984 Y-223.157
X-159.768 Y-221.508
X-159.576 Y-219.857
X-159.409 Y-218.202
X-159.267 Y-216.546
X-159.149 Y-214.887
X-159.055 Y-213.227
X-158.987 Y-211.566
X-158.943 Y-209.903
X-158.923 Y-208.241
X-158.929 Y-206.578
X-158.959 Y-204.916
X-159.014 Y-203.254
X-159.094 Y-201.593
X-159.199 Y-199.933
X-159.328 Y-198.276
X-159.482 Y-196.62
X-159.661 Y-194.967
X-159.864 Y-193.317
X-160.092 Y-191.67
X-160.344 Y-190.026
X-160.621 Y-188.387
X-160.922 Y-186.751
X-161.247 Y-185.121
X-161.597 Y-183.495
X-161.97 Y-181.875
X-162.368 Y-180.26
X-162.79 Y-178.652
X-163.235 Y-177.05
X-163.704 Y-175.455
X-164.197 Y-173.867
X-164.714 Y-172.286
X-165.254 Y-170.714
X-165.818 Y-169.15
X-166.405 Y-167.594
X-167.014 Y-166.047
X-167.647 Y-164.509
X-168.303 Y-162.981
X-168.981 Y-161.463
X-169.682 Y-159.955
X-170.406 Y-158.458
X-171.151 Y-156.972
X-171.919 Y-155.497
X-172.708 Y-154.033
X-173.519 Y-152.582
X-174.351 Y-151.143
X-175.205 Y-149.716
X-176.08 Y-148.302
X-176.976 Y-146.901
X-177.892 Y-145.513
X-178.829 Y-144.14
X-179.787 Y-142.78
X-180.764 Y-141.435
X-181.762 Y-140.105
X-182.779 Y-138.79
X-183.816 Y-137.49
X-184.871 Y-136.205
X-185.946 Y-134.937
X-187.04 Y-133.684
X-188.152 Y-132.448
X-189.282 Y-131.229
X-190.431 Y-130.026
X-191.597 Y-128.841
X-192.78 Y-127.673
X-193.981 Y-126.522
X-195.198 Y-125.39
X-196.433 Y-124.276
X-197.683 Y-123.18
X-198.95 Y-122.103
X-200.232 Y-121.045
X-201.531 Y-120.006
X-202.844 Y-118.986
X-204.173 Y-117.986
X-205.516 Y-117.006
X-206.874 Y-116.046
X-208.245 Y-115.107
X-209.631 Y-114.187
X-211.03 Y-113.289
X-212.442 Y-112.411
X-213.867 Y-111.554
X-215.304 Y-110.718
X-216.754 Y-109.904
X-218.216 Y-109.111
X-219.689 Y-108.34
X-221.173 Y-107.591
X-222.668 Y-106.864
X-224.174 Y-106.158
X-225.69 Y-105.476
X-227.216 Y-104.815
X-228.752 Y-104.178
X-230.297 Y-103.563
X-231.851 Y-102.972
X-233.413 Y-102.403
X-234.984 Y-101.857
X-236.563 Y-101.335
X-238.149 Y-100.836
X-239.742 Y-100.361
X-241.343 Y-99.909
X-242.949 Y-99.481
X-244.562 Y-99.077
X-246.181 Y-98.696
X-247.805 Y-98.34
X-249.434 Y-98.007
X-251.068 Y-97.698
X-252.706 Y-97.414
X-254.348 Y-97.154
X-255.994 Y-96.917
X-257.643 Y-96.705
X-259.295 Y-96.518
X-260.95 Y-96.354
X-262.607 Y-96.216
X-264.266 Y-96.101
X-265.926 Y-96.012
X-267.588 Y-95.946
X-269.25 Y-95.905
X-270.913 Y-95.889
X-272.575 Y-95.897
X-274.238 Y-95.929
X-275.9 Y-95.986
X-277.56 Y-96.068
X-279.22 Y-96.173
X-280.877 Y-96.303
X-282.533 Y-96.458
X-284.186 Y-96.636
X-285.836 Y-96.839
X-287.484 Y-97.066
X-289.127 Y-97.317
X-290.767 Y-97.592
X-292.403 Y-97.892
X-294.034 Y-98.215
X-295.66 Y-98.562
X-297.281 Y-98.933
X-298.896 Y-99.328
X-300.505 Y-99.747
X-302.108 Y-100.189
X-303.704 Y-100.654
X-305.294 Y-101.143
X-306.876 Y-101.655
X-308.45 Y-102.19
X-310.016 Y-102.748
X-311.574 Y-103.329
X-313.123 Y-103.933
X-314.664 Y-104.559
X-316.195 Y-105.208
X-317.716 Y-105.879
X-319.227 Y-106.572
X-320.728 Y-107.287
X-322.219 Y-108.024
X-323.698 Y-108.783
X-325.167 Y-109.563
X-326.623 Y-110.365
X-328.068 Y-111.188
X-329.501 Y-112.032
X-330.921 Y-112.897
X-332.328 Y-113.783
X-333.722 Y-114.689
X-335.103 Y-115.615
X-336.47 Y-116.561
X-337.824 Y-117.527
X-339.163 Y-118.513
X-340.487 Y-119.519
X-341.797 Y-120.543
X-343.091 Y-121.586
X-344.371 Y-122.649
X-345.634 Y-123.729
X-346.882 Y-124.828
X-348.114 Y-125.945
X-349.329 Y-127.08
X-350.528 Y-128.232
X-351.71 Y-129.402
X-352.874 Y-130.589
X-354.021 Y-131.793
X-355.15 Y-133.013
X-356.262 Y-134.25
X-357.355 Y-135.503
X-358.43 Y-136.772
X-359.486 Y-138.056
X-360.523 Y-139.355
X-361.542 Y-140.669
X-362.541 Y-141.998
X-363.521 Y-143.342
X-364.481 Y-144.699
X-365.422 Y-146.071
X-366.342 Y-147.455
X-367.242 Y-148.853
X-368.122 Y-150.264
X-368.981 Y-151.688
X-369.819 Y-153.124
X-370.637 Y-154.572
X-371.433 Y-156.032
X-372.208 Y-157.503
X-372.961 Y-158.985
X-373.693 Y-160.478
X-374.403 Y-161.982
X-375.091 Y-163.495
X-375.757 Y-165.019
X-376.4 Y-166.552
X-377.022 Y-168.094
X-377.621 Y-169.646
X-378.197 Y-171.205
X-378.751 Y-172.773
X-379.281 Y-174.349
X-379.789 Y-175.932
X-380.274 Y-177.523
X-380.736 Y-179.12
X-381.175 Y-180.724
X-381.59 Y-182.334
X-381.982 Y-183.95
X-382.35 Y-185.571
X-382.695 Y-187.198
X-383.016 Y-188.829
X-383.314 Y-190.465
X-383.587 Y-192.105
X-383.837 Y-193.749
X-384.063 Y-195.397
X-384.264 Y-197.047
X-384.442 Y-198.7
X-384.596 Y-200.356
X-384.726 Y-202.014
X-384.832 Y-203.673
X-384.914 Y-205.334
X-384.971 Y-206.995
X-385.005 Y-208.658
X-385.015 Y-210.321
X-385 Y-211.983
X-384.962 Y-213.646
X-384.899 Y-215.307
X-384.813 Y-216.968
X-384.702 Y-218.627
X-384.567 Y-220.284
X-384.408 Y-221.939
X-384.226 Y-223.592
X-384.019 Y-225.242
X-383.788 Y-226.888
X-383.533 Y-228.531
X-383.255 Y-230.171
X-382.953 Y-231.806
X-382.627 Y-233.436
X-382.278 Y-235.062
X-381.905 Y-236.682
X-381.508 Y-238.297
X-381.089 Y-239.906
X-380.646 Y-241.509
X-380.18 Y-243.105
X-379.691 Y-244.694
X-379.179 Y-246.276
X-378.644 Y-247.851
X-378.087 Y-249.417
X-377.507 Y-250.975
X-376.905 Y-252.525
X-376.28 Y-254.066
X-375.632 Y-255.598
X-374.963 Y-257.12
X-374.271 Y-258.632
X-373.558 Y-260.134
X-372.823 Y-261.625
X-372.066 Y-263.106
X-371.289 Y-264.575
X-370.49 Y-266.034
X-369.669 Y-267.48
X-368.829 Y-268.915
X-367.967 Y-270.337
X-367.085 Y-271.746
X-366.183 Y-273.143
X-365.26 Y-274.526
X-364.318 Y-275.896
X-363.356 Y-277.253
X-362.375 Y-278.595
X-361.374 Y-279.923
X-360.354 Y-281.236
X-359.315 Y-282.534
X-358.258 Y-283.817
X-357.182 Y-285.085
X-356.088 Y-286.337
X-354.975 Y-287.573
X-353.845 Y-288.793
X-352.698 Y-289.996
X-351.533 Y-291.182
X-350.351 Y-292.352
X-349.152 Y-293.504
X-347.937 Y-294.639
X-346.705 Y-295.756
X-345.458 Y-296.855
X-344.194 Y-297.936
X-342.916 Y-298.999
X-341.622 Y-300.043
X-340.313 Y-301.069
X-338.989 Y-302.075
X-337.651 Y-303.063
X-336.299 Y-304.03
X-334.933 Y-304.978
X-333.553 Y-305.907
X-332.161 Y-306.815
X-330.755 Y-307.702
X-329.336 Y-308.57
X-327.905 Y-309.416
X-326.462 Y-310.242
X-325.007 Y-311.047
X-323.541 Y-311.831
X-322.063 Y-312.594
X-320.575 Y-313.335
X-319.076 Y-314.054
X-317.566 Y-314.752
X-316.047 Y-315.428
X-314.519 Y-316.082
X-312.981 Y-316.714
X-311.434 Y-317.324
X-309.878 Y-317.911
X-308.314 Y-318.476
X-306.742 Y-319.019
X-305.163 Y-319.538
X-303.576 Y-320.035
X-301.982 Y-320.508
X-300.381 Y-320.958
X-298.774 Y-321.385
X-297.161 Y-321.789
X-295.543 Y-322.17
X-293.919 Y-322.527
X-292.29 Y-322.861
X-290.656 Y-323.171
X-289.019 Y-323.457
X-287.377 Y-323.72
X-285.731 Y-323.96
X-284.083 Y-324.175
X-282.431 Y-324.367
X-280.777 Y-324.535
X-279.12 Y-324.68
X-277.462 Y-324.8
X-275.802 Y-324.897
X-274.141 Y-324.969
X-272.479 Y-325.018
X-270.816 Y-325.043
X-269.153 Y-325.044
X-267.491 Y-325.02
X-265.829 Y-324.973
X-264.167 Y-324.902
X-262.507 Y-324.807
X-260.849 Y-324.688
X-259.192 Y-324.546
X-257.538 Y-324.379
X-255.886 Y-324.189
X-254.237 Y-323.975
X-252.591 Y-323.738
X-250.949 Y-323.477
X-249.311 Y-323.192
X-247.677 Y-322.884
X-246.048 Y-322.553
X-244.423 Y-322.199
X-242.804 Y-321.821
X-241.19 Y-321.42
X-239.582 Y-320.996
X-237.981 Y-320.549
X-236.386 Y-320.079
X-234.798 Y-319.586
X-233.217 Y-319.071
X-231.644 Y-318.533
X-230.078 Y-317.972
X-228.521 Y-317.389
X-226.972 Y-316.784
X-225.432 Y-316.157
X-223.901 Y-315.508
X-222.38 Y-314.838
X-220.868 Y-314.145
X-219.366 Y-313.431
X-217.875 Y-312.696
X-216.394 Y-311.94
X-214.924 Y-311.163
X-213.466 Y-310.365
X-212.018 Y-309.546
X-210.583 Y-308.706
X-209.16 Y-307.847
X-207.749 Y-306.967
X-206.351 Y-306.067
X-204.965 Y-305.148
X-203.593 Y-304.208
X-202.235 Y-303.249
X-200.89 Y-302.271
X-199.56 Y-301.274
X-198.243 Y-300.258
X-196.941 Y-299.224
X-195.655 Y-298.171
X-194.383 Y-297.1
X-193.126 Y-296.011
X-191.885 Y-294.904
X-190.66 Y-293.78
X-189.451 Y-292.639
X-188.258 Y-291.481
X-187.082 Y-290.305
X-185.922 Y-289.114
X-184.779 Y-287.906
X-183.654 Y-286.682
X-182.546 Y-285.442
X-181.456 Y-284.187
X-180.383 Y-282.916
X-179.329 Y-281.63
X-178.294 Y-280.329
X-177.276 Y-279.014
X-176.278 Y-277.684
X-175.298 Y-276.34
X-174.338 Y-274.983
X-173.397 Y-273.612
X-172.475 Y-272.228
X-171.574 Y-270.831
X-170.692 Y-269.422
X-169.829 Y-268
X-168.988 Y-266.566
X-168.166 Y-265.121
X-167.365 Y-263.663
X-166.585 Y-262.195
X-165.825 Y-260.716
X-165.087 Y-259.226
X-164.369 Y-257.726
X-163.673 Y-256.216
X-162.998 Y-254.697
X-162.345 Y-253.168
X-161.714 Y-251.629
X-161.105 Y-250.082
X-160.517 Y-248.527
X-159.952 Y-246.963
X-159.409 Y-245.391
X-158.888 Y-243.812
X-158.389 Y-242.226
X-157.913 Y-240.633
X-157.46 Y-239.033
X-157.029 Y-237.427
X-156.621 Y-235.815
X-156.236 Y-234.198
X-155.874 Y-232.575
X-155.534 Y-230.947
X-155.218 Y-229.315
X-154.925 Y-227.678
X-154.655 Y-226.037
X-154.408 Y-224.393
X-154.184 Y-222.745
X-153.984 Y-221.095
X-153.807 Y-219.441
X-153.654 Y-217.786
X-153.524 Y-216.128
X-153.418 Y-214.469
X-153.336 Y-212.808
X-153.276 Y-211.146
X-153.241 Y-209.484
X-153.229 Y-207.821
X-153.24 Y-206.159
X-153.275 Y-204.496
X-153.334 Y-202.834
X-153.416 Y-201.174
X-153.521 Y-199.514
X-153.65 Y-197.857
X-153.802 Y-196.201
X-153.978 Y-194.547
X-154.177 Y-192.897
X-154.399 Y-191.249
X-154.645 Y-189.604
X-154.914 Y-187.963
X-155.206 Y-186.327
X-155.522 Y-184.694
X-155.861 Y-183.066
X-156.222 Y-181.443
X-156.607 Y-179.826
X-157.015 Y-178.214
X-157.445 Y-176.607
X-157.898 Y-175.008
X-158.374 Y-173.414
X-158.872 Y-171.828
X-159.393 Y-170.249
X-159.936 Y-168.677
X-160.501 Y-167.113
X-161.088 Y-165.558
X-161.697 Y-164.011
X-162.328 Y-162.472
X-162.98 Y-160.943
X-163.654 Y-159.423
X-164.35 Y-157.913
X-165.067 Y-156.412
X-165.805 Y-154.922
X-166.564 Y-153.443
X-167.344 Y-151.975
X-168.145 Y-150.518
X-168.967 Y-149.072
X-169.808 Y-147.638
X-170.671 Y-146.216
X-171.553 Y-144.807
X-172.455 Y-143.41
X-173.376 Y-142.026
X-174.318 Y-140.655
X-175.278 Y-139.298
X-176.257 Y-137.954
X-177.256 Y-136.625
X-178.273 Y-135.309
X-179.309 Y-134.008
X-180.362 Y-132.722
X-181.434 Y-131.451
X-182.524 Y-130.195
X-183.631 Y-128.955
X-184.756 Y-127.73
X-185.898 Y-126.522
X-187.057 Y-125.329
X-188.233 Y-124.154
X-189.425 Y-122.995
X-190.634 Y-121.853
X-191.859 Y-120.728
X-193.099 Y-119.621
X-194.355 Y-118.532
X-195.626 Y-117.46
X-196.913 Y-116.406
X-198.214 Y-115.371
X-199.529 Y-114.354
X-200.859 Y-113.355
X-202.202 Y-112.376
X-203.56 Y-111.415
X-204.93 Y-110.474
X-206.314 Y-109.552
X-207.711 Y-108.65
X-209.12 Y-107.767
X-210.541 Y-106.904
X-211.975 Y-106.062
X-213.42 Y-105.24
X-214.877 Y-104.438
X-216.345 Y-103.657
X-217.824 Y-102.897
X-219.313 Y-102.158
X-220.813 Y-101.44
X-222.322 Y-100.743
X-223.842 Y-100.067
X-225.37 Y-99.413
X-226.908 Y-98.78
X-228.455 Y-98.17
X-230.009 Y-97.58
X-231.572 Y-97.013
X-233.143 Y-96.468
X-234.722 Y-95.945
X-236.307 Y-95.444
X-237.899 Y-94.965
X-239.498 Y-94.509
X-241.104 Y-94.075
X-242.715 Y-93.664
X-244.331 Y-93.276
X-245.953 Y-92.91
X-247.581 Y-92.567
X-249.212 Y-92.248
X-250.848 Y-91.951
X-252.488 Y-91.677
X-254.132 Y-91.426
X-255.779 Y-91.199
X-257.429 Y-90.994
X-259.082 Y-90.813
X-260.737 Y-90.654
X-262.395 Y-90.519
X-262.572 Y-90.507
X-262.646 Y-90.503
X-262.72 Y-90.501
X-262.794 Y-90.5
X-274.484
X-276.145 Y-90.583
X-277.807 Y-90.611
X-279.469 Y-90.672
X-281.129 Y-90.765
X-282.788 Y-90.886
X-284.444 Y-91.036
X-286.097 Y-91.214
X-287.747 Y-91.418
X-289.394 Y-91.648
X-291.037 Y-91.904
X-292.676 Y-92.185
X-294.31 Y-92.49
X-295.94 Y-92.819
X-297.565 Y-93.172
X-299.184 Y-93.548
X-300.798 Y-93.948
X-302.407 Y-94.37
X-304.009 Y-94.816
X-305.604 Y-95.284
X-307.193 Y-95.774
X-308.774 Y-96.287
X-310.349 Y-96.822
X-311.915 Y-97.38
X-313.474 Y-97.959
X-315.025 Y-98.559
X-316.567 Y-99.181
X-318.1 Y-99.825
X-319.624 Y-100.49
X-321.138 Y-101.176
X-322.643 Y-101.884
X-324.138 Y-102.612
X-325.622 Y-103.361
X-327.096 Y-104.131
X-328.559 Y-104.922
X-330.01 Y-105.732
X-331.451 Y-106.563
X-332.879 Y-107.414
X-334.296 Y-108.285
X-335.7 Y-109.175
X-337.092 Y-110.085
X-338.471 Y-111.014
X-339.837 Y-111.962
X-341.19 Y-112.929
X-342.529 Y-113.914
X-343.854 Y-114.918
X-345.166 Y-115.941
X-346.463 Y-116.981
X-347.745 Y-118.039
X-349.013 Y-119.115
X-350.266 Y-120.208
X-351.503 Y-121.319
X-352.725 Y-122.447
X-353.931 Y-123.592
X-355.12 Y-124.754
X-356.294 Y-125.932
X-357.451 Y-127.126
X-358.591 Y-128.336
X-359.715 Y-129.562
X-360.821 Y-130.803
X-361.91 Y-132.06
X-362.981 Y-133.331
X-364.035 Y-134.617
X-365.071 Y-135.918
X-366.089 Y-137.233
X-367.088 Y-138.561
X-368.069 Y-139.904
X-369.032 Y-141.26
X-369.975 Y-142.629
X-370.9 Y-144.011
X-371.805 Y-145.406
X-372.691 Y-146.813
X-373.558 Y-148.232
X-374.404 Y-149.663
X-375.231 Y-151.106
X-376.037 Y-152.56
X-376.823 Y-154.025
X-377.589 Y-155.501
X-378.334 Y-156.988
X-379.058 Y-158.484
X-379.762 Y-159.991
X-380.445 Y-161.507
X-381.106 Y-163.032
X-381.747 Y-164.567
X-382.366 Y-166.11
X-382.964 Y-167.661
X-383.541 Y-169.221
X-384.096 Y-170.788
X-384.629 Y-172.363
X-385.141 Y-173.945
X-385.63 Y-175.534
X-386.098 Y-177.13
X-386.544 Y-178.732
X-386.967 Y-180.34
X-387.368 Y-181.954
X-387.746 Y-183.573
X-388.102 Y-185.197
X-388.436 Y-186.826
X-388.746 Y-188.459
X-389.035 Y-190.097
X-389.3 Y-191.738
X-389.543 Y-193.383
X-389.763 Y-195.031
X-389.96 Y-196.682
X-390.135 Y-198.336
X-390.286 Y-199.992
X-390.415 Y-201.65
X-390.521 Y-203.309
X-390.604 Y-204.97
X-390.665 Y-206.631
X-390.702 Y-208.294
X-390.716 Y-209.956
X-390.708 Y-211.619
X-390.677 Y-213.281
