%
(1001)
(origin stock top)
(T1  D=12.7 CR=0 - ZMIN=-12 - flat end mill)
G90 G94
G17
G21

(bottom_left)
M9
T1 M6
S6500 M3
G54
G0 X-273.673 Y-545.069
Z15
Z5
Z2.55
G3 X-266.723 Y-554.931 Z0.558 I3.475 J-4.931 F283.3
X-273.673 Y-545.069 Z-1.434 I-3.475 J4.931
X-266.723 Y-554.931 Z-3.426 I3.475 J-4.931
X-273.673 Y-545.069 Z-5.418 I-3.475 J4.931
X-266.723 Y-554.931 Z-7.409 I3.475 J-4.931
X-273.673 Y-545.069 Z-9.401 I-3.475 J4.931
X-266.723 Y-554.931 Z-11.393 I3.475 J-4.931
X-264.165 Y-550 Z-12 I-3.475 J4.931
X-276.23 I-6.033
X-264.165 I6.033
G1 X-264.162 Y-549.677 F849.6
X-264.13 Y-549.356
X-263.889 Y-548.086
X-263.84 Y-547.932
X-263.797 Y-547.756
X-263.763 Y-547.562
X-263.74 Y-547.349
X-263.73 Y-547.118
X-263.736 Y-546.871
X-263.76 Y-546.608
X-263.804 Y-546.33
X-263.869 Y-546.04
X-263.959 Y-545.739
X-264.074 Y-545.43
X-264.216 Y-545.115
X-264.385 Y-544.797
X-264.583 Y-544.477
X-264.81 Y-544.16
X-265.067 Y-543.848
X-265.352 Y-543.544
X-265.667 Y-543.25
X-266.01 Y-542.971
X-266.379 Y-542.709
X-266.775 Y-542.466
X-267.194 Y-542.245
X-267.636 Y-542.048
X-268.098 Y-541.878
X-268.578 Y-541.738
X-269.074 Y-541.627
X-269.582 Y-541.549
X-270.101 Y-541.504
X-270.627 Y-541.493
X-271.158 Y-541.518
X-271.691 Y-541.578
X-272.222 Y-541.674
X-272.75 Y-541.806
X-273.272 Y-541.974
X-273.784 Y-542.177
X-274.283 Y-542.416
X-274.769 Y-542.687
X-275.236 Y-542.992
X-275.685 Y-543.328
X-276.111 Y-543.695
X-276.514 Y-544.09
X-276.89 Y-544.512
X-277.238 Y-544.959
X-277.556 Y-545.429
X-277.843 Y-545.92
X-278.098 Y-546.429
X-278.318 Y-546.956
X-278.503 Y-547.496
X-278.652 Y-548.048
X-278.764 Y-548.609
X-278.839 Y-549.177
X-278.876 Y-549.749
X-278.875 Y-550.323
X-278.836 Y-550.896
X-278.759 Y-551.465
X-278.644 Y-552.028
X-278.492 Y-552.582
X-278.304 Y-553.126
X-278.08 Y-553.656
X-277.821 Y-554.17
X-277.528 Y-554.666
X-277.204 Y-555.141
X-276.848 Y-555.594
X-276.463 Y-556.023
X-276.051 Y-556.425
X-275.612 Y-556.799
X-275.15 Y-557.143
X-274.666 Y-557.455
X-274.162 Y-557.735
X-273.641 Y-557.981
X-273.104 Y-558.192
X-272.555 Y-558.367
X-271.995 Y-558.505
X-271.427 Y-558.605
X-270.854 Y-558.668
X-270.278 Y-558.692
X-269.701 Y-558.678
X-269.127 Y-558.626
X-268.557 Y-558.536
X-267.995 Y-558.409
X-267.442 Y-558.244
X-266.901 Y-558.044
X-266.375 Y-557.807
X-265.866 Y-557.537
X-265.376 Y-557.233
X-264.907 Y-556.897
X-264.461 Y-556.531
X-264.04 Y-556.136
X-263.647 Y-555.714
X-263.282 Y-555.267
X-262.948 Y-554.797
X-262.646 Y-554.306
X-262.077 Y-553.225
X-261.631 Y-552.224
X-261.323 Y-551.384
X-261.102 Y-550.634
X-260.944 Y-549.924
X-260.84 Y-549.253
X-260.784 Y-548.607
X-260.771 Y-547.975
X-260.799 Y-547.355
X-260.868 Y-546.747
X-260.976 Y-546.151
X-261.122 Y-545.566
X-261.306 Y-544.992
X-261.529 Y-544.432
X-261.789 Y-543.885
X-262.087 Y-543.353
X-262.422 Y-542.838
X-262.794 Y-542.342
X-263.201 Y-541.867
X-263.644 Y-541.416
X-264.121 Y-540.99
X-264.631 Y-540.593
X-265.172 Y-540.226
X-265.742 Y-539.892
X-266.34 Y-539.594
X-266.961 Y-539.334
X-267.604 Y-539.114
X-268.266 Y-538.935
X-268.944 Y-538.799
X-269.635 Y-538.708
X-270.337 Y-538.662
X-271.045 Y-538.664
X-271.757 Y-538.712
X-272.468 Y-538.808
X-273.177 Y-538.952
X-273.878 Y-539.144
X-274.569 Y-539.383
X-275.246 Y-539.67
X-275.906 Y-540.002
X-276.546 Y-540.379
X-277.161 Y-540.799
X-277.75 Y-541.26
X-278.308 Y-541.761
X-278.833 Y-542.3
X-279.323 Y-542.874
X-279.775 Y-543.481
X-280.186 Y-544.117
X-280.555 Y-544.781
X-280.88 Y-545.469
X-281.159 Y-546.178
X-281.39 Y-546.906
X-281.573 Y-547.648
X-281.707 Y-548.401
X-281.79 Y-549.162
X-281.823 Y-549.928
X-281.805 Y-550.695
X-281.736 Y-551.46
X-281.616 Y-552.219
X-281.446 Y-552.969
X-281.227 Y-553.706
X-280.959 Y-554.428
X-280.644 Y-555.13
X-280.283 Y-555.811
X-279.877 Y-556.466
X-279.428 Y-557.093
X-278.939 Y-557.689
X-278.411 Y-558.251
X-277.847 Y-558.778
X-277.249 Y-559.265
X-276.62 Y-559.713
X-275.963 Y-560.117
X-275.28 Y-560.477
X-274.575 Y-560.791
X-273.85 Y-561.058
X-273.109 Y-561.276
X-272.356 Y-561.444
X-271.592 Y-561.562
X-270.823 Y-561.63
X-270.05 Y-561.646
X-269.279 Y-561.61
X-268.511 Y-561.524
X-267.751 Y-561.387
X-267.001 Y-561.2
X-266.265 Y-560.963
X-265.547 Y-560.678
X-264.849 Y-560.347
X-264.175 Y-559.969
X-263.527 Y-559.548
X-262.909 Y-559.085
X-262.259 Y-558.527
X-261.631 Y-557.911
X-260.998 Y-557.202
X-260.396 Y-556.43
X-259.845 Y-555.618
X-259.354 Y-554.778
X-258.926 Y-553.921
X-258.562 Y-553.055
X-258.263 Y-552.182
X-258.027 Y-551.31
X-257.853 Y-550.44
X-257.739 Y-549.577
X-257.683 Y-548.72
X-257.684 Y-547.87
X-257.741 Y-547.031
X-257.852 Y-546.202
X-258.018 Y-545.386
X-258.237 Y-544.584
X-258.509 Y-543.8
X-258.832 Y-543.035
X-259.205 Y-542.292
X-259.628 Y-541.573
X-260.1 Y-540.882
X-260.619 Y-540.22
X-261.183 Y-539.592
X-261.791 Y-538.999
X-262.44 Y-538.444
X-263.128 Y-537.931
X-263.854 Y-537.462
X-264.613 Y-537.04
X-265.404 Y-536.667
X-266.223 Y-536.344
X-267.066 Y-536.076
X-267.931 Y-535.862
X-268.813 Y-535.705
X-269.71 Y-535.607
X-270.617 Y-535.568
X-271.529 Y-535.589
X-272.444 Y-535.671
X-273.355 Y-535.815
X-274.26 Y-536.019
X-275.154 Y-536.285
X-276.032 Y-536.61
X-276.889 Y-536.995
X-277.723 Y-537.438
X-278.529 Y-537.936
X-279.302 Y-538.489
X-280.039 Y-539.093
X-280.736 Y-539.747
X-281.39 Y-540.448
X-281.997 Y-541.192
X-282.555 Y-541.977
X-283.061 Y-542.798
X-283.512 Y-543.653
X-283.906 Y-544.537
X-284.241 Y-545.447
X-284.516 Y-546.378
X-284.728 Y-547.326
X-284.877 Y-548.288
X-284.962 Y-549.258
X-284.982 Y-550.233
X-284.938 Y-551.208
X-284.829 Y-552.179
X-284.656 Y-553.14
X-284.419 Y-554.089
X-284.12 Y-555.021
X-283.76 Y-555.931
X-283.339 Y-556.815
X-282.861 Y-557.67
X-282.327 Y-558.492
X-281.739 Y-559.277
X-281.101 Y-560.021
X-280.414 Y-560.722
X-279.682 Y-561.376
X-278.909 Y-561.979
X-278.096 Y-562.531
X-277.249 Y-563.027
X-276.371 Y-563.466
X-275.465 Y-563.846
X-274.536 Y-564.165
X-273.588 Y-564.422
X-272.625 Y-564.615
X-271.651 Y-564.744
X-270.67 Y-564.808
X-269.688 Y-564.807
X-268.707 Y-564.741
X-267.733 Y-564.61
X-266.77 Y-564.415
X-265.822 Y-564.156
X-264.893 Y-563.835
X-263.973 Y-563.447
X-263.066 Y-562.991
X-262.169 Y-562.463
X-261.287 Y-561.862
X-260.434 Y-561.193
X-259.614 Y-560.458
X-258.834 Y-559.659
X-258.103 Y-558.802
X-257.426 Y-557.894
X-256.81 Y-556.942
X-256.259 Y-555.954
X-255.779 Y-554.937
X-255.37 Y-553.899
X-255.034 Y-552.845
X-254.771 Y-551.78
X-254.58 Y-550.709
X-254.462 Y-549.635
X-254.415 Y-548.562
X-254.44 Y-547.494
X-254.535 Y-546.435
X-254.699 Y-545.387
X-254.933 Y-544.355
X-255.233 Y-543.342
X-255.6 Y-542.351
X-256.033 Y-541.387
X-256.528 Y-540.452
X-257.086 Y-539.551
X-257.703 Y-538.686
X-258.379 Y-537.863
X-259.109 Y-537.083
X-259.893 Y-536.352
X-260.726 Y-535.671
X-261.606 Y-535.045
X-262.529 Y-534.476
X-263.493 Y-533.967
X-264.492 Y-533.521
X-265.523 Y-533.141
X-266.583 Y-532.829
X-267.666 Y-532.586
X-268.767 Y-532.415
X-269.883 Y-532.317
X-271.008 Y-532.293
X-272.137 Y-532.344
X-273.265 Y-532.47
X-274.388 Y-532.672
X-275.499 Y-532.949
X-276.593 Y-533.3
X-277.666 Y-533.725
X-278.712 Y-534.221
X-279.726 Y-534.788
X-280.703 Y-535.423
X-281.638 Y-536.123
X-282.528 Y-536.885
X-283.366 Y-537.707
X-284.15 Y-538.584
X-284.876 Y-539.514
X-285.54 Y-540.491
X-286.138 Y-541.512
X-286.669 Y-542.572
X-287.128 Y-543.667
X-287.515 Y-544.791
X-287.826 Y-545.94
X-288.061 Y-547.108
X-288.218 Y-548.29
X-288.296 Y-549.481
X-288.295 Y-550.676
X-288.215 Y-551.869
X-288.056 Y-553.055
X-287.818 Y-554.228
X-287.503 Y-555.384
X-287.111 Y-556.517
X-286.646 Y-557.622
X-286.107 Y-558.694
X-285.499 Y-559.728
X-284.823 Y-560.72
X-284.083 Y-561.666
X-283.281 Y-562.56
X-282.421 Y-563.4
X-281.508 Y-564.18
X-280.544 Y-564.899
X-279.535 Y-565.553
X-278.484 Y-566.138
X-277.397 Y-566.652
X-276.278 Y-567.093
X-275.132 Y-567.459
X-273.965 Y-567.748
X-272.78 Y-567.959
X-271.584 Y-568.091
X-270.382 Y-568.143
X-269.179 Y-568.116
X-267.98 Y-568.009
X-266.788 Y-567.822
X-265.604 Y-567.555
X-264.431 Y-567.207
X-263.27 Y-566.777
X-262.126 Y-566.265
X-261.006 Y-565.671
X-259.914 Y-564.996
X-258.862 Y-564.245
X-257.863 Y-563.427
X-256.918 Y-562.545
X-256.033 Y-561.604
X-255.21 Y-560.607
X-254.453 Y-559.561
X-253.764 Y-558.468
X-253.146 Y-557.333
X-252.603 Y-556.161
X-252.136 Y-554.956
X-251.748 Y-553.723
X-251.442 Y-552.468
X-251.218 Y-551.196
X-251.077 Y-549.911
X-251.022 Y-548.62
X-251.052 Y-547.329
X-251.168 Y-546.043
X-251.368 Y-544.771
X-251.652 Y-543.515
X-252.019 Y-542.282
X-252.466 Y-541.076
X-252.992 Y-539.902
X-253.596 Y-538.764
X-254.275 Y-537.667
X-255.026 Y-536.616
X-255.846 Y-535.617
X-256.729 Y-534.675
X-257.673 Y-533.793
X-258.674 Y-532.975
X-259.725 Y-532.224
X-260.824 Y-531.544
X-261.964 Y-530.937
X-263.142 Y-530.406
X-264.352 Y-529.952
X-265.588 Y-529.577
X-266.847 Y-529.283
X-268.121 Y-529.07
X-269.406 Y-528.94
X-270.697 Y-528.891
X-271.989 Y-528.924
X-273.276 Y-529.038
X-274.553 Y-529.234
X-275.816 Y-529.508
X-277.059 Y-529.861
X-278.277 Y-530.291
X-279.467 Y-530.794
X-280.624 Y-531.371
X-281.742 Y-532.017
X-282.819 Y-532.731
X-283.849 Y-533.511
X-284.829 Y-534.353
X-285.756 Y-535.254
X-286.625 Y-536.21
X-287.434 Y-537.217
X-288.18 Y-538.272
X-288.861 Y-539.37
X-289.474 Y-540.507
X-290.018 Y-541.679
X-290.49 Y-542.882
X-290.889 Y-544.111
X-291.212 Y-545.362
X-291.459 Y-546.63
X-291.628 Y-547.911
X-291.718 Y-549.2
X-291.731 Y-550.492
X-291.665 Y-551.783
X-291.523 Y-553.067
X-291.304 Y-554.34
X-291.009 Y-555.598
X-290.64 Y-556.836
X-290.197 Y-558.05
X-289.682 Y-559.235
X-289.096 Y-560.386
X-288.441 Y-561.5
X-287.72 Y-562.572
X-286.936 Y-563.599
X-286.092 Y-564.578
X-285.191 Y-565.504
X-284.236 Y-566.375
X-283.232 Y-567.187
X-282.181 Y-567.939
X-281.086 Y-568.626
X-279.953 Y-569.245
X-278.783 Y-569.795
X-277.583 Y-570.273
X-276.356 Y-570.678
X-275.107 Y-571.009
X-273.841 Y-571.265
X-272.561 Y-571.445
X-271.273 Y-571.549
X-269.982 Y-571.577
X-268.69 Y-571.527
X-267.405 Y-571.4
X-266.129 Y-571.195
X-264.868 Y-570.914
X-263.625 Y-570.56
X-262.405 Y-570.134
X-261.212 Y-569.639
X-260.049 Y-569.077
X-258.919 Y-568.449
X-257.828 Y-567.757
X-256.778 Y-567.004
X-255.772 Y-566.193
X-254.813 Y-565.328
X-253.902 Y-564.411
X-253.043 Y-563.447
X-252.238 Y-562.436
X-251.491 Y-561.381
X-250.804 Y-560.287
X-250.178 Y-559.157
X-249.615 Y-557.994
X-249.116 Y-556.802
X-248.683 Y-555.585
X-248.318 Y-554.345
X-248.024 Y-553.087
X-247.802 Y-551.815
X-247.65 Y-550.531
X-247.569 Y-549.242
X-247.56 Y-547.95
X-247.623 Y-546.659
X-247.76 Y-545.375
X-247.97 Y-544.1
X-248.251 Y-542.839
X-248.603 Y-541.595
X-249.024 Y-540.374
X-249.511 Y-539.177
X-250.066 Y-538.01
X-250.687 Y-536.877
X-251.371 Y-535.781
X-252.116 Y-534.726
X-252.919 Y-533.713
X-253.777 Y-532.747
X-254.686 Y-531.829
X-255.646 Y-530.964
X-256.654 Y-530.156
X-257.706 Y-529.405
X-258.797 Y-528.714
X-259.926 Y-528.084
X-261.086 Y-527.517
X-262.276 Y-527.014
X-263.493 Y-526.578
X-264.732 Y-526.212
X-265.989 Y-525.914
X-267.261 Y-525.685
X-268.543 Y-525.525
X-269.832 Y-525.434
X-271.124 Y-525.413
X-272.415 Y-525.462
X-273.701 Y-525.583
X-274.979 Y-525.772
X-276.245 Y-526.029
X-277.496 Y-526.353
X-278.728 Y-526.742
X-279.938 Y-527.196
X-281.121 Y-527.714
X-282.275 Y-528.296
X-283.397 Y-528.938
X-284.482 Y-529.638
X-285.53 Y-530.395
X-286.536 Y-531.205
X-287.499 Y-532.067
X-288.414 Y-532.979
X-289.28 Y-533.938
X-290.093 Y-534.942
X-290.853 Y-535.987
X-291.558 Y-537.069
X-292.207 Y-538.187
X-292.797 Y-539.336
X-293.326 Y-540.515
X-293.792 Y-541.72
X-294.193 Y-542.948
X-294.531 Y-544.196
X-294.803 Y-545.459
X-295.01 Y-546.734
X-295.151 Y-548.018
X-295.225 Y-549.308
X-295.23 Y-550.6
X-295.168 Y-551.891
X-295.04 Y-553.177
X-294.846 Y-554.454
X-294.587 Y-555.72
X-294.264 Y-556.971
X-293.877 Y-558.203
X-293.424 Y-559.414
X-292.909 Y-560.599
X-292.334 Y-561.755
X-291.699 Y-562.881
X-291.008 Y-563.973
X-290.262 Y-565.028
X-289.463 Y-566.043
X-288.612 Y-567.015
X-287.711 Y-567.941
X-286.764 Y-568.82
X-285.773 Y-569.649
X-284.741 Y-570.427
X-283.671 Y-571.151
X-282.565 Y-571.818
X-281.425 Y-572.426
X-280.254 Y-572.974
X-279.058 Y-573.461
X-277.837 Y-573.885
X-276.597 Y-574.247
X-275.34 Y-574.546
X-274.069 Y-574.781
X-272.788 Y-574.948
X-271.5 Y-575.048
X-270.208 Y-575.082
X-268.917 Y-575.049
X-267.628 Y-574.951
X-266.347 Y-574.788
X-265.075 Y-574.56
X-263.817 Y-574.267
X-262.575 Y-573.91
X-261.352 Y-573.491
X-260.153 Y-573.012
X-258.978 Y-572.474
X-257.831 Y-571.878
X-256.715 Y-571.227
X-255.632 Y-570.523
X-254.586 Y-569.765
X-253.578 Y-568.957
X-252.61 Y-568.101
X-251.685 Y-567.199
X-250.803 Y-566.254
X-249.968 Y-565.268
X-249.181 Y-564.243
X-248.445 Y-563.182
X-247.761 Y-562.086
X-247.13 Y-560.958
X-246.555 Y-559.801
X-246.035 Y-558.618
X-245.573 Y-557.412
X-245.168 Y-556.185
X-244.823 Y-554.939
X-244.539 Y-553.679
X-244.318 Y-552.406
X-244.158 Y-551.124
X-244.06 Y-549.835
X-244.025 Y-548.544
X-244.052 Y-547.252
X-244.141 Y-545.963
X-244.294 Y-544.68
X-244.51 Y-543.406
X-244.788 Y-542.144
X-245.127 Y-540.898
X-245.526 Y-539.669
X-245.985 Y-538.461
X-246.501 Y-537.276
X-247.074 Y-536.119
X-247.705 Y-534.991
X-248.39 Y-533.895
X-249.127 Y-532.834
X-249.915 Y-531.81
X-250.752 Y-530.826
X-251.635 Y-529.883
X-252.563 Y-528.983
X-253.533 Y-528.13
X-254.544 Y-527.326
X-255.594 Y-526.572
X-256.678 Y-525.869
X-257.795 Y-525.22
X-258.941 Y-524.624
X-260.115 Y-524.083
X-261.313 Y-523.599
X-262.533 Y-523.174
X-263.772 Y-522.809
X-265.028 Y-522.504
X-266.296 Y-522.258
X-267.575 Y-522.072
X-268.861 Y-521.946
X-270.151 Y-521.881
X-271.443 Y-521.877
X-272.734 Y-521.935
X-274.02 Y-522.054
X-275.3 Y-522.233
X-276.57 Y-522.471
X-277.827 Y-522.768
X-279.07 Y-523.123
X-280.295 Y-523.534
X-281.499 Y-524.002
X-282.68 Y-524.527
X-283.834 Y-525.107
X-284.961 Y-525.739
X-286.057 Y-526.423
X-287.121 Y-527.156
X-288.151 Y-527.937
X-289.143 Y-528.764
X-290.096 Y-529.636
X-291.008 Y-530.552
X-291.875 Y-531.51
X-292.698 Y-532.506
X-293.475 Y-533.538
X-294.205 Y-534.604
X-294.885 Y-535.703
X-295.515 Y-536.831
X-296.093 Y-537.986
X-296.616 Y-539.168
X-297.085 Y-540.372
X-297.497 Y-541.596
X-297.854 Y-542.838
X-298.155 Y-544.095
X-298.398 Y-545.364
X-298.585 Y-546.642
X-298.713 Y-547.928
X-298.781 Y-549.218
X-298.789 Y-550.51
X-298.739 Y-551.801
X-298.632 Y-553.089
X-298.466 Y-554.37
X-298.244 Y-555.643
X-297.964 Y-556.905
X-297.628 Y-558.152
X-297.234 Y-559.383
X-296.784 Y-560.594
X-296.279 Y-561.783
X-295.722 Y-562.949
X-295.113 Y-564.088
X-294.453 Y-565.199
X-293.745 Y-566.28
X-292.988 Y-567.327
X-292.184 Y-568.338
X-291.334 Y-569.312
X-290.442 Y-570.246
X-289.508 Y-571.139
X-288.535 Y-571.99
X-287.526 Y-572.796
X-286.481 Y-573.556
X-285.403 Y-574.268
X-284.293 Y-574.93
X-283.154 Y-575.539
X-281.988 Y-576.097
X-280.799 Y-576.602
X-279.588 Y-577.053
X-278.359 Y-577.45
X-277.113 Y-577.792
X-275.853 Y-578.078
X-274.581 Y-578.305
X-273.3 Y-578.473
X-272.013 Y-578.584
X-270.722 Y-578.637
X-269.429 Y-578.632
X-268.139 Y-578.57
X-266.852 Y-578.451
X-265.572 Y-578.274
X-264.302 Y-578.04
X-263.043 Y-577.749
X-261.798 Y-577.402
X-260.57 Y-577
X-259.361 Y-576.546
X-258.172 Y-576.039
X-257.007 Y-575.482
X-255.866 Y-574.874
X-254.754 Y-574.217
X-253.671 Y-573.512
X-252.62 Y-572.761
X-251.602 Y-571.965
X-250.619 Y-571.126
X-249.673 Y-570.246
X-248.764 Y-569.328
X-247.895 Y-568.372
X-247.068 Y-567.379
X-246.284 Y-566.352
X-245.545 Y-565.292
X-244.852 Y-564.202
X-244.206 Y-563.083
X-243.608 Y-561.938
X-243.058 Y-560.768
X-242.557 Y-559.577
X-242.108 Y-558.366
X-241.711 Y-557.136
X-241.367 Y-555.891
X-241.078 Y-554.632
X-240.842 Y-553.361
X-240.661 Y-552.082
X-240.534 Y-550.796
X-240.462 Y-549.506
X-240.444 Y-548.214
X-240.481 Y-546.923
X-240.575 Y-545.634
X-240.725 Y-544.351
X-240.931 Y-543.075
X-241.19 Y-541.809
X-241.504 Y-540.556
X-241.87 Y-539.317
X-242.288 Y-538.094
X-242.759 Y-536.891
X-243.281 Y-535.709
X-243.855 Y-534.552
X-244.478 Y-533.42
X-245.149 Y-532.316
X-245.867 Y-531.242
X-246.63 Y-530.199
X-247.436 Y-529.189
X-248.284 Y-528.214
X-249.174 Y-527.277
X-250.103 Y-526.38
X-251.071 Y-525.523
X-252.074 Y-524.709
X-253.111 Y-523.938
X-254.18 Y-523.212
X-255.278 Y-522.531
X-256.404 Y-521.897
X-257.555 Y-521.311
X-258.731 Y-520.776
X-259.929 Y-520.291
X-261.146 Y-519.858
X-262.38 Y-519.476
X-263.63 Y-519.147
X-264.892 Y-518.87
X-266.164 Y-518.646
X-267.445 Y-518.474
X-268.731 Y-518.356
X-270.022 Y-518.293
X-271.314 Y-518.285
X-272.605 Y-518.331
X-273.893 Y-518.43
X-275.176 Y-518.583
X-276.452 Y-518.788
X-277.718 Y-519.044
X-278.973 Y-519.352
X-280.214 Y-519.713
X-281.439 Y-520.125
X-282.645 Y-520.588
X-283.831 Y-521.1
X-284.995 Y-521.66
X-286.135 Y-522.268
X-287.25 Y-522.921
X-288.338 Y-523.619
X-289.396 Y-524.36
X-290.423 Y-525.145
X-291.416 Y-525.971
X-292.374 Y-526.838
X-293.296 Y-527.743
X-294.18 Y-528.685
X-295.026 Y-529.662
X-295.831 Y-530.672
X-296.596 Y-531.714
X-297.319 Y-532.785
X-297.996 Y-533.885
X-298.628 Y-535.012
X-299.213 Y-536.164
X-299.75 Y-537.339
X-300.24 Y-538.535
X-300.681 Y-539.749
X-301.074 Y-540.98
X-301.417 Y-542.226
X-301.71 Y-543.484
X-301.951 Y-544.754
X-302.14 Y-546.032
X-302.276 Y-547.317
X-302.361 Y-548.606
X-302.394 Y-549.898
X-302.375 Y-551.189
X-302.305 Y-552.48
X-302.184 Y-553.766
X-302.011 Y-555.046
X-301.786 Y-556.319
X-301.51 Y-557.581
X-301.182 Y-558.831
X-300.804 Y-560.066
X-300.377 Y-561.286
X-299.901 Y-562.487
X-299.379 Y-563.669
X-298.81 Y-564.829
X-298.195 Y-565.965
X-297.534 Y-567.075
X-296.829 Y-568.158
X-296.08 Y-569.211
X-295.289 Y-570.233
X-294.458 Y-571.222
X-293.589 Y-572.178
X-292.682 Y-573.099
X-291.74 Y-573.983
X-290.764 Y-574.829
X-289.753 Y-575.634
X-288.71 Y-576.397
X-287.638 Y-577.117
X-286.537 Y-577.794
X-285.41 Y-578.426
X-284.259 Y-579.013
X-283.086 Y-579.554
X-281.892 Y-580.048
X-280.679 Y-580.494
X-279.449 Y-580.89
X-278.205 Y-581.236
X-276.947 Y-581.532
X-275.678 Y-581.776
X-274.401 Y-581.97
X-273.117 Y-582.113
X-271.828 Y-582.205
X-270.536 Y-582.247
X-269.244 Y-582.237
X-267.954 Y-582.175
X-266.667 Y-582.061
X-265.385 Y-581.896
X-264.112 Y-581.679
X-262.847 Y-581.413
X-261.594 Y-581.098
X-260.355 Y-580.734
X-259.13 Y-580.322
X-257.922 Y-579.863
X-256.733 Y-579.357
X-255.565 Y-578.804
X-254.42 Y-578.206
X-253.299 Y-577.564
X-252.203 Y-576.879
X-251.135 Y-576.152
X-250.095 Y-575.386
X-249.085 Y-574.58
X-248.106 Y-573.737
X-247.16 Y-572.857
X-246.248 Y-571.941
X-245.373 Y-570.991
X-244.535 Y-570.007
X-243.735 Y-568.993
X-242.974 Y-567.949
X-242.253 Y-566.876
X-241.573 Y-565.778
X-240.934 Y-564.655
X-240.338 Y-563.508
X-239.787 Y-562.34
X-239.281 Y-561.151
X-238.821 Y-559.943
X-238.408 Y-558.719
X-238.042 Y-557.48
X-237.722 Y-556.228
X-237.45 Y-554.965
X-237.226 Y-553.693
X-237.05 Y-552.413
X-236.923 Y-551.127
X-236.846 Y-549.837
X-236.82 Y-548.545
X-236.842 Y-547.253
X-236.915 Y-545.963
X-237.036 Y-544.677
X-237.206 Y-543.396
X-237.425 Y-542.123
X-237.691 Y-540.859
X-238.006 Y-539.606
X-238.37 Y-538.366
X-238.781 Y-537.141
X-239.239 Y-535.933
X-239.744 Y-534.743
X-240.293 Y-533.574
X-240.887 Y-532.426
X-241.524 Y-531.302
X-242.202 Y-530.202
X-242.922 Y-529.13
X-243.684 Y-528.086
X-244.485 Y-527.072
X-245.324 Y-526.09
X-246.201 Y-525.141
X-247.113 Y-524.226
X-248.059 Y-523.346
X-249.038 Y-522.503
X-250.048 Y-521.697
X-251.088 Y-520.93
X-252.156 Y-520.203
X-253.252 Y-519.518
X-254.372 Y-518.875
X-255.517 Y-518.276
X-256.684 Y-517.72
X-257.87 Y-517.209
X-259.075 Y-516.743
X-260.297 Y-516.322
X-261.533 Y-515.947
X-262.783 Y-515.618
X-264.044 Y-515.338
X-265.315 Y-515.105
X-266.594 Y-514.921
X-267.879 Y-514.785
X-269.168 Y-514.697
X-270.459 Y-514.657
X-271.751 Y-514.665
X-273.042 Y-514.721
X-274.33 Y-514.824
X-275.613 Y-514.975
X-276.89 Y-515.174
X-278.158 Y-515.421
X-279.416 Y-515.714
X-280.663 Y-516.055
X-281.896 Y-516.441
X-283.114 Y-516.872
X-284.315 Y-517.348
X-285.498 Y-517.867
X-286.662 Y-518.429
X-287.803 Y-519.034
X-288.922 Y-519.681
X-290.016 Y-520.368
X-291.083 Y-521.096
X-292.123 Y-521.863
X-293.135 Y-522.667
X-294.116 Y-523.507
X-295.067 Y-524.382
X-295.985 Y-525.291
X-296.869 Y-526.233
X-297.718 Y-527.207
X-298.531 Y-528.212
X-299.306 Y-529.245
X-300.043 Y-530.307
X-300.741 Y-531.394
X-301.399 Y-532.506
X-302.016 Y-533.641
X-302.592 Y-534.798
X-303.125 Y-535.975
X-303.616 Y-537.17
X-304.062 Y-538.382
X-304.464 Y-539.61
X-304.821 Y-540.852
X-305.132 Y-542.106
X-305.398 Y-543.371
X-305.618 Y-544.644
X-305.792 Y-545.924
X-305.92 Y-547.21
X-306.001 Y-548.499
X-306.036 Y-549.791
X-306.023 Y-551.083
X-305.964 Y-552.374
X-305.858 Y-553.661
X-305.705 Y-554.944
X-305.505 Y-556.221
X-305.26 Y-557.49
X-304.97 Y-558.748
X-304.635 Y-559.996
X-304.255 Y-561.231
X-303.83 Y-562.451
X-303.361 Y-563.656
X-302.849 Y-564.842
X-302.295 Y-566.009
X-301.698 Y-567.155
X-301.061 Y-568.279
X-300.383 Y-569.379
X-299.667 Y-570.454
X-298.913 Y-571.503
X-298.121 Y-572.524
X-297.293 Y-573.516
X-296.429 Y-574.477
X-295.532 Y-575.406
X-294.601 Y-576.303
X-293.638 Y-577.165
X-292.645 Y-577.991
X-291.623 Y-578.782
X-290.574 Y-579.535
X-289.498 Y-580.251
X-288.397 Y-580.927
X-287.272 Y-581.562
X-286.125 Y-582.157
X-284.957 Y-582.71
X-283.77 Y-583.22
X-282.565 Y-583.687
X-281.345 Y-584.111
X-280.11 Y-584.49
X-278.862 Y-584.826
X-277.603 Y-585.116
X-276.334 Y-585.361
X-275.057 Y-585.559
X-273.774 Y-585.712
X-272.487 Y-585.818
X-271.196 Y-585.878
X-269.904 Y-585.892
X-268.612 Y-585.859
X-267.323 Y-585.781
X-266.037 Y-585.656
X-264.756 Y-585.487
X-263.482 Y-585.272
X-262.216 Y-585.011
X-260.961 Y-584.705
X-259.717 Y-584.355
X-258.487 Y-583.962
X-257.271 Y-583.525
X-256.071 Y-583.046
X-254.888 Y-582.525
X-253.725 Y-581.963
X-252.581 Y-581.361
X-251.46 Y-580.72
X-250.362 Y-580.039
X-249.288 Y-579.321
X-248.239 Y-578.566
X-247.218 Y-577.775
X-246.224 Y-576.949
X-245.26 Y-576.089
X-244.325 Y-575.196
X-243.422 Y-574.272
X-242.551 Y-573.318
X-241.714 Y-572.334
X-240.911 Y-571.322
X-240.143 Y-570.283
X-239.412 Y-569.218
X-238.717 Y-568.128
X-238.061 Y-567.015
X-237.443 Y-565.881
X-236.864 Y-564.726
X-236.325 Y-563.551
X-235.826 Y-562.359
X-235.368 Y-561.151
X-234.953 Y-559.928
X-234.58 Y-558.69
X-234.25 Y-557.441
X-233.963 Y-556.181
X-233.72 Y-554.912
X-233.52 Y-553.636
X-233.365 Y-552.353
X-233.253 Y-551.066
X-233.186 Y-549.776
X-233.163 Y-548.484
X-233.185 Y-547.192
X-233.252 Y-545.902
X-233.364 Y-544.615
X-233.52 Y-543.332
X-233.72 Y-542.055
X-233.964 Y-540.787
X-234.252 Y-539.527
X-234.583 Y-538.278
X-234.956 Y-537.041
X-235.372 Y-535.818
X-235.831 Y-534.61
X-236.331 Y-533.419
X-236.872 Y-532.246
X-237.454 Y-531.092
X-238.075 Y-529.959
X-238.735 Y-528.848
X-239.432 Y-527.76
X-240.167 Y-526.697
X-240.938 Y-525.66
X-241.744 Y-524.651
X-242.584 Y-523.669
X-243.458 Y-522.717
X-244.364 Y-521.797
X-245.302 Y-520.908
X-246.27 Y-520.052
X-247.266 Y-519.229
X-248.29 Y-518.442
X-249.341 Y-517.689
X-250.417 Y-516.974
X-251.516 Y-516.295
X-252.638 Y-515.654
X-253.781 Y-515.052
X-254.945 Y-514.491
X-256.127 Y-513.969
X-257.326 Y-513.489
X-258.541 Y-513.049
X-259.771 Y-512.65
X-261.012 Y-512.294
X-262.266 Y-511.98
X-263.529 Y-511.709
X-264.801 Y-511.48
X-266.079 Y-511.295
X-267.364 Y-511.154
X-268.652 Y-511.056
X-269.943 Y-511.003
X-271.235 Y-510.992
X-272.527 Y-511.025
X-273.816 Y-511.102
X-275.103 Y-511.222
X-276.385 Y-511.384
X-277.66 Y-511.59
X-278.928 Y-511.838
X-280.187 Y-512.129
X-281.436 Y-512.462
X-282.672 Y-512.837
X-283.895 Y-513.253
X-285.104 Y-513.71
X-286.296 Y-514.207
X-287.472 Y-514.743
X-288.629 Y-515.318
X-289.767 Y-515.931
X-290.883 Y-516.581
X-291.977 Y-517.269
X-293.047 Y-517.992
X-294.093 Y-518.752
X-295.112 Y-519.545
X-296.105 Y-520.372
X-297.07 Y-521.231
X-298.006 Y-522.122
X-298.912 Y-523.043
X-299.788 Y-523.993
X-300.631 Y-524.972
X-301.442 Y-525.978
X-302.219 Y-527.01
X-302.961 Y-528.068
X-303.667 Y-529.15
X-304.338 Y-530.255
X-304.971 Y-531.381
X-305.568 Y-532.527
X-306.126 Y-533.692
X-306.646 Y-534.875
X-307.127 Y-536.074
X-307.568 Y-537.289
X-307.969 Y-538.517
X-308.329 Y-539.758
X-308.647 Y-541.01
X-308.924 Y-542.272
X-309.16 Y-543.542
X-309.353 Y-544.82
X-309.505 Y-546.103
X-309.615 Y-547.39
X-309.683 Y-548.681
X-309.708 Y-549.972
X-309.692 Y-551.264
X-309.632 Y-552.555
X-309.53 Y-553.843
X-309.386 Y-555.127
X-309.199 Y-556.405
X-308.971 Y-557.677
X-308.701 Y-558.941
X-308.39 Y-560.195
X-308.038 Y-561.438
X-307.646 Y-562.669
X-307.214 Y-563.887
X-306.743 Y-565.09
X-306.232 Y-566.277
X-305.682 Y-567.446
X-305.094 Y-568.596
X-304.469 Y-569.727
X-303.806 Y-570.836
X-303.109 Y-571.924
X-302.376 Y-572.988
X-301.608 Y-574.028
X-300.808 Y-575.042
X-299.975 Y-576.029
X-299.11 Y-576.989
X-298.214 Y-577.92
X-297.287 Y-578.821
X-296.332 Y-579.69
X-295.348 Y-580.528
X-294.338 Y-581.333
X-293.302 Y-582.106
X-292.241 Y-582.843
X-291.157 Y-583.546
X-290.051 Y-584.214
X-288.923 Y-584.845
X-287.776 Y-585.439
X-286.61 Y-585.995
X-285.425 Y-586.512
X-284.225 Y-586.989
X-283.01 Y-587.428
X-281.78 Y-587.826
X-280.539 Y-588.185
X-279.287 Y-588.502
X-278.025 Y-588.779
X-276.754 Y-589.015
X-275.477 Y-589.21
X-274.194 Y-589.363
X-272.907 Y-589.473
X-271.617 Y-589.542
X-270.325 Y-589.568
X-269.033 Y-589.552
X-267.742 Y-589.494
X-266.454 Y-589.395
X-265.169 Y-589.254
X-263.89 Y-589.072
X-262.618 Y-588.849
X-261.353 Y-588.585
X-260.097 Y-588.281
X-258.852 Y-587.936
X-257.619 Y-587.551
X-256.398 Y-587.126
X-255.192 Y-586.663
X-254.001 Y-586.161
X-252.827 Y-585.622
X-251.671 Y-585.046
X-250.533 Y-584.434
X-249.415 Y-583.786
X-248.318 Y-583.103
X-247.244 Y-582.386
X-246.192 Y-581.634
X-245.166 Y-580.85
X-244.164 Y-580.034
X-243.189 Y-579.186
X-242.241 Y-578.308
X-241.321 Y-577.401
X-240.429 Y-576.466
X-239.568 Y-575.503
X-238.736 Y-574.514
X-237.936 Y-573.5
X-237.168 Y-572.461
X-236.433 Y-571.398
X-235.733 Y-570.312
X-235.066 Y-569.205
X-234.435 Y-568.078
X-233.839 Y-566.931
X-233.28 Y-565.767
X-232.756 Y-564.586
X-232.27 Y-563.388
X-231.822 Y-562.177
X-231.411 Y-560.952
X-231.038 Y-559.715
X-230.705 Y-558.466
X-230.412 Y-557.208
X-230.159 Y-555.941
X-229.945 Y-554.667
X-229.771 Y-553.386
X-229.638 Y-552.101
X-229.545 Y-550.812
X-229.492 Y-549.521
X-229.479 Y-548.229
X-229.507 Y-546.938
X-229.575 Y-545.647
X-229.684 Y-544.36
X-229.834 Y-543.077
X-230.025 Y-541.799
X-230.256 Y-540.528
X-230.526 Y-539.264
X-230.836 Y-538.01
X-231.185 Y-536.766
X-231.573 Y-535.533
X-232 Y-534.314
X-232.464 Y-533.108
X-232.966 Y-531.917
X-233.505 Y-530.743
X-234.082 Y-529.587
X-234.694 Y-528.449
X-235.343 Y-527.332
X-236.026 Y-526.235
X-236.743 Y-525.16
X-237.493 Y-524.109
X-238.276 Y-523.081
X-239.091 Y-522.078
X-239.937 Y-521.101
X-240.813 Y-520.151
X-241.718 Y-519.229
X-242.652 Y-518.337
X-243.614 Y-517.474
X-244.602 Y-516.642
X-245.616 Y-515.841
X-246.655 Y-515.072
X-247.717 Y-514.336
X-248.801 Y-513.634
X-249.907 Y-512.965
X-251.033 Y-512.331
X-252.177 Y-511.733
X-253.341 Y-511.17
X-254.521 Y-510.644
X-255.717 Y-510.156
X-256.928 Y-509.705
X-258.152 Y-509.292
X-259.389 Y-508.917
X-260.636 Y-508.58
X-261.893 Y-508.282
X-263.159 Y-508.024
X-264.432 Y-507.804
X-265.712 Y-507.623
X-266.996 Y-507.482
X-268.284 Y-507.381
X-269.575 Y-507.32
X-270.867 Y-507.299
X-272.159 Y-507.318
X-273.449 Y-507.377
X-274.738 Y-507.475
X-276.022 Y-507.612
X-277.302 Y-507.789
X-278.576 Y-508.004
X-279.843 Y-508.259
X-281.101 Y-508.551
X-282.35 Y-508.883
X-283.588 Y-509.252
X-284.814 Y-509.66
X-286.027 Y-510.105
X-287.226 Y-510.587
X-288.41 Y-511.105
X-289.577 Y-511.659
X-290.727 Y-512.247
X-291.859 Y-512.871
X-292.971 Y-513.528
X-294.063 Y-514.219
X-295.134 Y-514.943
X-296.181 Y-515.699
X-297.206 Y-516.487
X-298.205 Y-517.305
X-299.179 Y-518.154
X-300.128 Y-519.031
X-301.049 Y-519.937
X-301.943 Y-520.87
X-302.808 Y-521.83
X-303.644 Y-522.815
X-304.45 Y-523.825
X-305.225 Y-524.859
X-305.968 Y-525.916
X-306.679 Y-526.995
X-307.357 Y-528.095
X-308.001 Y-529.215
X-308.611 Y-530.354
X-309.187 Y-531.51
X-309.727 Y-532.684
X-310.233 Y-533.873
X-310.702 Y-535.077
X-311.135 Y-536.294
X-311.531 Y-537.524
X-311.891 Y-538.765
X-312.212 Y-540.016
X-312.496 Y-541.277
X-312.741 Y-542.546
X-312.948 Y-543.821
X-313.116 Y-545.102
X-313.247 Y-546.387
X-313.338 Y-547.676
X-313.392 Y-548.967
X-313.406 Y-550.259
X-313.382 Y-551.551
X-313.32 Y-552.841
X-313.219 Y-554.13
X-313.078 Y-555.414
X-312.899 Y-556.694
X-312.682 Y-557.967
X-312.426 Y-559.234
X-312.133 Y-560.492
X-311.802 Y-561.741
X-311.434 Y-562.98
X-311.03 Y-564.207
X-310.589 Y-565.421
X-310.112 Y-566.622
X-309.599 Y-567.808
X-309.051 Y-568.978
X-308.468 Y-570.131
X-307.85 Y-571.266
X-307.199 Y-572.382
X-306.514 Y-573.477
X-305.797 Y-574.552
X-305.048 Y-575.605
X-304.269 Y-576.636
X-303.459 Y-577.642
X-302.619 Y-578.624
X-301.751 Y-579.581
X-300.854 Y-580.511
X-299.93 Y-581.414
X-298.979 Y-582.289
X-298.001 Y-583.134
X-297 Y-583.95
X-295.974 Y-584.735
X-294.925 Y-585.49
X-293.854 Y-586.213
X-292.762 Y-586.904
X-291.65 Y-587.562
X-290.519 Y-588.187
X-289.37 Y-588.778
X-288.204 Y-589.334
X-287.022 Y-589.855
X-285.824 Y-590.339
X-284.612 Y-590.788
X-283.388 Y-591.2
X-282.152 Y-591.576
X-280.905 Y-591.914
X-279.648 Y-592.216
X-278.384 Y-592.48
X-277.112 Y-592.707
X-275.833 Y-592.895
X-274.55 Y-593.046
X-273.263 Y-593.158
X-271.973 Y-593.232
X-270.681 Y-593.266
X-269.389 Y-593.263
X-268.098 Y-593.22
X-266.808 Y-593.14
X-265.522 Y-593.022
X-264.239 Y-592.865
X-262.962 Y-592.672
X-261.691 Y-592.441
X-260.427 Y-592.172
X-259.171 Y-591.867
X-257.925 Y-591.524
X-256.69 Y-591.145
X-255.467 Y-590.729
X-254.256 Y-590.278
X-253.06 Y-589.791
X-251.877 Y-589.269
X-250.711 Y-588.714
X-249.561 Y-588.124
X-248.429 Y-587.502
X-247.315 Y-586.847
X-246.22 Y-586.161
X-245.146 Y-585.443
X-244.093 Y-584.694
X-243.063 Y-583.914
X-242.056 Y-583.105
X-241.072 Y-582.267
X-240.114 Y-581.401
X-239.18 Y-580.507
X-238.273 Y-579.587
X-237.392 Y-578.642
X-236.539 Y-577.671
X-235.714 Y-576.677
X-234.918 Y-575.66
X-234.151 Y-574.62
X-233.414 Y-573.558
X-232.709 Y-572.476
X-232.035 Y-571.373
X-231.394 Y-570.252
X-230.785 Y-569.112
X-230.209 Y-567.956
X-229.666 Y-566.783
X-229.157 Y-565.596
X-228.682 Y-564.394
X-228.241 Y-563.179
X-227.836 Y-561.953
X-227.465 Y-560.715
X-227.131 Y-559.467
X-226.833 Y-558.21
X-226.571 Y-556.944
X-226.346 Y-555.672
X-226.158 Y-554.394
X-226.007 Y-553.11
X-225.893 Y-551.823
X-225.816 Y-550.534
X-225.775 Y-549.242
X-225.772 Y-547.95
X-225.805 Y-546.659
X-225.876 Y-545.369
X-225.984 Y-544.081
X-226.129 Y-542.797
X-226.312 Y-541.518
X-226.532 Y-540.245
X-226.788 Y-538.979
X-227.081 Y-537.72
X-227.41 Y-536.471
X-227.775 Y-535.231
X-228.175 Y-534.003
X-228.61 Y-532.786
X-229.08 Y-531.582
X-229.584 Y-530.393
X-230.122 Y-529.218
X-230.695 Y-528.06
X-231.301 Y-526.919
X-231.94 Y-525.796
X-232.611 Y-524.692
X-233.314 Y-523.607
X-234.047 Y-522.544
X-234.811 Y-521.501
X-235.604 Y-520.481
X-236.426 Y-519.485
X-237.276 Y-518.512
X-238.154 Y-517.564
X-239.059 Y-516.641
X-239.99 Y-515.745
X-240.946 Y-514.877
X-241.928 Y-514.037
X-242.933 Y-513.225
X-243.962 Y-512.443
X-245.012 Y-511.69
X-246.083 Y-510.968
X-247.174 Y-510.276
X-248.285 Y-509.616
X-249.414 Y-508.987
X-250.56 Y-508.391
X-251.723 Y-507.828
X-252.902 Y-507.299
X-254.095 Y-506.804
X-255.303 Y-506.344
X-256.523 Y-505.918
X-257.754 Y-505.528
X-258.996 Y-505.172
X-260.248 Y-504.852
X-261.508 Y-504.567
X-262.776 Y-504.318
X-264.051 Y-504.105
X-265.33 Y-503.928
X-266.615 Y-503.787
X-267.903 Y-503.683
X-269.193 Y-503.616
X-270.485 Y-503.586
X-271.777 Y-503.593
X-273.068 Y-503.636
X-274.358 Y-503.715
X-275.645 Y-503.831
X-276.928 Y-503.982
X-278.206 Y-504.17
X-279.479 Y-504.393
X-280.745 Y-504.652
X-282.003 Y-504.946
X-283.252 Y-505.276
X-284.491 Y-505.64
X-285.72 Y-506.04
X-286.937 Y-506.475
X-288.141 Y-506.943
X-289.331 Y-507.445
X-290.508 Y-507.981
X-291.668 Y-508.548
X-292.813 Y-509.148
X-293.94 Y-509.779
X-295.049 Y-510.442
X-296.14 Y-511.135
X-297.21 Y-511.858
X-298.26 Y-512.611
X-299.289 Y-513.393
X-300.294 Y-514.204
X-301.277 Y-515.043
X-302.236 Y-515.909
X-303.171 Y-516.801
X-304.08 Y-517.719
X-304.964 Y-518.662
X-305.821 Y-519.628
X-306.652 Y-520.618
X-307.454 Y-521.631
X-308.228 Y-522.665
X-308.974 Y-523.72
X-309.689 Y-524.797
X-310.374 Y-525.892
X-311.028 Y-527.007
X-311.65 Y-528.139
X-312.241 Y-529.288
X-312.8 Y-530.452
X-313.327 Y-531.632
X-313.821 Y-532.826
X-314.282 Y-534.033
X-314.71 Y-535.252
X-315.104 Y-536.483
X-315.464 Y-537.724
X-315.789 Y-538.974
X-316.078 Y-540.233
X-316.333 Y-541.5
X-316.552 Y-542.773
X-316.736 Y-544.052
X-316.885 Y-545.336
X-316.998 Y-546.623
X-317.076 Y-547.913
X-317.119 Y-549.204
X-317.126 Y-550.496
X-317.098 Y-551.788
X-317.034 Y-553.078
X-316.934 Y-554.366
X-316.799 Y-555.651
X-316.627 Y-556.932
X-316.421 Y-558.207
X-316.179 Y-559.477
X-315.902 Y-560.739
X-315.59 Y-561.993
X-315.244 Y-563.237
X-314.865 Y-564.472
X-314.451 Y-565.697
X-314.004 Y-566.909
X-313.524 Y-568.109
X-313.012 Y-569.295
X-312.466 Y-570.466
X-311.888 Y-571.621
X-311.279 Y-572.761
X-310.637 Y-573.882
X-309.966 Y-574.986
X-309.264 Y-576.071
X-308.532 Y-577.136
X-307.772 Y-578.181
X-306.984 Y-579.204
X-306.167 Y-580.206
X-305.324 Y-581.185
X-304.454 Y-582.14
X-303.558 Y-583.071
X-302.637 Y-583.977
X-301.69 Y-584.856
X-300.72 Y-585.709
X-299.726 Y-586.535
X-298.71 Y-587.334
X-297.673 Y-588.104
X-296.615 Y-588.845
X-295.537 Y-589.557
X-294.44 Y-590.24
X-293.324 Y-590.892
X-292.192 Y-591.514
X-291.042 Y-592.104
X-289.877 Y-592.662
X-288.697 Y-593.188
X-287.502 Y-593.68
X-286.294 Y-594.139
X-285.075 Y-594.565
X-283.843 Y-594.957
X-282.602 Y-595.316
X-281.351 Y-595.64
X-280.092 Y-595.93
X-278.826 Y-596.185
X-277.553 Y-596.406
X-276.274 Y-596.593
X-274.991 Y-596.744
X-273.704 Y-596.859
X-272.415 Y-596.939
X-271.123 Y-596.983
X-269.831 Y-596.992
X-268.539 Y-596.965
X-267.249 Y-596.903
X-265.96 Y-596.806
X-264.675 Y-596.674
X-263.394 Y-596.508
X-262.118 Y-596.307
X-260.847 Y-596.071
X-259.584 Y-595.801
X-258.328 Y-595.497
X-257.081 Y-595.159
X-255.844 Y-594.786
X-254.617 Y-594.38
X-253.402 Y-593.941
X-252.199 Y-593.469
X-251.01 Y-592.965
X-249.834 Y-592.429
X-248.673 Y-591.862
X-247.527 Y-591.264
X-246.398 Y-590.636
X-245.286 Y-589.978
X-244.193 Y-589.29
X-243.117 Y-588.574
X-242.062 Y-587.829
X-241.027 Y-587.055
X-240.013 Y-586.254
X-239.022 Y-585.426
X-238.052 Y-584.571
X-237.106 Y-583.691
X-236.184 Y-582.787
X-235.285 Y-581.858
X-234.412 Y-580.906
X-233.563 Y-579.932
X-232.741 Y-578.935
X-231.946 Y-577.917
X-231.178 Y-576.878
X-230.438 Y-575.819
X-229.726 Y-574.74
X-229.044 Y-573.643
X-228.392 Y-572.527
X-227.769 Y-571.395
X-227.176 Y-570.247
X-226.614 Y-569.084
X-226.083 Y-567.906
X-225.583 Y-566.715
X-225.115 Y-565.511
X-224.678 Y-564.295
X-224.274 Y-563.067
X-223.902 Y-561.83
X-223.564 Y-560.583
X-223.259 Y-559.327
X-222.988 Y-558.064
X-222.751 Y-556.794
X-222.548 Y-555.518
X-222.378 Y-554.237
X-222.243 Y-552.952
X-222.142 Y-551.664
X-222.074 Y-550.374
X-222.041 Y-549.082
X-222.042 Y-547.79
X-222.077 Y-546.498
X-222.146 Y-545.208
X-222.25 Y-543.92
X-222.389 Y-542.636
X-222.562 Y-541.355
X-222.77 Y-540.08
X-223.011 Y-538.811
X-223.286 Y-537.548
X-223.595 Y-536.294
X-223.936 Y-535.048
X-224.31 Y-533.811
X-224.717 Y-532.585
X-225.156 Y-531.369
X-225.628 Y-530.166
X-226.131 Y-528.976
X-226.665 Y-527.8
X-227.232 Y-526.639
X-227.829 Y-525.493
X-228.457 Y-524.364
X-229.115 Y-523.252
X-229.802 Y-522.158
X-230.518 Y-521.082
X-231.262 Y-520.026
X-232.034 Y-518.99
X-232.833 Y-517.974
X-233.658 Y-516.98
X-234.509 Y-516.008
X-235.386 Y-515.059
X-236.288 Y-514.133
X-237.214 Y-513.233
X-238.165 Y-512.358
X-239.138 Y-511.508
X-240.133 Y-510.684
X-241.15 Y-509.887
X-242.188 Y-509.118
X-243.246 Y-508.375
X-244.323 Y-507.661
X-245.418 Y-506.976
X-246.531 Y-506.319
X-247.66 Y-505.692
X-248.806 Y-505.095
X-249.967 Y-504.528
X-251.143 Y-503.993
X-252.333 Y-503.49
X-253.536 Y-503.018
X-254.751 Y-502.578
X-255.977 Y-502.17
X-257.213 Y-501.795
X-258.459 Y-501.452
X-259.713 Y-501.142
X-260.975 Y-500.864
X-262.244 Y-500.62
X-263.518 Y-500.408
X-264.798 Y-500.23
X-266.082 Y-500.086
X-267.37 Y-499.976
X-268.659 Y-499.9
X-269.951 Y-499.858
X-271.243 Y-499.851
X-272.535 Y-499.876
X-273.825 Y-499.936
X-275.114 Y-500.029
X-276.4 Y-500.155
X-277.682 Y-500.315
X-278.96 Y-500.507
X-280.232 Y-500.733
X-281.498 Y-500.991
X-282.757 Y-501.283
X-284.007 Y-501.607
X-285.249 Y-501.964
X-286.481 Y-502.354
X-287.702 Y-502.776
X-288.912 Y-503.229
X-290.11 Y-503.714
X-291.295 Y-504.229
X-292.466 Y-504.774
X-293.623 Y-505.35
X-294.764 Y-505.955
X-295.89 Y-506.589
X-296.999 Y-507.252
X-298.091 Y-507.943
X-299.164 Y-508.663
X-300.218 Y-509.41
X-301.252 Y-510.185
X-302.265 Y-510.986
X-303.258 Y-511.813
X-304.229 Y-512.666
X-305.178 Y-513.543
X-306.103 Y-514.444
X-307.006 Y-515.369
X-307.885 Y-516.316
X-308.739 Y-517.286
X-309.568 Y-518.277
X-310.371 Y-519.288
X-311.148 Y-520.321
X-311.898 Y-521.373
X-312.62 Y-522.444
X-313.314 Y-523.534
X-313.98 Y-524.641
X-314.617 Y-525.765
X-315.226 Y-526.905
X-315.804 Y-528.06
X-316.354 Y-529.23
X-316.873 Y-530.413
X-317.362 Y-531.609
X-317.82 Y-532.817
X-318.248 Y-534.036
X-318.644 Y-535.266
X-319.008 Y-536.506
X-319.34 Y-537.754
X-319.639 Y-539.011
X-319.906 Y-540.276
X-320.141 Y-541.546
X-320.342 Y-542.822
X-320.512 Y-544.103
X-320.648 Y-545.388
X-320.752 Y-546.676
X-320.823 Y-547.966
X-320.862 Y-549.258
X-320.867 Y-550.55
X-320.84 Y-551.841
X-320.78 Y-553.132
X-320.686 Y-554.421
X-320.558 Y-555.706
X-320.398 Y-556.989
X-320.205 Y-558.266
X-319.979 Y-559.538
X-319.721 Y-560.804
X-319.431 Y-562.063
X-319.109 Y-563.315
X-318.755 Y-564.557
X-318.37 Y-565.791
X-317.954 Y-567.014
X-317.507 Y-568.226
X-317.029 Y-569.427
X-316.521 Y-570.614
X-315.982 Y-571.789
X-315.412 Y-572.948
X-314.813 Y-574.093
X-314.185 Y-575.222
X-313.529 Y-576.335
X-312.844 Y-577.431
X-312.132 Y-578.509
X-311.393 Y-579.569
X-310.627 Y-580.609
X-309.835 Y-581.63
X-309.017 Y-582.631
X-308.175 Y-583.61
X-307.307 Y-584.568
X-306.416 Y-585.503
X-305.5 Y-586.414
X-304.561 Y-587.302
X-303.6 Y-588.165
X-302.616 Y-589.003
X-301.612 Y-589.817
X-300.588 Y-590.604
X-299.544 Y-591.365
X-298.481 Y-592.1
X-297.4 Y-592.807
X-296.301 Y-593.487
X-295.186 Y-594.139
X-294.054 Y-594.762
X-292.906 Y-595.357
X-291.744 Y-595.921
X-290.568 Y-596.455
X-289.378 Y-596.958
X-288.175 Y-597.431
X-286.961 Y-597.874
X-285.737 Y-598.285
X-284.502 Y-598.665
X-283.258 Y-599.014
X-282.005 Y-599.332
X-280.745 Y-599.617
X-279.478 Y-599.871
X-278.205 Y-600.093
X-276.927 Y-600.282
X-275.645 Y-600.439
X-274.359 Y-600.562
X-273.07 Y-600.652
X-271.779 Y-600.71
X-270.487 Y-600.734
X-269.195 Y-600.726
X-267.904 Y-600.685
X-266.614 Y-600.612
X-265.326 Y-600.507
X-264.041 Y-600.369
X-262.76 Y-600.199
X-261.484 Y-599.997
X-260.214 Y-599.764
X-258.949 Y-599.498
X-257.692 Y-599.2
X-256.443 Y-598.87
X-255.202 Y-598.508
X-253.971 Y-598.115
X-252.751 Y-597.692
X-251.541 Y-597.238
X-250.343 Y-596.754
X-249.157 Y-596.241
X-247.985 Y-595.698
X-246.826 Y-595.126
X-245.682 Y-594.526
X-244.553 Y-593.898
X-243.44 Y-593.242
X-242.343 Y-592.558
X-241.264 Y-591.847
X-240.204 Y-591.109
X-239.162 Y-590.345
X-238.14 Y-589.555
X-237.137 Y-588.74
X-236.155 Y-587.9
X-235.194 Y-587.036
X-234.255 Y-586.15
X-233.337 Y-585.24
X-232.442 Y-584.308
X-231.57 Y-583.354
X-230.722 Y-582.38
X-229.898 Y-581.384
X-229.099 Y-580.369
X-228.326 Y-579.334
X-227.578 Y-578.28
X-226.858 Y-577.208
X-226.164 Y-576.118
X-225.497 Y-575.011
X-224.857 Y-573.889
X-224.245 Y-572.751
X-223.661 Y-571.598
X-223.106 Y-570.431
X-222.579 Y-569.252
X-222.081 Y-568.059
X-221.613 Y-566.855
X-221.174 Y-565.64
X-220.765 Y-564.414
X-220.388 Y-563.179
X-220.041 Y-561.934
X-219.725 Y-560.681
X-219.44 Y-559.421
X-219.187 Y-558.154
X-218.965 Y-556.881
X-218.774 Y-555.603
X-218.614 Y-554.321
X-218.486 Y-553.035
X-218.39 Y-551.747
X-218.325 Y-550.457
X-218.291 Y-549.165
X-218.29 Y-547.873
X-218.32 Y-546.581
X-218.383 Y-545.291
X-218.478 Y-544.002
X-218.606 Y-542.716
X-218.765 Y-541.434
X-218.955 Y-540.156
X-219.178 Y-538.883
X-219.431 Y-537.616
X-219.716 Y-536.356
X-220.031 Y-535.103
X-220.377 Y-533.858
X-220.754 Y-532.622
X-221.16 Y-531.396
X-221.597 Y-530.18
X-222.064 Y-528.975
X-222.561 Y-527.782
X-223.087 Y-526.602
X-223.643 Y-525.436
X-224.228 Y-524.284
X-224.841 Y-523.146
X-225.481 Y-522.025
X-226.15 Y-520.919
X-226.845 Y-519.83
X-227.567 Y-518.758
X-228.314 Y-517.704
X-229.088 Y-516.669
X-229.886 Y-515.653
X-230.709 Y-514.657
X-231.557 Y-513.682
X-232.428 Y-512.728
X-233.324 Y-511.797
X-234.242 Y-510.888
X-235.182 Y-510.002
X-236.144 Y-509.139
X-237.127 Y-508.301
X-238.13 Y-507.486
X-239.153 Y-506.697
X-240.195 Y-505.933
X-241.255 Y-505.194
X-242.333 Y-504.481
X-243.428 Y-503.795
X-244.539 Y-503.136
X-245.666 Y-502.505
X-246.809 Y-501.902
X-247.966 Y-501.327
X-249.137 Y-500.781
X-250.321 Y-500.264
X-251.518 Y-499.777
X-252.726 Y-499.319
X-253.945 Y-498.89
X-255.174 Y-498.491
X-256.412 Y-498.122
X-257.659 Y-497.784
X-258.914 Y-497.475
X-260.176 Y-497.197
X-261.444 Y-496.95
X-262.718 Y-496.734
X-263.996 Y-496.549
X-265.279 Y-496.396
X-266.566 Y-496.275
X-267.855 Y-496.185
X-269.145 Y-496.127
X-270.437 Y-496.099
X-271.729 Y-496.104
X-273.021 Y-496.139
X-274.311 Y-496.206
X-275.599 Y-496.303
X-276.885 Y-496.432
X-278.167 Y-496.591
X-279.445 Y-496.782
X-280.718 Y-497.003
X-281.985 Y-497.255
X-283.246 Y-497.538
X-284.499 Y-497.852
X-285.745 Y-498.197
X-286.981 Y-498.571
X-288.208 Y-498.975
X-289.426 Y-499.409
X-290.632 Y-499.872
X-291.827 Y-500.363
X-293.009 Y-500.884
X-294.179 Y-501.432
X-295.336 Y-502.008
X-296.479 Y-502.611
X-297.606 Y-503.242
X-298.718 Y-503.899
X-299.814 Y-504.584
X-300.893 Y-505.295
X-301.954 Y-506.033
X-302.997 Y-506.795
X-304.021 Y-507.583
X-305.027 Y-508.394
X-306.012 Y-509.23
X-306.977 Y-510.089
X-307.922 Y-510.97
X-308.845 Y-511.874
X-309.747 Y-512.799
X-310.626 Y-513.746
X-311.483 Y-514.713
X-312.316 Y-515.701
X-313.125 Y-516.708
X-313.909 Y-517.735
X-314.668 Y-518.781
X-315.402 Y-519.844
X-316.11 Y-520.925
X-316.792 Y-522.022
X-317.448 Y-523.135
X-318.077 Y-524.264
X-318.679 Y-525.407
X-319.254 Y-526.564
X-319.801 Y-527.735
X-320.321 Y-528.918
X-320.812 Y-530.113
X-321.275 Y-531.319
X-321.708 Y-532.536
X-322.112 Y-533.764
X-322.486 Y-535
X-322.831 Y-536.246
X-323.145 Y-537.499
X-323.43 Y-538.759
X-323.684 Y-540.026
X-323.908 Y-541.299
X-324.102 Y-542.576
X-324.266 Y-543.858
X-324.399 Y-545.143
X-324.502 Y-546.431
X-324.575 Y-547.721
X-324.617 Y-549.012
X-324.628 Y-550.304
X-324.608 Y-551.596
X-324.557 Y-552.887
X-324.475 Y-554.176
X-324.362 Y-555.464
X-324.219 Y-556.748
X-324.045 Y-558.028
X-323.84 Y-559.304
X-323.606 Y-560.574
X-323.341 Y-561.839
X-323.047 Y-563.097
X-322.723 Y-564.348
X-322.37 Y-565.591
X-321.987 Y-566.825
X-321.576 Y-568.05
X-321.135 Y-569.264
X-320.665 Y-570.468
X-320.166 Y-571.659
X-319.639 Y-572.839
X-319.084 Y-574.006
X-318.501 Y-575.159
X-317.891 Y-576.298
X-317.254 Y-577.422
X-316.591 Y-578.531
X-315.902 Y-579.624
X-315.187 Y-580.7
X-314.447 Y-581.76
X-313.683 Y-582.801
X-312.894 Y-583.825
X-312.081 Y-584.829
X-311.244 Y-585.813
X-310.383 Y-586.777
X-309.5 Y-587.72
X-308.595 Y-588.642
X-307.667 Y-589.541
X-306.719 Y-590.419
X-305.75 Y-591.274
X-304.762 Y-592.105
X-303.753 Y-592.914
X-302.727 Y-593.698
X-301.682 Y-594.458
X-300.619 Y-595.193
X-299.539 Y-595.903
X-298.443 Y-596.587
X-297.331 Y-597.244
X-296.203 Y-597.875
X-295.061 Y-598.478
X-293.904 Y-599.054
X-292.734 Y-599.603
X-291.552 Y-600.123
X-290.357 Y-600.615
X-289.151 Y-601.079
X-287.935 Y-601.514
X-286.708 Y-601.92
X-285.472 Y-602.298
X-284.228 Y-602.646
X-282.976 Y-602.966
X-281.717 Y-603.255
X-280.451 Y-603.515
X-279.18 Y-603.744
X-277.903 Y-603.943
X-276.622 Y-604.111
X-275.337 Y-604.248
X-274.05 Y-604.355
X-272.76 Y-604.432
X-271.469 Y-604.478
X-270.177 Y-604.494
X-268.885 Y-604.48
X-267.593 Y-604.435
X-266.304 Y-604.36
X-265.016 Y-604.255
X-263.731 Y-604.12
X-262.449 Y-603.956
X-261.172 Y-603.76
X-259.9 Y-603.535
X-258.633 Y-603.279
X-257.373 Y-602.993
X-256.12 Y-602.678
X-254.875 Y-602.334
X-253.638 Y-601.96
X-252.41 Y-601.558
X-251.192 Y-601.127
X-249.984 Y-600.668
X-248.788 Y-600.181
X-247.602 Y-599.667
X-246.429 Y-599.126
X-245.269 Y-598.557
X-244.122 Y-597.962
X-242.989 Y-597.34
X-241.872 Y-596.692
X-240.77 Y-596.017
X-239.684 Y-595.317
X-238.614 Y-594.592
X-237.562 Y-593.843
X-236.527 Y-593.069
X-235.511 Y-592.271
X-234.513 Y-591.451
X-233.534 Y-590.607
X-232.575 Y-589.742
X-231.635 Y-588.854
X-230.717 Y-587.946
X-229.819 Y-587.017
X-228.943 Y-586.067
X-228.089 Y-585.097
X-227.258 Y-584.108
X-226.451 Y-583.099
X-225.667 Y-582.072
X-224.907 Y-581.027
X-224.171 Y-579.965
X-223.46 Y-578.886
X-222.773 Y-577.792
X-222.112 Y-576.682
X-221.477 Y-575.557
X-220.867 Y-574.417
X-220.284 Y-573.265
X-219.727 Y-572.099
X-219.196 Y-570.921
X-218.693 Y-569.731
X-218.218 Y-568.529
X-217.771 Y-567.317
X-217.352 Y-566.095
X-216.961 Y-564.863
X-216.599 Y-563.623
X-216.265 Y-562.375
X-215.961 Y-561.119
X-215.685 Y-559.857
X-215.439 Y-558.588
X-215.221 Y-557.315
X-215.032 Y-556.036
X-214.873 Y-554.754
X-214.743 Y-553.469
X-214.642 Y-552.181
X-214.572 Y-550.891
X-214.531 Y-549.599
X-214.52 Y-548.307
X-214.539 Y-547.015
X-214.589 Y-545.724
X-214.668 Y-544.435
X-214.777 Y-543.147
X-214.915 Y-541.862
X-215.083 Y-540.581
X-215.281 Y-539.305
X-215.507 Y-538.032
X-215.763 Y-536.766
X-216.047 Y-535.506
X-216.36 Y-534.252
X-216.702 Y-533.006
X-217.073 Y-531.768
X-217.472 Y-530.539
X-217.9 Y-529.32
X-218.356 Y-528.111
X-218.84 Y-526.913
X-219.352 Y-525.727
X-219.89 Y-524.553
X-220.456 Y-523.391
X-221.049 Y-522.243
X-221.667 Y-521.108
X-222.312 Y-519.989
X-222.981 Y-518.884
X-223.676 Y-517.794
X-224.396 Y-516.721
X-225.14 Y-515.665
X-225.908 Y-514.626
X-226.7 Y-513.605
X-227.516 Y-512.603
X-228.354 Y-511.62
X-229.215 Y-510.657
X-230.099 Y-509.714
X-231.003 Y-508.792
X-231.929 Y-507.89
X-232.875 Y-507.01
X-233.841 Y-506.152
X-234.827 Y-505.317
X-235.831 Y-504.504
X-236.853 Y-503.714
X-237.893 Y-502.947
X-238.951 Y-502.204
X-240.025 Y-501.486
X-241.115 Y-500.793
X-242.222 Y-500.126
X-243.343 Y-499.484
X-244.479 Y-498.868
X-245.629 Y-498.279
X-246.792 Y-497.716
X-247.967 Y-497.18
X-249.155 Y-496.671
X-250.354 Y-496.189
X-251.563 Y-495.734
X-252.782 Y-495.307
X-254.011 Y-494.907
X-255.249 Y-494.536
X-256.494 Y-494.192
X-257.747 Y-493.877
X-259.007 Y-493.591
X-260.273 Y-493.335
X-261.545 Y-493.107
X-262.822 Y-492.908
X-264.103 Y-492.739
X-265.387 Y-492.599
X-266.675 Y-492.488
X-267.964 Y-492.406
X-269.255 Y-492.354
X-270.547 Y-492.331
X-271.839 Y-492.337
X-273.131 Y-492.372
X-274.421 Y-492.435
X-275.71 Y-492.528
X-276.996 Y-492.65
X-278.279 Y-492.802
X-279.559 Y-492.983
X-280.833 Y-493.193
X-282.103 Y-493.431
X-283.367 Y-493.699
X-284.625 Y-493.995
X-285.876 Y-494.32
X-287.119 Y-494.672
X-288.353 Y-495.053
X-289.579 Y-495.461
X-290.796 Y-495.897
X-292.002 Y-496.359
X-293.198 Y-496.849
X-294.382 Y-497.365
X-295.555 Y-497.907
X-296.715 Y-498.476
X-297.862 Y-499.072
X-298.995 Y-499.693
X-300.113 Y-500.339
X-301.217 Y-501.011
X-302.305 Y-501.707
X-303.378 Y-502.428
X-304.434 Y-503.173
X-305.473 Y-503.941
X-306.494 Y-504.732
X-307.498 Y-505.545
X-308.483 Y-506.381
X-309.45 Y-507.239
X-310.397 Y-508.117
X-311.324 Y-509.017
X-312.231 Y-509.937
X-313.117 Y-510.878
X-313.981 Y-511.838
X-314.824 Y-512.818
X-315.644 Y-513.816
X-316.442 Y-514.833
X-317.216 Y-515.867
X-317.968 Y-516.918
X-318.695 Y-517.986
X-319.399 Y-519.069
X-320.078 Y-520.168
X-320.733 Y-521.282
X-321.363 Y-522.41
X-321.968 Y-523.552
X-322.548 Y-524.707
X-323.101 Y-525.874
X-323.628 Y-527.054
X-324.129 Y-528.245
X-324.602 Y-529.447
X-325.048 Y-530.66
X-325.468 Y-531.882
X-325.859 Y-533.113
X-326.223 Y-534.353
X-326.56 Y-535.6
X-326.868 Y-536.855
X-327.149 Y-538.116
X-327.401 Y-539.383
X-327.626 Y-540.656
X-327.822 Y-541.933
X-327.991 Y-543.214
X-328.13 Y-544.498
X-328.241 Y-545.786
X-328.323 Y-547.075
X-328.376 Y-548.366
X-328.4 Y-549.658
X-328.395 Y-550.95
X-328.361 Y-552.242
X-328.299 Y-553.532
X-328.208 Y-554.821
X-328.088 Y-556.107
X-327.94 Y-557.391
X-327.763 Y-558.671
X-327.558 Y-559.947
X-327.325 Y-561.217
X-327.064 Y-562.483
X-326.775 Y-563.742
X-326.458 Y-564.995
X-326.114 Y-566.24
X-325.741 Y-567.477
X-325.341 Y-568.706
X-324.913 Y-569.925
X-324.458 Y-571.134
X-323.977 Y-572.333
X-323.469 Y-573.521
X-322.934 Y-574.698
X-322.374 Y-575.862
X-321.788 Y-577.013
X-321.177 Y-578.152
X-320.541 Y-579.276
X-319.88 Y-580.387
X-319.195 Y-581.482
X-318.486 Y-582.562
X-317.753 Y-583.626
X-316.996 Y-584.674
X-316.216 Y-585.704
X-315.413 Y-586.716
X-314.588 Y-587.71
X-313.741 Y-588.686
X-312.872 Y-589.642
X-311.983 Y-590.579
X-311.073 Y-591.496
X-310.142 Y-592.393
X-309.193 Y-593.269
X-308.224 Y-594.124
X-307.236 Y-594.957
X-306.231 Y-595.768
X-305.207 Y-596.557
X-304.167 Y-597.323
X-303.109 Y-598.065
X-302.035 Y-598.784
X-300.946 Y-599.478
X-299.841 Y-600.148
X-298.722 Y-600.793
X-297.588 Y-601.414
X-296.441 Y-602.008
X-295.281 Y-602.578
X-294.109 Y-603.121
X-292.925 Y-603.639
X-291.73 Y-604.13
X-290.525 Y-604.595
X-289.309 Y-605.033
X-288.084 Y-605.444
X-286.851 Y-605.828
X-285.609 Y-606.185
X-284.359 Y-606.513
X-283.103 Y-606.814
X-281.84 Y-607.087
X-280.571 Y-607.331
X-279.297 Y-607.548
X-278.019 Y-607.736
X-276.737 Y-607.895
X-275.451 Y-608.027
X-274.163 Y-608.13
X-272.873 Y-608.205
X-271.582 Y-608.251
X-270.29 Y-608.269
X-268.998 Y-608.259
X-267.707 Y-608.22
X-266.417 Y-608.153
X-265.128 Y-608.058
X-263.842 Y-607.933
X-262.559 Y-607.781
X-261.28 Y-607.6
X-260.005 Y-607.391
X-258.734 Y-607.153
X-257.47 Y-606.888
X-256.211 Y-606.596
X-254.96 Y-606.275
X-253.715 Y-605.928
X-252.479 Y-605.553
X-251.251 Y-605.152
X-250.031 Y-604.724
X-248.822 Y-604.27
X-247.622 Y-603.79
X-246.434 Y-603.283
X-245.257 Y-602.751
X-244.091 Y-602.192
X-242.939 Y-601.609
X-241.799 Y-601
X-240.673 Y-600.367
X-239.561 Y-599.709
X-238.463 Y-599.027
X-237.381 Y-598.321
X-236.314 Y-597.593
X-235.263 Y-596.841
X-234.228 Y-596.067
X-233.211 Y-595.271
X-232.211 Y-594.453
X-231.228 Y-593.614
X-230.264 Y-592.753
X-229.319 Y-591.872
X-228.393 Y-590.971
X-227.487 Y-590.05
X-226.602 Y-589.109
X-225.737 Y-588.149
X-224.892 Y-587.171
X-224.07 Y-586.175
X-223.268 Y-585.161
X-222.489 Y-584.131
X-221.733 Y-583.083
X-220.999 Y-582.02
X-220.288 Y-580.941
X-219.6 Y-579.847
X-218.936 Y-578.739
X-218.295 Y-577.617
X-217.679 Y-576.481
X-217.088 Y-575.332
X-216.522 Y-574.171
X-215.981 Y-572.998
X-215.465 Y-571.813
X-214.975 Y-570.617
X-214.512 Y-569.411
X-214.074 Y-568.196
X-213.663 Y-566.971
X-213.278 Y-565.737
X-212.92 Y-564.496
X-212.588 Y-563.247
X-212.283 Y-561.992
X-212.006 Y-560.73
X-211.755 Y-559.462
X-211.532 Y-558.19
X-211.336 Y-556.913
X-211.168 Y-555.631
X-211.027 Y-554.347
X-210.915 Y-553.06
X-210.83 Y-551.771
X-210.774 Y-550.48
X-210.745 Y-549.188
X-210.744 Y-547.896
X-210.772 Y-546.604
X-210.827 Y-545.313
X-210.909 Y-544.024
X-211.02 Y-542.737
X-211.158 Y-541.452
X-211.324 Y-540.171
X-211.517 Y-538.893
X-211.737 Y-537.62
X-211.986 Y-536.352
X-212.261 Y-535.09
X-212.564 Y-533.834
X-212.894 Y-532.584
X-213.251 Y-531.343
X-213.635 Y-530.109
X-214.045 Y-528.884
X-214.482 Y-527.668
X-214.945 Y-526.462
X-215.434 Y-525.266
X-215.949 Y-524.081
X-216.489 Y-522.907
X-217.054 Y-521.745
X-217.644 Y-520.595
X-218.258 Y-519.459
X-218.897 Y-518.336
X-219.56 Y-517.227
X-220.247 Y-516.132
X-220.957 Y-515.053
X-221.691 Y-513.989
X-222.447 Y-512.942
X-223.226 Y-511.911
X-224.028 Y-510.897
X-224.85 Y-509.901
X-225.694 Y-508.923
X-226.559 Y-507.963
X-227.445 Y-507.022
X-228.35 Y-506.1
X-229.275 Y-505.198
X-230.219 Y-504.316
X-231.182 Y-503.454
X-232.163 Y-502.614
X-233.162 Y-501.794
X-234.178 Y-500.997
X-235.212 Y-500.221
X-236.262 Y-499.468
X-237.328 Y-498.738
X-238.409 Y-498.031
X-239.506 Y-497.347
X-240.616 Y-496.687
X-241.741 Y-496.051
X-242.879 Y-495.44
X-244.03 Y-494.853
X-245.194 Y-494.29
X-246.369 Y-493.753
X-247.555 Y-493.241
X-248.752 Y-492.754
X-249.959 Y-492.293
X-251.175 Y-491.858
X-252.401 Y-491.449
X-253.635 Y-491.067
X-254.877 Y-490.711
X-256.126 Y-490.382
X-257.383 Y-490.079
X-258.645 Y-489.804
X-259.913 Y-489.556
X-261.186 Y-489.335
X-262.463 Y-489.141
X-263.745 Y-488.974
X-265.029 Y-488.835
X-266.316 Y-488.722
X-267.606 Y-488.638
X-268.896 Y-488.58
X-270.188 Y-488.55
X-271.48 Y-488.547
X-272.772 Y-488.573
X-274.063 Y-488.625
X-275.353 Y-488.705
X-276.64 Y-488.813
X-277.925 Y-488.948
X-279.207 Y-489.11
X-280.485 Y-489.3
X-281.759 Y-489.516
X-283.028 Y-489.76
X-284.291 Y-490.03
X-285.549 Y-490.327
X-286.799 Y-490.651
X-288.043 Y-491
X-289.28 Y-491.376
X-290.507 Y-491.778
X-291.727 Y-492.206
X-292.936 Y-492.66
X-294.136 Y-493.139
X-295.326 Y-493.643
X-296.504 Y-494.173
X-297.671 Y-494.727
X-298.827 Y-495.306
X-299.969 Y-495.909
X-301.099 Y-496.537
X-302.215 Y-497.188
X-303.317 Y-497.862
X-304.405 Y-498.559
X-305.477 Y-499.279
X-306.535 Y-500.022
X-307.577 Y-500.786
X-308.602 Y-501.572
X-309.611 Y-502.38
X-310.602 Y-503.208
X-311.576 Y-504.058
X-312.531 Y-504.928
X-313.468 Y-505.817
X-314.386 Y-506.727
X-315.285 Y-507.655
X-316.163 Y-508.602
X-317.022 Y-509.567
X-317.861 Y-510.551
X-318.678 Y-511.551
X-319.474 Y-512.569
X-320.249 Y-513.602
X-321.002 Y-514.652
X-321.733 Y-515.718
X-322.442 Y-516.798
X-323.128 Y-517.893
X-323.79 Y-519.002
X-324.429 Y-520.125
X-325.045 Y-521.261
X-325.636 Y-522.41
X-326.203 Y-523.571
X-326.746 Y-524.744
X-327.264 Y-525.928
X-327.757 Y-527.122
X-328.224 Y-528.326
X-328.667 Y-529.54
X-329.084 Y-530.763
X-329.475 Y-531.994
X-329.841 Y-533.234
X-330.181 Y-534.48
X-330.494 Y-535.734
X-330.782 Y-536.993
X-331.043 Y-538.259
X-331.277 Y-539.529
X-331.485 Y-540.805
X-331.666 Y-542.084
X-331.82 Y-543.367
X-331.947 Y-544.653
X-332.047 Y-545.941
X-332.12 Y-547.231
X-332.167 Y-548.522
X-332.186 Y-549.814
X-332.178 Y-551.106
X-332.144 Y-552.397
X-332.082 Y-553.688
X-331.994 Y-554.977
X-331.879 Y-556.264
X-331.737 Y-557.548
X-331.568 Y-558.829
X-331.372 Y-560.106
X-331.15 Y-561.379
X-330.901 Y-562.647
X-330.626 Y-563.909
X-330.325 Y-565.166
X-329.997 Y-566.416
X-329.643 Y-567.658
X-329.263 Y-568.893
X-328.858 Y-570.12
X-328.427 Y-571.338
X-327.971 Y-572.547
X-327.49 Y-573.746
X-326.983 Y-574.935
X-326.453 Y-576.113
X-325.898 Y-577.28
X-325.319 Y-578.435
X-324.715 Y-579.577
X-324.088 Y-580.707
X-323.438 Y-581.823
X-322.764 Y-582.926
X-322.068 Y-584.014
X-321.348 Y-585.088
X-320.607 Y-586.146
X-319.844 Y-587.188
X-319.059 Y-588.215
X-318.253 Y-589.224
X-317.426 Y-590.217
X-316.578 Y-591.192
X-315.711 Y-592.15
X-314.824 Y-593.089
X-313.917 Y-594.01
X-312.992 Y-594.912
X-312.048 Y-595.794
X-311.085 Y-596.656
X-310.105 Y-597.498
X-309.108 Y-598.319
X-308.093 Y-599.119
X-307.062 Y-599.898
X-306.015 Y-600.655
X-304.953 Y-601.39
X-303.875 Y-602.103
X-302.783 Y-602.793
X-301.677 Y-603.461
X-300.557 Y-604.105
X-299.424 Y-604.726
X-298.278 Y-605.323
X-297.12 Y-605.896
X-295.95 Y-606.446
X-294.77 Y-606.97
X-293.578 Y-607.47
X-292.377 Y-607.945
X-291.165 Y-608.394
X-289.945 Y-608.819
X-288.716 Y-609.218
X-287.479 Y-609.591
X-286.234 Y-609.938
X-284.983 Y-610.26
X-283.725 Y-610.555
X-282.461 Y-610.824
X-281.192 Y-611.067
X-279.919 Y-611.283
X-278.641 Y-611.473
X-277.359 Y-611.637
X-276.074 Y-611.774
X-274.787 Y-611.884
X-273.497 Y-611.967
X-272.207 Y-612.024
X-270.915 Y-612.054
X-269.623 Y-612.057
X-268.331 Y-612.033
X-267.04 Y-611.982
X-265.75 Y-611.905
X-264.462 Y-611.801
X-263.177 Y-611.67
X-261.894 Y-611.513
X-260.616 Y-611.329
X-259.341 Y-611.12
X-258.07 Y-610.883
X-256.805 Y-610.621
X-255.546 Y-610.333
X-254.292 Y-610.019
X-253.046 Y-609.68
X-251.806 Y-609.314
X-250.575 Y-608.923
X-249.352 Y-608.507
X-248.137 Y-608.066
X-246.932 Y-607.6
X-245.737 Y-607.109
X-244.552 Y-606.594
X-243.378 Y-606.055
X-242.215 Y-605.491
X-241.064 Y-604.905
X-239.925 Y-604.294
X-238.799 Y-603.661
X-237.686 Y-603.005
X-236.587 Y-602.326
X-235.501 Y-601.625
X-234.43 Y-600.902
X-233.375 Y-600.157
X-232.334 Y-599.391
X-231.31 Y-598.604
X-230.302 Y-597.795
X-229.31 Y-596.967
X-228.336 Y-596.119
X-227.379 Y-595.251
X-226.439 Y-594.363
X-225.518 Y-593.457
X-224.616 Y-592.532
X-223.733 Y-591.59
X-222.869 Y-590.629
X-222.024 Y-589.651
X-221.2 Y-588.656
X-220.395 Y-587.645
X-219.612 Y-586.618
X-218.849 Y-585.575
X-218.108 Y-584.516
X-217.389 Y-583.443
X-216.691 Y-582.355
X-216.016 Y-581.254
X-215.363 Y-580.139
X-214.733 Y-579.011
X-214.126 Y-577.87
X-213.542 Y-576.718
X-212.982 Y-575.554
X-212.445 Y-574.378
X-211.932 Y-573.192
X-211.443 Y-571.996
X-210.979 Y-570.791
X-210.539 Y-569.576
X-210.124 Y-568.352
X-209.733 Y-567.121
X-209.368 Y-565.881
X-209.028 Y-564.635
X-208.713 Y-563.382
X-208.424 Y-562.122
X-208.16 Y-560.857
X-207.923 Y-559.587
X-207.711 Y-558.313
X-207.524 Y-557.034
X-207.364 Y-555.752
X-207.23 Y-554.467
X-207.122 Y-553.18
X-207.04 Y-551.89
X-206.984 Y-550.599
X-206.955 Y-549.308
X-206.951 Y-548.016
X-206.974 Y-546.724
X-207.022 Y-545.433
X-207.098 Y-544.143
X-207.199 Y-542.855
X-207.327 Y-541.569
X-207.48 Y-540.286
X-207.66 Y-539.007
X-207.866 Y-537.731
X-208.097 Y-536.46
X-208.355 Y-535.194
X-208.638 Y-533.933
X-208.946 Y-532.678
X-209.28 Y-531.43
X-209.639 Y-530.189
X-210.023 Y-528.955
X-210.432 Y-527.73
X-210.866 Y-526.513
X-211.325 Y-525.305
X-211.808 Y-524.106
X-212.315 Y-522.918
X-212.846 Y-521.74
X-213.402 Y-520.574
X-213.98 Y-519.419
X-214.583 Y-518.275
X-215.208 Y-517.145
X-215.856 Y-516.027
X-216.527 Y-514.923
X-217.219 Y-513.832
X-217.934 Y-512.756
X-218.671 Y-511.694
X-219.429 Y-510.648
X-220.208 Y-509.617
X-221.007 Y-508.602
X-221.827 Y-507.604
X-222.667 Y-506.622
X-223.527 Y-505.657
X-224.407 Y-504.711
X-225.305 Y-503.782
X-226.222 Y-502.872
X-227.157 Y-501.981
X-228.111 Y-501.108
X-229.081 Y-500.255
X-230.069 Y-499.423
X-231.073 Y-498.61
X-232.094 Y-497.817
X-233.13 Y-497.046
X-234.182 Y-496.295
X-235.249 Y-495.566
X-236.33 Y-494.859
X-237.425 Y-494.174
X-238.534 Y-493.51
X-239.656 Y-492.87
X-240.791 Y-492.252
X-241.938 Y-491.657
X-243.097 Y-491.086
X-244.267 Y-490.538
X-245.448 Y-490.014
X-246.639 Y-489.514
X-247.84 Y-489.038
X-249.051 Y-488.586
X-250.27 Y-488.159
X-251.498 Y-487.756
X-252.733 Y-487.378
X-253.976 Y-487.025
X-255.226 Y-486.697
X-256.482 Y-486.394
X-257.744 Y-486.116
X-259.011 Y-485.864
X-260.283 Y-485.637
X-261.56 Y-485.436
X-262.84 Y-485.261
X-264.123 Y-485.112
X-265.409 Y-484.988
X-266.697 Y-484.89
X-267.988 Y-484.818
X-269.279 Y-484.772
X-270.571 Y-484.752
X-271.863 Y-484.757
X-273.154 Y-484.789
X-274.445 Y-484.846
X-275.735 Y-484.929
X-277.022 Y-485.038
X-278.307 Y-485.172
X-279.589 Y-485.332
X-280.868 Y-485.518
X-282.143 Y-485.729
X-283.413 Y-485.965
X-284.678 Y-486.227
X-285.938 Y-486.515
X-287.191 Y-486.827
X-288.439 Y-487.164
X-289.679 Y-487.526
X-290.912 Y-487.913
X-292.137 Y-488.324
X-293.353 Y-488.76
X-294.561 Y-489.219
X-295.759 Y-489.703
X-296.947 Y-490.21
X-298.125 Y-490.741
X-299.292 Y-491.295
X-300.448 Y-491.872
X-301.593 Y-492.472
X-302.725 Y-493.094
X-303.845 Y-493.739
X-304.951 Y-494.406
X-306.044 Y-495.095
X-307.123 Y-495.806
X-308.188 Y-496.538
X-309.238 Y-497.291
X-310.273 Y-498.065
X-311.292 Y-498.859
X-312.295 Y-499.673
X-313.282 Y-500.506
X-314.253 Y-501.359
X-315.206 Y-502.232
X-316.142 Y-503.122
X-317.06 Y-504.032
X-317.96 Y-504.959
X-318.842 Y-505.903
X-319.704 Y-506.865
X-320.548 Y-507.844
X-321.371 Y-508.839
X-322.175 Y-509.851
X-322.959 Y-510.878
X-323.722 Y-511.921
X-324.464 Y-512.979
X-325.185 Y-514.05
X-325.885 Y-515.136
X-326.564 Y-516.236
X-327.22 Y-517.349
X-327.855 Y-518.474
X-328.467 Y-519.612
X-329.057 Y-520.762
X-329.624 Y-521.923
X-330.168 Y-523.095
X-330.688 Y-524.277
X-331.186 Y-525.47
X-331.66 Y-526.672
X-332.109 Y-527.883
X-332.535 Y-529.103
X-332.936 Y-530.331
X-333.313 Y-531.567
X-333.666 Y-532.81
X-333.994 Y-534.06
X-334.298 Y-535.316
X-334.576 Y-536.577
X-334.83 Y-537.844
X-335.059 Y-539.116
X-335.263 Y-540.392
X-335.441 Y-541.671
X-335.595 Y-542.954
X-335.723 Y-544.24
X-335.826 Y-545.528
X-335.903 Y-546.818
X-335.956 Y-548.109
X-335.982 Y-549.4
X-335.983 Y-550.692
X-335.959 Y-551.984
X-335.909 Y-553.275
X-335.833 Y-554.565
X-335.733 Y-555.853
X-335.607 Y-557.139
X-335.455 Y-558.422
X-335.279 Y-559.702
X-335.077 Y-560.979
X-334.851 Y-562.251
X-334.599 Y-563.518
X-334.323 Y-564.78
X-334.022 Y-566.036
X-333.696 Y-567.287
X-333.346 Y-568.531
X-332.971 Y-569.767
X-332.573 Y-570.996
X-332.15 Y-572.217
X-331.702 Y-573.429
X-331.232 Y-574.632
X-330.737 Y-575.826
X-330.219 Y-577.01
X-329.678 Y-578.183
X-329.114 Y-579.346
X-328.528 Y-580.497
X-327.919 Y-581.636
X-327.287 Y-582.764
X-326.634 Y-583.878
X-325.959 Y-584.98
X-325.262 Y-586.068
X-324.545 Y-587.143
X-323.806 Y-588.203
X-323.047 Y-589.248
X-322.267 Y-590.278
X-321.467 Y-591.293
X-320.647 Y-592.292
X-319.808 Y-593.274
X-318.949 Y-594.24
X-318.072 Y-595.188
X-317.176 Y-596.119
X-316.262 Y-597.033
X-315.331 Y-597.928
X-314.382 Y-598.805
X-313.416 Y-599.663
X-312.433 Y-600.502
X-311.434 Y-601.321
X-310.42 Y-602.121
X-309.389 Y-602.901
X-308.344 Y-603.66
X-307.284 Y-604.399
X-306.21 Y-605.117
X-305.122 Y-605.814
X-304.02 Y-606.489
X-302.905 Y-607.142
X-301.778 Y-607.773
X-300.638 Y-608.381
X-299.487 Y-608.968
X-298.324 Y-609.531
X-297.15 Y-610.072
X-295.967 Y-610.59
X-294.773 Y-611.084
X-293.57 Y-611.555
X-292.357 Y-612.002
X-291.137 Y-612.425
X-289.908 Y-612.825
X-288.672 Y-613.2
X-287.428 Y-613.551
X-286.178 Y-613.878
X-284.922 Y-614.18
X-283.66 Y-614.457
X-282.393 Y-614.709
X-281.121 Y-614.937
X-279.845 Y-615.139
X-278.565 Y-615.317
X-277.282 Y-615.469
X-275.996 Y-615.596
X-274.708 Y-615.698
X-273.418 Y-615.775
X-272.127 Y-615.827
X-270.835 Y-615.854
X-269.543 Y-615.855
X-268.252 Y-615.831
X-266.96 Y-615.782
X-265.671 Y-615.708
X-264.382 Y-615.609
X-263.096 Y-615.485
X-261.813 Y-615.336
X-260.533 Y-615.161
X-259.256 Y-614.961
X-257.984 Y-614.737
X-256.716 Y-614.488
X-255.453 Y-614.214
X-254.196 Y-613.916
X-252.945 Y-613.594
X-251.7 Y-613.247
X-250.462 Y-612.876
X-249.232 Y-612.482
X-248.01 Y-612.063
X-246.795 Y-611.622
X-245.59 Y-611.156
X-244.394 Y-610.668
X-243.207 Y-610.157
X-242.031 Y-609.623
X-240.865 Y-609.066
X-239.71 Y-608.486
X-238.567 Y-607.884
X-237.435 Y-607.261
X-236.316 Y-606.615
X-235.209 Y-605.948
X-234.116 Y-605.26
X-233.036 Y-604.551
X-231.969 Y-603.821
X-230.917 Y-603.071
X-229.88 Y-602.301
X-228.857 Y-601.511
X-227.85 Y-600.702
X-226.859 Y-599.874
X-225.883 Y-599.026
X-224.924 Y-598.161
X-223.982 Y-597.277
X-223.056 Y-596.375
X-222.149 Y-595.455
X-221.259 Y-594.518
X-220.388 Y-593.564
X-219.535 Y-592.594
X-218.7 Y-591.607
X-217.885 Y-590.605
X-217.089 Y-589.587
X-216.313 Y-588.554
X-215.557 Y-587.507
X-214.82 Y-586.445
X-214.105 Y-585.369
X-213.41 Y-584.28
X-212.735 Y-583.178
X-212.082 Y-582.063
X-211.451 Y-580.936
X-210.84 Y-579.797
X-210.252 Y-578.647
X-209.686 Y-577.485
X-209.142 Y-576.313
X-208.622 Y-575.131
X-208.123 Y-573.938
X-207.648 Y-572.737
X-207.196 Y-571.527
X-206.767 Y-570.308
X-206.361 Y-569.081
X-205.979 Y-567.847
X-205.621 Y-566.606
X-205.286 Y-565.358
X-204.976 Y-564.103
X-204.689 Y-562.844
X-204.426 Y-561.578
X-204.188 Y-560.309
X-203.974 Y-559.034
X-203.784 Y-557.756
X-203.618 Y-556.475
X-203.478 Y-555.191
X-203.362 Y-553.904
X-203.271 Y-552.615
X-203.204 Y-551.325
X-203.163 Y-550.033
X-203.146 Y-548.741
X-203.153 Y-547.449
X-203.186 Y-546.158
X-203.243 Y-544.867
X-203.325 Y-543.577
X-203.432 Y-542.29
X-203.563 Y-541.004
X-203.719 Y-539.722
X-203.899 Y-538.442
X-204.104 Y-537.167
X-204.333 Y-535.895
X-204.586 Y-534.628
X-204.864 Y-533.366
X-205.165 Y-532.11
X-205.491 Y-530.859
X-205.841 Y-529.616
X-206.215 Y-528.379
X-206.612 Y-527.149
X-207.033 Y-525.928
X-207.477 Y-524.714
X-207.945 Y-523.51
X-208.435 Y-522.315
X-208.948 Y-521.129
X-209.484 Y-519.953
X-210.042 Y-518.788
X-210.622 Y-517.633
X-211.225 Y-516.49
X-211.849 Y-515.359
X-212.494 Y-514.24
X-213.161 Y-513.133
X-213.848 Y-512.039
X-214.557 Y-510.959
X-215.287 Y-509.892
X-216.036 Y-508.84
X-216.806 Y-507.802
X-217.596 Y-506.78
X-218.405 Y-505.772
X-219.233 Y-504.78
X-220.08 Y-503.805
X-220.946 Y-502.845
X-221.829 Y-501.903
X-222.731 Y-500.977
X-223.65 Y-500.069
X-224.586 Y-499.178
X-225.539 Y-498.306
X-226.508 Y-497.452
X-227.494 Y-496.616
X-228.495 Y-495.799
X-229.511 Y-495.002
X-230.543 Y-494.224
X-231.59 Y-493.467
X-232.651 Y-492.729
X-233.726 Y-492.012
X-234.814 Y-491.315
X-235.915 Y-490.64
X-237.029 Y-489.985
X-238.156 Y-489.352
X-239.294 Y-488.741
X-240.443 Y-488.151
X-241.604 Y-487.583
X-242.775 Y-487.038
X-243.956 Y-486.514
X-245.148 Y-486.014
X-246.348 Y-485.535
X-247.557 Y-485.08
X-248.775 Y-484.648
X-250 Y-484.239
X-251.233 Y-483.854
X-252.474 Y-483.492
X-253.721 Y-483.154
X-254.974 Y-482.839
X-256.233 Y-482.549
X-257.497 Y-482.282
X-258.766 Y-482.04
X-260.04 Y-481.821
X-261.317 Y-481.627
X-262.598 Y-481.457
X-263.882 Y-481.311
X-265.168 Y-481.19
X-266.457 Y-481.093
X-267.747 Y-481.02
X-269.038 Y-480.972
X-270.33 Y-480.947
X-271.622 Y-480.948
X-272.914 Y-480.972
X-274.205 Y-481.022
X-275.495 Y-481.096
X-276.783 Y-481.194
X-278.069 Y-481.316
X-279.353 Y-481.463
X-280.633 Y-481.634
X-281.911 Y-481.83
X-283.184 Y-482.049
X-284.453 Y-482.292
X-285.717 Y-482.559
X-286.976 Y-482.85
X-288.229 Y-483.165
X-289.476 Y-483.502
X-290.717 Y-483.864
X-291.95 Y-484.248
X-293.176 Y-484.656
X-294.395 Y-485.086
X-295.605 Y-485.54
X-296.806 Y-486.016
X-297.997 Y-486.515
X-299.18 Y-487.036
X-300.352 Y-487.579
X-301.514 Y-488.145
X-302.665 Y-488.732
X-303.805 Y-489.34
X-304.933 Y-489.97
X-306.049 Y-490.621
X-307.153 Y-491.293
X-308.244 Y-491.985
X-309.321 Y-492.697
X-310.386 Y-493.43
X-311.436 Y-494.182
X-312.472 Y-494.954
X-313.494 Y-495.745
X-314.501 Y-496.555
X-315.492 Y-497.384
X-316.467 Y-498.231
X-317.427 Y-499.097
X-318.37 Y-499.98
X-319.296 Y-500.881
X-320.205 Y-501.799
X-321.097 Y-502.734
X-321.971 Y-503.685
X-322.827 Y-504.653
X-323.665 Y-505.636
X-324.485 Y-506.635
X-325.285 Y-507.649
X-326.067 Y-508.678
X-326.829 Y-509.721
X-327.572 Y-510.778
X-328.295 Y-511.849
X-328.998 Y-512.933
X-329.681 Y-514.03
X-330.343 Y-515.14
X-330.984 Y-516.262
X-331.604 Y-517.395
X-332.202 Y-518.54
X-332.779 Y-519.696
X-333.335 Y-520.863
X-333.868 Y-522.04
X-334.38 Y-523.226
X-334.869 Y-524.422
X-335.336 Y-525.627
X-335.78 Y-526.84
X-336.202 Y-528.061
X-336.601 Y-529.29
X-336.977 Y-530.527
X-337.33 Y-531.769
X-337.659 Y-533.019
X-337.966 Y-534.274
X-338.249 Y-535.534
X-338.509 Y-536.8
X-338.745 Y-538.071
X-338.957 Y-539.345
X-339.145 Y-540.623
X-339.309 Y-541.905
X-339.45 Y-543.189
X-339.566 Y-544.476
X-339.659 Y-545.765
X-339.727 Y-547.055
X-339.772 Y-548.346
X-339.792 Y-549.638
X-339.789 Y-550.93
X-339.761 Y-552.222
X-339.71 Y-553.513
X-339.634 Y-554.803
X-339.535 Y-556.091
X-339.412 Y-557.377
X-339.265 Y-558.661
X-339.094 Y-559.942
X-338.899 Y-561.219
X-338.681 Y-562.492
X-338.438 Y-563.762
X-338.172 Y-565.026
X-337.883 Y-566.285
X-337.57 Y-567.539
X-337.234 Y-568.786
X-336.875 Y-570.028
X-336.493 Y-571.262
X-336.088 Y-572.489
X-335.66 Y-573.708
X-335.21 Y-574.919
X-334.737 Y-576.121
X-334.242 Y-577.315
X-333.726 Y-578.499
X-333.187 Y-579.674
X-332.627 Y-580.838
X-332.045 Y-581.991
X-331.441 Y-583.134
X-330.817 Y-584.265
X-330.171 Y-585.384
X-329.505 Y-586.491
X-328.818 Y-587.586
X-328.112 Y-588.667
X-327.385 Y-589.736
X-326.638 Y-590.79
X-325.872 Y-591.831
X-325.087 Y-592.857
X-324.283 Y-593.868
X-323.46 Y-594.864
X-322.619 Y-595.845
X-321.76 Y-596.81
X-320.883 Y-597.759
X-319.989 Y-598.692
X-319.077 Y-599.607
X-318.149 Y-600.506
X-317.205 Y-601.388
X-316.244 Y-602.252
X-315.267 Y-603.097
X-314.274 Y-603.924
X-313.266 Y-604.733
X-312.244 Y-605.523
X-311.207 Y-606.294
X-310.156 Y-607.045
X-309.091 Y-607.776
X-308.012 Y-608.488
X-306.921 Y-609.18
X-305.817 Y-609.851
X-304.701 Y-610.502
X-303.573 Y-611.132
X-302.433 Y-611.741
X-301.283 Y-612.329
X-300.121 Y-612.895
X-298.95 Y-613.44
X-297.768 Y-613.963
X-296.577 Y-614.464
X-295.377 Y-614.943
X-294.168 Y-615.399
X-292.951 Y-615.833
X-291.726 Y-616.244
X-290.494 Y-616.632
X-289.255 Y-616.997
X-288.009 Y-617.34
X-286.757 Y-617.659
X-285.499 Y-617.955
X-284.236 Y-618.228
X-282.968 Y-618.477
X-281.696 Y-618.703
X-280.42 Y-618.905
X-279.141 Y-619.083
X-277.858 Y-619.239
X-276.572 Y-619.37
X-275.285 Y-619.478
X-273.996 Y-619.561
X-272.705 Y-619.621
X-271.413 Y-619.657
X-270.121 Y-619.669
X-268.829 Y-619.657
X-267.538 Y-619.621
X-266.247 Y-619.561
X-264.958 Y-619.478
X-263.67 Y-619.371
X-262.385 Y-619.24
X-261.102 Y-619.085
X-259.822 Y-618.907
X-258.546 Y-618.706
X-257.274 Y-618.481
X-256.006 Y-618.232
X-254.743 Y-617.961
X-253.485 Y-617.666
X-252.232 Y-617.349
X-250.986 Y-617.008
X-249.746 Y-616.644
X-248.513 Y-616.258
X-247.287 Y-615.849
X-246.069 Y-615.418
X-244.859 Y-614.964
X-243.658 Y-614.489
X-242.466 Y-613.991
X-241.283 Y-613.472
X-240.109 Y-612.931
X-238.946 Y-612.369
X-237.793 Y-611.786
X-236.651 Y-611.181
X-235.52 Y-610.556
X-234.401 Y-609.911
X-233.293 Y-609.245
X-232.198 Y-608.56
X-231.116 Y-607.854
X-230.046 Y-607.129
X-228.99 Y-606.385
X-227.948 Y-605.621
X-226.92 Y-604.838
X-225.906 Y-604.037
X-224.908 Y-603.218
X-223.924 Y-602.38
X-222.955 Y-601.525
X-222.002 Y-600.652
X-221.066 Y-599.762
X-220.145 Y-598.856
X-219.241 Y-597.932
X-218.354 Y-596.993
X-217.485 Y-596.037
X-216.632 Y-595.066
X-215.798 Y-594.08
X-214.981 Y-593.079
X-214.182 Y-592.063
X-213.402 Y-591.033
X-212.641 Y-589.989
X-211.899 Y-588.931
X-211.176 Y-587.86
X-210.473 Y-586.776
X-209.79 Y-585.68
X-209.127 Y-584.571
X-208.484 Y-583.45
X-207.861 Y-582.318
X-207.259 Y-581.175
X-206.677 Y-580.021
X-206.117 Y-578.857
X-205.578 Y-577.683
X-205.06 Y-576.499
X-204.563 Y-575.306
X-204.089 Y-574.105
X-203.636 Y-572.895
X-203.204 Y-571.676
X-202.795 Y-570.451
X-202.409 Y-569.218
X-202.044 Y-567.979
X-201.702 Y-566.732
X-201.383 Y-565.48
X-201.087 Y-564.223
X-200.814 Y-562.96
X-200.563 Y-561.692
X-200.336 Y-560.421
X-200.131 Y-559.145
X-199.95 Y-557.866
X-199.792 Y-556.583
X-199.657 Y-555.298
X-199.546 Y-554.011
X-199.457 Y-552.722
X-199.392 Y-551.431
X-199.351 Y-550.14
X-199.333 Y-548.848
X-199.338 Y-547.556
X-199.366 Y-546.264
X-199.418 Y-544.973
X-199.494 Y-543.684
X-199.593 Y-542.395
X-199.715 Y-541.109
X-199.861 Y-539.825
X-200.03 Y-538.544
X-200.222 Y-537.267
X-200.437 Y-535.993
X-200.675 Y-534.723
X-200.937 Y-533.457
X-201.221 Y-532.197
X-201.528 Y-530.942
X-201.857 Y-529.693
X-202.21 Y-528.449
X-202.585 Y-527.213
X-202.982 Y-525.983
X-203.401 Y-524.761
X-203.842 Y-523.547
X-204.305 Y-522.341
X-204.79 Y-521.143
X-205.297 Y-519.955
X-205.825 Y-518.775
X-206.375 Y-517.606
X-206.946 Y-516.447
X-207.537 Y-515.298
X-208.15 Y-514.161
X-208.783 Y-513.034
X-209.436 Y-511.92
X-210.11 Y-510.817
X-210.803 Y-509.727
X-211.516 Y-508.649
X-212.248 Y-507.585
X-212.999 Y-506.534
X-213.77 Y-505.496
X-214.559 Y-504.473
X-215.366 Y-503.464
X-216.191 Y-502.47
X-217.035 Y-501.491
X-217.896 Y-500.528
X-218.774 Y-499.58
X-219.669 Y-498.649
X-220.581 Y-497.733
X-221.51 Y-496.835
X-222.454 Y-495.953
X-223.415 Y-495.089
X-224.391 Y-494.242
X-225.382 Y-493.413
X-226.388 Y-492.602
X-227.408 Y-491.81
X-228.443 Y-491.036
X-229.491 Y-490.28
X-230.553 Y-489.544
X-231.628 Y-488.827
X-232.715 Y-488.13
X-233.815 Y-487.452
X-234.927 Y-486.794
X-236.051 Y-486.157
X-237.186 Y-485.539
X-238.332 Y-484.943
X-239.489 Y-484.367
X-240.656 Y-483.812
X-241.833 Y-483.279
X-243.019 Y-482.766
X-244.214 Y-482.276
X-245.418 Y-481.806
X-246.63 Y-481.359
X-247.85 Y-480.933
X-249.077 Y-480.53
X-250.312 Y-480.148
X-251.553 Y-479.789
X-252.8 Y-479.452
X-254.053 Y-479.138
X-255.312 Y-478.846
X-256.576 Y-478.576
X-257.844 Y-478.33
X-259.116 Y-478.106
X-260.393 Y-477.905
X-261.673 Y-477.727
X-262.955 Y-477.573
X-264.241 Y-477.441
X-265.528 Y-477.333
X-266.817 Y-477.247
X-268.108 Y-477.185
X-269.399 Y-477.146
X-270.691 Y-477.129
X-271.983 Y-477.137
X-273.275 Y-477.167
X-274.566 Y-477.22
X-275.856 Y-477.296
X-277.144 Y-477.396
X-278.43 Y-477.518
X-279.714 Y-477.663
X-280.995 Y-477.832
X-282.273 Y-478.023
X-283.547 Y-478.236
X-284.818 Y-478.473
X-286.083 Y-478.732
X-287.344 Y-479.014
X-288.6 Y-479.319
X-289.85 Y-479.646
X-291.094 Y-479.995
X-292.331 Y-480.366
X-293.562 Y-480.759
X-294.786 Y-481.174
X-296.002 Y-481.611
X-297.21 Y-482.069
X-298.409 Y-482.549
X-299.6 Y-483.05
X-300.782 Y-483.573
X-301.955 Y-484.116
X-303.117 Y-484.68
X-304.269 Y-485.264
X-305.411 Y-485.869
X-306.542 Y-486.494
X-307.662 Y-487.139
X-308.769 Y-487.804
X-309.865 Y-488.488
X-310.948 Y-489.192
X-312.019 Y-489.916
X-313.077 Y-490.658
X-314.121 Y-491.418
X-315.152 Y-492.197
X-316.169 Y-492.995
X-317.171 Y-493.81
X-318.159 Y-494.643
X-319.132 Y-495.493
X-320.089 Y-496.36
X-321.032 Y-497.245
X-321.958 Y-498.145
X-322.868 Y-499.062
X-323.762 Y-499.995
X-324.639 Y-500.944
X-325.5 Y-501.908
X-326.343 Y-502.887
X-327.168 Y-503.881
X-327.976 Y-504.889
X-328.765 Y-505.912
X-329.537 Y-506.949
X-330.29 Y-507.999
X-331.024 Y-509.062
X-331.739 Y-510.138
X-332.435 Y-511.226
X-333.112 Y-512.327
X-333.77 Y-513.439
X-334.407 Y-514.563
X-335.025 Y-515.698
X-335.622 Y-516.844
X-336.199 Y-518
X-336.756 Y-519.166
X-337.291 Y-520.341
X-337.807 Y-521.526
X-338.301 Y-522.72
X-338.774 Y-523.923
X-339.225 Y-525.133
X-339.655 Y-526.352
X-340.063 Y-527.578
X-340.45 Y-528.81
X-340.814 Y-530.05
X-341.157 Y-531.296
X-341.478 Y-532.547
X-341.776 Y-533.804
X-342.053 Y-535.067
X-342.307 Y-536.333
X-342.539 Y-537.604
X-342.748 Y-538.879
X-342.934 Y-540.158
X-343.099 Y-541.44
X-343.24 Y-542.724
X-343.359 Y-544.01
X-343.455 Y-545.299
X-343.529 Y-546.589
X-343.58 Y-547.88
X-343.608 Y-549.172
X-343.613 Y-550.464
X-343.595 Y-551.756
X-343.554 Y-553.047
X-343.49 Y-554.338
X-343.404 Y-555.627
X-343.295 Y-556.914
X-343.164 Y-558.199
X-343.01 Y-559.482
X-342.833 Y-560.762
X-342.634 Y-562.039
X-342.412 Y-563.312
X-342.168 Y-564.581
X-341.902 Y-565.845
X-341.613 Y-567.104
X-341.302 Y-568.358
X-340.97 Y-569.607
X-340.615 Y-570.849
X-340.239 Y-572.085
X-339.841 Y-573.315
X-339.421 Y-574.536
X-338.979 Y-575.751
X-338.516 Y-576.957
X-338.032 Y-578.155
X-337.527 Y-579.344
X-337.001 Y-580.524
X-336.455 Y-581.695
X-335.888 Y-582.856
X-335.3 Y-584.007
X-334.693 Y-585.147
X-334.065 Y-586.277
X-333.418 Y-587.395
X-332.751 Y-588.502
X-332.065 Y-589.596
X-331.36 Y-590.679
X-330.635 Y-591.749
X-329.893 Y-592.806
X-329.131 Y-593.85
X-328.351 Y-594.88
X-327.554 Y-595.896
X-326.738 Y-596.898
X-325.905 Y-597.886
X-325.054 Y-598.859
X-324.187 Y-599.816
X-323.302 Y-600.758
X-322.402 Y-601.685
X-321.485 Y-602.595
X-320.552 Y-603.489
X-319.604 Y-604.367
X-318.641 Y-605.228
X-317.662 Y-606.072
X-316.669 Y-606.898
X-315.661 Y-607.707
X-314.64 Y-608.498
X-313.605 Y-609.271
X-312.556 Y-610.026
X-311.494 Y-610.762
X-310.419 Y-611.479
X-309.332 Y-612.178
X-308.233 Y-612.856
X-307.122 Y-613.516
X-305.999 Y-614.155
X-304.866 Y-614.775
X-303.721 Y-615.375
X-302.566 Y-615.955
X-301.402 Y-616.514
X-300.227 Y-617.053
X-299.044 Y-617.571
X-297.851 Y-618.068
X-296.65 Y-618.544
X-295.441 Y-618.999
X-294.224 Y-619.433
X-292.999 Y-619.845
X-291.768 Y-620.236
X-290.529 Y-620.605
X-289.285 Y-620.953
X-288.035 Y-621.278
X-286.779 Y-621.581
X-285.517 Y-621.862
X-284.252 Y-622.121
X-282.981 Y-622.357
X-281.707 Y-622.572
X-280.429 Y-622.763
X-279.148 Y-622.933
X-277.865 Y-623.08
X-276.579 Y-623.204
X-275.291 Y-623.306
X-274.001 Y-623.385
X-272.71 Y-623.442
X-271.419 Y-623.476
X-270.127 Y-623.488
X-268.835 Y-623.477
X-267.543 Y-623.443
X-266.252 Y-623.387
X-264.963 Y-623.309
X-263.674 Y-623.207
X-262.388 Y-623.084
X-261.105 Y-622.937
X-259.824 Y-622.768
X-258.546 Y-622.577
X-257.272 Y-622.363
X-256.001 Y-622.128
X-254.735 Y-621.87
X-253.474 Y-621.59
X-252.217 Y-621.289
X-250.967 Y-620.965
X-249.721 Y-620.62
X-248.483 Y-620.253
X-247.25 Y-619.865
X-246.025 Y-619.455
X-244.807 Y-619.024
X-243.596 Y-618.572
X-242.394 Y-618.099
X-241.2 Y-617.606
X-240.014 Y-617.091
X-238.838 Y-616.557
X-237.672 Y-616.001
X-236.515 Y-615.426
X-235.368 Y-614.831
X-234.232 Y-614.215
X-233.107 Y-613.58
X-231.992 Y-612.926
X-230.89 Y-612.253
X-229.799 Y-611.561
X-228.72 Y-610.85
X-227.654 Y-610.12
X-226.6 Y-609.372
X-225.559 Y-608.606
X-224.532 Y-607.822
X-223.519 Y-607.021
X-222.519 Y-606.202
X-221.534 Y-605.367
X-220.563 Y-604.514
X-219.607 Y-603.645
X-218.666 Y-602.759
X-217.741 Y-601.858
X-216.831 Y-600.94
X-215.938 Y-600.007
X-215.06 Y-599.058
X-214.199 Y-598.095
X-213.355 Y-597.117
X-212.528 Y-596.124
X-211.718 Y-595.118
X-210.925 Y-594.097
X-210.15 Y-593.064
X-209.393 Y-592.017
X-208.654 Y-590.957
X-207.933 Y-589.884
X-207.231 Y-588.8
X-206.547 Y-587.703
X-205.883 Y-586.595
X-205.237 Y-585.476
X-204.611 Y-584.346
X-204.004 Y-583.205
X-203.417 Y-582.054
X-202.85 Y-580.893
X-202.303 Y-579.723
X-201.777 Y-578.543
X-201.271 Y-577.354
X-200.785 Y-576.157
X-200.32 Y-574.951
X-199.875 Y-573.738
X-199.452 Y-572.517
X-199.05 Y-571.289
X-198.668 Y-570.055
X-198.308 Y-568.814
X-197.97 Y-567.567
X-197.653 Y-566.315
X-197.357 Y-565.057
X-197.083 Y-563.794
X-196.831 Y-562.527
X-196.6 Y-561.256
X-196.391 Y-559.981
X-196.205 Y-558.702
X-196.04 Y-557.421
X-195.897 Y-556.136
X-195.777 Y-554.85
X-195.679 Y-553.562
X-195.603 Y-552.272
X-195.55 Y-550.981
X-195.518 Y-549.689
X-195.509 Y-548.397
X-195.522 Y-547.105
X-195.557 Y-545.814
X-195.614 Y-544.523
X-195.694 Y-543.233
X-195.795 Y-541.945
X-195.919 Y-540.659
X-196.065 Y-539.375
X-196.233 Y-538.094
X-196.423 Y-536.816
X-196.634 Y-535.542
X-196.868 Y-534.271
X-197.124 Y-533.004
X-197.401 Y-531.742
X-197.7 Y-530.485
X-198.021 Y-529.234
X-198.363 Y-527.988
X-198.727 Y-526.748
X-199.112 Y-525.515
X-199.518 Y-524.288
X-199.946 Y-523.069
X-200.394 Y-521.857
X-200.863 Y-520.653
X-201.352 Y-519.457
X-201.862 Y-518.27
X-202.393 Y-517.092
X-202.943 Y-515.923
X-203.514 Y-514.764
X-204.104 Y-513.615
X-204.714 Y-512.476
X-205.344 Y-511.347
X-205.992 Y-510.23
X-206.66 Y-509.124
X-207.347 Y-508.03
X-208.053 Y-506.947
X-208.778 Y-505.878
X-209.52 Y-504.82
X-210.281 Y-503.776
X-211.06 Y-502.745
X-211.856 Y-501.727
X-212.669 Y-500.724
X-213.5 Y-499.734
X-214.348 Y-498.759
X-215.212 Y-497.798
X-216.092 Y-496.853
X-216.989 Y-495.922
X-217.902 Y-495.008
X-218.83 Y-494.109
X-219.773 Y-493.226
X-220.731 Y-492.359
X-221.704 Y-491.509
X-222.692 Y-490.676
X-223.693 Y-489.859
X-224.709 Y-489.061
X-225.738 Y-488.28
X-226.781 Y-487.516
X-227.836 Y-486.771
X-228.904 Y-486.044
X-229.984 Y-485.335
X-231.077 Y-484.645
X-232.181 Y-483.974
X-233.296 Y-483.322
X-234.422 Y-482.689
X-235.559 Y-482.075
X-236.707 Y-481.481
X-237.864 Y-480.906
X-239.031 Y-480.352
X-240.207 Y-479.817
X-241.393 Y-479.303
X-242.586 Y-478.809
X-243.788 Y-478.335
X-244.998 Y-477.882
X-246.216 Y-477.45
X-247.441 Y-477.038
X-248.673 Y-476.648
X-249.911 Y-476.279
X-251.155 Y-475.931
X-252.405 Y-475.605
X-253.661 Y-475.3
X-254.921 Y-475.016
X-256.187 Y-474.754
X-257.456 Y-474.513
X-258.729 Y-474.295
X-260.006 Y-474.097
X-261.287 Y-473.922
X-262.569 Y-473.768
X-263.855 Y-473.637
X-265.142 Y-473.527
X-266.431 Y-473.439
X-267.722 Y-473.373
X-269.013 Y-473.328
X-270.305 Y-473.306
X-271.597
X-272.889 Y-473.328
X-274.18 Y-473.372
X-275.47 Y-473.438
X-276.759 Y-473.526
X-278.047 Y-473.636
X-279.332 Y-473.768
X-280.615 Y-473.921
X-281.895 Y-474.096
X-283.172 Y-474.293
X-284.445 Y-474.512
X-285.715 Y-474.752
X-286.98 Y-475.013
X-288.241 Y-475.296
X-289.497 Y-475.6
X-290.747 Y-475.926
X-291.992 Y-476.272
X-293.231 Y-476.64
X-294.463 Y-477.028
X-295.688 Y-477.437
X-296.907 Y-477.867
X-298.118 Y-478.318
X-299.321 Y-478.789
X-300.516 Y-479.281
X-301.702 Y-479.793
X-302.88 Y-480.324
X-304.048 Y-480.876
X-305.207 Y-481.447
X-306.356 Y-482.038
X-307.495 Y-482.648
X-308.624 Y-483.277
X-309.742 Y-483.925
X-310.848 Y-484.592
X-311.944 Y-485.277
X-313.027 Y-485.981
X-314.099 Y-486.703
X-315.158 Y-487.442
X-316.205 Y-488.2
X-317.238 Y-488.975
X-318.259 Y-489.768
X-319.266 Y-490.577
X-320.259 Y-491.404
X-321.238 Y-492.247
X-322.202 Y-493.107
X-323.152 Y-493.983
X-324.087 Y-494.874
X-325.007 Y-495.782
X-325.912 Y-496.704
X-326.8 Y-497.642
X-327.673 Y-498.595
X-328.53 Y-499.562
X-329.371 Y-500.543
X-330.194 Y-501.539
X-331.001 Y-502.548
X-331.791 Y-503.57
X-332.564 Y-504.606
X-333.319 Y-505.654
X-334.056 Y-506.715
X-334.776 Y-507.788
X-335.477 Y-508.874
X-336.16 Y-509.97
X-336.824 Y-511.079
X-337.469 Y-512.198
X-338.096 Y-513.328
X-338.703 Y-514.469
X-339.291 Y-515.619
X-339.86 Y-516.779
X-340.409 Y-517.949
X-340.939 Y-519.127
X-341.448 Y-520.314
X-341.938 Y-521.51
X-342.408 Y-522.714
X-342.857 Y-523.925
X-343.286 Y-525.144
X-343.694 Y-526.37
X-344.082 Y-527.602
X-344.449 Y-528.841
X-344.795 Y-530.086
X-345.121 Y-531.336
X-345.425 Y-532.592
X-345.708 Y-533.853
X-345.97 Y-535.118
X-346.211 Y-536.387
X-346.43 Y-537.661
X-346.628 Y-538.938
X-346.804 Y-540.218
X-346.959 Y-541.5
X-347.092 Y-542.785
X-347.204 Y-544.073
X-347.294 Y-545.362
X-347.363 Y-546.652
X-347.41 Y-547.943
X-347.435 Y-549.235
X-347.439 Y-550.527
X-347.421 Y-551.819
X-347.381 Y-553.11
X-347.32 Y-554.401
X-347.238 Y-555.69
X-347.133 Y-556.978
X-347.008 Y-558.264
X-346.86 Y-559.548
X-346.691 Y-560.829
X-346.501 Y-562.107
X-346.289 Y-563.381
X-346.055 Y-564.652
X-345.801 Y-565.919
X-345.525 Y-567.181
X-345.228 Y-568.438
X-344.911 Y-569.691
X-344.572 Y-570.938
X-344.213 Y-572.179
X-343.832 Y-573.414
X-343.431 Y-574.642
X-343.01 Y-575.863
X-342.568 Y-577.078
X-342.107 Y-578.284
X-341.625 Y-579.483
X-341.123 Y-580.674
X-340.601 Y-581.856
X-340.06 Y-583.029
X-339.499 Y-584.193
X-338.918 Y-585.347
X-338.318 Y-586.491
X-337.699 Y-587.625
X-337.061 Y-588.749
X-336.404 Y-589.862
X-335.729 Y-590.963
X-335.036 Y-592.053
X-334.324 Y-593.132
X-333.595 Y-594.198
X-332.847 Y-595.252
X-332.083 Y-596.294
X-331.3 Y-597.322
X-330.501 Y-598.337
X-329.685 Y-599.339
X-328.853 Y-600.327
X-328.004 Y-601.301
X-327.138 Y-602.261
X-326.257 Y-603.206
X-325.361 Y-604.136
X-324.449 Y-605.051
X-323.521 Y-605.951
X-322.579 Y-606.835
X-321.621 Y-607.702
X-320.65 Y-608.554
X-319.664 Y-609.39
X-318.665 Y-610.208
X-317.652 Y-611.01
X-316.626 Y-611.795
X-315.586 Y-612.563
X-314.534 Y-613.313
X-313.47 Y-614.046
X-312.394 Y-614.761
X-311.305 Y-615.457
X-310.206 Y-616.135
X-309.095 Y-616.795
X-307.973 Y-617.437
X-306.841 Y-618.059
X-305.699 Y-618.663
X-304.546 Y-619.247
X-303.384 Y-619.812
X-302.213 Y-620.357
X-301.033 Y-620.883
X-299.844 Y-621.389
X-298.646 Y-621.874
X-297.441 Y-622.34
X-296.228 Y-622.786
X-295.008 Y-623.211
X-293.781 Y-623.616
X-292.548 Y-624
X-291.308 Y-624.364
X-290.062 Y-624.707
X-288.811 Y-625.029
X-287.554 Y-625.33
X-286.293 Y-625.61
X-285.027 Y-625.869
X-283.757 Y-626.107
X-282.484 Y-626.324
X-281.206 Y-626.52
X-279.926 Y-626.694
X-278.643 Y-626.847
X-277.358 Y-626.978
X-276.071 Y-627.088
X-274.781 Y-627.177
X-273.491 Y-627.243
X-272.2 Y-627.289
X-270.908 Y-627.313
X-269.616 Y-627.315
X-268.324 Y-627.296
X-267.033 Y-627.255
X-265.742 Y-627.193
X-264.453 Y-627.11
X-263.165 Y-627.005
X-261.879 Y-626.879
X-260.596 Y-626.731
X-259.315 Y-626.562
X-258.037 Y-626.372
X-256.762 Y-626.161
X-255.491 Y-625.929
X-254.224 Y-625.676
X-252.961 Y-625.402
X-251.703 Y-625.106
X-250.451 Y-624.79
X-249.203 Y-624.453
X-247.962 Y-624.096
X-246.726 Y-623.718
X-245.497 Y-623.32
X-244.275 Y-622.901
X-243.059 Y-622.462
X-241.851 Y-622.003
X-240.651 Y-621.525
X-239.459 Y-621.026
X-238.276 Y-620.508
X-237.101 Y-619.971
X-235.935 Y-619.414
X-234.778 Y-618.839
X-233.631 Y-618.244
X-232.494 Y-617.63
X-231.367 Y-616.998
X-230.251 Y-616.347
X-229.145 Y-615.679
X-228.051 Y-614.992
X-226.968 Y-614.287
X-225.897 Y-613.564
X-224.838 Y-612.823
X-223.792 Y-612.066
X-222.758 Y-611.291
X-221.737 Y-610.499
X-220.729 Y-609.691
X-219.734 Y-608.866
X-218.753 Y-608.025
X-217.786 Y-607.169
X-216.833 Y-606.296
X-215.895 Y-605.408
X-214.971 Y-604.505
X-214.062 Y-603.586
X-213.168 Y-602.653
X-212.29 Y-601.705
X-211.427 Y-600.744
X-210.58 Y-599.768
X-209.75 Y-598.778
X-208.935 Y-597.775
X-208.137 Y-596.759
X-207.356 Y-595.73
X-206.592 Y-594.688
X-205.845 Y-593.634
X-205.116 Y-592.567
X-204.404 Y-591.489
X-203.709 Y-590.399
X-203.033 Y-589.298
X-202.375 Y-588.187
X-201.735 Y-587.064
X-201.113 Y-585.932
X-200.51 Y-584.789
X-199.926 Y-583.636
X-199.361 Y-582.475
X-198.814 Y-581.304
X-198.287 Y-580.124
X-197.78 Y-578.936
X-197.291 Y-577.74
X-196.823 Y-576.536
X-196.374 Y-575.324
X-195.944 Y-574.105
X-195.535 Y-572.88
X-195.147 Y-571.648
X-194.778 Y-570.409
X-194.43 Y-569.165
X-194.102 Y-567.915
X-193.795 Y-566.66
X-193.508 Y-565.4
X-193.242 Y-564.136
X-192.996 Y-562.867
X-192.772 Y-561.595
X-192.568 Y-560.319
X-192.385 Y-559.04
X-192.223 Y-557.758
X-192.082 Y-556.474
X-191.962 Y-555.188
X-191.863 Y-553.899
X-191.785 Y-552.61
X-191.728 Y-551.319
X-191.692 Y-550.027
X-191.677 Y-548.735
X-191.684 Y-547.443
X-191.711 Y-546.151
X-191.761 Y-544.86
X-191.831 Y-543.57
X-191.922 Y-542.281
X-192.035 Y-540.994
X-192.168 Y-539.709
X-192.323 Y-538.426
X-192.498 Y-537.146
X-192.694 Y-535.869
X-192.911 Y-534.596
X-193.15 Y-533.326
X-193.408 Y-532.06
X-193.688 Y-530.798
X-193.988 Y-529.542
X-194.309 Y-528.29
X-194.65 Y-527.044
X-195.011 Y-525.803
X-195.392 Y-524.569
X-195.794 Y-523.341
X-196.216 Y-522.119
X-196.657 Y-520.905
X-197.119 Y-519.698
X-197.601 Y-518.499
X-198.102 Y-517.309
X-198.622 Y-516.126
X-199.162 Y-514.952
X-199.721 Y-513.787
X-200.299 Y-512.632
X-200.896 Y-511.486
X-201.511 Y-510.35
X-202.145 Y-509.224
X-202.797 Y-508.108
X-203.468 Y-507.004
X-204.156 Y-505.91
X-204.862 Y-504.828
X-205.586 Y-503.758
X-206.327 Y-502.7
X-207.086 Y-501.654
X-207.861 Y-500.62
X-208.653 Y-499.599
X-209.462 Y-498.592
X-210.287 Y-497.597
X-211.128 Y-496.617
X-211.986 Y-495.65
X-212.859 Y-494.698
X-213.747 Y-493.76
X-214.651 Y-492.837
X-215.57 Y-491.928
X-216.503 Y-491.035
X-217.451 Y-490.157
X-218.413 Y-489.294
X-219.389 Y-488.448
X-220.379 Y-487.617
X-221.382 Y-486.803
X-222.399 Y-486.005
X-223.428 Y-485.224
X-224.47 Y-484.46
X-225.524 Y-483.712
X-226.59 Y-482.982
X-227.668 Y-482.27
X-228.757 Y-481.575
X-229.858 Y-480.898
X-230.969 Y-480.24
X-232.091 Y-479.599
X-233.224 Y-478.977
X-234.366 Y-478.374
X-235.518 Y-477.789
X-236.68 Y-477.223
X-237.85 Y-476.676
X-239.03 Y-476.148
X-240.217 Y-475.64
X-241.413 Y-475.15
X-242.617 Y-474.681
X-243.828 Y-474.231
X-245.046 Y-473.8
X-246.272 Y-473.39
X-247.503 Y-472.999
X-248.741 Y-472.629
X-249.985 Y-472.279
X-251.234 Y-471.948
X-252.488 Y-471.639
X-253.747 Y-471.349
X-255.011 Y-471.08
X-256.279 Y-470.832
X-257.551 Y-470.605
X-258.826 Y-470.398
X-260.105 Y-470.212
X-261.387 Y-470.047
X-262.67 Y-469.902
X-263.957 Y-469.779
X-265.245 Y-469.676
X-266.534 Y-469.594
X-267.825 Y-469.533
X-269.116 Y-469.493
X-270.408 Y-469.473
X-271.7 Y-469.475
X-272.992 Y-469.497
X-274.283 Y-469.541
X-275.574 Y-469.605
X-276.863 Y-469.69
X-278.151 Y-469.796
X-279.436 Y-469.923
X-280.72 Y-470.07
X-282.001 Y-470.238
X-283.279 Y-470.428
X-284.554 Y-470.637
X-285.825 Y-470.868
X-287.093 Y-471.119
X-288.356 Y-471.39
X-289.615 Y-471.682
X-290.869 Y-471.994
X-292.117 Y-472.326
X-293.361 Y-472.678
X-294.598 Y-473.05
X-295.829 Y-473.442
X-297.054 Y-473.854
X-298.271 Y-474.285
X-299.482 Y-474.737
X-300.686 Y-475.207
X-301.881 Y-475.697
X-303.069 Y-476.206
X-304.248 Y-476.734
X-305.419 Y-477.281
X-306.58 Y-477.846
X-307.733 Y-478.431
X-308.875 Y-479.034
X-310.008 Y-479.655
X-311.131 Y-480.294
X-312.243 Y-480.952
X-313.345 Y-481.627
X-314.435 Y-482.32
X-315.515 Y-483.03
X-316.582 Y-483.758
X-317.638 Y-484.503
X-318.682 Y-485.264
X-319.714 Y-486.042
X-320.732 Y-486.837
X-321.738 Y-487.647
X-322.731 Y-488.474
X-323.711 Y-489.317
X-324.677 Y-490.175
X-325.628 Y-491.049
X-326.566 Y-491.938
X-327.49 Y-492.841
X-328.399 Y-493.76
X-329.293 Y-494.692
X-330.171 Y-495.64
X-331.035 Y-496.601
X-331.883 Y-497.576
X-332.715 Y-498.564
X-333.531 Y-499.566
X-334.331 Y-500.581
X-335.114 Y-501.608
X-335.882 Y-502.648
X-336.632 Y-503.699
X-337.365 Y-504.763
X-338.082 Y-505.838
X-338.781 Y-506.925
X-339.462 Y-508.023
X-340.126 Y-509.131
X-340.772 Y-510.25
X-341.4 Y-511.379
X-342.01 Y-512.518
X-342.602 Y-513.667
X-343.176 Y-514.825
X-343.73 Y-515.992
X-344.266 Y-517.167
X-344.783 Y-518.351
X-345.281 Y-519.544
X-345.759 Y-520.744
X-346.219 Y-521.952
X-346.659 Y-523.166
X-347.079 Y-524.388
X-347.48 Y-525.616
X-347.861 Y-526.851
X-348.223 Y-528.091
X-348.565 Y-529.337
X-348.886 Y-530.589
X-349.188 Y-531.845
X-349.47 Y-533.106
X-349.731 Y-534.371
X-349.972 Y-535.641
X-350.193 Y-536.914
X-350.394 Y-538.19
X-350.574 Y-539.47
X-350.734 Y-540.752
X-350.873 Y-542.036
X-350.992 Y-543.323
X-351.09 Y-544.611
X-351.167 Y-545.901
X-351.224 Y-547.192
X-351.259 Y-548.483
X-351.275 Y-549.775
X-351.27 Y-551.067
X-351.244 Y-552.359
X-351.197 Y-553.65
X-351.131 Y-554.941
X-351.043 Y-556.23
X-350.935 Y-557.517
X-350.806 Y-558.803
X-350.657 Y-560.086
X-350.488 Y-561.367
X-350.298 Y-562.645
X-350.087 Y-563.92
X-349.857 Y-565.191
X-349.606 Y-566.459
X-349.335 Y-567.722
X-349.044 Y-568.981
X-348.733 Y-570.235
X-348.402 Y-571.484
X-348.05 Y-572.727
X-347.679 Y-573.965
X-347.288 Y-575.196
X-346.878 Y-576.422
X-346.448 Y-577.64
X-345.999 Y-578.851
X-345.531 Y-580.056
X-345.043 Y-581.252
X-344.537 Y-582.441
X-344.011 Y-583.621
X-343.467 Y-584.793
X-342.904 Y-585.956
X-342.323 Y-587.11
X-341.724 Y-588.255
X-341.106 Y-589.389
X-340.47 Y-590.514
X-339.817 Y-591.629
X-339.146 Y-592.733
X-338.457 Y-593.826
X-337.751 Y-594.908
X-337.028 Y-595.979
X-336.287 Y-597.038
X-335.53 Y-598.085
X-334.756 Y-599.12
X-333.966 Y-600.142
X-333.16 Y-601.151
X-332.337 Y-602.148
X-331.499 Y-603.131
X-330.646 Y-604.101
X-329.777 Y-605.057
X-328.893 Y-606
X-327.994 Y-606.928
X-327.08 Y-607.841
X-326.152 Y-608.74
X-325.21 Y-609.624
X-324.254 Y-610.493
X-323.284 Y-611.347
X-322.3 Y-612.185
X-321.304 Y-613.008
X-320.294 Y-613.814
X-319.272 Y-614.604
X-318.237 Y-615.378
X-317.19 Y-616.135
X-316.131 Y-616.875
X-315.06 Y-617.598
X-313.978 Y-618.304
X-312.885 Y-618.993
X-311.781 Y-619.664
X-310.667 Y-620.318
X-309.542 Y-620.954
X-308.407 Y-621.571
X-307.263 Y-622.171
X-306.109 Y-622.753
X-304.946 Y-623.316
X-303.774 Y-623.86
X-302.594 Y-624.386
X-301.405 Y-624.893
X-300.209 Y-625.38
X-299.005 Y-625.849
X-297.794 Y-626.299
X-296.576 Y-626.729
X-295.351 Y-627.14
X-294.119 Y-627.532
X-292.882 Y-627.903
X-291.638 Y-628.255
X-290.39 Y-628.587
X-289.136 Y-628.898
X-287.877 Y-629.19
X-286.614 Y-629.462
X-285.347 Y-629.714
X-284.076 Y-629.946
X-282.801 Y-630.158
X-281.523 Y-630.349
X-280.243 Y-630.52
X-278.959 Y-630.67
X-277.674 Y-630.801
X-276.387 Y-630.911
X-275.098 Y-631
X-273.807 Y-631.069
X-272.516 Y-631.117
X-271.224 Y-631.146
X-269.932 Y-631.153
X-268.64 Y-631.14
X-267.349 Y-631.107
X-266.058 Y-631.053
X-264.768 Y-630.978
X-263.479 Y-630.883
X-262.193 Y-630.768
X-260.908 Y-630.632
X-259.625 Y-630.476
X-258.345 Y-630.299
X-257.068 Y-630.103
X-255.794 Y-629.886
X-254.524 Y-629.65
X-253.258 Y-629.393
X-251.996 Y-629.116
X-250.738 Y-628.82
X-249.485 Y-628.503
X-248.238 Y-628.167
X-246.996 Y-627.811
X-245.759 Y-627.436
X-244.529 Y-627.041
X-243.305 Y-626.627
X-242.088 Y-626.194
X-240.878 Y-625.742
X-239.675 Y-625.27
X-238.479 Y-624.78
X-237.292 Y-624.271
X-236.113 Y-623.743
X-234.942 Y-623.196
X-233.78 Y-622.632
X-232.627 Y-622.049
X-231.483 Y-621.448
X-230.348 Y-620.829
X-229.224 Y-620.193
X-228.11 Y-619.539
X-227.006 Y-618.867
X-225.913 Y-618.179
X-224.83 Y-617.473
X-223.759 Y-616.75
X-222.699 Y-616.011
X-221.651 Y-615.255
X-220.615 Y-614.483
X-219.591 Y-613.695
X-218.58 Y-612.891
X-217.581 Y-612.072
X-216.596 Y-611.236
X-215.623 Y-610.385
X-214.664 Y-609.519
X-213.719 Y-608.639
X-212.788 Y-607.743
X-211.871 Y-606.833
X-210.968 Y-605.909
X-210.079 Y-604.971
X-209.206 Y-604.019
X-208.347 Y-603.053
X-207.503 Y-602.075
X-206.675 Y-601.083
X-205.863 Y-600.078
X-205.066 Y-599.061
X-204.285 Y-598.032
X-203.52 Y-596.99
X-202.772 Y-595.937
X-202.04 Y-594.872
X-201.325 Y-593.796
X-200.627 Y-592.709
X-199.945 Y-591.611
X-199.281 Y-590.503
X-198.635 Y-589.384
X-198.006 Y-588.256
X-197.394 Y-587.117
X-196.801 Y-585.97
X-196.226 Y-584.813
X-195.668 Y-583.647
X-195.129 Y-582.473
X-194.609 Y-581.29
X-194.106 Y-580.1
X-193.623 Y-578.902
X-193.158 Y-577.696
X-192.711 Y-576.484
X-192.284 Y-575.264
X-191.876 Y-574.038
X-191.487 Y-572.806
X-191.118 Y-571.568
X-190.767 Y-570.325
X-190.436 Y-569.076
X-190.125 Y-567.822
X-189.833 Y-566.563
X-189.561 Y-565.3
X-189.308 Y-564.033
X-189.076 Y-562.762
X-188.863 Y-561.487
X-188.671 Y-560.21
X-188.498 Y-558.929
X-188.345 Y-557.646
X-188.213 Y-556.361
X-188.1 Y-555.074
X-188.008 Y-553.785
X-187.935 Y-552.495
X-187.883 Y-551.204
X-187.851 Y-549.913
X-187.839 Y-548.621
X-187.847 Y-547.328
X-187.875 Y-546.037
X-187.924 Y-544.746
X-187.992 Y-543.455
X-188.081 Y-542.166
X-188.19 Y-540.879
X-188.318 Y-539.593
X-188.467 Y-538.31
X-188.636 Y-537.029
X-188.825 Y-535.751
X-189.034 Y-534.476
X-189.263 Y-533.204
X-189.512 Y-531.936
X-189.781 Y-530.672
X-190.069 Y-529.413
X-190.377 Y-528.158
X-190.704 Y-526.908
X-191.051 Y-525.664
X-191.417 Y-524.424
X-191.803 Y-523.191
X-192.208 Y-521.964
X-192.631 Y-520.744
X-193.074 Y-519.53
X-193.536 Y-518.323
X-194.017 Y-517.124
X-194.516 Y-515.932
X-195.033 Y-514.748
X-195.569 Y-513.573
X-196.124 Y-512.405
X-196.696 Y-511.247
X-197.287 Y-510.098
X-197.895 Y-508.958
X-198.521 Y-507.828
X-199.165 Y-506.708
X-199.827 Y-505.598
X-200.505 Y-504.498
X-201.201 Y-503.41
X-201.914 Y-502.332
X-202.643 Y-501.265
X-203.389 Y-500.21
X-204.151 Y-499.167
X-204.929 Y-498.135
X-205.723 Y-497.116
X-206.533 Y-496.11
X-207.359 Y-495.116
X-208.2 Y-494.135
X-209.056 Y-493.168
X-209.927 Y-492.213
X-210.813 Y-491.273
X-211.714 Y-490.346
X-212.629 Y-489.434
X-213.557 Y-488.536
X-214.5 Y-487.652
X-215.457 Y-486.784
X-216.427 Y-485.93
X-217.41 Y-485.092
X-218.407 Y-484.269
X-219.415 Y-483.462
X-220.437 Y-482.671
X-221.47 Y-481.896
X-222.516 Y-481.136
X-223.573 Y-480.393
X-224.641 Y-479.667
X-225.721 Y-478.957
X-226.812 Y-478.264
X-227.913 Y-477.589
X-229.025 Y-476.93
X-230.146 Y-476.289
X-231.278 Y-475.665
X-232.419 Y-475.059
X-233.569 Y-474.471
X-234.729 Y-473.9
X-235.897 Y-473.348
X-237.073 Y-472.814
X-238.258 Y-472.298
X-239.45 Y-471.801
X-240.651 Y-471.323
X-241.858 Y-470.863
X-243.073 Y-470.422
X-244.294 Y-470
X-245.521 Y-469.597
X-246.755 Y-469.213
X-247.994 Y-468.848
X-249.239 Y-468.502
X-250.49 Y-468.176
X-251.745 Y-467.869
X-253.004 Y-467.582
X-254.268 Y-467.314
X-255.536 Y-467.065
X-256.808 Y-466.837
X-258.083 Y-466.628
X-259.361 Y-466.439
X-260.642 Y-466.269
X-261.925 Y-466.119
X-263.211 Y-465.989
X-264.498 Y-465.88
X-265.787 Y-465.79
X-267.077 Y-465.72
X-268.368 Y-465.67
X-269.66 Y-465.64
X-270.952 Y-465.631
X-272.244 Y-465.641
X-273.536 Y-465.671
X-274.827 Y-465.721
X-276.117 Y-465.79
X-277.406 Y-465.88
X-278.693 Y-465.99
X-279.979 Y-466.119
X-281.262 Y-466.268
X-282.543 Y-466.437
X-283.822 Y-466.626
X-285.097 Y-466.834
X-286.369 Y-467.062
X-287.637 Y-467.31
X-288.901 Y-467.577
X-290.161 Y-467.863
X-291.416 Y-468.169
X-292.667 Y-468.494
X-293.912 Y-468.838
X-295.152 Y-469.202
X-296.386 Y-469.585
X-297.614 Y-469.987
X-298.835 Y-470.407
X-300.051 Y-470.846
X-301.259 Y-471.304
X-302.46 Y-471.781
X-303.653 Y-472.276
X-304.839 Y-472.788
X-306.017 Y-473.32
X-307.187 Y-473.869
X-308.348 Y-474.436
X-309.5 Y-475.021
X-310.643 Y-475.623
X-311.776 Y-476.243
X-312.9 Y-476.88
X-314.014 Y-477.535
X-315.118 Y-478.206
X-316.212 Y-478.894
X-317.295 Y-479.599
X-318.366 Y-480.321
X-319.427 Y-481.059
X-320.476 Y-481.813
X-321.513 Y-482.583
X-322.539 Y-483.37
X-323.552 Y-484.171
X-324.553 Y-484.988
X-325.541 Y-485.821
X-326.516 Y-486.668
X-327.479 Y-487.53
X-328.428 Y-488.407
X-329.363 Y-489.298
X-330.285 Y-490.204
X-331.193 Y-491.123
X-332.086 Y-492.057
X-332.965 Y-493.003
X-333.83 Y-493.963
X-334.68 Y-494.937
X-335.515 Y-495.923
X-336.334 Y-496.922
X-337.139 Y-497.933
X-337.928 Y-498.956
X-338.7 Y-499.991
X-339.457 Y-501.039
X-340.198 Y-502.097
X-340.923 Y-503.167
X-341.631 Y-504.248
X-342.322 Y-505.339
X-342.997 Y-506.441
X-343.654 Y-507.553
X-344.295 Y-508.675
X-344.919 Y-509.807
X-345.525 Y-510.948
X-346.114 Y-512.098
X-346.685 Y-513.257
X-347.238 Y-514.425
X-347.773 Y-515.601
X-348.291 Y-516.785
X-348.79 Y-517.976
X-349.271 Y-519.175
X-349.734 Y-520.382
X-350.178 Y-521.595
X-350.604 Y-522.815
X-351.011 Y-524.041
X-351.399 Y-525.274
X-351.768 Y-526.512
X-352.118 Y-527.755
X-352.45 Y-529.004
X-352.762 Y-530.258
X-353.055 Y-531.517
X-353.328 Y-532.779
X-353.583 Y-534.046
X-353.818 Y-535.317
X-354.033 Y-536.59
X-354.23 Y-537.867
X-354.407 Y-539.147
X-354.564 Y-540.43
X-354.702 Y-541.715
X-354.82 Y-543.001
X-354.918 Y-544.289
X-354.997 Y-545.579
X-355.056 Y-546.87
X-355.096 Y-548.161
X-355.116 Y-549.453
Y-550.745
X-355.097 Y-552.037
X-355.057 Y-553.329
X-354.998 Y-554.619
X-354.92 Y-555.909
X-354.821 Y-557.197
X-354.703 Y-558.484
X-354.565 Y-559.769
X-354.408 Y-561.051
X-354.231 Y-562.331
X-354.035 Y-563.608
X-353.82 Y-564.882
X-353.585 Y-566.153
X-353.331 Y-567.419
X-353.057 Y-568.682
X-352.765 Y-569.941
X-352.453 Y-571.194
X-352.122 Y-572.443
X-351.772 Y-573.687
X-351.404 Y-574.926
X-351.016 Y-576.158
X-350.61 Y-577.385
X-350.185 Y-578.605
X-349.742 Y-579.819
X-349.28 Y-581.025
X-348.8 Y-582.225
X-348.301 Y-583.417
X-347.785 Y-584.601
X-347.25 Y-585.777
X-346.698 Y-586.945
X-346.128 Y-588.105
X-345.54 Y-589.255
X-344.935 Y-590.397
X-344.312 Y-591.529
X-343.673 Y-592.652
X-343.016 Y-593.765
X-342.343 Y-594.868
X-341.653 Y-595.96
X-340.946 Y-597.042
X-340.223 Y-598.112
X-339.484 Y-599.172
X-338.729 Y-600.22
X-337.958 Y-601.257
X-337.171 Y-602.282
X-336.369 Y-603.295
X-335.551 Y-604.296
X-334.719 Y-605.284
X-333.871 Y-606.259
X-333.008 Y-607.221
X-332.131 Y-608.169
X-331.24 Y-609.104
X-330.334 Y-610.026
X-329.415 Y-610.934
X-328.482 Y-611.827
X-327.535 Y-612.707
X-326.575 Y-613.572
X-325.602 Y-614.422
X-324.616 Y-615.257
X-323.618 Y-616.078
X-322.608 Y-616.883
X-321.585 Y-617.672
X-320.55 Y-618.446
X-319.504 Y-619.204
X-318.446 Y-619.946
X-317.377 Y-620.672
X-316.297 Y-621.382
X-315.207 Y-622.075
X-314.106 Y-622.751
X-312.995 Y-623.411
X-311.874 Y-624.053
X-310.744 Y-624.679
X-309.604 Y-625.287
X-308.454 Y-625.877
X-307.296 Y-626.45
X-306.13 Y-627.006
X-304.955 Y-627.543
X-303.772 Y-628.063
X-302.581 Y-628.565
X-301.383 Y-629.049
X-300.178 Y-629.514
X-298.966 Y-629.961
X-297.747 Y-630.39
X-296.522 Y-630.8
X-295.29 Y-631.191
X-294.053 Y-631.564
X-292.81 Y-631.918
X-291.563 Y-632.252
X-290.31 Y-632.568
X-289.052 Y-632.865
X-287.79 Y-633.143
X-286.525 Y-633.402
X-285.255 Y-633.641
X-283.982 Y-633.861
X-282.705 Y-634.061
X-281.426 Y-634.242
X-280.144 Y-634.404
X-278.86 Y-634.546
X-277.574 Y-634.669
X-276.286 Y-634.772
X-274.996 Y-634.856
X-273.706 Y-634.92
X-272.415 Y-634.965
X-271.123 Y-634.99
X-269.831 Y-634.996
X-268.539 Y-634.982
X-267.247 Y-634.948
X-265.956 Y-634.895
X-264.666 Y-634.823
X-263.377 Y-634.731
X-262.09 Y-634.619
X-260.805 Y-634.488
X-259.521 Y-634.338
X-258.241 Y-634.168
X-256.962 Y-633.979
X-255.687 Y-633.771
X-254.415 Y-633.543
X-253.147 Y-633.296
X-251.883 Y-633.03
X-250.623 Y-632.745
X-249.367 Y-632.44
X-248.116 Y-632.117
X-246.87 Y-631.776
X-245.629 Y-631.415
X-244.394 Y-631.036
X-243.165 Y-630.639
X-241.941 Y-630.223
X-240.724 Y-629.788
X-239.514 Y-629.336
X-238.311 Y-628.865
X-237.115 Y-628.376
X-235.927 Y-627.869
X-234.746 Y-627.345
X-233.573 Y-626.802
X-232.408 Y-626.243
X-231.252 Y-625.666
X-230.105 Y-625.071
X-228.967 Y-624.459
X-227.839 Y-623.83
X-226.719 Y-623.185
X-225.61 Y-622.522
X-224.511 Y-621.843
X-223.422 Y-621.148
X-222.343 Y-620.436
X-221.276 Y-619.709
X-220.219 Y-618.965
X-219.174 Y-618.206
X-218.14 Y-617.431
X-217.117 Y-616.641
X-216.107 Y-615.836
X-215.109 Y-615.015
X-214.123 Y-614.18
X-213.15 Y-613.33
X-212.189 Y-612.466
X-211.242 Y-611.588
X-210.307 Y-610.695
X-209.387 Y-609.789
X-208.479 Y-608.869
X-207.586 Y-607.935
X-206.707 Y-606.988
X-205.842 Y-606.029
X-204.992 Y-605.056
X-204.156 Y-604.07
X-203.335 Y-603.073
X-202.529 Y-602.063
X-201.738 Y-601.041
X-200.962 Y-600.008
X-200.202 Y-598.963
X-199.458 Y-597.907
X-198.729 Y-596.84
X-198.016 Y-595.762
X-197.32 Y-594.674
X-196.64 Y-593.576
X-195.976 Y-592.467
X-195.328 Y-591.349
X-194.698 Y-590.221
X-194.084 Y-589.084
X-193.488 Y-587.938
X-192.908 Y-586.783
X-192.346 Y-585.62
X-191.801 Y-584.448
X-191.274 Y-583.269
X-190.764 Y-582.082
X-190.273 Y-580.887
X-189.799 Y-579.685
X-189.343 Y-578.476
X-188.905 Y-577.26
X-188.486 Y-576.038
X-188.084 Y-574.81
X-187.701 Y-573.576
X-187.337 Y-572.336
X-186.991 Y-571.091
X-186.663 Y-569.842
X-186.354 Y-568.587
X-186.064 Y-567.328
X-185.792 Y-566.065
X-185.54 Y-564.798
X-185.306 Y-563.527
X-185.091 Y-562.253
X-184.896 Y-560.976
X-184.719 Y-559.696
X-184.561 Y-558.413
X-184.423 Y-557.129
X-184.304 Y-555.842
X-184.204 Y-554.554
X-184.123 Y-553.265
X-184.062 Y-551.974
X-184.02 Y-550.683
X-183.997 Y-549.391
X-183.994 Y-548.099
X-184.009 Y-546.807
X-184.044 Y-545.515
X-184.098 Y-544.224
X-184.172 Y-542.934
X-184.264 Y-541.646
X-184.376 Y-540.358
X-184.507 Y-539.073
X-184.657 Y-537.79
X-184.827 Y-536.509
X-185.015 Y-535.23
X-185.222 Y-533.955
X-185.449 Y-532.683
X-185.694 Y-531.414
X-185.958 Y-530.15
X-186.241 Y-528.889
X-186.543 Y-527.633
X-186.864 Y-526.381
X-187.203 Y-525.134
X-187.561 Y-523.893
X-187.937 Y-522.657
X-188.332 Y-521.427
X-188.745 Y-520.203
X-189.177 Y-518.985
X-189.626 Y-517.773
X-190.094 Y-516.569
X-190.579 Y-515.371
X-191.083 Y-514.181
X-191.603 Y-512.999
X-192.142 Y-511.824
X-192.698 Y-510.658
X-193.271 Y-509.5
X-193.861 Y-508.351
X-194.469 Y-507.21
X-195.093 Y-506.079
X-195.734 Y-504.958
X-196.392 Y-503.846
X-197.067 Y-502.743
X-197.757 Y-501.651
X-198.464 Y-500.57
X-199.187 Y-499.499
X-199.926 Y-498.439
X-200.681 Y-497.391
X-201.452 Y-496.354
X-202.237 Y-495.328
