%
(1001)
(origin stock top)
(T1  D=12.7 CR=0 - ZMIN=-12 - flat end mill)
G90 G94
G17
G21

(bottom_right)
M9
T1 M6
S6500 M3
G54
G0 X-273.673 Y-205.069
Z15
Z5
Z2.55
G3 X-266.723 Y-214.931 Z0.558 I3.475 J-4.931 F283.3
X-273.673 Y-205.069 Z-1.434 I-3.475 J4.931
X-266.723 Y-214.931 Z-3.426 I3.475 J-4.931
X-273.673 Y-205.069 Z-5.418 I-3.475 J4.931
X-266.723 Y-214.931 Z-7.409 I3.475 J-4.931
X-273.673 Y-205.069 Z-9.401 I-3.475 J4.931
X-266.723 Y-214.931 Z-11.393 I3.475 J-4.931
X-264.165 Y-210 Z-12 I-3.475 J4.931
X-276.23 I-6.033
X-264.165 I6.033
G1 X-264.162 Y-209.677 F849.6
X-264.13 Y-209.356
X-263.889 Y-208.086
X-263.84 Y-207.932
X-263.797 Y-207.756
X-263.763 Y-207.562
X-263.74 Y-207.349
X-263.73 Y-207.118
X-263.736 Y-206.871
X-263.76 Y-206.608
X-263.804 Y-206.33
X-263.869 Y-206.04
X-263.959 Y-205.739
X-264.074 Y-205.43
X-264.216 Y-205.115
X-264.385 Y-204.796
X-264.583 Y-204.477
X-264.81 Y-204.16
X-265.067 Y-203.848
X-265.352 Y-203.544
X-265.667 Y-203.25
X-266.01 Y-202.971
X-266.379 Y-202.709
X-266.775 Y-202.466
X-267.194 Y-202.245
X-267.636 Y-202.048
X-268.098 Y-201.878
X-268.578 Y-201.738
X-269.074 Y-201.627
X-269.582 Y-201.549
X-270.101 Y-201.504
X-270.627 Y-201.493
X-271.158 Y-201.518
X-271.691 Y-201.578
X-272.222 Y-201.674
X-272.75 Y-201.806
X-273.272 Y-201.974
X-273.784 Y-202.177
X-274.283 Y-202.416
X-274.769 Y-202.687
X-275.236 Y-202.992
X-275.685 Y-203.328
X-276.111 Y-203.695
X-276.514 Y-204.09
X-276.89 Y-204.512
X-277.238 Y-204.959
X-277.556 Y-205.429
X-277.843 Y-205.92
X-278.098 Y-206.429
X-278.318 Y-206.955
X-278.503 Y-207.496
X-278.652 Y-208.048
X-278.764 Y-208.609
X-278.839 Y-209.177
X-278.876 Y-209.749
X-278.875 Y-210.323
X-278.836 Y-210.896
X-278.759 Y-211.465
X-278.644 Y-212.028
X-278.492 Y-212.582
X-278.304 Y-213.126
X-278.08 Y-213.656
X-277.821 Y-214.17
X-277.528 Y-214.666
X-277.204 Y-215.141
X-276.848 Y-215.594
X-276.463 Y-216.023
X-276.051 Y-216.425
X-275.612 Y-216.799
X-275.15 Y-217.143
X-274.666 Y-217.455
X-274.162 Y-217.735
X-273.641 Y-217.981
X-273.104 Y-218.192
X-272.555 Y-218.367
X-271.995 Y-218.505
X-271.427 Y-218.605
X-270.854 Y-218.668
X-270.278 Y-218.692
X-269.701 Y-218.678
X-269.127 Y-218.626
X-268.557 Y-218.536
X-267.995 Y-218.409
X-267.442 Y-218.244
X-266.901 Y-218.043
X-266.375 Y-217.807
X-265.866 Y-217.537
X-265.376 Y-217.233
X-264.907 Y-216.897
X-264.461 Y-216.531
X-264.04 Y-216.136
X-263.647 Y-215.714
X-263.282 Y-215.267
X-262.948 Y-214.797
X-262.646 Y-214.306
X-262.077 Y-213.225
X-261.631 Y-212.224
X-261.323 Y-211.384
X-261.102 Y-210.634
X-260.944 Y-209.924
X-260.84 Y-209.253
X-260.784 Y-208.607
X-260.771 Y-207.975
X-260.799 Y-207.355
X-260.868 Y-206.747
X-260.976 Y-206.151
X-261.122 Y-205.566
X-261.306 Y-204.992
X-261.529 Y-204.432
X-261.789 Y-203.885
X-262.087 Y-203.353
X-262.422 Y-202.838
X-262.794 Y-202.342
X-263.201 Y-201.867
X-263.644 Y-201.416
X-264.121 Y-200.99
X-264.631 Y-200.593
X-265.172 Y-200.226
X-265.742 Y-199.892
X-266.34 Y-199.594
X-266.961 Y-199.334
X-267.604 Y-199.114
X-268.266 Y-198.935
X-268.944 Y-198.799
X-269.635 Y-198.708
X-270.337 Y-198.662
X-271.045 Y-198.664
X-271.757 Y-198.712
X-272.468 Y-198.808
X-273.177 Y-198.952
X-273.878 Y-199.144
X-274.569 Y-199.383
X-275.246 Y-199.67
X-275.906 Y-200.002
X-276.546 Y-200.379
X-277.161 Y-200.799
X-277.75 Y-201.26
X-278.308 Y-201.761
X-278.833 Y-202.3
X-279.323 Y-202.874
X-279.775 Y-203.481
X-280.186 Y-204.117
X-280.555 Y-204.781
X-280.88 Y-205.469
X-281.159 Y-206.178
X-281.39 Y-206.906
X-281.573 Y-207.648
X-281.707 Y-208.401
X-281.79 Y-209.162
X-281.823 Y-209.928
X-281.805 Y-210.695
X-281.736 Y-211.46
X-281.616 Y-212.219
X-281.446 Y-212.969
X-281.227 Y-213.706
X-280.959 Y-214.428
X-280.644 Y-215.13
X-280.283 Y-215.811
X-279.877 Y-216.466
X-279.428 Y-217.093
X-278.939 Y-217.689
X-278.411 Y-218.251
X-277.847 Y-218.778
X-277.249 Y-219.265
X-276.62 Y-219.713
X-275.963 Y-220.117
X-275.28 Y-220.477
X-274.575 Y-220.791
X-273.85 Y-221.058
X-273.109 Y-221.276
X-272.356 Y-221.444
X-271.592 Y-221.562
X-270.823 Y-221.63
X-270.05 Y-221.646
X-269.279 Y-221.61
X-268.511 Y-221.524
X-267.751 Y-221.387
X-267.001 Y-221.2
X-266.265 Y-220.963
X-265.547 Y-220.678
X-264.849 Y-220.347
X-264.175 Y-219.969
X-263.527 Y-219.548
X-262.909 Y-219.085
X-262.259 Y-218.527
X-261.631 Y-217.912
X-260.998 Y-217.202
X-260.396 Y-216.43
X-259.845 Y-215.618
X-259.354 Y-214.778
X-258.926 Y-213.921
X-258.562 Y-213.055
X-258.263 Y-212.183
X-258.027 Y-211.31
X-257.853 Y-210.44
X-257.739 Y-209.577
X-257.683 Y-208.72
X-257.684 Y-207.87
X-257.741 Y-207.031
X-257.852 Y-206.202
X-258.018 Y-205.386
X-258.237 Y-204.584
X-258.509 Y-203.8
X-258.832 Y-203.035
X-259.205 Y-202.292
X-259.628 Y-201.573
X-260.1 Y-200.882
X-260.619 Y-200.22
X-261.183 Y-199.592
X-261.791 Y-198.999
X-262.44 Y-198.444
X-263.128 Y-197.931
X-263.854 Y-197.462
X-264.613 Y-197.04
X-265.404 Y-196.667
X-266.223 Y-196.344
X-267.066 Y-196.076
X-267.931 Y-195.862
X-268.813 Y-195.705
X-269.71 Y-195.607
X-270.617 Y-195.568
X-271.529 Y-195.589
X-272.444 Y-195.671
X-273.355 Y-195.815
X-274.26 Y-196.019
X-275.154 Y-196.285
X-276.032 Y-196.611
X-276.889 Y-196.995
X-277.723 Y-197.438
X-278.529 Y-197.936
X-279.302 Y-198.489
X-280.039 Y-199.093
X-280.736 Y-199.747
X-281.39 Y-200.448
X-281.997 Y-201.192
X-282.555 Y-201.977
X-283.061 Y-202.798
X-283.512 Y-203.653
X-283.906 Y-204.537
X-284.241 Y-205.447
X-284.516 Y-206.378
X-284.728 Y-207.326
X-284.877 Y-208.288
X-284.962 Y-209.258
X-284.982 Y-210.233
X-284.938 Y-211.208
X-284.829 Y-212.179
X-284.656 Y-213.14
X-284.419 Y-214.089
X-284.12 Y-215.021
X-283.76 Y-215.931
X-283.339 Y-216.815
X-282.861 Y-217.67
X-282.327 Y-218.492
X-281.739 Y-219.277
X-281.101 Y-220.021
X-280.414 Y-220.722
X-279.682 Y-221.376
X-278.909 Y-221.979
X-278.096 Y-222.531
X-277.249 Y-223.027
X-276.371 Y-223.466
X-275.465 Y-223.846
X-274.536 Y-224.165
X-273.588 Y-224.422
X-272.625 Y-224.615
X-271.651 Y-224.744
X-270.67 Y-224.808
X-269.688 Y-224.807
X-268.707 Y-224.741
X-267.733 Y-224.61
X-266.77 Y-224.415
X-265.822 Y-224.156
X-264.893 Y-223.835
X-263.973 Y-223.447
X-263.066 Y-222.991
X-262.169 Y-222.463
X-261.287 Y-221.862
X-260.434 Y-221.193
X-259.614 Y-220.457
X-258.834 Y-219.659
X-258.103 Y-218.802
X-257.426 Y-217.894
X-256.81 Y-216.942
X-256.259 Y-215.954
X-255.779 Y-214.937
X-255.37 Y-213.899
X-255.034 Y-212.845
X-254.771 Y-211.78
X-254.58 Y-210.709
X-254.462 Y-209.635
X-254.415 Y-208.562
X-254.44 Y-207.494
X-254.535 Y-206.435
X-254.699 Y-205.387
X-254.933 Y-204.355
X-255.233 Y-203.342
X-255.6 Y-202.351
X-256.033 Y-201.387
X-256.528 Y-200.452
X-257.086 Y-199.551
X-257.703 Y-198.686
X-258.379 Y-197.863
X-259.109 Y-197.083
X-259.893 Y-196.352
X-260.726 Y-195.671
X-261.606 Y-195.045
X-262.529 Y-194.476
X-263.493 Y-193.967
X-264.492 Y-193.521
X-265.523 Y-193.141
X-266.583 Y-192.829
X-267.666 Y-192.586
X-268.767 Y-192.415
X-269.883 Y-192.317
X-271.008 Y-192.293
X-272.137 Y-192.344
X-273.265 Y-192.47
X-274.388 Y-192.672
X-275.499 Y-192.949
X-276.593 Y-193.3
X-277.666 Y-193.725
X-278.712 Y-194.221
X-279.726 Y-194.788
X-280.703 Y-195.423
X-281.638 Y-196.123
X-282.528 Y-196.885
X-283.366 Y-197.707
X-284.15 Y-198.584
X-284.876 Y-199.514
X-285.54 Y-200.491
X-286.138 Y-201.512
X-286.669 Y-202.572
X-287.128 Y-203.667
X-287.515 Y-204.791
X-287.826 Y-205.94
X-288.061 Y-207.108
X-288.218 Y-208.29
X-288.296 Y-209.481
X-288.295 Y-210.676
X-288.215 Y-211.869
X-288.056 Y-213.055
X-287.818 Y-214.228
X-287.503 Y-215.384
X-287.111 Y-216.517
X-286.646 Y-217.622
X-286.107 Y-218.694
X-285.499 Y-219.728
X-284.823 Y-220.72
X-284.083 Y-221.666
X-283.281 Y-222.56
X-282.421 Y-223.4
X-281.508 Y-224.18
X-280.544 Y-224.899
X-279.535 Y-225.553
X-278.484 Y-226.138
X-277.397 Y-226.652
X-276.278 Y-227.093
X-275.132 Y-227.459
X-273.965 Y-227.748
X-272.78 Y-227.959
X-271.584 Y-228.091
X-270.382 Y-228.143
X-269.179 Y-228.116
X-267.98 Y-228.009
X-266.788 Y-227.822
X-265.604 Y-227.555
X-264.431 Y-227.207
X-263.27 Y-226.777
X-262.126 Y-226.265
X-261.006 Y-225.671
X-259.914 Y-224.996
X-258.862 Y-224.245
X-257.863 Y-223.427
X-256.918 Y-222.545
X-256.033 Y-221.603
X-255.21 Y-220.607
X-254.453 Y-219.561
X-253.764 Y-218.468
X-253.146 Y-217.333
X-252.603 Y-216.161
X-252.136 Y-214.956
X-251.748 Y-213.723
X-251.442 Y-212.468
X-251.218 Y-211.196
X-251.077 Y-209.911
X-251.022 Y-208.62
X-251.052 Y-207.329
X-251.168 Y-206.043
X-251.368 Y-204.771
X-251.652 Y-203.515
X-252.019 Y-202.282
X-252.466 Y-201.076
X-252.992 Y-199.902
X-253.596 Y-198.764
X-254.275 Y-197.667
X-255.026 Y-196.616
X-255.846 Y-195.617
X-256.729 Y-194.675
X-257.673 Y-193.793
X-258.674 Y-192.975
X-259.725 Y-192.224
X-260.824 Y-191.544
X-261.964 Y-190.937
X-263.142 Y-190.406
X-264.352 Y-189.952
X-265.588 Y-189.577
X-266.847 Y-189.283
X-268.121 Y-189.07
X-269.406 Y-188.94
X-270.697 Y-188.891
X-271.989 Y-188.924
X-273.276 Y-189.038
X-274.553 Y-189.234
X-275.816 Y-189.508
X-277.059 Y-189.861
X-278.277 Y-190.291
X-279.467 Y-190.794
X-280.624 Y-191.371
X-281.742 Y-192.017
X-282.819 Y-192.731
X-283.849 Y-193.511
X-284.829 Y-194.353
X-285.756 Y-195.254
X-286.625 Y-196.21
X-287.434 Y-197.217
X-288.18 Y-198.272
X-288.861 Y-199.37
X-289.474 Y-200.507
X-290.018 Y-201.679
X-290.49 Y-202.882
X-290.889 Y-204.111
X-291.212 Y-205.362
X-291.459 Y-206.63
X-291.628 Y-207.911
X-291.718 Y-209.2
X-291.731 Y-210.492
X-291.665 Y-211.783
X-291.523 Y-213.067
X-291.304 Y-214.34
X-291.009 Y-215.598
X-290.64 Y-216.836
X-290.197 Y-218.05
X-289.682 Y-219.235
X-289.096 Y-220.386
X-288.441 Y-221.5
X-287.72 Y-222.572
X-286.936 Y-223.599
X-286.092 Y-224.578
X-285.191 Y-225.504
X-284.236 Y-226.375
X-283.232 Y-227.187
X-282.181 Y-227.939
X-281.086 Y-228.626
X-279.953 Y-229.245
X-278.783 Y-229.795
X-277.583 Y-230.273
X-276.356 Y-230.678
X-275.107 Y-231.009
X-273.841 Y-231.265
X-272.561 Y-231.445
X-271.273 Y-231.549
X-269.982 Y-231.577
X-268.69 Y-231.527
X-267.405 Y-231.4
X-266.129 Y-231.195
X-264.868 Y-230.914
X-263.625 Y-230.56
X-262.405 Y-230.134
X-261.212 Y-229.639
X-260.049 Y-229.077
X-258.919 Y-228.449
X-257.828 Y-227.757
X-256.778 Y-227.004
X-255.772 Y-226.193
X-254.813 Y-225.328
X-253.902 Y-224.411
X-253.043 Y-223.447
X-252.238 Y-222.436
X-251.491 Y-221.382
X-250.804 Y-220.287
X-250.178 Y-219.157
X-249.615 Y-217.994
X-249.116 Y-216.802
X-248.683 Y-215.585
X-248.318 Y-214.345
X-248.024 Y-213.087
X-247.802 Y-211.815
X-247.65 Y-210.531
X-247.569 Y-209.242
X-247.56 Y-207.95
X-247.623 Y-206.659
X-247.76 Y-205.375
X-247.97 Y-204.1
X-248.251 Y-202.839
X-248.603 Y-201.595
X-249.024 Y-200.374
X-249.511 Y-199.177
X-250.066 Y-198.01
X-250.687 Y-196.877
X-251.371 Y-195.781
X-252.116 Y-194.726
X-252.919 Y-193.713
X-253.777 Y-192.747
X-254.686 Y-191.829
X-255.646 Y-190.964
X-256.654 Y-190.156
X-257.706 Y-189.405
X-258.797 Y-188.714
X-259.926 Y-188.084
X-261.086 Y-187.517
X-262.276 Y-187.014
X-263.493 Y-186.578
X-264.732 Y-186.212
X-265.989 Y-185.914
X-267.261 Y-185.685
X-268.543 Y-185.525
X-269.832 Y-185.434
X-271.124 Y-185.413
X-272.415 Y-185.462
X-273.701 Y-185.582
X-274.979 Y-185.772
X-276.245 Y-186.029
X-277.496 Y-186.353
X-278.728 Y-186.742
X-279.938 Y-187.196
X-281.121 Y-187.714
X-282.275 Y-188.296
X-283.397 Y-188.938
X-284.482 Y-189.638
X-285.53 Y-190.395
X-286.536 Y-191.205
X-287.499 Y-192.067
X-288.414 Y-192.979
X-289.28 Y-193.938
X-290.093 Y-194.942
X-290.853 Y-195.987
X-291.558 Y-197.069
X-292.207 Y-198.187
X-292.797 Y-199.336
X-293.326 Y-200.515
X-293.792 Y-201.72
X-294.193 Y-202.948
X-294.531 Y-204.196
X-294.803 Y-205.459
X-295.01 Y-206.734
X-295.151 Y-208.018
X-295.225 Y-209.308
X-295.23 Y-210.6
X-295.168 Y-211.891
X-295.04 Y-213.176
X-294.846 Y-214.454
X-294.587 Y-215.72
X-294.264 Y-216.971
X-293.877 Y-218.203
X-293.424 Y-219.414
X-292.909 Y-220.599
X-292.334 Y-221.755
X-291.699 Y-222.881
X-291.008 Y-223.973
X-290.262 Y-225.028
X-289.463 Y-226.043
X-288.612 Y-227.015
X-287.711 Y-227.941
X-286.764 Y-228.82
X-285.773 Y-229.649
X-284.741 Y-230.427
X-283.671 Y-231.151
X-282.565 Y-231.818
X-281.425 Y-232.426
X-280.254 Y-232.974
X-279.058 Y-233.461
X-277.837 Y-233.885
X-276.597 Y-234.247
X-275.34 Y-234.546
X-274.069 Y-234.781
X-272.788 Y-234.948
X-271.5 Y-235.048
X-270.208 Y-235.082
X-268.917 Y-235.049
X-267.628 Y-234.951
X-266.347 Y-234.788
X-265.075 Y-234.56
X-263.817 Y-234.267
X-262.575 Y-233.91
X-261.352 Y-233.491
X-260.153 Y-233.012
X-258.978 Y-232.474
X-257.831 Y-231.878
X-256.715 Y-231.227
X-255.632 Y-230.523
X-254.586 Y-229.765
X-253.578 Y-228.957
X-252.61 Y-228.1
X-251.685 Y-227.199
X-250.803 Y-226.254
X-249.968 Y-225.268
X-249.181 Y-224.243
X-248.445 Y-223.182
X-247.761 Y-222.086
X-247.13 Y-220.958
X-246.555 Y-219.801
X-246.035 Y-218.618
X-245.573 Y-217.412
X-245.168 Y-216.184
X-244.823 Y-214.939
X-244.539 Y-213.679
X-244.318 Y-212.406
X-244.158 Y-211.124
X-244.06 Y-209.835
X-244.025 Y-208.544
X-244.052 Y-207.252
X-244.141 Y-205.963
X-244.294 Y-204.68
X-244.51 Y-203.406
X-244.788 Y-202.144
X-245.127 Y-200.898
X-245.526 Y-199.669
X-245.985 Y-198.461
X-246.501 Y-197.276
X-247.074 Y-196.119
X-247.705 Y-194.991
X-248.39 Y-193.895
X-249.127 Y-192.834
X-249.915 Y-191.81
X-250.752 Y-190.826
X-251.635 Y-189.883
X-252.563 Y-188.983
X-253.533 Y-188.13
X-254.544 Y-187.326
X-255.594 Y-186.572
X-256.678 Y-185.869
X-257.795 Y-185.22
X-258.941 Y-184.624
X-260.115 Y-184.083
X-261.313 Y-183.599
X-262.533 Y-183.174
X-263.772 Y-182.809
X-265.028 Y-182.504
X-266.296 Y-182.258
X-267.575 Y-182.072
X-268.861 Y-181.946
X-270.151 Y-181.881
X-271.443 Y-181.877
X-272.734 Y-181.935
X-274.02 Y-182.054
X-275.3 Y-182.233
X-276.57 Y-182.471
X-277.827 Y-182.768
X-279.07 Y-183.123
X-280.295 Y-183.534
X-281.499 Y-184.002
X-282.68 Y-184.527
X-283.834 Y-185.107
X-284.961 Y-185.739
X-286.057 Y-186.423
X-287.121 Y-187.156
X-288.151 Y-187.937
X-289.143 Y-188.764
X-290.096 Y-189.636
X-291.008 Y-190.552
X-291.875 Y-191.51
X-292.698 Y-192.506
X-293.475 Y-193.538
X-294.205 Y-194.605
X-294.885 Y-195.703
X-295.515 Y-196.831
X-296.093 Y-197.986
X-296.616 Y-199.168
X-297.085 Y-200.372
X-297.497 Y-201.596
X-297.854 Y-202.838
X-298.155 Y-204.095
X-298.398 Y-205.364
X-298.585 Y-206.642
X-298.713 Y-207.928
X-298.781 Y-209.218
X-298.789 Y-210.51
X-298.739 Y-211.801
X-298.632 Y-213.089
X-298.466 Y-214.37
X-298.244 Y-215.643
X-297.964 Y-216.905
X-297.628 Y-218.152
X-297.234 Y-219.382
X-296.784 Y-220.594
X-296.279 Y-221.783
X-295.722 Y-222.949
X-295.113 Y-224.088
X-294.453 Y-225.199
X-293.745 Y-226.28
X-292.988 Y-227.327
X-292.184 Y-228.338
X-291.334 Y-229.312
X-290.442 Y-230.246
X-289.508 Y-231.139
X-288.535 Y-231.99
X-287.526 Y-232.796
X-286.481 Y-233.556
X-285.403 Y-234.268
X-284.293 Y-234.93
X-283.154 Y-235.539
X-281.988 Y-236.097
X-280.799 Y-236.602
X-279.588 Y-237.053
X-278.359 Y-237.45
X-277.113 Y-237.792
X-275.853 Y-238.078
X-274.581 Y-238.305
X-273.3 Y-238.473
X-272.013 Y-238.584
X-270.722 Y-238.637
X-269.429 Y-238.632
X-268.139 Y-238.57
X-266.852 Y-238.451
X-265.572 Y-238.274
X-264.302 Y-238.04
X-263.043 Y-237.749
X-261.798 Y-237.402
X-260.57 Y-237
X-259.361 Y-236.546
X-258.172 Y-236.039
X-257.007 Y-235.482
X-255.866 Y-234.874
X-254.754 Y-234.217
X-253.671 Y-233.512
X-252.62 Y-232.761
X-251.602 Y-231.965
X-250.619 Y-231.126
X-249.673 Y-230.246
X-248.764 Y-229.328
X-247.895 Y-228.372
X-247.068 Y-227.379
X-246.284 Y-226.352
X-245.545 Y-225.292
X-244.852 Y-224.202
X-244.206 Y-223.083
X-243.608 Y-221.938
X-243.058 Y-220.768
X-242.557 Y-219.577
X-242.108 Y-218.366
X-241.711 Y-217.136
X-241.367 Y-215.891
X-241.078 Y-214.632
X-240.842 Y-213.361
X-240.661 Y-212.082
X-240.534 Y-210.796
X-240.462 Y-209.506
X-240.444 Y-208.214
X-240.481 Y-206.923
X-240.575 Y-205.634
X-240.725 Y-204.351
X-240.931 Y-203.075
X-241.19 Y-201.809
X-241.504 Y-200.556
X-241.87 Y-199.317
X-242.288 Y-198.094
X-242.759 Y-196.891
X-243.281 Y-195.709
X-243.855 Y-194.552
X-244.478 Y-193.42
X-245.149 Y-192.316
X-245.867 Y-191.242
X-246.63 Y-190.199
X-247.436 Y-189.189
X-248.284 Y-188.214
X-249.174 Y-187.277
X-250.103 Y-186.38
X-251.071 Y-185.523
X-252.074 Y-184.709
X-253.111 Y-183.938
X-254.18 Y-183.212
X-255.278 Y-182.532
X-256.404 Y-181.897
X-257.555 Y-181.311
X-258.731 Y-180.776
X-259.929 Y-180.291
X-261.146 Y-179.858
X-262.38 Y-179.476
X-263.63 Y-179.147
X-264.892 Y-178.87
X-266.164 Y-178.645
X-267.445 Y-178.474
X-268.731 Y-178.356
X-270.022 Y-178.293
X-271.314 Y-178.285
X-272.605 Y-178.331
X-273.893 Y-178.43
X-275.176 Y-178.583
X-276.452 Y-178.788
X-277.718 Y-179.044
X-278.973 Y-179.352
X-280.214 Y-179.713
X-281.439 Y-180.125
X-282.645 Y-180.588
X-283.831 Y-181.1
X-284.995 Y-181.66
X-286.135 Y-182.268
X-287.25 Y-182.921
X-288.338 Y-183.619
X-289.396 Y-184.36
X-290.423 Y-185.145
X-291.416 Y-185.971
X-292.374 Y-186.838
X-293.296 Y-187.743
X-294.18 Y-188.685
X-295.026 Y-189.662
X-295.831 Y-190.672
X-296.596 Y-191.714
X-297.319 Y-192.785
X-297.996 Y-193.885
X-298.628 Y-195.012
X-299.213 Y-196.164
X-299.75 Y-197.339
X-300.24 Y-198.535
X-300.681 Y-199.749
X-301.074 Y-200.98
X-301.417 Y-202.226
X-301.71 Y-203.484
X-301.951 Y-204.754
X-302.14 Y-206.032
X-302.276 Y-207.317
X-302.361 Y-208.606
X-302.394 Y-209.898
X-302.375 Y-211.189
X-302.305 Y-212.48
X-302.184 Y-213.766
X-302.011 Y-215.046
X-301.786 Y-216.319
X-301.51 Y-217.581
X-301.182 Y-218.831
X-300.804 Y-220.066
X-300.377 Y-221.286
X-299.901 Y-222.487
X-299.379 Y-223.669
X-298.81 Y-224.829
X-298.195 Y-225.965
X-297.534 Y-227.075
X-296.829 Y-228.158
X-296.08 Y-229.211
X-295.289 Y-230.233
X-294.458 Y-231.222
X-293.589 Y-232.178
X-292.682 Y-233.099
X-291.74 Y-233.983
X-290.764 Y-234.829
X-289.753 Y-235.634
X-288.71 Y-236.397
X-287.638 Y-237.117
X-286.537 Y-237.794
X-285.41 Y-238.426
X-284.259 Y-239.013
X-283.086 Y-239.554
X-281.892 Y-240.048
X-280.679 Y-240.494
X-279.449 Y-240.89
X-278.205 Y-241.236
X-276.947 Y-241.532
X-275.678 Y-241.776
X-274.401 Y-241.97
X-273.117 Y-242.113
X-271.828 Y-242.205
X-270.536 Y-242.247
X-269.244 Y-242.237
X-267.954 Y-242.175
X-266.667 Y-242.061
X-265.385 Y-241.896
X-264.112 Y-241.679
X-262.847 Y-241.413
X-261.594 Y-241.098
X-260.355 Y-240.734
X-259.13 Y-240.322
X-257.922 Y-239.863
X-256.733 Y-239.357
X-255.565 Y-238.804
X-254.42 Y-238.206
X-253.299 Y-237.564
X-252.203 Y-236.879
X-251.135 Y-236.152
X-250.095 Y-235.386
X-249.085 Y-234.58
X-248.106 Y-233.737
X-247.16 Y-232.857
X-246.248 Y-231.941
X-245.373 Y-230.991
X-244.535 Y-230.007
X-243.735 Y-228.993
X-242.974 Y-227.949
X-242.253 Y-226.876
X-241.573 Y-225.778
X-240.934 Y-224.655
X-240.338 Y-223.508
X-239.787 Y-222.34
X-239.281 Y-221.151
X-238.821 Y-219.943
X-238.408 Y-218.719
X-238.042 Y-217.48
X-237.722 Y-216.228
X-237.45 Y-214.965
X-237.226 Y-213.693
X-237.05 Y-212.413
X-236.923 Y-211.127
X-236.846 Y-209.837
X-236.82 Y-208.545
X-236.842 Y-207.253
X-236.915 Y-205.963
X-237.036 Y-204.677
X-237.206 Y-203.396
X-237.425 Y-202.123
X-237.691 Y-200.859
X-238.006 Y-199.606
X-238.37 Y-198.366
X-238.781 Y-197.141
X-239.239 Y-195.933
X-239.744 Y-194.743
X-240.293 Y-193.574
X-240.887 Y-192.426
X-241.524 Y-191.302
X-242.202 Y-190.202
X-242.922 Y-189.13
X-243.684 Y-188.086
X-244.485 Y-187.072
X-245.324 Y-186.09
X-246.201 Y-185.141
X-247.113 Y-184.226
X-248.059 Y-183.346
X-249.038 Y-182.503
X-250.048 Y-181.697
X-251.088 Y-180.93
X-252.156 Y-180.203
X-253.252 Y-179.518
X-254.372 Y-178.875
X-255.517 Y-178.275
X-256.684 Y-177.72
X-257.87 Y-177.209
X-259.075 Y-176.743
X-260.297 Y-176.322
X-261.533 Y-175.947
X-262.783 Y-175.618
X-264.044 Y-175.338
X-265.315 Y-175.105
X-266.594 Y-174.921
X-267.879 Y-174.785
X-269.168 Y-174.697
X-270.459 Y-174.657
X-271.751 Y-174.665
X-273.042 Y-174.721
X-274.33 Y-174.824
X-275.613 Y-174.975
X-276.89 Y-175.174
X-278.158 Y-175.421
X-279.416 Y-175.714
X-280.663 Y-176.055
X-281.896 Y-176.441
X-283.114 Y-176.872
X-284.315 Y-177.348
X-285.498 Y-177.867
X-286.662 Y-178.429
X-287.803 Y-179.034
X-288.922 Y-179.681
X-290.016 Y-180.368
X-291.083 Y-181.096
X-292.123 Y-181.863
X-293.135 Y-182.667
X-294.116 Y-183.507
X-295.067 Y-184.382
X-295.985 Y-185.291
X-296.869 Y-186.233
X-297.718 Y-187.207
X-298.531 Y-188.212
X-299.306 Y-189.245
X-300.043 Y-190.307
X-300.741 Y-191.394
X-301.399 Y-192.506
X-302.016 Y-193.641
X-302.592 Y-194.798
X-303.125 Y-195.975
X-303.616 Y-197.17
X-304.062 Y-198.382
X-304.464 Y-199.61
X-304.821 Y-200.852
X-305.132 Y-202.106
X-305.398 Y-203.371
X-305.618 Y-204.644
X-305.792 Y-205.924
X-305.92 Y-207.21
X-306.001 Y-208.499
X-306.036 Y-209.791
X-306.023 Y-211.083
X-305.964 Y-212.374
X-305.858 Y-213.661
X-305.705 Y-214.944
X-305.505 Y-216.221
X-305.26 Y-217.489
X-304.97 Y-218.748
X-304.635 Y-219.996
X-304.255 Y-221.231
X-303.83 Y-222.451
X-303.361 Y-223.656
X-302.849 Y-224.842
X-302.295 Y-226.009
X-301.698 Y-227.155
X-301.061 Y-228.279
X-300.383 Y-229.379
X-299.667 Y-230.454
X-298.913 Y-231.503
X-298.121 Y-232.524
X-297.293 Y-233.516
X-296.429 Y-234.477
X-295.532 Y-235.406
X-294.601 Y-236.303
X-293.638 Y-237.165
X-292.645 Y-237.991
X-291.623 Y-238.782
X-290.574 Y-239.535
X-289.498 Y-240.251
X-288.397 Y-240.927
X-287.272 Y-241.562
X-286.125 Y-242.157
X-284.957 Y-242.71
X-283.77 Y-243.22
X-282.565 Y-243.687
X-281.345 Y-244.111
X-280.11 Y-244.49
X-278.862 Y-244.825
X-277.603 Y-245.116
X-276.334 Y-245.361
X-275.057 Y-245.559
X-273.774 Y-245.712
X-272.487 Y-245.818
X-271.196 Y-245.878
X-269.904 Y-245.892
X-268.612 Y-245.859
X-267.323 Y-245.781
X-266.037 Y-245.656
X-264.756 Y-245.487
X-263.482 Y-245.272
X-262.216 Y-245.011
X-260.961 Y-244.705
X-259.717 Y-244.355
X-258.487 Y-243.962
X-257.271 Y-243.525
X-256.071 Y-243.046
X-254.888 Y-242.525
X-253.725 Y-241.963
X-252.581 Y-241.361
X-251.46 Y-240.72
X-250.362 Y-240.039
X-249.288 Y-239.321
X-248.239 Y-238.566
X-247.218 Y-237.775
X-246.224 Y-236.949
X-245.26 Y-236.089
X-244.325 Y-235.196
X-243.422 Y-234.272
X-242.551 Y-233.318
X-241.714 Y-232.334
X-240.911 Y-231.322
X-240.143 Y-230.283
X-239.412 Y-229.218
X-238.717 Y-228.128
X-238.061 Y-227.015
X-237.443 Y-225.881
X-236.864 Y-224.725
X-236.325 Y-223.551
X-235.826 Y-222.359
X-235.368 Y-221.151
X-234.953 Y-219.928
X-234.58 Y-218.69
X-234.25 Y-217.441
X-233.963 Y-216.181
X-233.72 Y-214.912
X-233.52 Y-213.636
X-233.365 Y-212.353
X-233.253 Y-211.066
X-233.186 Y-209.776
X-233.163 Y-208.484
X-233.185 Y-207.192
X-233.252 Y-205.902
X-233.364 Y-204.615
X-233.52 Y-203.332
X-233.72 Y-202.055
X-233.964 Y-200.787
X-234.252 Y-199.527
X-234.583 Y-198.278
X-234.956 Y-197.041
X-235.372 Y-195.818
X-235.831 Y-194.61
X-236.331 Y-193.419
X-236.872 Y-192.246
X-237.454 Y-191.092
X-238.075 Y-189.959
X-238.735 Y-188.848
X-239.432 Y-187.76
X-240.167 Y-186.697
X-240.938 Y-185.66
X-241.744 Y-184.65
X-242.584 Y-183.669
X-243.458 Y-182.717
X-244.364 Y-181.797
X-245.302 Y-180.908
X-246.27 Y-180.052
X-247.266 Y-179.229
X-248.29 Y-178.442
X-249.341 Y-177.689
X-250.417 Y-176.974
X-251.516 Y-176.295
X-252.638 Y-175.654
X-253.781 Y-175.053
X-254.945 Y-174.491
X-256.127 Y-173.969
X-257.326 Y-173.488
X-258.541 Y-173.049
X-259.771 Y-172.65
X-261.012 Y-172.294
X-262.266 Y-171.98
X-263.529 Y-171.709
X-264.801 Y-171.48
X-266.079 Y-171.295
X-267.364 Y-171.154
X-268.652 Y-171.056
X-269.943 Y-171.003
X-271.235 Y-170.992
X-272.527 Y-171.025
X-273.816 Y-171.102
X-275.103 Y-171.222
X-276.385 Y-171.384
X-277.66 Y-171.59
X-278.928 Y-171.838
X-280.187 Y-172.129
X-281.436 Y-172.462
X-282.672 Y-172.837
X-283.895 Y-173.253
X-285.104 Y-173.71
X-286.296 Y-174.207
X-287.472 Y-174.743
X-288.629 Y-175.318
X-289.767 Y-175.931
X-290.883 Y-176.581
X-291.977 Y-177.269
X-293.047 Y-177.992
X-294.093 Y-178.752
X-295.112 Y-179.545
X-296.105 Y-180.372
X-297.07 Y-181.231
X-298.006 Y-182.122
X-298.912 Y-183.043
X-299.788 Y-183.993
X-300.631 Y-184.972
X-301.442 Y-185.978
X-302.219 Y-187.01
X-302.961 Y-188.068
X-303.667 Y-189.15
X-304.338 Y-190.255
X-304.971 Y-191.381
X-305.568 Y-192.527
X-306.126 Y-193.692
X-306.646 Y-194.875
X-307.127 Y-196.074
X-307.568 Y-197.289
X-307.969 Y-198.517
X-308.329 Y-199.758
X-308.647 Y-201.01
X-308.924 Y-202.272
X-309.16 Y-203.542
X-309.353 Y-204.82
X-309.505 Y-206.103
X-309.615 Y-207.39
X-309.683 Y-208.681
X-309.708 Y-209.972
X-309.692 Y-211.264
X-309.632 Y-212.555
X-309.53 Y-213.843
X-309.386 Y-215.127
X-309.199 Y-216.405
X-308.971 Y-217.677
X-308.701 Y-218.941
X-308.39 Y-220.195
X-308.038 Y-221.438
X-307.646 Y-222.669
X-307.214 Y-223.887
X-306.743 Y-225.09
X-306.232 Y-226.277
X-305.682 Y-227.446
X-305.094 Y-228.596
X-304.469 Y-229.727
X-303.806 Y-230.837
X-303.109 Y-231.924
X-302.376 Y-232.988
X-301.608 Y-234.028
X-300.808 Y-235.042
X-299.975 Y-236.029
X-299.11 Y-236.989
X-298.214 Y-237.92
X-297.287 Y-238.821
X-296.332 Y-239.69
X-295.348 Y-240.528
X-294.338 Y-241.333
X-293.302 Y-242.105
X-292.241 Y-242.843
X-291.157 Y-243.546
X-290.051 Y-244.214
X-288.923 Y-244.845
X-287.776 Y-245.439
X-286.61 Y-245.995
X-285.425 Y-246.512
X-284.225 Y-246.989
X-283.01 Y-247.428
X-281.78 Y-247.826
X-280.539 Y-248.185
X-279.287 Y-248.502
X-278.025 Y-248.779
X-276.754 Y-249.015
X-275.477 Y-249.21
X-274.194 Y-249.363
X-272.907 Y-249.473
X-271.617 Y-249.542
X-270.325 Y-249.568
X-269.033 Y-249.552
X-267.742 Y-249.494
X-266.454 Y-249.395
X-265.169 Y-249.254
X-263.89 Y-249.072
X-262.618 Y-248.849
X-261.353 Y-248.585
X-260.097 Y-248.281
X-258.852 Y-247.936
X-257.619 Y-247.551
X-256.398 Y-247.126
X-255.192 Y-246.663
X-254.001 Y-246.161
X-252.827 Y-245.622
X-251.671 Y-245.046
X-250.533 Y-244.434
X-249.415 Y-243.786
X-248.318 Y-243.103
X-247.244 Y-242.386
X-246.192 Y-241.634
X-245.166 Y-240.85
X-244.164 Y-240.034
X-243.189 Y-239.186
X-242.241 Y-238.308
X-241.321 Y-237.401
X-240.429 Y-236.466
X-239.568 Y-235.503
X-238.736 Y-234.514
X-237.936 Y-233.5
X-237.168 Y-232.461
X-236.433 Y-231.398
X-235.733 Y-230.312
X-235.066 Y-229.205
X-234.435 Y-228.078
X-233.839 Y-226.931
X-233.28 Y-225.767
X-232.756 Y-224.586
X-232.27 Y-223.388
X-231.822 Y-222.177
X-231.411 Y-220.952
X-231.038 Y-219.715
X-230.705 Y-218.466
X-230.412 Y-217.208
X-230.159 Y-215.941
X-229.945 Y-214.667
X-229.771 Y-213.386
X-229.638 Y-212.101
X-229.545 Y-210.812
X-229.492 Y-209.521
X-229.479 Y-208.229
X-229.507 Y-206.938
X-229.575 Y-205.647
X-229.684 Y-204.36
X-229.834 Y-203.077
X-230.025 Y-201.799
X-230.256 Y-200.527
X-230.526 Y-199.264
X-230.836 Y-198.01
X-231.185 Y-196.766
X-231.573 Y-195.533
X-232 Y-194.314
X-232.464 Y-193.108
X-232.966 Y-191.917
X-233.505 Y-190.743
X-234.082 Y-189.587
X-234.694 Y-188.449
X-235.343 Y-187.332
X-236.026 Y-186.235
X-236.743 Y-185.16
X-237.493 Y-184.109
X-238.276 Y-183.081
X-239.091 Y-182.078
X-239.937 Y-181.101
X-240.813 Y-180.151
X-241.718 Y-179.229
X-242.652 Y-178.337
X-243.614 Y-177.474
X-244.602 Y-176.642
X-245.616 Y-175.841
X-246.655 Y-175.072
X-247.717 Y-174.336
X-248.801 Y-173.634
X-249.907 Y-172.965
X-251.033 Y-172.331
X-252.177 Y-171.733
X-253.341 Y-171.17
X-254.521 Y-170.644
X-255.717 Y-170.156
X-256.928 Y-169.705
X-258.152 Y-169.292
X-259.389 Y-168.917
X-260.636 Y-168.58
X-261.893 Y-168.282
X-263.159 Y-168.024
X-264.432 Y-167.804
X-265.712 Y-167.623
X-266.996 Y-167.482
X-268.284 Y-167.381
X-269.575 Y-167.32
X-270.867 Y-167.299
X-272.159 Y-167.318
X-273.449 Y-167.377
X-274.738 Y-167.475
X-276.022 Y-167.612
X-277.302 Y-167.789
X-278.576 Y-168.004
X-279.843 Y-168.259
X-281.101 Y-168.551
X-282.35 Y-168.883
X-283.588 Y-169.252
X-284.814 Y-169.66
X-286.027 Y-170.105
X-287.226 Y-170.587
X-288.41 Y-171.105
X-289.577 Y-171.659
X-290.727 Y-172.248
X-291.859 Y-172.871
X-292.971 Y-173.528
X-294.063 Y-174.219
X-295.134 Y-174.943
X-296.181 Y-175.699
X-297.206 Y-176.487
X-298.205 Y-177.305
X-299.179 Y-178.154
X-300.128 Y-179.031
X-301.049 Y-179.937
X-301.943 Y-180.87
X-302.808 Y-181.83
X-303.644 Y-182.815
X-304.45 Y-183.825
X-305.225 Y-184.859
X-305.968 Y-185.916
X-306.679 Y-186.995
X-307.357 Y-188.095
X-308.001 Y-189.215
X-308.611 Y-190.354
X-309.187 Y-191.51
X-309.727 Y-192.684
X-310.233 Y-193.873
X-310.702 Y-195.077
X-311.135 Y-196.294
X-311.531 Y-197.524
X-311.891 Y-198.765
X-312.212 Y-200.016
X-312.496 Y-201.277
X-312.741 Y-202.546
X-312.948 Y-203.821
X-313.116 Y-205.102
X-313.247 Y-206.387
X-313.338 Y-207.676
X-313.392 Y-208.967
X-313.406 Y-210.259
X-313.382 Y-211.551
X-313.32 Y-212.841
X-313.219 Y-214.13
X-313.078 Y-215.414
X-312.899 Y-216.694
X-312.682 Y-217.967
X-312.426 Y-219.234
X-312.133 Y-220.492
X-311.802 Y-221.741
X-311.434 Y-222.98
X-311.03 Y-224.207
X-310.589 Y-225.421
X-310.112 Y-226.622
X-309.599 Y-227.808
X-309.051 Y-228.978
X-308.468 Y-230.131
X-307.85 Y-231.266
X-307.199 Y-232.382
X-306.514 Y-233.477
X-305.797 Y-234.552
X-305.048 Y-235.605
X-304.269 Y-236.636
X-303.459 Y-237.642
X-302.619 Y-238.624
X-301.751 Y-239.581
X-300.854 Y-240.511
X-299.93 Y-241.414
X-298.979 Y-242.289
X-298.001 Y-243.134
X-297 Y-243.95
X-295.974 Y-244.735
X-294.925 Y-245.49
X-293.854 Y-246.213
X-292.762 Y-246.904
X-291.65 Y-247.562
X-290.519 Y-248.187
X-289.37 Y-248.778
X-288.204 Y-249.334
X-287.022 Y-249.855
X-285.824 Y-250.339
X-284.612 Y-250.788
X-283.388 Y-251.2
X-282.152 Y-251.576
X-280.905 Y-251.914
X-279.648 Y-252.216
X-278.384 Y-252.48
X-277.112 Y-252.707
X-275.833 Y-252.895
X-274.55 Y-253.046
X-273.263 Y-253.158
X-271.973 Y-253.232
X-270.681 Y-253.266
X-269.389 Y-253.263
X-268.098 Y-253.22
X-266.808 Y-253.14
X-265.522 Y-253.022
X-264.239 Y-252.865
X-262.962 Y-252.672
X-261.691 Y-252.441
X-260.427 Y-252.172
X-259.171 Y-251.867
X-257.925 Y-251.524
X-256.69 Y-251.145
X-255.467 Y-250.729
X-254.256 Y-250.278
X-253.06 Y-249.791
X-251.877 Y-249.269
X-250.711 Y-248.714
X-249.561 Y-248.124
X-248.429 Y-247.502
X-247.315 Y-246.847
X-246.22 Y-246.161
X-245.146 Y-245.443
X-244.093 Y-244.694
X-243.063 Y-243.914
X-242.056 Y-243.105
X-241.072 Y-242.267
X-240.114 Y-241.4
X-239.18 Y-240.507
X-238.273 Y-239.587
X-237.392 Y-238.642
X-236.539 Y-237.671
X-235.714 Y-236.677
X-234.918 Y-235.66
X-234.151 Y-234.62
X-233.414 Y-233.558
X-232.709 Y-232.476
X-232.035 Y-231.373
X-231.394 Y-230.252
X-230.785 Y-229.112
X-230.209 Y-227.956
X-229.666 Y-226.783
X-229.157 Y-225.596
X-228.682 Y-224.394
X-228.241 Y-223.179
X-227.836 Y-221.953
X-227.465 Y-220.715
X-227.131 Y-219.467
X-226.833 Y-218.21
X-226.571 Y-216.944
X-226.346 Y-215.672
X-226.158 Y-214.394
X-226.007 Y-213.11
X-225.893 Y-211.823
X-225.816 Y-210.534
X-225.775 Y-209.242
X-225.772 Y-207.95
X-225.805 Y-206.659
X-225.876 Y-205.369
X-225.984 Y-204.081
X-226.129 Y-202.797
X-226.312 Y-201.518
X-226.532 Y-200.245
X-226.788 Y-198.979
X-227.081 Y-197.72
X-227.41 Y-196.471
X-227.775 Y-195.231
X-228.175 Y-194.003
X-228.61 Y-192.786
X-229.08 Y-191.582
X-229.584 Y-190.393
X-230.122 Y-189.218
X-230.695 Y-188.06
X-231.301 Y-186.919
X-231.94 Y-185.796
X-232.611 Y-184.692
X-233.314 Y-183.607
X-234.047 Y-182.544
X-234.811 Y-181.501
X-235.604 Y-180.481
X-236.426 Y-179.485
X-237.276 Y-178.512
X-238.154 Y-177.564
X-239.059 Y-176.641
X-239.99 Y-175.745
X-240.946 Y-174.877
X-241.928 Y-174.037
X-242.933 Y-173.225
X-243.962 Y-172.443
X-245.012 Y-171.69
X-246.083 Y-170.968
X-247.174 Y-170.276
X-248.285 Y-169.616
X-249.414 Y-168.987
X-250.56 Y-168.391
X-251.723 Y-167.828
X-252.902 Y-167.299
X-254.095 Y-166.804
X-255.303 Y-166.344
X-256.523 Y-165.918
X-257.754 Y-165.528
X-258.996 Y-165.172
X-260.248 Y-164.852
X-261.508 Y-164.567
X-262.776 Y-164.318
X-264.051 Y-164.105
X-265.33 Y-163.928
X-266.615 Y-163.787
X-267.903 Y-163.683
X-269.193 Y-163.616
X-270.485 Y-163.586
X-271.777 Y-163.593
X-273.068 Y-163.636
X-274.358 Y-163.715
X-275.645 Y-163.831
X-276.928 Y-163.982
X-278.206 Y-164.17
X-279.479 Y-164.393
X-280.745 Y-164.652
X-282.003 Y-164.946
X-283.252 Y-165.276
X-284.491 Y-165.64
X-285.72 Y-166.04
X-286.937 Y-166.475
X-288.141 Y-166.943
X-289.331 Y-167.445
X-290.508 Y-167.981
X-291.668 Y-168.548
X-292.813 Y-169.148
X-293.94 Y-169.779
X-295.049 Y-170.442
X-296.14 Y-171.135
X-297.21 Y-171.858
X-298.26 Y-172.611
X-299.289 Y-173.393
X-300.294 Y-174.204
X-301.277 Y-175.043
X-302.236 Y-175.909
X-303.171 Y-176.801
X-304.08 Y-177.719
X-304.964 Y-178.662
X-305.821 Y-179.628
X-306.652 Y-180.618
X-307.454 Y-181.631
X-308.228 Y-182.665
X-308.974 Y-183.72
X-309.689 Y-184.797
X-310.374 Y-185.892
X-311.028 Y-187.007
X-311.65 Y-188.139
X-312.241 Y-189.288
X-312.8 Y-190.452
X-313.327 Y-191.632
X-313.821 Y-192.826
X-314.282 Y-194.033
X-314.71 Y-195.252
X-315.104 Y-196.483
X-315.464 Y-197.724
X-315.789 Y-198.974
X-316.078 Y-200.233
X-316.333 Y-201.5
X-316.552 Y-202.773
X-316.736 Y-204.052
X-316.885 Y-205.336
X-316.998 Y-206.623
X-317.076 Y-207.913
X-317.119 Y-209.204
X-317.126 Y-210.496
X-317.098 Y-211.788
X-317.034 Y-213.078
X-316.934 Y-214.366
X-316.799 Y-215.651
X-316.627 Y-216.932
X-316.421 Y-218.207
X-316.179 Y-219.477
X-315.902 Y-220.739
X-315.59 Y-221.993
X-315.244 Y-223.237
X-314.865 Y-224.472
X-314.451 Y-225.697
X-314.004 Y-226.909
X-313.524 Y-228.109
X-313.012 Y-229.295
X-312.466 Y-230.466
X-311.888 Y-231.621
X-311.279 Y-232.761
X-310.637 Y-233.882
X-309.966 Y-234.986
X-309.264 Y-236.071
X-308.532 Y-237.136
X-307.772 Y-238.181
X-306.984 Y-239.204
X-306.167 Y-240.206
X-305.324 Y-241.184
X-304.454 Y-242.14
X-303.558 Y-243.071
X-302.637 Y-243.977
X-301.69 Y-244.856
X-300.72 Y-245.709
X-299.726 Y-246.535
X-298.71 Y-247.334
X-297.673 Y-248.104
X-296.615 Y-248.845
X-295.537 Y-249.557
X-294.44 Y-250.24
X-293.324 Y-250.892
X-292.192 Y-251.514
X-291.042 Y-252.104
X-289.877 Y-252.662
X-288.697 Y-253.188
X-287.502 Y-253.68
X-286.294 Y-254.139
X-285.075 Y-254.565
X-283.843 Y-254.957
X-282.602 Y-255.316
X-281.351 Y-255.64
X-280.092 Y-255.93
X-278.826 Y-256.185
X-277.553 Y-256.406
X-276.274 Y-256.593
X-274.991 Y-256.744
X-273.704 Y-256.859
X-272.415 Y-256.939
X-271.123 Y-256.983
X-269.831 Y-256.992
X-268.539 Y-256.965
X-267.249 Y-256.903
X-265.96 Y-256.806
X-264.675 Y-256.674
X-263.394 Y-256.508
X-262.118 Y-256.306
X-260.847 Y-256.071
X-259.584 Y-255.801
X-258.328 Y-255.497
X-257.081 Y-255.159
X-255.844 Y-254.786
X-254.617 Y-254.38
X-253.402 Y-253.941
X-252.199 Y-253.469
X-251.01 Y-252.965
X-249.834 Y-252.429
X-248.673 Y-251.862
X-247.527 Y-251.264
X-246.398 Y-250.636
X-245.286 Y-249.978
X-244.193 Y-249.29
X-243.117 Y-248.574
X-242.062 Y-247.829
X-241.027 Y-247.055
X-240.013 Y-246.254
X-239.022 Y-245.426
X-238.052 Y-244.571
X-237.106 Y-243.691
X-236.184 Y-242.787
X-235.285 Y-241.858
X-234.412 Y-240.906
X-233.563 Y-239.932
X-232.741 Y-238.935
X-231.946 Y-237.917
X-231.178 Y-236.878
X-230.438 Y-235.819
X-229.726 Y-234.74
X-229.044 Y-233.643
X-228.392 Y-232.527
X-227.769 Y-231.395
X-227.176 Y-230.247
X-226.614 Y-229.084
X-226.083 Y-227.906
X-225.583 Y-226.715
X-225.115 Y-225.511
X-224.678 Y-224.295
X-224.274 Y-223.067
X-223.902 Y-221.83
X-223.564 Y-220.583
X-223.259 Y-219.327
X-222.988 Y-218.064
X-222.751 Y-216.794
X-222.548 Y-215.518
X-222.378 Y-214.237
X-222.243 Y-212.952
X-222.142 Y-211.664
X-222.074 Y-210.374
X-222.041 Y-209.082
X-222.042 Y-207.79
X-222.077 Y-206.498
X-222.146 Y-205.208
X-222.25 Y-203.92
X-222.389 Y-202.636
X-222.562 Y-201.355
X-222.77 Y-200.08
X-223.011 Y-198.811
X-223.286 Y-197.548
X-223.595 Y-196.294
X-223.936 Y-195.048
X-224.31 Y-193.811
X-224.717 Y-192.585
X-225.156 Y-191.369
X-225.628 Y-190.166
X-226.131 Y-188.976
X-226.665 Y-187.8
X-227.232 Y-186.639
X-227.829 Y-185.493
X-228.457 Y-184.364
X-229.115 Y-183.252
X-229.802 Y-182.158
X-230.518 Y-181.082
X-231.262 Y-180.026
X-232.034 Y-178.989
X-232.833 Y-177.974
X-233.658 Y-176.98
X-234.509 Y-176.008
X-235.386 Y-175.059
X-236.288 Y-174.133
X-237.214 Y-173.233
X-238.165 Y-172.358
X-239.138 Y-171.508
X-240.133 Y-170.684
X-241.15 Y-169.887
X-242.188 Y-169.118
X-243.246 Y-168.375
X-244.323 Y-167.661
X-245.418 Y-166.976
X-246.531 Y-166.319
X-247.66 Y-165.692
X-248.806 Y-165.095
X-249.967 Y-164.528
X-251.143 Y-163.993
X-252.333 Y-163.49
X-253.536 Y-163.018
X-254.751 Y-162.578
X-255.977 Y-162.17
X-257.213 Y-161.795
X-258.459 Y-161.452
X-259.713 Y-161.142
X-260.975 Y-160.864
X-262.244 Y-160.62
X-263.518 Y-160.408
X-264.798 Y-160.23
X-266.082 Y-160.086
X-267.37 Y-159.976
X-268.659 Y-159.9
X-269.951 Y-159.858
X-271.243 Y-159.851
X-272.535 Y-159.876
X-273.825 Y-159.936
X-275.114 Y-160.029
X-276.4 Y-160.155
X-277.682 Y-160.315
X-278.96 Y-160.507
X-280.232 Y-160.733
X-281.498 Y-160.991
X-282.757 Y-161.283
X-284.007 Y-161.607
X-285.249 Y-161.964
X-286.481 Y-162.354
X-287.702 Y-162.776
X-288.912 Y-163.229
X-290.11 Y-163.713
X-291.295 Y-164.229
X-292.466 Y-164.774
X-293.623 Y-165.35
X-294.764 Y-165.955
X-295.89 Y-166.589
X-296.999 Y-167.252
X-298.091 Y-167.943
X-299.164 Y-168.663
X-300.218 Y-169.41
X-301.252 Y-170.185
X-302.265 Y-170.986
X-303.258 Y-171.813
X-304.229 Y-172.666
X-305.178 Y-173.543
X-306.103 Y-174.444
X-307.006 Y-175.369
X-307.885 Y-176.316
X-308.739 Y-177.286
X-309.568 Y-178.277
X-310.371 Y-179.288
X-311.148 Y-180.321
X-311.898 Y-181.373
X-312.62 Y-182.444
X-313.314 Y-183.534
X-313.98 Y-184.641
X-314.617 Y-185.765
X-315.226 Y-186.905
X-315.804 Y-188.06
X-316.354 Y-189.23
X-316.873 Y-190.413
X-317.362 Y-191.609
X-317.82 Y-192.817
X-318.248 Y-194.036
X-318.644 Y-195.266
X-319.008 Y-196.506
X-319.34 Y-197.754
X-319.639 Y-199.011
X-319.906 Y-200.276
X-320.141 Y-201.546
X-320.342 Y-202.822
X-320.512 Y-204.103
X-320.648 Y-205.388
X-320.752 Y-206.676
X-320.823 Y-207.966
X-320.862 Y-209.258
X-320.867 Y-210.55
X-320.84 Y-211.841
X-320.78 Y-213.132
X-320.686 Y-214.421
X-320.558 Y-215.706
X-320.398 Y-216.989
X-320.205 Y-218.266
X-319.979 Y-219.538
X-319.721 Y-220.804
X-319.431 Y-222.063
X-319.109 Y-223.315
X-318.755 Y-224.557
X-318.37 Y-225.791
X-317.954 Y-227.014
X-317.507 Y-228.226
X-317.029 Y-229.427
X-316.521 Y-230.614
X-315.982 Y-231.789
X-315.412 Y-232.948
X-314.813 Y-234.093
X-314.185 Y-235.222
X-313.529 Y-236.335
X-312.844 Y-237.431
X-312.132 Y-238.509
X-311.393 Y-239.569
X-310.627 Y-240.609
X-309.835 Y-241.63
X-309.017 Y-242.631
X-308.175 Y-243.61
X-307.307 Y-244.568
X-306.416 Y-245.503
X-305.5 Y-246.414
X-304.561 Y-247.302
X-303.6 Y-248.165
X-302.616 Y-249.003
X-301.612 Y-249.817
X-300.588 Y-250.604
X-299.544 Y-251.365
X-298.481 Y-252.1
X-297.4 Y-252.807
X-296.301 Y-253.487
X-295.186 Y-254.139
X-294.054 Y-254.762
X-292.906 Y-255.356
X-291.744 Y-255.921
X-290.568 Y-256.455
X-289.378 Y-256.958
X-288.175 Y-257.431
X-286.961 Y-257.874
X-285.737 Y-258.285
X-284.502 Y-258.665
X-283.258 Y-259.014
X-282.005 Y-259.332
X-280.745 Y-259.617
X-279.478 Y-259.871
X-278.205 Y-260.093
X-276.927 Y-260.282
X-275.645 Y-260.439
X-274.359 Y-260.562
X-273.07 Y-260.652
X-271.779 Y-260.71
X-270.487 Y-260.734
X-269.195 Y-260.726
X-267.904 Y-260.685
X-266.614 Y-260.612
X-265.326 Y-260.507
X-264.041 Y-260.369
X-262.76 Y-260.199
X-261.484 Y-259.997
X-260.214 Y-259.764
X-258.949 Y-259.498
X-257.692 Y-259.2
X-256.443 Y-258.87
X-255.202 Y-258.508
X-253.971 Y-258.115
X-252.751 Y-257.692
X-251.541 Y-257.238
X-250.343 Y-256.754
X-249.157 Y-256.241
X-247.985 Y-255.698
X-246.826 Y-255.126
X-245.682 Y-254.526
X-244.553 Y-253.898
X-243.44 Y-253.242
X-242.343 Y-252.558
X-241.264 Y-251.847
X-240.204 Y-251.109
X-239.162 Y-250.345
X-238.14 Y-249.555
X-237.137 Y-248.74
X-236.155 Y-247.9
X-235.194 Y-247.036
X-234.255 Y-246.15
X-233.337 Y-245.24
X-232.442 Y-244.308
X-231.57 Y-243.354
X-230.722 Y-242.38
X-229.898 Y-241.384
X-229.099 Y-240.369
X-228.326 Y-239.334
X-227.578 Y-238.28
X-226.858 Y-237.208
X-226.164 Y-236.118
X-225.497 Y-235.011
X-224.857 Y-233.889
X-224.245 Y-232.751
X-223.661 Y-231.598
X-223.106 Y-230.431
X-222.579 Y-229.252
X-222.081 Y-228.059
X-221.613 Y-226.855
X-221.174 Y-225.64
X-220.765 Y-224.414
X-220.388 Y-223.179
X-220.041 Y-221.934
X-219.725 Y-220.681
X-219.44 Y-219.421
X-219.187 Y-218.154
X-218.965 Y-216.881
X-218.774 Y-215.603
X-218.614 Y-214.321
X-218.486 Y-213.035
X-218.39 Y-211.747
X-218.325 Y-210.457
X-218.291 Y-209.165
X-218.29 Y-207.873
X-218.32 Y-206.581
X-218.383 Y-205.291
X-218.478 Y-204.002
X-218.606 Y-202.716
X-218.765 Y-201.434
X-218.955 Y-200.156
X-219.178 Y-198.883
X-219.431 Y-197.616
X-219.716 Y-196.356
X-220.031 Y-195.103
X-220.377 Y-193.858
X-220.754 Y-192.622
X-221.16 Y-191.396
X-221.597 Y-190.18
X-222.064 Y-188.975
X-222.561 Y-187.782
X-223.087 Y-186.602
X-223.643 Y-185.436
X-224.228 Y-184.284
X-224.841 Y-183.146
X-225.481 Y-182.025
X-226.15 Y-180.919
X-226.845 Y-179.83
X-227.567 Y-178.758
X-228.314 Y-177.704
X-229.088 Y-176.669
X-229.886 Y-175.653
X-230.709 Y-174.657
X-231.557 Y-173.682
X-232.428 Y-172.728
X-233.324 Y-171.797
X-234.242 Y-170.888
X-235.182 Y-170.002
X-236.144 Y-169.139
X-237.127 Y-168.301
X-238.13 Y-167.486
X-239.153 Y-166.697
X-240.195 Y-165.933
X-241.255 Y-165.194
X-242.333 Y-164.481
X-243.428 Y-163.795
X-244.539 Y-163.136
X-245.666 Y-162.505
X-246.809 Y-161.902
X-247.966 Y-161.327
X-249.137 Y-160.781
X-250.321 Y-160.264
X-251.518 Y-159.777
X-252.726 Y-159.319
X-253.945 Y-158.89
X-255.174 Y-158.491
X-256.412 Y-158.122
X-257.659 Y-157.784
X-258.914 Y-157.475
X-260.176 Y-157.197
X-261.444 Y-156.95
X-262.718 Y-156.734
X-263.996 Y-156.549
X-265.279 Y-156.396
X-266.566 Y-156.275
X-267.855 Y-156.185
X-269.145 Y-156.127
X-270.437 Y-156.099
X-271.729 Y-156.104
X-273.021 Y-156.139
X-274.311 Y-156.206
X-275.599 Y-156.303
X-276.885 Y-156.432
X-278.167 Y-156.591
X-279.445 Y-156.782
X-280.718 Y-157.003
X-281.985 Y-157.255
X-283.246 Y-157.538
X-284.499 Y-157.852
X-285.745 Y-158.197
X-286.981 Y-158.571
X-288.208 Y-158.975
X-289.426 Y-159.409
X-290.632 Y-159.872
X-291.827 Y-160.363
X-293.009 Y-160.884
X-294.179 Y-161.432
X-295.336 Y-162.008
X-296.479 Y-162.611
X-297.606 Y-163.242
X-298.718 Y-163.899
X-299.814 Y-164.584
X-300.893 Y-165.295
X-301.954 Y-166.033
X-302.997 Y-166.795
X-304.021 Y-167.583
X-305.027 Y-168.394
X-306.012 Y-169.23
X-306.977 Y-170.089
X-307.922 Y-170.97
X-308.845 Y-171.874
X-309.747 Y-172.799
X-310.626 Y-173.746
X-311.483 Y-174.713
X-312.316 Y-175.701
X-313.125 Y-176.708
X-313.909 Y-177.735
X-314.668 Y-178.781
X-315.402 Y-179.844
X-316.11 Y-180.925
X-316.792 Y-182.022
X-317.448 Y-183.135
X-318.077 Y-184.264
X-318.679 Y-185.407
X-319.254 Y-186.564
X-319.801 Y-187.735
X-320.321 Y-188.918
X-320.812 Y-190.113
X-321.275 Y-191.319
X-321.708 Y-192.536
X-322.112 Y-193.764
X-322.486 Y-195
X-322.831 Y-196.246
X-323.145 Y-197.499
X-323.43 Y-198.759
X-323.684 Y-200.026
X-323.908 Y-201.299
X-324.102 Y-202.576
X-324.266 Y-203.858
X-324.399 Y-205.143
X-324.502 Y-206.431
X-324.575 Y-207.721
X-324.617 Y-209.012
X-324.628 Y-210.304
X-324.608 Y-211.596
X-324.557 Y-212.887
X-324.475 Y-214.176
X-324.362 Y-215.464
X-324.219 Y-216.748
X-324.045 Y-218.028
X-323.84 Y-219.304
X-323.606 Y-220.574
X-323.341 Y-221.839
X-323.047 Y-223.097
X-322.723 Y-224.348
X-322.37 Y-225.591
X-321.987 Y-226.825
X-321.576 Y-228.05
X-321.135 Y-229.264
X-320.665 Y-230.468
X-320.166 Y-231.659
X-319.639 Y-232.839
X-319.084 Y-234.006
X-318.501 Y-235.159
X-317.891 Y-236.298
X-317.254 Y-237.422
X-316.591 Y-238.531
X-315.902 Y-239.624
X-315.187 Y-240.7
X-314.447 Y-241.76
X-313.683 Y-242.801
X-312.894 Y-243.825
X-312.081 Y-244.829
X-311.244 Y-245.813
X-310.383 Y-246.777
X-309.5 Y-247.72
X-308.595 Y-248.642
X-307.667 Y-249.541
X-306.719 Y-250.419
X-305.75 Y-251.274
X-304.762 Y-252.105
X-303.753 Y-252.914
X-302.727 Y-253.698
X-301.682 Y-254.458
X-300.619 Y-255.193
X-299.539 Y-255.903
X-298.443 Y-256.587
X-297.331 Y-257.244
X-296.203 Y-257.875
X-295.061 Y-258.478
X-293.904 Y-259.054
X-292.734 Y-259.603
X-291.552 Y-260.123
X-290.357 Y-260.615
X-289.151 Y-261.079
X-287.935 Y-261.514
X-286.708 Y-261.92
X-285.472 Y-262.298
X-284.228 Y-262.646
X-282.976 Y-262.966
X-281.717 Y-263.255
X-280.451 Y-263.515
X-279.18 Y-263.744
X-277.903 Y-263.943
X-276.622 Y-264.111
X-275.337 Y-264.248
X-274.05 Y-264.355
X-272.76 Y-264.432
X-271.469 Y-264.478
X-270.177 Y-264.494
X-268.885 Y-264.48
X-267.593 Y-264.435
X-266.304 Y-264.36
X-265.016 Y-264.255
X-263.731 Y-264.12
X-262.449 Y-263.956
X-261.172 Y-263.76
X-259.9 Y-263.535
X-258.633 Y-263.279
X-257.373 Y-262.993
X-256.12 Y-262.678
X-254.875 Y-262.334
X-253.638 Y-261.96
X-252.41 Y-261.558
X-251.192 Y-261.127
X-249.984 Y-260.668
X-248.788 Y-260.181
X-247.602 Y-259.667
X-246.429 Y-259.126
X-245.269 Y-258.557
X-244.122 Y-257.962
X-242.989 Y-257.34
X-241.872 Y-256.692
X-240.77 Y-256.017
X-239.684 Y-255.317
X-238.614 Y-254.592
X-237.562 Y-253.843
X-236.527 Y-253.069
X-235.511 Y-252.271
X-234.513 Y-251.451
X-233.534 Y-250.607
X-232.575 Y-249.742
X-231.635 Y-248.854
X-230.717 Y-247.946
X-229.819 Y-247.017
X-228.943 Y-246.067
X-228.089 Y-245.097
X-227.258 Y-244.108
X-226.451 Y-243.099
X-225.667 Y-242.072
X-224.907 Y-241.027
X-224.171 Y-239.965
X-223.46 Y-238.887
X-222.773 Y-237.792
X-222.112 Y-236.682
X-221.477 Y-235.557
X-220.867 Y-234.417
X-220.284 Y-233.265
X-219.727 Y-232.099
X-219.196 Y-230.921
X-218.693 Y-229.731
X-218.218 Y-228.529
X-217.771 Y-227.317
X-217.352 Y-226.095
X-216.961 Y-224.863
X-216.599 Y-223.623
X-216.265 Y-222.375
X-215.961 Y-221.119
X-215.685 Y-219.857
X-215.439 Y-218.588
X-215.221 Y-217.315
X-215.032 Y-216.037
X-214.873 Y-214.754
X-214.743 Y-213.469
X-214.642 Y-212.181
X-214.572 Y-210.891
X-214.531 Y-209.599
X-214.52 Y-208.307
X-214.539 Y-207.015
X-214.589 Y-205.724
X-214.668 Y-204.435
X-214.777 Y-203.147
X-214.915 Y-201.862
X-215.083 Y-200.581
X-215.281 Y-199.304
X-215.507 Y-198.032
X-215.763 Y-196.766
X-216.047 Y-195.506
X-216.36 Y-194.252
X-216.702 Y-193.006
X-217.073 Y-191.768
X-217.472 Y-190.539
X-217.9 Y-189.32
X-218.356 Y-188.111
X-218.84 Y-186.913
X-219.352 Y-185.727
X-219.89 Y-184.553
X-220.456 Y-183.391
X-221.049 Y-182.243
X-221.667 Y-181.108
X-222.312 Y-179.989
X-222.981 Y-178.884
X-223.676 Y-177.794
X-224.396 Y-176.721
X-225.14 Y-175.665
X-225.908 Y-174.626
X-226.7 Y-173.605
X-227.516 Y-172.603
X-228.354 Y-171.62
X-229.215 Y-170.657
X-230.099 Y-169.714
X-231.003 Y-168.792
X-231.929 Y-167.89
X-232.875 Y-167.01
X-233.841 Y-166.152
X-234.827 Y-165.317
X-235.831 Y-164.504
X-236.853 Y-163.714
X-237.893 Y-162.947
X-238.951 Y-162.204
X-240.025 Y-161.486
X-241.115 Y-160.793
X-242.222 Y-160.126
X-243.343 Y-159.484
X-244.479 Y-158.868
X-245.629 Y-158.279
X-246.792 Y-157.716
X-247.967 Y-157.18
X-249.155 Y-156.671
X-250.354 Y-156.189
X-251.563 Y-155.734
X-252.782 Y-155.307
X-254.011 Y-154.907
X-255.249 Y-154.536
X-256.494 Y-154.192
X-257.747 Y-153.877
X-259.007 Y-153.591
X-260.273 Y-153.334
X-261.545 Y-153.107
X-262.822 Y-152.908
X-264.103 Y-152.739
X-265.387 Y-152.599
X-266.675 Y-152.488
X-267.964 Y-152.406
X-269.255 Y-152.354
X-270.547 Y-152.331
X-271.839 Y-152.337
X-273.131 Y-152.372
X-274.421 Y-152.435
X-275.71 Y-152.528
X-276.996 Y-152.65
X-278.279 Y-152.802
X-279.559 Y-152.983
X-280.833 Y-153.193
X-282.103 Y-153.431
X-283.367 Y-153.699
X-284.625 Y-153.995
X-285.876 Y-154.32
X-287.119 Y-154.672
X-288.353 Y-155.053
X-289.579 Y-155.461
X-290.796 Y-155.897
X-292.002 Y-156.359
X-293.198 Y-156.849
X-294.382 Y-157.365
X-295.555 Y-157.907
X-296.715 Y-158.476
X-297.862 Y-159.072
X-298.995 Y-159.693
X-300.113 Y-160.339
X-301.217 Y-161.011
X-302.305 Y-161.707
X-303.378 Y-162.428
X-304.434 Y-163.173
X-305.473 Y-163.941
X-306.494 Y-164.732
X-307.498 Y-165.545
X-308.483 Y-166.381
X-309.45 Y-167.239
X-310.397 Y-168.117
X-311.324 Y-169.017
X-312.231 Y-169.937
X-313.117 Y-170.878
X-313.981 Y-171.838
X-314.824 Y-172.818
X-315.644 Y-173.816
X-316.442 Y-174.833
X-317.216 Y-175.867
X-317.968 Y-176.918
X-318.695 Y-177.986
X-319.399 Y-179.069
X-320.078 Y-180.168
X-320.733 Y-181.282
X-321.363 Y-182.41
X-321.968 Y-183.552
X-322.548 Y-184.707
X-323.101 Y-185.874
X-323.628 Y-187.054
X-324.129 Y-188.245
X-324.602 Y-189.447
X-325.048 Y-190.66
X-325.468 Y-191.882
X-325.859 Y-193.113
X-326.223 Y-194.353
X-326.56 Y-195.6
X-326.868 Y-196.855
X-327.149 Y-198.116
X-327.401 Y-199.383
X-327.626 Y-200.656
X-327.822 Y-201.933
X-327.991 Y-203.214
X-328.13 Y-204.498
X-328.241 Y-205.786
X-328.323 Y-207.075
X-328.376 Y-208.366
X-328.4 Y-209.658
X-328.395 Y-210.95
X-328.361 Y-212.242
X-328.299 Y-213.532
X-328.208 Y-214.821
X-328.088 Y-216.107
X-327.94 Y-217.391
X-327.763 Y-218.671
X-327.558 Y-219.947
X-327.325 Y-221.217
X-327.064 Y-222.483
X-326.775 Y-223.742
X-326.458 Y-224.995
X-326.114 Y-226.24
X-325.741 Y-227.477
X-325.341 Y-228.706
X-324.913 Y-229.925
X-324.458 Y-231.134
X-323.977 Y-232.333
X-323.469 Y-233.521
X-322.934 Y-234.698
X-322.374 Y-235.862
X-321.788 Y-237.013
X-321.177 Y-238.152
X-320.541 Y-239.276
X-319.88 Y-240.387
X-319.195 Y-241.482
X-318.486 Y-242.562
X-317.753 Y-243.626
X-316.996 Y-244.673
X-316.216 Y-245.704
X-315.413 Y-246.716
X-314.588 Y-247.71
X-313.741 Y-248.686
X-312.872 Y-249.642
X-311.983 Y-250.579
X-311.073 Y-251.496
X-310.142 Y-252.393
X-309.193 Y-253.269
X-308.224 Y-254.124
X-307.236 Y-254.957
X-306.231 Y-255.768
X-305.207 Y-256.557
X-304.167 Y-257.323
X-303.109 Y-258.065
X-302.035 Y-258.784
X-300.946 Y-259.478
X-299.841 Y-260.148
X-298.722 Y-260.793
X-297.588 Y-261.414
X-296.441 Y-262.008
X-295.281 Y-262.578
X-294.109 Y-263.121
X-292.925 Y-263.639
X-291.73 Y-264.13
X-290.525 Y-264.595
X-289.309 Y-265.033
X-288.084 Y-265.444
X-286.851 Y-265.828
X-285.609 Y-266.185
X-284.359 Y-266.513
X-283.103 Y-266.814
X-281.84 Y-267.087
X-280.571 Y-267.331
X-279.297 Y-267.548
X-278.019 Y-267.736
X-276.737 Y-267.895
X-275.451 Y-268.027
X-274.163 Y-268.13
X-272.873 Y-268.205
X-271.582 Y-268.251
X-270.29 Y-268.269
X-268.998 Y-268.259
X-267.707 Y-268.22
X-266.417 Y-268.153
X-265.128 Y-268.058
X-263.842 Y-267.933
X-262.559 Y-267.781
X-261.28 Y-267.6
X-260.005 Y-267.391
X-258.734 Y-267.153
X-257.47 Y-266.888
X-256.211 Y-266.596
X-254.96 Y-266.275
X-253.715 Y-265.928
X-252.479 Y-265.553
X-251.251 Y-265.152
X-250.031 Y-264.724
X-248.822 Y-264.27
X-247.622 Y-263.79
X-246.434 Y-263.283
X-245.257 Y-262.751
X-244.091 Y-262.192
X-242.939 Y-261.609
X-241.799 Y-261
X-240.673 Y-260.367
X-239.561 Y-259.709
X-238.463 Y-259.027
X-237.381 Y-258.321
X-236.314 Y-257.593
X-235.263 Y-256.841
X-234.228 Y-256.067
X-233.211 Y-255.271
X-232.211 Y-254.453
X-231.228 Y-253.614
X-230.264 Y-252.753
X-229.319 Y-251.872
X-228.393 Y-250.971
X-227.487 Y-250.05
X-226.602 Y-249.109
X-225.737 Y-248.149
X-224.892 Y-247.171
X-224.07 Y-246.175
X-223.268 Y-245.161
X-222.489 Y-244.131
X-221.733 Y-243.083
X-220.999 Y-242.02
X-220.288 Y-240.941
X-219.6 Y-239.847
X-218.936 Y-238.739
X-218.295 Y-237.617
X-217.679 Y-236.481
X-217.088 Y-235.332
X-216.522 Y-234.171
X-215.981 Y-232.998
X-215.465 Y-231.813
X-214.975 Y-230.617
X-214.512 Y-229.411
X-214.074 Y-228.196
X-213.663 Y-226.971
X-213.278 Y-225.737
X-212.92 Y-224.496
X-212.588 Y-223.247
X-212.283 Y-221.992
X-212.006 Y-220.73
X-211.755 Y-219.462
X-211.532 Y-218.19
X-211.336 Y-216.913
X-211.168 Y-215.631
X-211.027 Y-214.347
X-210.915 Y-213.06
X-210.83 Y-211.771
X-210.774 Y-210.48
X-210.745 Y-209.188
X-210.744 Y-207.896
X-210.772 Y-206.604
X-210.827 Y-205.313
X-210.909 Y-204.024
X-211.02 Y-202.737
X-211.158 Y-201.452
X-211.324 Y-200.171
X-211.517 Y-198.893
X-211.737 Y-197.62
X-211.986 Y-196.352
X-212.261 Y-195.09
X-212.564 Y-193.834
X-212.894 Y-192.584
X-213.251 Y-191.343
X-213.635 Y-190.109
X-214.045 Y-188.884
X-214.482 Y-187.668
X-214.945 Y-186.462
X-215.434 Y-185.266
X-215.949 Y-184.081
X-216.489 Y-182.907
X-217.054 Y-181.745
X-217.644 Y-180.595
X-218.258 Y-179.459
X-218.897 Y-178.336
X-219.56 Y-177.227
X-220.247 Y-176.132
X-220.957 Y-175.053
X-221.691 Y-173.989
X-222.447 Y-172.942
X-223.226 Y-171.911
X-224.028 Y-170.897
X-224.85 Y-169.901
X-225.694 Y-168.923
X-226.559 Y-167.963
X-227.445 Y-167.022
X-228.35 Y-166.1
X-229.275 Y-165.198
X-230.219 Y-164.316
X-231.182 Y-163.454
X-232.163 Y-162.614
X-233.162 Y-161.794
X-234.178 Y-160.997
X-235.212 Y-160.221
X-236.262 Y-159.468
X-237.328 Y-158.738
X-238.409 Y-158.031
X-239.506 Y-157.347
X-240.616 Y-156.687
X-241.741 Y-156.051
X-242.879 Y-155.44
X-244.03 Y-154.853
X-245.194 Y-154.29
X-246.369 Y-153.753
X-247.555 Y-153.241
X-248.752 Y-152.754
X-249.959 Y-152.293
X-251.175 Y-151.858
X-252.401 Y-151.449
X-253.635 Y-151.067
X-254.877 Y-150.711
X-256.126 Y-150.382
X-257.383 Y-150.079
X-258.645 Y-149.804
X-259.913 Y-149.556
X-261.186 Y-149.335
X-262.463 Y-149.141
X-263.745 Y-148.974
X-265.029 Y-148.835
X-266.316 Y-148.722
X-267.606 Y-148.638
X-268.896 Y-148.58
X-270.188 Y-148.55
X-271.48 Y-148.547
X-272.772 Y-148.573
X-274.063 Y-148.625
X-275.353 Y-148.705
X-276.64 Y-148.813
X-277.925 Y-148.948
X-279.207 Y-149.11
X-280.485 Y-149.3
X-281.759 Y-149.516
X-283.028 Y-149.76
X-284.291 Y-150.03
X-285.549 Y-150.327
X-286.799 Y-150.651
X-288.043 Y-151
X-289.28 Y-151.376
X-290.507 Y-151.778
X-291.727 Y-152.206
X-292.936 Y-152.66
X-294.136 Y-153.139
X-295.326 Y-153.643
X-296.504 Y-154.173
X-297.671 Y-154.727
X-298.827 Y-155.306
X-299.969 Y-155.91
X-301.099 Y-156.537
X-302.215 Y-157.188
X-303.317 Y-157.862
X-304.405 Y-158.559
X-305.477 Y-159.279
X-306.535 Y-160.022
X-307.577 Y-160.786
X-308.602 Y-161.572
X-309.611 Y-162.38
X-310.602 Y-163.208
X-311.576 Y-164.058
X-312.531 Y-164.928
X-313.468 Y-165.817
X-314.386 Y-166.727
X-315.285 Y-167.655
X-316.163 Y-168.602
X-317.022 Y-169.567
X-317.861 Y-170.551
X-318.678 Y-171.551
X-319.474 Y-172.569
X-320.249 Y-173.602
X-321.002 Y-174.652
X-321.733 Y-175.718
X-322.442 Y-176.798
X-323.128 Y-177.893
X-323.79 Y-179.002
X-324.429 Y-180.125
X-325.045 Y-181.261
X-325.636 Y-182.41
X-326.203 Y-183.571
X-326.746 Y-184.744
X-327.264 Y-185.928
X-327.757 Y-187.122
X-328.224 Y-188.326
X-328.667 Y-189.54
X-329.084 Y-190.763
X-329.475 Y-191.994
X-329.841 Y-193.234
X-330.181 Y-194.48
X-330.494 Y-195.734
X-330.782 Y-196.993
X-331.043 Y-198.259
X-331.277 Y-199.529
X-331.485 Y-200.805
X-331.666 Y-202.084
X-331.82 Y-203.367
X-331.947 Y-204.653
X-332.047 Y-205.941
X-332.12 Y-207.231
X-332.167 Y-208.522
X-332.186 Y-209.814
X-332.178 Y-211.106
X-332.144 Y-212.397
X-332.082 Y-213.688
X-331.994 Y-214.977
X-331.879 Y-216.264
X-331.737 Y-217.548
X-331.568 Y-218.829
X-331.372 Y-220.106
X-331.15 Y-221.379
X-330.901 Y-222.647
X-330.626 Y-223.909
X-330.325 Y-225.166
X-329.997 Y-226.416
X-329.643 Y-227.658
X-329.263 Y-228.893
X-328.858 Y-230.12
X-328.427 Y-231.338
X-327.971 Y-232.547
X-327.49 Y-233.746
X-326.983 Y-234.935
X-326.453 Y-236.113
X-325.898 Y-237.28
X-325.319 Y-238.435
X-324.715 Y-239.577
X-324.088 Y-240.707
X-323.438 Y-241.823
X-322.764 Y-242.926
X-322.068 Y-244.014
X-321.348 Y-245.088
X-320.607 Y-246.146
X-319.844 Y-247.188
X-319.059 Y-248.215
X-318.253 Y-249.224
X-317.426 Y-250.217
X-316.578 Y-251.192
X-315.711 Y-252.15
X-314.824 Y-253.089
X-313.917 Y-254.01
X-312.992 Y-254.912
X-312.048 Y-255.794
X-311.085 Y-256.656
X-310.105 Y-257.498
X-309.108 Y-258.319
X-308.093 Y-259.119
X-307.062 Y-259.898
X-306.015 Y-260.655
X-304.953 Y-261.39
X-303.875 Y-262.103
X-302.783 Y-262.793
X-301.677 Y-263.461
X-300.557 Y-264.105
X-299.424 Y-264.726
X-298.278 Y-265.323
X-297.12 Y-265.897
X-295.95 Y-266.446
X-294.77 Y-266.97
X-293.578 Y-267.47
X-292.377 Y-267.945
X-291.165 Y-268.394
X-289.945 Y-268.819
X-288.716 Y-269.218
X-287.479 Y-269.591
X-286.234 Y-269.938
X-284.983 Y-270.26
X-283.725 Y-270.555
X-282.461 Y-270.824
X-281.192 Y-271.067
X-279.919 Y-271.283
X-278.641 Y-271.473
X-277.359 Y-271.637
X-276.074 Y-271.774
X-274.787 Y-271.884
X-273.497 Y-271.967
X-272.207 Y-272.024
X-270.915 Y-272.054
X-269.623 Y-272.057
X-268.331 Y-272.033
X-267.04 Y-271.982
X-265.75 Y-271.905
X-264.462 Y-271.801
X-263.177 Y-271.67
X-261.894 Y-271.513
X-260.616 Y-271.329
X-259.341 Y-271.12
X-258.07 Y-270.883
X-256.805 Y-270.621
X-255.546 Y-270.333
X-254.292 Y-270.019
X-253.046 Y-269.68
X-251.806 Y-269.314
X-250.575 Y-268.923
X-249.352 Y-268.507
X-248.137 Y-268.066
X-246.932 Y-267.6
X-245.737 Y-267.109
X-244.552 Y-266.594
X-243.378 Y-266.055
X-242.215 Y-265.491
X-241.064 Y-264.905
X-239.925 Y-264.294
X-238.799 Y-263.661
X-237.686 Y-263.005
X-236.587 Y-262.326
X-235.501 Y-261.625
X-234.43 Y-260.902
X-233.375 Y-260.157
X-232.334 Y-259.391
X-231.31 Y-258.603
X-230.302 Y-257.796
X-229.31 Y-256.967
X-228.336 Y-256.119
X-227.379 Y-255.251
X-226.439 Y-254.363
X-225.518 Y-253.457
X-224.616 Y-252.532
X-223.733 Y-251.59
X-222.869 Y-250.629
X-222.024 Y-249.651
X-221.2 Y-248.656
X-220.395 Y-247.645
X-219.612 Y-246.618
X-218.849 Y-245.575
X-218.108 Y-244.516
X-217.389 Y-243.443
X-216.691 Y-242.355
X-216.016 Y-241.254
X-215.363 Y-240.139
X-214.733 Y-239.011
X-214.126 Y-237.87
X-213.542 Y-236.718
X-212.982 Y-235.554
X-212.445 Y-234.378
X-211.932 Y-233.192
X-211.443 Y-231.996
X-210.979 Y-230.791
X-210.539 Y-229.576
X-210.124 Y-228.352
X-209.733 Y-227.121
X-209.368 Y-225.881
X-209.028 Y-224.635
X-208.713 Y-223.382
X-208.424 Y-222.122
X-208.16 Y-220.857
X-207.923 Y-219.587
X-207.711 Y-218.313
X-207.524 Y-217.034
X-207.364 Y-215.752
X-207.23 Y-214.467
X-207.122 Y-213.18
X-207.04 Y-211.89
X-206.984 Y-210.599
X-206.955 Y-209.308
X-206.951 Y-208.016
X-206.974 Y-206.724
X-207.022 Y-205.433
X-207.098 Y-204.143
X-207.199 Y-202.855
X-207.327 Y-201.569
X-207.48 Y-200.286
X-207.66 Y-199.007
X-207.866 Y-197.731
X-208.097 Y-196.46
X-208.355 Y-195.194
X-208.638 Y-193.933
X-208.946 Y-192.678
X-209.28 Y-191.43
X-209.639 Y-190.189
X-210.023 Y-188.955
X-210.432 Y-187.73
X-210.866 Y-186.513
X-211.325 Y-185.305
X-211.808 Y-184.106
X-212.315 Y-182.918
X-212.846 Y-181.74
X-213.402 Y-180.574
X-213.98 Y-179.419
X-214.583 Y-178.275
X-215.208 Y-177.145
X-215.856 Y-176.027
X-216.527 Y-174.923
X-217.219 Y-173.832
X-217.934 Y-172.756
X-218.671 Y-171.694
X-219.429 Y-170.648
X-220.208 Y-169.617
X-221.007 Y-168.602
X-221.827 Y-167.604
X-222.667 Y-166.622
X-223.527 Y-165.657
X-224.407 Y-164.711
X-225.305 Y-163.782
X-226.222 Y-162.872
X-227.157 Y-161.981
X-228.111 Y-161.108
X-229.081 Y-160.255
X-230.069 Y-159.423
X-231.073 Y-158.61
X-232.094 Y-157.817
X-233.13 Y-157.046
X-234.182 Y-156.295
X-235.249 Y-155.566
X-236.33 Y-154.859
X-237.425 Y-154.174
X-238.534 Y-153.51
X-239.656 Y-152.87
X-240.791 Y-152.252
X-241.938 Y-151.657
X-243.097 Y-151.086
X-244.267 Y-150.538
X-245.448 Y-150.014
X-246.639 Y-149.514
X-247.84 Y-149.038
X-249.051 Y-148.586
X-250.27 Y-148.158
X-251.498 Y-147.756
X-252.733 Y-147.378
X-253.976 Y-147.025
X-255.226 Y-146.697
X-256.482 Y-146.394
X-257.744 Y-146.116
X-259.011 Y-145.864
X-260.283 Y-145.637
X-261.56 Y-145.436
X-262.84 Y-145.261
X-264.123 Y-145.112
X-265.409 Y-144.988
X-266.697 Y-144.89
X-267.988 Y-144.818
X-269.279 Y-144.772
X-270.571 Y-144.752
X-271.863 Y-144.757
X-273.154 Y-144.789
X-274.445 Y-144.846
X-275.735 Y-144.929
X-277.022 Y-145.038
X-278.307 Y-145.172
X-279.589 Y-145.332
X-280.868 Y-145.518
X-282.143 Y-145.729
X-283.413 Y-145.965
X-284.678 Y-146.227
X-285.938 Y-146.515
X-287.191 Y-146.827
X-288.439 Y-147.164
X-289.679 Y-147.526
X-290.912 Y-147.913
X-292.137 Y-148.324
X-293.353 Y-148.76
X-294.561 Y-149.219
X-295.759 Y-149.703
X-296.947 Y-150.21
X-298.125 Y-150.741
X-299.292 Y-151.295
X-300.448 Y-151.872
X-301.593 Y-152.472
X-302.725 Y-153.094
X-303.845 Y-153.739
X-304.951 Y-154.406
X-306.044 Y-155.095
X-307.123 Y-155.806
X-308.188 Y-156.538
X-309.238 Y-157.291
X-310.273 Y-158.065
X-311.292 Y-158.859
X-312.295 Y-159.673
X-313.282 Y-160.506
X-314.253 Y-161.36
X-315.206 Y-162.232
X-316.142 Y-163.122
X-317.06 Y-164.032
X-317.96 Y-164.959
X-318.842 Y-165.903
X-319.704 Y-166.865
X-320.548 Y-167.844
X-321.371 Y-168.839
X-322.175 Y-169.851
X-322.959 Y-170.878
X-323.722 Y-171.921
X-324.464 Y-172.979
X-325.185 Y-174.05
X-325.885 Y-175.136
X-326.564 Y-176.236
X-327.22 Y-177.349
X-327.855 Y-178.474
X-328.467 Y-179.612
X-329.057 Y-180.762
X-329.624 Y-181.923
X-330.168 Y-183.095
X-330.688 Y-184.277
X-331.186 Y-185.47
X-331.66 Y-186.672
X-332.109 Y-187.883
X-332.535 Y-189.103
X-332.936 Y-190.331
X-333.313 Y-191.567
X-333.666 Y-192.81
X-333.994 Y-194.06
X-334.298 Y-195.316
X-334.576 Y-196.577
X-334.83 Y-197.844
X-335.059 Y-199.116
X-335.263 Y-200.392
X-335.441 Y-201.671
X-335.595 Y-202.954
X-335.723 Y-204.24
X-335.826 Y-205.528
X-335.903 Y-206.818
X-335.956 Y-208.109
X-335.982 Y-209.4
X-335.983 Y-210.692
X-335.959 Y-211.984
X-335.909 Y-213.275
X-335.833 Y-214.565
X-335.733 Y-215.853
X-335.607 Y-217.139
X-335.455 Y-218.422
X-335.279 Y-219.702
X-335.077 Y-220.979
X-334.851 Y-222.251
X-334.599 Y-223.518
X-334.323 Y-224.78
X-334.022 Y-226.037
X-333.696 Y-227.287
X-333.346 Y-228.531
X-332.971 Y-229.767
X-332.573 Y-230.996
X-332.15 Y-232.217
X-331.702 Y-233.429
X-331.232 Y-234.632
X-330.737 Y-235.826
X-330.219 Y-237.01
X-329.678 Y-238.183
X-329.114 Y-239.346
X-328.528 Y-240.497
X-327.919 Y-241.636
X-327.287 Y-242.764
X-326.634 Y-243.878
X-325.959 Y-244.98
X-325.262 Y-246.068
X-324.545 Y-247.143
X-323.806 Y-248.203
X-323.047 Y-249.248
X-322.267 Y-250.278
X-321.467 Y-251.293
X-320.647 Y-252.292
X-319.808 Y-253.274
X-318.949 Y-254.24
X-318.072 Y-255.188
X-317.176 Y-256.119
X-316.262 Y-257.033
X-315.331 Y-257.928
X-314.382 Y-258.805
X-313.416 Y-259.663
X-312.433 Y-260.502
X-311.434 Y-261.321
X-310.42 Y-262.121
X-309.389 Y-262.901
X-308.344 Y-263.66
X-307.284 Y-264.399
X-306.21 Y-265.117
X-305.122 Y-265.814
X-304.02 Y-266.489
X-302.905 Y-267.142
X-301.778 Y-267.773
X-300.638 Y-268.381
X-299.487 Y-268.968
X-298.324 Y-269.531
X-297.15 Y-270.072
X-295.967 Y-270.59
X-294.773 Y-271.084
X-293.57 Y-271.555
X-292.357 Y-272.002
X-291.137 Y-272.425
X-289.908 Y-272.825
X-288.672 Y-273.2
X-287.428 Y-273.551
X-286.178 Y-273.878
X-284.922 Y-274.18
X-283.66 Y-274.457
X-282.393 Y-274.709
X-281.121 Y-274.937
X-279.845 Y-275.139
X-278.565 Y-275.317
X-277.282 Y-275.469
X-275.996 Y-275.596
X-274.708 Y-275.698
X-273.418 Y-275.775
X-272.127 Y-275.827
X-270.835 Y-275.854
X-269.543 Y-275.855
X-268.252 Y-275.831
X-266.96 Y-275.782
X-265.671 Y-275.708
X-264.382 Y-275.609
X-263.096 Y-275.485
X-261.813 Y-275.336
X-260.533 Y-275.161
X-259.256 Y-274.961
X-257.984 Y-274.737
X-256.716 Y-274.488
X-255.453 Y-274.214
X-254.196 Y-273.916
X-252.945 Y-273.594
X-251.7 Y-273.247
X-250.462 Y-272.876
X-249.232 Y-272.482
X-248.01 Y-272.064
X-246.795 Y-271.622
X-245.59 Y-271.156
X-244.394 Y-270.668
X-243.207 Y-270.157
X-242.031 Y-269.623
X-240.865 Y-269.066
X-239.71 Y-268.486
X-238.567 Y-267.884
X-237.435 Y-267.261
X-236.316 Y-266.615
X-235.209 Y-265.948
X-234.116 Y-265.26
X-233.036 Y-264.551
X-231.969 Y-263.821
X-230.917 Y-263.071
X-229.88 Y-262.301
X-228.857 Y-261.511
X-227.85 Y-260.702
X-226.859 Y-259.874
X-225.883 Y-259.026
X-224.924 Y-258.161
X-223.982 Y-257.277
X-223.056 Y-256.375
X-222.149 Y-255.455
X-221.259 Y-254.518
X-220.388 Y-253.564
X-219.535 Y-252.594
X-218.7 Y-251.607
X-217.885 Y-250.605
X-217.089 Y-249.587
X-216.313 Y-248.554
X-215.557 Y-247.507
X-214.82 Y-246.445
X-214.105 Y-245.369
X-213.41 Y-244.28
X-212.735 Y-243.178
X-212.082 Y-242.063
X-211.451 Y-240.936
X-210.84 Y-239.797
X-210.252 Y-238.647
X-209.686 Y-237.485
X-209.142 Y-236.313
X-208.622 Y-235.131
X-208.123 Y-233.938
X-207.648 Y-232.737
X-207.196 Y-231.527
X-206.767 Y-230.308
X-206.361 Y-229.081
X-205.979 Y-227.847
X-205.621 Y-226.606
X-205.286 Y-225.358
X-204.976 Y-224.103
X-204.689 Y-222.844
X-204.426 Y-221.578
X-204.188 Y-220.309
X-203.974 Y-219.034
X-203.784 Y-217.756
X-203.618 Y-216.475
X-203.478 Y-215.191
X-203.362 Y-213.904
X-203.271 Y-212.615
X-203.204 Y-211.325
X-203.163 Y-210.033
X-203.146 Y-208.741
X-203.153 Y-207.449
X-203.186 Y-206.158
X-203.243 Y-204.867
X-203.325 Y-203.577
X-203.432 Y-202.29
X-203.563 Y-201.004
X-203.719 Y-199.722
X-203.899 Y-198.442
X-204.104 Y-197.167
X-204.333 Y-195.895
X-204.586 Y-194.628
X-204.864 Y-193.366
X-205.165 Y-192.11
X-205.491 Y-190.859
X-205.841 Y-189.616
X-206.215 Y-188.379
X-206.612 Y-187.149
X-207.033 Y-185.928
X-207.477 Y-184.714
X-207.945 Y-183.51
X-208.435 Y-182.315
X-208.948 Y-181.129
X-209.484 Y-179.953
X-210.042 Y-178.788
X-210.622 Y-177.633
X-211.225 Y-176.49
X-211.849 Y-175.359
X-212.494 Y-174.24
X-213.161 Y-173.133
X-213.848 Y-172.039
X-214.557 Y-170.959
X-215.287 Y-169.892
X-216.036 Y-168.84
X-216.806 Y-167.802
X-217.596 Y-166.78
X-218.405 Y-165.772
X-219.233 Y-164.78
X-220.08 Y-163.805
X-220.946 Y-162.845
X-221.829 Y-161.903
X-222.731 Y-160.977
X-223.65 Y-160.069
X-224.586 Y-159.178
X-225.539 Y-158.306
X-226.508 Y-157.452
X-227.494 Y-156.616
X-228.495 Y-155.799
X-229.511 Y-155.002
X-230.543 Y-154.224
X-231.59 Y-153.467
X-232.651 Y-152.729
X-233.726 Y-152.012
X-234.814 Y-151.315
X-235.915 Y-150.64
X-237.029 Y-149.985
X-238.156 Y-149.352
X-239.294 Y-148.741
X-240.443 Y-148.151
X-241.604 Y-147.583
X-242.775 Y-147.038
X-243.956 Y-146.514
X-245.148 Y-146.014
X-246.348 Y-145.535
X-247.557 Y-145.08
X-248.775 Y-144.648
X-250 Y-144.239
X-251.233 Y-143.854
X-252.474 Y-143.492
X-253.721 Y-143.154
X-254.974 Y-142.839
X-256.233 Y-142.549
X-257.497 Y-142.282
X-258.766 Y-142.04
X-260.04 Y-141.821
X-261.317 Y-141.627
X-262.598 Y-141.457
X-263.882 Y-141.312
X-265.168 Y-141.19
X-266.457 Y-141.093
X-267.747 Y-141.02
X-269.038 Y-140.972
X-270.33 Y-140.947
X-271.622 Y-140.948
X-272.914 Y-140.972
X-274.205 Y-141.022
X-275.495 Y-141.096
X-276.783 Y-141.194
X-278.069 Y-141.316
X-279.353 Y-141.463
X-280.633 Y-141.634
X-281.911 Y-141.83
X-283.184 Y-142.049
X-284.453 Y-142.292
X-285.717 Y-142.559
X-286.976 Y-142.85
X-288.229 Y-143.165
X-289.476 Y-143.502
X-290.717 Y-143.864
X-291.95 Y-144.248
X-293.176 Y-144.656
X-294.395 Y-145.086
X-295.605 Y-145.54
X-296.806 Y-146.016
X-297.997 Y-146.515
X-299.18 Y-147.036
X-300.352 Y-147.579
X-301.514 Y-148.145
X-302.665 Y-148.732
X-303.805 Y-149.34
X-304.933 Y-149.97
X-306.049 Y-150.621
X-307.153 Y-151.293
X-308.244 Y-151.985
X-309.321 Y-152.697
X-310.386 Y-153.43
X-311.436 Y-154.182
X-312.472 Y-154.954
X-313.494 Y-155.745
X-314.501 Y-156.555
X-315.492 Y-157.384
X-316.467 Y-158.231
X-317.427 Y-159.097
X-318.37 Y-159.98
X-319.296 Y-160.881
X-320.205 Y-161.799
X-321.097 Y-162.734
X-321.971 Y-163.685
X-322.827 Y-164.653
X-323.665 Y-165.636
X-324.485 Y-166.635
X-325.285 Y-167.649
X-326.067 Y-168.678
X-326.829 Y-169.721
X-327.572 Y-170.778
X-328.295 Y-171.849
X-328.998 Y-172.933
X-329.681 Y-174.03
X-330.343 Y-175.14
X-330.984 Y-176.262
X-331.604 Y-177.395
X-332.202 Y-178.54
X-332.779 Y-179.696
X-333.335 Y-180.863
X-333.868 Y-182.04
X-334.38 Y-183.226
X-334.869 Y-184.422
X-335.336 Y-185.627
X-335.78 Y-186.84
X-336.202 Y-188.061
X-336.601 Y-189.29
X-336.977 Y-190.527
X-337.33 Y-191.769
X-337.659 Y-193.019
X-337.966 Y-194.274
X-338.249 Y-195.535
X-338.509 Y-196.8
X-338.745 Y-198.071
X-338.957 Y-199.345
X-339.145 Y-200.623
X-339.309 Y-201.905
X-339.45 Y-203.189
X-339.566 Y-204.476
X-339.659 Y-205.765
X-339.727 Y-207.055
X-339.772 Y-208.346
X-339.792 Y-209.638
X-339.789 Y-210.93
X-339.761 Y-212.222
X-339.71 Y-213.513
X-339.634 Y-214.803
X-339.535 Y-216.091
X-339.412 Y-217.377
X-339.265 Y-218.661
X-339.094 Y-219.942
X-338.899 Y-221.219
X-338.681 Y-222.492
X-338.438 Y-223.762
X-338.172 Y-225.026
X-337.883 Y-226.285
X-337.57 Y-227.539
X-337.234 Y-228.786
X-336.875 Y-230.028
X-336.493 Y-231.262
X-336.088 Y-232.489
X-335.66 Y-233.708
X-335.21 Y-234.919
X-334.737 Y-236.121
X-334.242 Y-237.315
X-333.726 Y-238.499
X-333.187 Y-239.674
X-332.627 Y-240.838
X-332.045 Y-241.991
X-331.441 Y-243.134
X-330.817 Y-244.265
X-330.171 Y-245.384
X-329.505 Y-246.491
X-328.818 Y-247.586
X-328.112 Y-248.667
X-327.385 Y-249.736
X-326.638 Y-250.79
X-325.872 Y-251.831
X-325.087 Y-252.857
X-324.283 Y-253.868
X-323.46 Y-254.864
X-322.619 Y-255.845
X-321.76 Y-256.81
X-320.883 Y-257.759
X-319.989 Y-258.692
X-319.077 Y-259.607
X-318.149 Y-260.506
X-317.205 Y-261.388
X-316.244 Y-262.251
X-315.267 Y-263.097
X-314.274 Y-263.924
X-313.266 Y-264.733
X-312.244 Y-265.523
X-311.207 Y-266.294
X-310.156 Y-267.045
X-309.091 Y-267.776
X-308.012 Y-268.488
X-306.921 Y-269.18
X-305.817 Y-269.851
X-304.701 Y-270.502
X-303.573 Y-271.132
X-302.433 Y-271.741
X-301.283 Y-272.329
X-300.121 Y-272.895
X-298.95 Y-273.44
X-297.768 Y-273.963
X-296.577 Y-274.464
X-295.377 Y-274.943
X-294.168 Y-275.399
X-292.951 Y-275.833
X-291.726 Y-276.244
X-290.494 Y-276.632
X-289.255 Y-276.997
X-288.009 Y-277.34
X-286.757 Y-277.659
X-285.499 Y-277.955
X-284.236 Y-278.228
X-282.968 Y-278.477
X-281.696 Y-278.703
X-280.42 Y-278.905
X-279.141 Y-279.083
X-277.858 Y-279.239
X-276.572 Y-279.37
X-275.285 Y-279.478
X-273.996 Y-279.561
X-272.705 Y-279.621
X-271.413 Y-279.657
X-270.121 Y-279.669
X-268.829 Y-279.657
X-267.538 Y-279.621
X-266.247 Y-279.561
X-264.958 Y-279.478
X-263.67 Y-279.371
X-262.385 Y-279.24
X-261.102 Y-279.085
X-259.822 Y-278.907
X-258.546 Y-278.706
X-257.274 Y-278.481
X-256.006 Y-278.232
X-254.743 Y-277.961
X-253.485 Y-277.666
X-252.232 Y-277.349
X-250.986 Y-277.008
X-249.746 Y-276.644
X-248.513 Y-276.258
X-247.287 Y-275.849
X-246.069 Y-275.418
X-244.859 Y-274.964
X-243.658 Y-274.489
X-242.466 Y-273.991
X-241.283 Y-273.472
X-240.109 Y-272.931
X-238.946 Y-272.369
X-237.793 Y-271.786
X-236.651 Y-271.181
X-235.52 Y-270.556
X-234.401 Y-269.911
X-233.293 Y-269.245
X-232.198 Y-268.56
X-231.116 Y-267.854
X-230.046 Y-267.129
X-228.99 Y-266.385
X-227.948 Y-265.621
X-226.92 Y-264.838
X-225.906 Y-264.037
X-224.908 Y-263.218
X-223.924 Y-262.38
X-222.955 Y-261.525
X-222.002 Y-260.652
X-221.066 Y-259.762
X-220.145 Y-258.856
X-219.241 Y-257.932
X-218.354 Y-256.993
X-217.485 Y-256.037
X-216.632 Y-255.066
X-215.798 Y-254.08
X-214.981 Y-253.079
X-214.182 Y-252.063
X-213.402 Y-251.033
X-212.641 Y-249.989
X-211.899 Y-248.931
X-211.176 Y-247.86
X-210.473 Y-246.776
X-209.79 Y-245.68
X-209.127 Y-244.571
X-208.484 Y-243.45
X-207.861 Y-242.318
X-207.259 Y-241.175
X-206.677 Y-240.021
X-206.117 Y-238.857
X-205.578 Y-237.683
X-205.06 Y-236.499
X-204.563 Y-235.306
X-204.089 Y-234.105
X-203.636 Y-232.895
X-203.204 Y-231.676
X-202.795 Y-230.451
X-202.409 Y-229.218
X-202.044 Y-227.979
X-201.702 Y-226.732
X-201.383 Y-225.48
X-201.087 Y-224.223
X-200.814 Y-222.96
X-200.563 Y-221.692
X-200.336 Y-220.421
X-200.131 Y-219.145
X-199.95 Y-217.866
X-199.792 Y-216.583
X-199.657 Y-215.298
X-199.546 Y-214.011
X-199.457 Y-212.722
X-199.392 Y-211.431
X-199.351 Y-210.14
X-199.333 Y-208.848
X-199.338 Y-207.556
X-199.366 Y-206.264
X-199.418 Y-204.973
X-199.494 Y-203.684
X-199.593 Y-202.395
X-199.715 Y-201.109
X-199.861 Y-199.825
X-200.03 Y-198.544
X-200.222 Y-197.267
X-200.437 Y-195.993
X-200.675 Y-194.723
X-200.937 Y-193.457
X-201.221 Y-192.197
X-201.528 Y-190.942
X-201.857 Y-189.693
X-202.21 Y-188.449
X-202.585 Y-187.213
X-202.982 Y-185.983
X-203.401 Y-184.761
X-203.842 Y-183.547
X-204.305 Y-182.341
X-204.79 Y-181.143
X-205.297 Y-179.955
X-205.825 Y-178.775
X-206.375 Y-177.606
X-206.946 Y-176.447
X-207.537 Y-175.298
X-208.15 Y-174.161
X-208.783 Y-173.034
X-209.436 Y-171.92
X-210.11 Y-170.817
X-210.803 Y-169.727
X-211.516 Y-168.649
X-212.248 Y-167.585
X-212.999 Y-166.533
X-213.77 Y-165.496
X-214.559 Y-164.473
X-215.366 Y-163.464
X-216.191 Y-162.47
X-217.035 Y-161.491
X-217.896 Y-160.528
X-218.774 Y-159.58
X-219.669 Y-158.649
X-220.581 Y-157.733
X-221.51 Y-156.835
X-222.454 Y-155.953
X-223.415 Y-155.089
X-224.391 Y-154.242
X-225.382 Y-153.413
X-226.388 Y-152.602
X-227.408 Y-151.81
X-228.443 Y-151.036
X-229.491 Y-150.281
X-230.553 Y-149.544
X-231.628 Y-148.827
X-232.715 Y-148.13
X-233.815 Y-147.452
X-234.927 Y-146.794
X-236.051 Y-146.157
X-237.186 Y-145.539
X-238.332 Y-144.943
X-239.489 Y-144.367
X-240.656 Y-143.812
X-241.833 Y-143.279
X-243.019 Y-142.766
X-244.214 Y-142.276
X-245.418 Y-141.806
X-246.63 Y-141.359
X-247.85 Y-140.933
X-249.077 Y-140.53
X-250.312 Y-140.148
X-251.553 Y-139.789
X-252.8 Y-139.452
X-254.053 Y-139.138
X-255.312 Y-138.846
X-256.576 Y-138.576
X-257.844 Y-138.33
X-259.116 Y-138.106
X-260.393 Y-137.905
X-261.673 Y-137.727
X-262.955 Y-137.573
X-264.241 Y-137.441
X-265.528 Y-137.333
X-266.817 Y-137.247
X-268.108 Y-137.185
X-269.399 Y-137.146
X-270.691 Y-137.129
X-271.983 Y-137.137
X-273.275 Y-137.167
X-274.566 Y-137.22
X-275.856 Y-137.296
X-277.144 Y-137.396
X-278.43 Y-137.518
X-279.714 Y-137.663
X-280.995 Y-137.832
X-282.273 Y-138.023
X-283.547 Y-138.236
X-284.818 Y-138.473
X-286.083 Y-138.732
X-287.344 Y-139.014
X-288.6 Y-139.319
X-289.85 Y-139.646
X-291.094 Y-139.995
X-292.331 Y-140.366
X-293.562 Y-140.759
X-294.786 Y-141.174
X-296.002 Y-141.611
X-297.21 Y-142.069
X-298.409 Y-142.549
X-299.6 Y-143.05
X-300.782 Y-143.573
X-301.955 Y-144.116
X-303.117 Y-144.68
X-304.269 Y-145.264
X-305.411 Y-145.869
X-306.542 Y-146.494
X-307.662 Y-147.139
X-308.769 Y-147.804
X-309.865 Y-148.488
X-310.948 Y-149.192
X-312.019 Y-149.916
X-313.077 Y-150.658
X-314.121 Y-151.418
X-315.152 Y-152.197
X-316.169 Y-152.995
X-317.171 Y-153.81
X-318.159 Y-154.643
X-319.132 Y-155.493
X-320.089 Y-156.36
X-321.032 Y-157.245
X-321.958 Y-158.145
X-322.868 Y-159.062
X-323.762 Y-159.995
X-324.639 Y-160.944
X-325.5 Y-161.908
X-326.343 Y-162.887
X-327.168 Y-163.881
X-327.976 Y-164.889
X-328.765 Y-165.912
X-329.537 Y-166.949
X-330.29 Y-167.999
X-331.024 Y-169.062
X-331.739 Y-170.138
X-332.435 Y-171.226
X-333.112 Y-172.327
X-333.77 Y-173.439
X-334.407 Y-174.563
X-335.025 Y-175.698
X-335.622 Y-176.844
X-336.199 Y-178
X-336.756 Y-179.166
X-337.291 Y-180.341
X-337.807 Y-181.526
X-338.301 Y-182.72
X-338.774 Y-183.923
X-339.225 Y-185.133
X-339.655 Y-186.352
X-340.063 Y-187.578
X-340.45 Y-188.81
X-340.814 Y-190.05
X-341.157 Y-191.296
X-341.478 Y-192.547
X-341.776 Y-193.804
X-342.053 Y-195.067
X-342.307 Y-196.333
X-342.539 Y-197.604
X-342.748 Y-198.879
X-342.934 Y-200.158
X-343.099 Y-201.44
X-343.24 Y-202.724
X-343.359 Y-204.01
X-343.455 Y-205.299
X-343.529 Y-206.589
X-343.58 Y-207.88
X-343.608 Y-209.172
X-343.613 Y-210.464
X-343.595 Y-211.756
X-343.554 Y-213.047
X-343.49 Y-214.338
X-343.404 Y-215.627
X-343.295 Y-216.914
X-343.164 Y-218.199
X-343.01 Y-219.482
X-342.833 Y-220.762
X-342.634 Y-222.039
X-342.412 Y-223.312
X-342.168 Y-224.581
X-341.902 Y-225.845
X-341.613 Y-227.104
X-341.302 Y-228.358
X-340.97 Y-229.607
X-340.615 Y-230.849
X-340.239 Y-232.085
X-339.841 Y-233.315
X-339.421 Y-234.536
X-338.979 Y-235.751
X-338.516 Y-236.957
X-338.032 Y-238.155
X-337.527 Y-239.344
X-337.001 Y-240.524
X-336.455 Y-241.695
X-335.888 Y-242.856
X-335.3 Y-244.007
X-334.693 Y-245.147
X-334.065 Y-246.277
X-333.418 Y-247.395
X-332.751 Y-248.502
X-332.065 Y-249.596
X-331.36 Y-250.679
X-330.635 Y-251.749
X-329.893 Y-252.806
X-329.131 Y-253.85
X-328.351 Y-254.88
X-327.554 Y-255.896
X-326.738 Y-256.898
X-325.905 Y-257.886
X-325.054 Y-258.859
X-324.187 Y-259.816
X-323.302 Y-260.758
X-322.402 Y-261.685
X-321.485 Y-262.595
X-320.552 Y-263.489
X-319.604 Y-264.367
X-318.641 Y-265.228
X-317.662 Y-266.072
X-316.669 Y-266.898
X-315.661 Y-267.707
X-314.64 Y-268.498
X-313.605 Y-269.271
X-312.556 Y-270.026
X-311.494 Y-270.762
X-310.419 Y-271.479
X-309.332 Y-272.178
X-308.233 Y-272.856
X-307.122 Y-273.516
X-305.999 Y-274.155
X-304.866 Y-274.775
X-303.721 Y-275.375
X-302.566 Y-275.955
X-301.402 Y-276.514
X-300.227 Y-277.053
X-299.044 Y-277.571
X-297.851 Y-278.068
X-296.65 Y-278.544
X-295.441 Y-278.999
X-294.224 Y-279.433
X-292.999 Y-279.845
X-291.768 Y-280.236
X-290.529 Y-280.605
X-289.285 Y-280.953
X-288.035 Y-281.278
X-286.779 Y-281.581
X-285.517 Y-281.862
X-284.252 Y-282.121
X-282.981 Y-282.357
X-281.707 Y-282.572
X-280.429 Y-282.763
X-279.148 Y-282.933
X-277.865 Y-283.08
X-276.579 Y-283.204
X-275.291 Y-283.306
X-274.001 Y-283.385
X-272.71 Y-283.442
X-271.419 Y-283.476
X-270.127 Y-283.488
X-268.835 Y-283.477
X-267.543 Y-283.443
X-266.252 Y-283.387
X-264.963 Y-283.309
X-263.674 Y-283.207
X-262.388 Y-283.084
X-261.105 Y-282.937
X-259.824 Y-282.768
X-258.546 Y-282.577
X-257.272 Y-282.363
X-256.001 Y-282.128
X-254.735 Y-281.87
X-253.474 Y-281.59
X-252.217 Y-281.288
X-250.967 Y-280.965
X-249.721 Y-280.62
X-248.483 Y-280.253
X-247.25 Y-279.865
X-246.025 Y-279.455
X-244.807 Y-279.024
X-243.596 Y-278.572
X-242.394 Y-278.099
X-241.2 Y-277.606
X-240.014 Y-277.091
X-238.838 Y-276.557
X-237.672 Y-276.001
X-236.515 Y-275.426
X-235.368 Y-274.831
X-234.232 Y-274.215
X-233.107 Y-273.58
X-231.992 Y-272.926
X-230.89 Y-272.253
X-229.799 Y-271.561
X-228.72 Y-270.85
X-227.654 Y-270.12
X-226.6 Y-269.372
X-225.559 Y-268.606
X-224.532 Y-267.822
X-223.519 Y-267.021
X-222.519 Y-266.202
X-221.534 Y-265.367
X-220.563 Y-264.514
X-219.607 Y-263.645
X-218.666 Y-262.759
X-217.741 Y-261.858
X-216.831 Y-260.94
X-215.938 Y-260.007
X-215.06 Y-259.058
X-214.199 Y-258.095
X-213.355 Y-257.117
X-212.528 Y-256.124
X-211.718 Y-255.118
X-210.925 Y-254.097
X-210.15 Y-253.064
X-209.393 Y-252.017
X-208.654 Y-250.957
X-207.933 Y-249.884
X-207.231 Y-248.8
X-206.547 Y-247.703
X-205.883 Y-246.595
X-205.237 Y-245.476
X-204.611 Y-244.346
X-204.004 Y-243.205
X-203.417 Y-242.054
X-202.85 Y-240.893
X-202.303 Y-239.723
X-201.777 Y-238.543
X-201.271 Y-237.354
X-200.785 Y-236.157
X-200.32 Y-234.951
X-199.875 Y-233.738
X-199.452 Y-232.517
X-199.05 Y-231.289
X-198.668 Y-230.055
X-198.308 Y-228.814
X-197.97 Y-227.567
X-197.653 Y-226.315
X-197.357 Y-225.057
X-197.083 Y-223.794
X-196.831 Y-222.527
X-196.6 Y-221.256
X-196.391 Y-219.981
X-196.205 Y-218.702
X-196.04 Y-217.421
X-195.897 Y-216.136
X-195.777 Y-214.85
X-195.679 Y-213.562
X-195.603 Y-212.272
X-195.55 Y-210.981
X-195.518 Y-209.689
X-195.509 Y-208.397
X-195.522 Y-207.105
X-195.557 Y-205.814
X-195.614 Y-204.523
X-195.694 Y-203.233
X-195.795 Y-201.945
X-195.919 Y-200.659
X-196.065 Y-199.375
X-196.233 Y-198.094
X-196.423 Y-196.816
X-196.634 Y-195.542
X-196.868 Y-194.271
X-197.124 Y-193.004
X-197.401 Y-191.742
X-197.7 Y-190.485
X-198.021 Y-189.234
X-198.363 Y-187.988
X-198.727 Y-186.748
X-199.112 Y-185.515
X-199.518 Y-184.288
X-199.946 Y-183.069
X-200.394 Y-181.857
X-200.863 Y-180.653
X-201.352 Y-179.457
X-201.862 Y-178.27
X-202.393 Y-177.092
X-202.943 Y-175.923
X-203.514 Y-174.764
X-204.104 Y-173.615
X-204.714 Y-172.476
X-205.344 Y-171.347
X-205.992 Y-170.23
X-206.66 Y-169.124
X-207.347 Y-168.03
X-208.053 Y-166.947
X-208.778 Y-165.878
X-209.52 Y-164.82
X-210.281 Y-163.776
X-211.06 Y-162.745
X-211.856 Y-161.727
X-212.669 Y-160.724
X-213.5 Y-159.734
X-214.348 Y-158.759
X-215.212 Y-157.798
X-216.092 Y-156.853
X-216.989 Y-155.922
X-217.902 Y-155.008
X-218.83 Y-154.109
X-219.773 Y-153.226
X-220.731 Y-152.359
X-221.704 Y-151.509
X-222.692 Y-150.676
X-223.693 Y-149.859
X-224.709 Y-149.061
X-225.738 Y-148.28
X-226.781 Y-147.516
X-227.836 Y-146.771
X-228.904 Y-146.044
X-229.984 Y-145.335
X-231.077 Y-144.645
X-232.181 Y-143.974
X-233.296 Y-143.322
X-234.422 Y-142.689
X-235.559 Y-142.075
X-236.707 Y-141.481
X-237.864 Y-140.906
X-239.031 Y-140.352
X-240.207 Y-139.817
X-241.393 Y-139.303
X-242.586 Y-138.809
X-243.788 Y-138.335
X-244.998 Y-137.882
X-246.216 Y-137.45
X-247.441 Y-137.038
X-248.673 Y-136.648
X-249.911 Y-136.279
X-251.155 Y-135.932
X-252.405 Y-135.605
X-253.661 Y-135.3
X-254.921 Y-135.016
X-256.187 Y-134.754
X-257.456 Y-134.513
X-258.729 Y-134.295
X-260.006 Y-134.097
X-261.287 Y-133.922
X-262.569 Y-133.768
X-263.855 Y-133.637
X-265.142 Y-133.527
X-266.431 Y-133.439
X-267.722 Y-133.373
X-269.013 Y-133.328
X-270.305 Y-133.306
X-271.597
X-272.889 Y-133.328
X-274.18 Y-133.372
X-275.47 Y-133.438
X-276.759 Y-133.526
X-278.047 Y-133.636
X-279.332 Y-133.768
X-280.615 Y-133.921
X-281.895 Y-134.096
X-283.172 Y-134.293
X-284.445 Y-134.512
X-285.715 Y-134.752
X-286.98 Y-135.013
X-288.241 Y-135.296
X-289.497 Y-135.6
X-290.747 Y-135.926
X-291.992 Y-136.272
X-293.231 Y-136.64
X-294.463 Y-137.028
X-295.688 Y-137.437
X-296.907 Y-137.867
X-298.118 Y-138.318
X-299.321 Y-138.789
X-300.516 Y-139.281
X-301.702 Y-139.793
X-302.88 Y-140.324
X-304.048 Y-140.876
X-305.207 Y-141.447
X-306.356 Y-142.038
X-307.495 Y-142.648
X-308.624 Y-143.277
X-309.742 Y-143.925
X-310.848 Y-144.592
X-311.944 Y-145.277
X-313.027 Y-145.981
X-314.099 Y-146.703
X-315.158 Y-147.442
X-316.205 Y-148.2
X-317.238 Y-148.975
X-318.259 Y-149.768
X-319.266 Y-150.577
X-320.259 Y-151.404
X-321.238 Y-152.247
X-322.202 Y-153.107
X-323.152 Y-153.983
X-324.087 Y-154.874
X-325.007 Y-155.782
X-325.912 Y-156.704
X-326.8 Y-157.642
X-327.673 Y-158.595
X-328.53 Y-159.562
X-329.371 Y-160.543
X-330.194 Y-161.539
X-331.001 Y-162.548
X-331.791 Y-163.57
X-332.564 Y-164.606
X-333.319 Y-165.654
X-334.056 Y-166.715
X-334.776 Y-167.788
X-335.477 Y-168.874
X-336.16 Y-169.97
X-336.824 Y-171.079
X-337.469 Y-172.198
X-338.096 Y-173.328
X-338.703 Y-174.468
X-339.291 Y-175.619
X-339.86 Y-176.779
X-340.409 Y-177.949
X-340.939 Y-179.127
X-341.448 Y-180.314
X-341.938 Y-181.51
X-342.408 Y-182.714
X-342.857 Y-183.925
X-343.286 Y-185.144
X-343.694 Y-186.37
X-344.082 Y-187.602
X-344.449 Y-188.841
X-344.795 Y-190.086
X-345.121 Y-191.336
X-345.425 Y-192.592
X-345.708 Y-193.853
X-345.97 Y-195.118
X-346.211 Y-196.387
X-346.43 Y-197.661
X-346.628 Y-198.938
X-346.804 Y-200.218
X-346.959 Y-201.5
X-347.092 Y-202.785
X-347.204 Y-204.073
X-347.294 Y-205.362
X-347.363 Y-206.652
X-347.41 Y-207.943
X-347.435 Y-209.235
X-347.439 Y-210.527
X-347.421 Y-211.819
X-347.381 Y-213.11
X-347.32 Y-214.401
X-347.238 Y-215.69
X-347.133 Y-216.978
X-347.008 Y-218.264
X-346.86 Y-219.548
X-346.691 Y-220.829
X-346.501 Y-222.106
X-346.289 Y-223.381
X-346.055 Y-224.652
X-345.801 Y-225.919
X-345.525 Y-227.181
X-345.228 Y-228.438
X-344.911 Y-229.691
X-344.572 Y-230.938
X-344.213 Y-232.179
X-343.832 Y-233.414
X-343.431 Y-234.642
X-343.01 Y-235.863
X-342.568 Y-237.077
X-342.107 Y-238.284
X-341.625 Y-239.483
X-341.123 Y-240.674
X-340.601 Y-241.856
X-340.06 Y-243.029
X-339.499 Y-244.193
X-338.918 Y-245.347
X-338.318 Y-246.491
X-337.699 Y-247.625
X-337.061 Y-248.749
X-336.404 Y-249.862
X-335.729 Y-250.963
X-335.036 Y-252.053
X-334.324 Y-253.132
X-333.595 Y-254.198
X-332.847 Y-255.252
X-332.083 Y-256.294
X-331.3 Y-257.322
X-330.501 Y-258.337
X-329.685 Y-259.339
X-328.853 Y-260.327
X-328.004 Y-261.301
X-327.138 Y-262.261
X-326.257 Y-263.206
X-325.361 Y-264.136
X-324.449 Y-265.051
X-323.521 Y-265.951
X-322.579 Y-266.835
X-321.621 Y-267.702
X-320.65 Y-268.554
X-319.664 Y-269.39
X-318.665 Y-270.208
X-317.652 Y-271.01
X-316.626 Y-271.795
X-315.586 Y-272.563
X-314.534 Y-273.313
X-313.47 Y-274.046
X-312.394 Y-274.761
X-311.305 Y-275.457
X-310.206 Y-276.136
X-309.095 Y-276.795
X-307.973 Y-277.437
X-306.841 Y-278.059
X-305.699 Y-278.663
X-304.546 Y-279.247
X-303.384 Y-279.812
X-302.213 Y-280.357
X-301.033 Y-280.883
X-299.844 Y-281.389
X-298.646 Y-281.874
X-297.441 Y-282.34
X-296.228 Y-282.786
X-295.008 Y-283.211
X-293.781 Y-283.616
X-292.548 Y-284
X-291.308 Y-284.364
X-290.062 Y-284.707
X-288.811 Y-285.029
X-287.554 Y-285.33
X-286.293 Y-285.61
X-285.027 Y-285.869
X-283.757 Y-286.107
X-282.484 Y-286.324
X-281.206 Y-286.52
X-279.926 Y-286.694
X-278.643 Y-286.847
X-277.358 Y-286.978
X-276.071 Y-287.088
X-274.781 Y-287.177
X-273.491 Y-287.243
X-272.2 Y-287.289
X-270.908 Y-287.313
X-269.616 Y-287.315
X-268.324 Y-287.296
X-267.033 Y-287.255
X-265.742 Y-287.193
X-264.453 Y-287.11
X-263.165 Y-287.005
X-261.879 Y-286.879
X-260.596 Y-286.731
X-259.315 Y-286.562
X-258.037 Y-286.372
X-256.762 Y-286.161
X-255.491 Y-285.929
X-254.224 Y-285.676
X-252.961 Y-285.402
X-251.703 Y-285.106
X-250.451 Y-284.79
X-249.203 Y-284.454
X-247.962 Y-284.096
X-246.726 Y-283.718
X-245.497 Y-283.32
X-244.275 Y-282.901
X-243.059 Y-282.462
X-241.851 Y-282.003
X-240.651 Y-281.525
X-239.459 Y-281.026
X-238.276 Y-280.508
X-237.101 Y-279.971
X-235.935 Y-279.414
X-234.778 Y-278.838
X-233.631 Y-278.244
X-232.494 Y-277.63
X-231.367 Y-276.998
X-230.251 Y-276.347
X-229.145 Y-275.679
X-228.051 Y-274.992
X-226.968 Y-274.287
X-225.897 Y-273.564
X-224.838 Y-272.823
X-223.792 Y-272.066
X-222.758 Y-271.291
X-221.737 Y-270.499
X-220.729 Y-269.691
X-219.734 Y-268.866
X-218.753 Y-268.025
X-217.786 Y-267.169
X-216.833 Y-266.296
X-215.895 Y-265.408
X-214.971 Y-264.505
X-214.062 Y-263.586
X-213.168 Y-262.653
X-212.29 Y-261.705
X-211.427 Y-260.744
X-210.58 Y-259.768
X-209.75 Y-258.778
X-208.935 Y-257.775
X-208.137 Y-256.759
X-207.356 Y-255.73
X-206.592 Y-254.688
X-205.845 Y-253.634
X-205.116 Y-252.567
X-204.404 Y-251.489
X-203.709 Y-250.399
X-203.033 Y-249.298
X-202.375 Y-248.187
X-201.735 Y-247.064
X-201.113 Y-245.932
X-200.51 Y-244.789
X-199.926 Y-243.636
X-199.361 Y-242.475
X-198.814 Y-241.304
X-198.287 Y-240.124
X-197.78 Y-238.936
X-197.291 Y-237.74
X-196.823 Y-236.536
X-196.374 Y-235.324
X-195.944 Y-234.105
X-195.535 Y-232.88
X-195.147 Y-231.648
X-194.778 Y-230.409
X-194.43 Y-229.165
X-194.102 Y-227.915
X-193.795 Y-226.66
X-193.508 Y-225.4
X-193.242 Y-224.136
X-192.996 Y-222.867
X-192.772 Y-221.595
X-192.568 Y-220.319
X-192.385 Y-219.04
X-192.223 Y-217.758
X-192.082 Y-216.474
X-191.962 Y-215.188
X-191.863 Y-213.899
X-191.785 Y-212.61
X-191.728 Y-211.319
X-191.692 Y-210.027
X-191.677 Y-208.735
X-191.684 Y-207.443
X-191.711 Y-206.152
X-191.761 Y-204.86
X-191.831 Y-203.57
X-191.922 Y-202.281
X-192.035 Y-200.994
X-192.168 Y-199.709
X-192.323 Y-198.426
X-192.498 Y-197.146
X-192.694 Y-195.869
X-192.911 Y-194.596
X-193.15 Y-193.326
X-193.408 Y-192.06
X-193.688 Y-190.798
X-193.988 Y-189.542
X-194.309 Y-188.29
X-194.65 Y-187.044
X-195.011 Y-185.803
X-195.392 Y-184.569
X-195.794 Y-183.341
X-196.216 Y-182.119
X-196.657 Y-180.905
X-197.119 Y-179.698
X-197.601 Y-178.499
X-198.102 Y-177.309
X-198.622 Y-176.126
X-199.162 Y-174.952
X-199.721 Y-173.787
X-200.299 Y-172.632
X-200.896 Y-171.486
X-201.511 Y-170.35
X-202.145 Y-169.224
X-202.797 Y-168.108
X-203.468 Y-167.004
X-204.156 Y-165.91
X-204.862 Y-164.828
X-205.586 Y-163.758
X-206.327 Y-162.7
X-207.086 Y-161.654
X-207.861 Y-160.62
X-208.653 Y-159.599
X-209.462 Y-158.592
X-210.287 Y-157.597
X-211.128 Y-156.617
X-211.986 Y-155.65
X-212.859 Y-154.698
X-213.747 Y-153.76
X-214.651 Y-152.837
X-215.57 Y-151.928
X-216.503 Y-151.035
X-217.451 Y-150.157
X-218.413 Y-149.294
X-219.389 Y-148.448
X-220.379 Y-147.617
X-221.382 Y-146.803
X-222.399 Y-146.005
X-223.428 Y-145.224
X-224.47 Y-144.46
X-225.524 Y-143.712
X-226.59 Y-142.982
X-227.668 Y-142.27
X-228.757 Y-141.575
X-229.858 Y-140.898
X-230.969 Y-140.24
X-232.091 Y-139.599
X-233.224 Y-138.977
X-234.366 Y-138.374
X-235.518 Y-137.789
X-236.68 Y-137.223
X-237.85 Y-136.676
X-239.03 Y-136.148
X-240.217 Y-135.64
X-241.413 Y-135.15
X-242.617 Y-134.681
X-243.828 Y-134.231
X-245.046 Y-133.8
X-246.272 Y-133.39
X-247.503 Y-132.999
X-248.741 Y-132.629
X-249.985 Y-132.279
X-251.234 Y-131.948
X-252.488 Y-131.639
X-253.747 Y-131.349
X-255.011 Y-131.08
X-256.279 Y-130.832
X-257.551 Y-130.605
X-258.826 Y-130.398
X-260.105 Y-130.212
X-261.387 Y-130.047
X-262.67 Y-129.902
X-263.957 Y-129.779
X-265.245 Y-129.676
X-266.534 Y-129.594
X-267.825 Y-129.533
X-269.116 Y-129.493
X-270.408 Y-129.473
X-271.7 Y-129.475
X-272.992 Y-129.497
X-274.283 Y-129.541
X-275.574 Y-129.605
X-276.863 Y-129.69
X-278.151 Y-129.796
X-279.436 Y-129.923
X-280.72 Y-130.07
X-282.001 Y-130.238
X-283.279 Y-130.428
X-284.554 Y-130.637
X-285.825 Y-130.868
X-287.093 Y-131.119
X-288.356 Y-131.39
X-289.615 Y-131.682
X-290.869 Y-131.994
X-292.117 Y-132.326
X-293.361 Y-132.678
X-294.598 Y-133.05
X-295.829 Y-133.442
X-297.054 Y-133.854
X-298.271 Y-134.285
X-299.482 Y-134.737
X-300.686 Y-135.207
X-301.881 Y-135.697
X-303.069 Y-136.206
X-304.248 Y-136.734
X-305.419 Y-137.281
X-306.58 Y-137.846
X-307.733 Y-138.431
X-308.875 Y-139.034
X-310.008 Y-139.655
X-311.131 Y-140.294
X-312.243 Y-140.952
X-313.345 Y-141.627
X-314.435 Y-142.32
X-315.515 Y-143.03
X-316.582 Y-143.758
X-317.638 Y-144.503
X-318.682 Y-145.264
X-319.714 Y-146.042
X-320.732 Y-146.837
X-321.738 Y-147.647
X-322.731 Y-148.474
X-323.711 Y-149.317
X-324.677 Y-150.175
X-325.628 Y-151.049
X-326.566 Y-151.938
X-327.49 Y-152.841
X-328.399 Y-153.76
X-329.293 Y-154.692
X-330.171 Y-155.64
X-331.035 Y-156.601
X-331.883 Y-157.576
X-332.715 Y-158.564
X-333.531 Y-159.566
X-334.331 Y-160.581
X-335.114 Y-161.608
X-335.882 Y-162.648
X-336.632 Y-163.699
X-337.365 Y-164.763
X-338.082 Y-165.838
X-338.781 Y-166.925
X-339.462 Y-168.023
X-340.126 Y-169.131
X-340.772 Y-170.25
X-341.4 Y-171.379
X-342.01 Y-172.518
X-342.602 Y-173.667
X-343.176 Y-174.825
X-343.73 Y-175.992
X-344.266 Y-177.167
X-344.783 Y-178.351
X-345.281 Y-179.544
X-345.759 Y-180.744
X-346.219 Y-181.952
X-346.659 Y-183.166
X-347.079 Y-184.388
X-347.48 Y-185.616
X-347.861 Y-186.851
X-348.223 Y-188.091
X-348.565 Y-189.337
X-348.886 Y-190.589
X-349.188 Y-191.845
X-349.47 Y-193.106
X-349.731 Y-194.371
X-349.972 Y-195.641
X-350.193 Y-196.914
X-350.394 Y-198.19
X-350.574 Y-199.47
X-350.734 Y-200.752
X-350.873 Y-202.036
X-350.992 Y-203.323
X-351.09 Y-204.611
X-351.167 Y-205.901
X-351.224 Y-207.192
X-351.259 Y-208.483
X-351.275 Y-209.775
X-351.27 Y-211.067
X-351.244 Y-212.359
X-351.197 Y-213.65
X-351.131 Y-214.941
X-351.043 Y-216.23
X-350.935 Y-217.517
X-350.806 Y-218.803
X-350.657 Y-220.086
X-350.488 Y-221.367
X-350.298 Y-222.645
X-350.087 Y-223.92
X-349.857 Y-225.191
X-349.606 Y-226.459
X-349.335 Y-227.722
X-349.044 Y-228.981
X-348.733 Y-230.235
X-348.402 Y-231.484
X-348.05 Y-232.727
X-347.679 Y-233.965
X-347.288 Y-235.196
X-346.878 Y-236.422
X-346.448 Y-237.64
X-345.999 Y-238.851
X-345.531 Y-240.056
X-345.043 Y-241.252
X-344.537 Y-242.441
X-344.011 Y-243.621
X-343.467 Y-244.793
X-342.904 Y-245.956
X-342.323 Y-247.11
X-341.724 Y-248.255
X-341.106 Y-249.389
X-340.47 Y-250.514
X-339.817 Y-251.629
X-339.146 Y-252.733
X-338.457 Y-253.826
X-337.751 Y-254.908
X-337.028 Y-255.979
X-336.287 Y-257.038
X-335.53 Y-258.085
X-334.756 Y-259.12
X-333.966 Y-260.142
X-333.16 Y-261.151
X-332.337 Y-262.148
X-331.499 Y-263.131
X-330.646 Y-264.101
X-329.777 Y-265.058
X-328.893 Y-266
X-327.994 Y-266.928
X-327.08 Y-267.841
X-326.152 Y-268.74
X-325.21 Y-269.624
X-324.254 Y-270.493
X-323.284 Y-271.347
X-322.3 Y-272.185
X-321.304 Y-273.008
X-320.294 Y-273.814
X-319.272 Y-274.604
X-318.237 Y-275.378
X-317.19 Y-276.135
X-316.131 Y-276.875
X-315.06 Y-277.598
X-313.978 Y-278.304
X-312.885 Y-278.993
X-311.781 Y-279.664
X-310.667 Y-280.318
X-309.542 Y-280.954
X-308.407 Y-281.571
X-307.263 Y-282.171
X-306.109 Y-282.753
X-304.946 Y-283.316
X-303.774 Y-283.86
X-302.594 Y-284.386
X-301.405 Y-284.893
X-300.209 Y-285.38
X-299.005 Y-285.849
X-297.794 Y-286.299
X-296.576 Y-286.729
X-295.351 Y-287.14
X-294.119 Y-287.532
X-292.882 Y-287.903
X-291.638 Y-288.255
X-290.39 Y-288.587
X-289.136 Y-288.898
X-287.877 Y-289.19
X-286.614 Y-289.462
X-285.347 Y-289.714
X-284.076 Y-289.946
X-282.801 Y-290.158
X-281.523 Y-290.349
X-280.243 Y-290.52
X-278.959 Y-290.671
X-277.674 Y-290.801
X-276.387 Y-290.911
X-275.098 Y-291
X-273.807 Y-291.069
X-272.516 Y-291.117
X-271.224 Y-291.146
X-269.932 Y-291.153
X-268.64 Y-291.14
X-267.349 Y-291.107
X-266.058 Y-291.053
X-264.768 Y-290.978
X-263.479 Y-290.883
X-262.193 Y-290.768
X-260.908 Y-290.632
X-259.625 Y-290.476
X-258.345 Y-290.299
X-257.068 Y-290.103
X-255.794 Y-289.886
X-254.524 Y-289.65
X-253.258 Y-289.393
X-251.996 Y-289.116
X-250.738 Y-288.82
X-249.485 Y-288.503
X-248.238 Y-288.167
X-246.996 Y-287.811
X-245.759 Y-287.436
X-244.529 Y-287.041
X-243.305 Y-286.627
X-242.088 Y-286.194
X-240.878 Y-285.742
X-239.675 Y-285.27
X-238.479 Y-284.78
X-237.292 Y-284.271
X-236.113 Y-283.743
X-234.942 Y-283.196
X-233.78 Y-282.632
X-232.627 Y-282.049
X-231.483 Y-281.448
X-230.348 Y-280.829
X-229.224 Y-280.193
X-228.11 Y-279.539
X-227.006 Y-278.867
X-225.913 Y-278.179
X-224.83 Y-277.473
X-223.759 Y-276.75
X-222.699 Y-276.011
X-221.651 Y-275.255
X-220.615 Y-274.483
X-219.591 Y-273.695
X-218.58 Y-272.891
X-217.581 Y-272.072
X-216.596 Y-271.236
X-215.623 Y-270.385
X-214.664 Y-269.519
X-213.719 Y-268.639
X-212.788 Y-267.743
X-211.871 Y-266.833
X-210.968 Y-265.909
X-210.079 Y-264.971
X-209.206 Y-264.019
X-208.347 Y-263.053
X-207.503 Y-262.075
X-206.675 Y-261.083
X-205.863 Y-260.078
X-205.066 Y-259.061
X-204.285 Y-258.032
X-203.52 Y-256.99
X-202.772 Y-255.937
X-202.04 Y-254.872
X-201.325 Y-253.796
X-200.627 Y-252.709
X-199.945 Y-251.611
X-199.281 Y-250.503
X-198.635 Y-249.384
X-198.006 Y-248.256
X-197.394 Y-247.117
X-196.801 Y-245.97
X-196.226 Y-244.813
X-195.668 Y-243.647
X-195.129 Y-242.473
X-194.609 Y-241.29
X-194.106 Y-240.1
X-193.623 Y-238.902
X-193.158 Y-237.696
X-192.711 Y-236.484
X-192.284 Y-235.264
X-191.876 Y-234.038
X-191.487 Y-232.806
X-191.118 Y-231.568
X-190.767 Y-230.325
X-190.436 Y-229.076
X-190.125 Y-227.822
X-189.833 Y-226.563
X-189.561 Y-225.3
X-189.308 Y-224.033
X-189.076 Y-222.762
X-188.863 Y-221.487
X-188.671 Y-220.21
X-188.498 Y-218.929
X-188.345 Y-217.646
X-188.213 Y-216.361
X-188.1 Y-215.074
X-188.008 Y-213.785
X-187.935 Y-212.495
X-187.883 Y-211.204
X-187.851 Y-209.913
X-187.839 Y-208.621
X-187.847 Y-207.329
X-187.875 Y-206.037
X-187.924 Y-204.746
X-187.992 Y-203.455
X-188.081 Y-202.166
X-188.19 Y-200.879
X-188.318 Y-199.593
X-188.467 Y-198.31
X-188.636 Y-197.029
X-188.825 Y-195.751
X-189.034 Y-194.476
X-189.263 Y-193.204
X-189.512 Y-191.936
X-189.781 Y-190.672
X-190.069 Y-189.413
X-190.377 Y-188.158
X-190.704 Y-186.908
X-191.051 Y-185.664
X-191.417 Y-184.425
X-191.803 Y-183.191
X-192.208 Y-181.964
X-192.631 Y-180.744
X-193.074 Y-179.53
X-193.536 Y-178.323
X-194.017 Y-177.124
X-194.516 Y-175.932
X-195.033 Y-174.748
X-195.569 Y-173.573
X-196.124 Y-172.405
X-196.696 Y-171.247
X-197.287 Y-170.098
X-197.895 Y-168.958
X-198.521 Y-167.828
X-199.165 Y-166.708
X-199.827 Y-165.598
X-200.505 Y-164.498
X-201.201 Y-163.41
X-201.914 Y-162.332
X-202.643 Y-161.265
X-203.389 Y-160.21
X-204.151 Y-159.167
X-204.929 Y-158.135
X-205.723 Y-157.116
X-206.533 Y-156.11
X-207.359 Y-155.116
X-208.2 Y-154.135
X-209.056 Y-153.168
X-209.927 Y-152.213
X-210.813 Y-151.273
X-211.714 Y-150.346
X-212.629 Y-149.434
X-213.557 Y-148.536
X-214.5 Y-147.652
X-215.457 Y-146.784
X-216.427 Y-145.93
X-217.41 Y-145.092
X-218.407 Y-144.269
X-219.415 Y-143.462
X-220.437 Y-142.671
X-221.47 Y-141.896
X-222.516 Y-141.136
X-223.573 Y-140.393
X-224.641 Y-139.667
X-225.721 Y-138.957
X-226.812 Y-138.264
X-227.913 Y-137.589
X-229.025 Y-136.93
X-230.146 Y-136.289
X-231.278 Y-135.665
X-232.419 Y-135.059
X-233.569 Y-134.471
X-234.729 Y-133.9
X-235.897 Y-133.348
X-237.073 Y-132.814
X-238.258 Y-132.298
X-239.45 Y-131.801
X-240.651 Y-131.323
X-241.858 Y-130.863
X-243.073 Y-130.422
X-244.294 Y-130
X-245.521 Y-129.597
X-246.755 Y-129.213
X-247.994 Y-128.848
X-249.239 Y-128.502
X-250.49 Y-128.176
X-251.745 Y-127.869
X-253.004 Y-127.582
X-254.268 Y-127.314
X-255.536 Y-127.065
X-256.808 Y-126.837
X-258.083 Y-126.628
X-259.361 Y-126.439
X-260.642 Y-126.269
X-261.925 Y-126.119
X-263.211 Y-125.989
X-264.498 Y-125.88
X-265.787 Y-125.79
X-267.077 Y-125.72
X-268.368 Y-125.67
X-269.66 Y-125.64
X-270.952 Y-125.631
X-272.244 Y-125.641
X-273.536 Y-125.671
X-274.827 Y-125.721
X-276.117 Y-125.79
X-277.406 Y-125.88
X-278.693 Y-125.99
X-279.979 Y-126.119
X-281.262 Y-126.268
X-282.543 Y-126.437
X-283.822 Y-126.626
X-285.097 Y-126.834
X-286.369 Y-127.062
X-287.637 Y-127.31
X-288.901 Y-127.577
X-290.161 Y-127.863
X-291.416 Y-128.169
X-292.667 Y-128.494
X-293.912 Y-128.838
X-295.152 Y-129.202
X-296.386 Y-129.585
X-297.614 Y-129.987
X-298.835 Y-130.407
X-300.051 Y-130.847
X-301.259 Y-131.304
X-302.46 Y-131.781
X-303.653 Y-132.275
X-304.839 Y-132.788
X-306.017 Y-133.32
X-307.187 Y-133.869
X-308.348 Y-134.436
X-309.5 Y-135.021
X-310.643 Y-135.623
X-311.776 Y-136.243
X-312.9 Y-136.88
X-314.014 Y-137.535
X-315.118 Y-138.206
X-316.212 Y-138.894
X-317.295 Y-139.599
X-318.366 Y-140.321
X-319.427 Y-141.059
X-320.476 Y-141.813
X-321.513 Y-142.583
X-322.539 Y-143.37
X-323.552 Y-144.171
X-324.553 Y-144.988
X-325.541 Y-145.821
X-326.516 Y-146.668
X-327.479 Y-147.53
X-328.428 Y-148.407
X-329.363 Y-149.298
X-330.285 Y-150.204
X-331.193 Y-151.123
X-332.086 Y-152.057
X-332.965 Y-153.003
X-333.83 Y-153.963
X-334.68 Y-154.937
X-335.515 Y-155.923
X-336.334 Y-156.922
X-337.139 Y-157.933
X-337.928 Y-158.956
X-338.7 Y-159.991
X-339.457 Y-161.039
X-340.198 Y-162.097
X-340.923 Y-163.167
X-341.631 Y-164.248
X-342.322 Y-165.339
X-342.997 Y-166.441
X-343.654 Y-167.553
X-344.295 Y-168.675
X-344.919 Y-169.807
X-345.525 Y-170.948
X-346.114 Y-172.098
X-346.685 Y-173.257
X-347.238 Y-174.425
X-347.773 Y-175.601
X-348.291 Y-176.785
X-348.79 Y-177.976
X-349.271 Y-179.175
X-349.734 Y-180.382
X-350.178 Y-181.595
X-350.604 Y-182.815
X-351.011 Y-184.041
X-351.399 Y-185.274
X-351.768 Y-186.512
X-352.118 Y-187.755
X-352.45 Y-189.004
X-352.762 Y-190.258
X-353.055 Y-191.517
X-353.328 Y-192.779
X-353.583 Y-194.046
X-353.818 Y-195.317
X-354.033 Y-196.59
X-354.23 Y-197.867
X-354.407 Y-199.147
X-354.564 Y-200.43
X-354.702 Y-201.715
X-354.82 Y-203.001
X-354.918 Y-204.289
X-354.997 Y-205.579
X-355.056 Y-206.87
X-355.096 Y-208.161
X-355.116 Y-209.453
Y-210.745
X-355.097 Y-212.037
X-355.057 Y-213.329
X-354.998 Y-214.619
X-354.92 Y-215.909
X-354.821 Y-217.197
X-354.703 Y-218.484
X-354.565 Y-219.769
X-354.408 Y-221.051
X-354.231 Y-222.331
X-354.035 Y-223.608
X-353.82 Y-224.882
X-353.585 Y-226.153
X-353.331 Y-227.419
X-353.057 Y-228.682
X-352.765 Y-229.941
X-352.453 Y-231.194
X-352.122 Y-232.443
X-351.772 Y-233.687
X-351.404 Y-234.926
X-351.016 Y-236.158
X-350.61 Y-237.385
X-350.185 Y-238.605
X-349.742 Y-239.819
X-349.28 Y-241.025
X-348.8 Y-242.225
X-348.301 Y-243.417
X-347.785 Y-244.601
X-347.25 Y-245.777
X-346.698 Y-246.945
X-346.128 Y-248.105
X-345.54 Y-249.255
X-344.935 Y-250.397
X-344.312 Y-251.529
X-343.673 Y-252.652
X-343.016 Y-253.765
X-342.343 Y-254.868
X-341.653 Y-255.96
X-340.946 Y-257.042
X-340.223 Y-258.112
X-339.484 Y-259.172
X-338.729 Y-260.22
X-337.958 Y-261.257
X-337.171 Y-262.282
X-336.369 Y-263.295
X-335.551 Y-264.296
X-334.719 Y-265.284
X-333.871 Y-266.259
X-333.008 Y-267.221
X-332.131 Y-268.169
X-331.24 Y-269.104
X-330.334 Y-270.026
X-329.415 Y-270.934
X-328.482 Y-271.827
X-327.535 Y-272.707
X-326.575 Y-273.572
X-325.602 Y-274.422
X-324.616 Y-275.257
X-323.618 Y-276.078
X-322.608 Y-276.883
X-321.585 Y-277.672
X-320.55 Y-278.446
X-319.504 Y-279.204
X-318.446 Y-279.946
X-317.377 Y-280.672
X-316.297 Y-281.382
X-315.207 Y-282.075
X-314.106 Y-282.751
X-312.995 Y-283.411
X-311.874 Y-284.053
X-310.744 Y-284.679
X-309.604 Y-285.287
X-308.454 Y-285.877
X-307.296 Y-286.45
X-306.13 Y-287.006
X-304.955 Y-287.543
X-303.772 Y-288.063
X-302.581 Y-288.565
X-301.383 Y-289.049
X-300.178 Y-289.514
X-298.966 Y-289.961
X-297.747 Y-290.39
X-296.522 Y-290.8
X-295.29 Y-291.191
X-294.053 Y-291.564
X-292.81 Y-291.918
X-291.563 Y-292.252
X-290.31 Y-292.568
X-289.052 Y-292.865
X-287.79 Y-293.143
X-286.525 Y-293.402
X-285.255 Y-293.641
X-283.982 Y-293.861
X-282.705 Y-294.061
X-281.426 Y-294.242
X-280.144 Y-294.404
X-278.86 Y-294.546
X-277.574 Y-294.669
X-276.286 Y-294.772
X-274.996 Y-294.856
X-273.706 Y-294.92
X-272.415 Y-294.965
X-271.123 Y-294.99
X-269.831 Y-294.996
X-268.539 Y-294.982
X-267.247 Y-294.948
X-265.956 Y-294.895
X-264.666 Y-294.823
X-263.377 Y-294.731
X-262.09 Y-294.619
X-260.805 Y-294.488
X-259.521 Y-294.338
X-258.241 Y-294.168
X-256.962 Y-293.979
X-255.687 Y-293.771
X-254.415 Y-293.543
X-253.147 Y-293.296
X-251.883 Y-293.03
X-250.623 Y-292.745
X-249.367 Y-292.44
X-248.116 Y-292.117
X-246.87 Y-291.776
X-245.629 Y-291.415
X-244.394 Y-291.036
X-243.165 Y-290.639
X-241.941 Y-290.223
X-240.724 Y-289.788
X-239.514 Y-289.336
X-238.311 Y-288.865
X-237.115 Y-288.376
X-235.927 Y-287.869
X-234.746 Y-287.345
X-233.573 Y-286.802
X-232.408 Y-286.243
X-231.252 Y-285.666
X-230.105 Y-285.071
X-228.967 Y-284.459
X-227.839 Y-283.83
X-226.719 Y-283.185
X-225.61 Y-282.522
X-224.511 Y-281.843
X-223.422 Y-281.148
X-222.343 Y-280.436
X-221.276 Y-279.709
X-220.219 Y-278.965
X-219.174 Y-278.206
X-218.14 Y-277.431
X-217.117 Y-276.641
X-216.107 Y-275.836
X-215.109 Y-275.015
X-214.123 Y-274.18
X-213.15 Y-273.33
X-212.189 Y-272.466
X-211.242 Y-271.588
X-210.307 Y-270.695
X-209.387 Y-269.789
X-208.479 Y-268.869
X-207.586 Y-267.935
X-206.707 Y-266.988
X-205.842 Y-266.029
X-204.992 Y-265.056
X-204.156 Y-264.071
X-203.335 Y-263.073
X-202.529 Y-262.063
X-201.738 Y-261.041
X-200.962 Y-260.008
X-200.202 Y-258.963
X-199.458 Y-257.907
X-198.729 Y-256.84
X-198.016 Y-255.762
X-197.32 Y-254.674
X-196.64 Y-253.576
X-195.976 Y-252.467
X-195.328 Y-251.349
X-194.698 Y-250.221
X-194.084 Y-249.084
X-193.488 Y-247.938
X-192.908 Y-246.783
X-192.346 Y-245.62
X-191.801 Y-244.448
X-191.274 Y-243.269
X-190.764 Y-242.082
X-190.273 Y-240.887
X-189.799 Y-239.685
X-189.343 Y-238.476
X-188.905 Y-237.26
X-188.486 Y-236.038
X-188.084 Y-234.81
X-187.701 Y-233.576
X-187.337 Y-232.336
X-186.991 Y-231.091
X-186.663 Y-229.842
X-186.354 Y-228.587
X-186.064 Y-227.328
X-185.792 Y-226.065
X-185.54 Y-224.798
X-185.306 Y-223.527
X-185.091 Y-222.253
X-184.896 Y-220.976
X-184.719 Y-219.696
X-184.561 Y-218.413
X-184.423 Y-217.129
X-184.304 Y-215.842
X-184.204 Y-214.554
X-184.123 Y-213.265
X-184.062 Y-211.974
X-184.02 Y-210.683
X-183.997 Y-209.391
X-183.994 Y-208.099
X-184.009 Y-206.807
X-184.044 Y-205.515
X-184.098 Y-204.224
X-184.172 Y-202.934
X-184.264 Y-201.645
X-184.376 Y-200.358
X-184.507 Y-199.073
X-184.657 Y-197.79
X-184.827 Y-196.509
X-185.015 Y-195.23
X-185.222 Y-193.955
X-185.449 Y-192.683
X-185.694 Y-191.414
X-185.958 Y-190.15
X-186.241 Y-188.889
X-186.543 Y-187.633
X-186.864 Y-186.381
X-187.203 Y-185.134
X-187.561 Y-183.893
X-187.937 Y-182.657
X-188.332 Y-181.427
X-188.745 Y-180.203
X-189.177 Y-178.985
X-189.626 Y-177.773
X-190.094 Y-176.569
X-190.579 Y-175.371
X-191.083 Y-174.181
X-191.603 Y-172.999
X-192.142 Y-171.824
X-192.698 Y-170.658
X-193.271 Y-169.5
X-193.861 Y-168.351
X-194.469 Y-167.21
X-195.093 Y-166.079
X-195.734 Y-164.958
X-196.392 Y-163.846
X-197.067 Y-162.743
X-197.757 Y-161.651
X-198.464 Y-160.57
X-199.187 Y-159.499
X-199.926 Y-158.439
X-200.681 Y-157.391
X-201.452 Y-156.354
X-202.237 Y-155.328
