%
(1001)
(origin stock top)
(T1  D=21 CR=0 - ZMIN=-12 - flat end mill)
G90 G94
G17
G21

(bottom_left)
M9
T1 M6
S6500 M3
G54
G0 X-267.52 Y-559.642
Z15
Z5
Z2.55
G3 X-272.631 Y-540.358 Z-0.744 I-2.555 J9.642 F333.3
X-267.52 Y-559.642 Z-4.037 I2.555 J-9.642
X-272.631 Y-540.358 Z-7.331 I-2.555 J9.642
X-267.52 Y-559.642 Z-10.625 I2.555 J-9.642
X-260.1 Y-550 Z-12 I-2.555 J9.642
X-280.05 I-9.975
X-260.1 I9.975
G1 X-260.099 Y-549.584 F850
X-260.07 Y-549.17
X-260.015 Y-548.758
X-259.691 Y-547.127
X-259.617 Y-546.895
X-259.552 Y-546.635
X-259.499 Y-546.347
X-259.46 Y-546.033
X-259.439 Y-545.692
X-259.44 Y-545.325
X-259.464 Y-544.935
X-259.516 Y-544.523
X-259.597 Y-544.091
X-259.711 Y-543.642
X-259.86 Y-543.179
X-260.045 Y-542.704
X-260.269 Y-542.221
X-260.532 Y-541.733
X-260.837 Y-541.245
X-261.182 Y-540.76
X-261.57 Y-540.282
X-261.998 Y-539.815
X-262.468 Y-539.364
X-262.977 Y-538.931
X-263.525 Y-538.521
X-264.109 Y-538.137
X-264.728 Y-537.784
X-265.379 Y-537.464
X-266.06 Y-537.18
X-266.768 Y-536.935
X-267.499 Y-536.731
X-268.25 Y-536.571
X-269.019 Y-536.456
X-269.801 Y-536.389
X-270.593 Y-536.369
X-271.391 Y-536.399
X-272.191 Y-536.479
X-272.991 Y-536.609
X-273.785 Y-536.789
X-274.572 Y-537.019
X-275.346 Y-537.298
X-276.105 Y-537.626
X-276.844 Y-538.002
X-277.562 Y-538.425
X-278.255 Y-538.892
X-278.919 Y-539.402
X-279.551 Y-539.954
X-280.15 Y-540.546
X-280.713 Y-541.174
X-281.236 Y-541.837
X-281.718 Y-542.533
X-282.157 Y-543.258
X-282.551 Y-544.009
X-282.898 Y-544.784
X-283.196 Y-545.58
X-283.445 Y-546.394
X-283.644 Y-547.222
X-283.791 Y-548.061
X-283.886 Y-548.909
X-283.929 Y-549.761
X-283.919 Y-550.614
X-283.856 Y-551.466
X-283.741 Y-552.312
X-283.573 Y-553.15
X-283.354 Y-553.977
X-283.084 Y-554.788
X-282.765 Y-555.582
X-282.397 Y-556.354
X-281.982 Y-557.103
X-281.522 Y-557.824
X-281.017 Y-558.516
X-280.471 Y-559.175
X-279.885 Y-559.799
X-279.262 Y-560.387
X-278.603 Y-560.934
X-277.912 Y-561.44
X-277.191 Y-561.902
X-276.443 Y-562.319
X-275.67 Y-562.689
X-274.876 Y-563.01
X-274.063 Y-563.282
X-273.236 Y-563.503
X-272.396 Y-563.672
X-271.547 Y-563.79
X-270.692 Y-563.854
X-269.836 Y-563.866
X-268.98 Y-563.825
X-268.128 Y-563.731
X-267.284 Y-563.585
X-266.45 Y-563.386
X-265.63 Y-563.137
X-264.827 Y-562.837
X-264.044 Y-562.489
X-263.284 Y-562.092
X-262.55 Y-561.65
X-261.845 Y-561.163
X-261.171 Y-560.633
X-260.532 Y-560.063
X-259.928 Y-559.454
X-259.364 Y-558.809
X-258.84 Y-558.131
X-258.359 Y-557.421
X-257.923 Y-556.683
X-257.167 Y-555.202
X-256.497 Y-553.699
X-256.029 Y-552.445
X-255.685 Y-551.316
X-255.434 Y-550.264
X-255.261 Y-549.27
X-255.155 Y-548.306
X-255.109 Y-547.365
X-255.121 Y-546.445
X-255.189 Y-545.545
X-255.311 Y-544.661
X-255.486 Y-543.793
X-255.713 Y-542.939
X-255.993 Y-542.101
X-256.326 Y-541.28
X-256.709 Y-540.477
X-257.145 Y-539.695
X-257.631 Y-538.936
X-258.167 Y-538.203
X-258.752 Y-537.499
X-259.386 Y-536.825
X-260.067 Y-536.185
X-260.794 Y-535.583
X-261.565 Y-535.02
X-262.378 Y-534.501
X-263.229 Y-534.029
X-264.117 Y-533.605
X-265.037 Y-533.235
X-265.987 Y-532.918
X-266.963 Y-532.659
X-267.962 Y-532.459
X-268.978 Y-532.32
X-270.008 Y-532.244
X-271.047 Y-532.232
X-272.091 Y-532.283
X-273.136 Y-532.4
X-274.178 Y-532.583
X-275.211 Y-532.83
X-276.232 Y-533.142
X-277.236 Y-533.519
X-278.219 Y-533.958
X-279.177 Y-534.46
X-280.105 Y-535.021
X-280.999 Y-535.641
X-281.856 Y-536.317
X-282.672 Y-537.046
X-283.443 Y-537.826
X-284.167 Y-538.655
X-284.839 Y-539.528
X-285.457 Y-540.443
X-286.018 Y-541.396
X-286.52 Y-542.384
X-286.961 Y-543.402
X-287.338 Y-544.447
X-287.651 Y-545.514
X-287.897 Y-546.599
X-288.076 Y-547.699
X-288.187 Y-548.809
X-288.229 Y-549.924
X-288.202 Y-551.041
X-288.107 Y-552.154
X-287.942 Y-553.26
X-287.709 Y-554.355
X-287.409 Y-555.433
X-287.043 Y-556.491
X-286.612 Y-557.525
X-286.118 Y-558.531
X-285.563 Y-559.504
X-284.948 Y-560.442
X-284.276 Y-561.34
X-283.55 Y-562.195
X-282.773 Y-563.004
X-281.947 Y-563.763
X-281.075 Y-564.47
X-280.161 Y-565.121
X-279.209 Y-565.715
X-278.222 Y-566.25
X-277.203 Y-566.722
X-276.157 Y-567.13
X-275.088 Y-567.474
X-274 Y-567.75
X-272.896 Y-567.959
X-271.782 Y-568.099
X-270.661 Y-568.17
X-269.538 Y-568.171
X-268.417 Y-568.104
X-267.302 Y-567.967
X-266.198 Y-567.761
X-265.108 Y-567.488
X-264.037 Y-567.148
X-262.99 Y-566.742
X-261.969 Y-566.273
X-260.98 Y-565.741
X-260.025 Y-565.149
X-259.108 Y-564.5
X-258.233 Y-563.795
X-257.311 Y-562.952
X-256.367 Y-561.976
X-255.466 Y-560.921
X-254.614 Y-559.789
X-253.829 Y-558.6
X-253.126 Y-557.377
X-252.512 Y-556.135
X-251.986 Y-554.885
X-251.548 Y-553.63
X-251.195 Y-552.376
X-250.925 Y-551.123
X-250.735 Y-549.873
X-250.624 Y-548.63
X-250.591 Y-547.396
X-250.633 Y-546.174
X-250.75 Y-544.966
X-250.941 Y-543.775
X-251.203 Y-542.602
X-251.537 Y-541.451
X-251.94 Y-540.324
X-252.412 Y-539.225
X-252.952 Y-538.155
X-253.559 Y-537.118
X-254.23 Y-536.118
X-254.965 Y-535.157
X-255.762 Y-534.239
X-256.618 Y-533.367
X-257.532 Y-532.545
X-258.5 Y-531.777
X-259.52 Y-531.066
X-260.589 Y-530.415
X-261.702 Y-529.828
X-262.857 Y-529.307
X-264.049 Y-528.856
X-265.274 Y-528.478
X-266.527 Y-528.174
X-267.803 Y-527.946
X-269.098 Y-527.798
X-270.406 Y-527.729
X-271.723 Y-527.741
X-273.042 Y-527.835
X-274.359 Y-528.011
X-275.668 Y-528.269
X-276.963 Y-528.609
X-278.24 Y-529.029
X-279.493 Y-529.53
X-280.717 Y-530.109
X-281.907 Y-530.765
X-283.057 Y-531.495
X-284.163 Y-532.297
X-285.221 Y-533.168
X-286.225 Y-534.105
X-287.171 Y-535.105
X-288.056 Y-536.163
X-288.875 Y-537.276
X-289.625 Y-538.44
X-290.303 Y-539.65
X-290.906 Y-540.901
X-291.431 Y-542.189
X-291.876 Y-543.509
X-292.24 Y-544.855
X-292.52 Y-546.223
X-292.714 Y-547.607
X-292.824 Y-549.001
X-292.846 Y-550.4
X-292.783 Y-551.799
X-292.633 Y-553.193
X-292.397 Y-554.575
X-292.075 Y-555.941
X-291.67 Y-557.285
X-291.183 Y-558.602
X-290.615 Y-559.887
X-289.968 Y-561.135
X-289.245 Y-562.341
X-288.449 Y-563.5
X-287.582 Y-564.609
X-286.649 Y-565.661
X-285.652 Y-566.655
X-284.595 Y-567.585
X-283.483 Y-568.448
X-282.32 Y-569.241
X-281.109 Y-569.96
X-279.856 Y-570.604
X-278.566 Y-571.169
X-277.243 Y-571.653
X-275.893 Y-572.055
X-274.52 Y-572.372
X-273.131 Y-572.604
X-271.729 Y-572.75
X-270.321 Y-572.809
X-268.912 Y-572.781
X-267.508 Y-572.666
X-266.113 Y-572.464
X-264.733 Y-572.177
X-263.374 Y-571.805
X-262.04 Y-571.349
X-260.735 Y-570.812
X-259.447 Y-570.185
X-258.167 Y-569.462
X-256.902 Y-568.641
X-255.662 Y-567.721
X-254.457 Y-566.706
X-253.3 Y-565.603
X-252.204 Y-564.42
X-251.178 Y-563.165
X-250.231 Y-561.849
X-249.369 Y-560.48
X-248.597 Y-559.067
X-247.917 Y-557.617
X-247.332 Y-556.137
X-246.843 Y-554.634
X-246.451 Y-553.116
X-246.155 Y-551.586
X-245.955 Y-550.052
X-245.852 Y-548.517
X-245.843 Y-546.988
X-245.929 Y-545.468
X-246.107 Y-543.963
X-246.378 Y-542.476
X-246.738 Y-541.011
X-247.188 Y-539.574
X-247.726 Y-538.169
X-248.349 Y-536.799
X-249.057 Y-535.469
X-249.847 Y-534.183
X-250.716 Y-532.945
X-251.663 Y-531.761
X-252.684 Y-530.633
X-253.777 Y-529.568
X-254.938 Y-528.567
X-256.163 Y-527.637
X-257.449 Y-526.781
X-258.792 Y-526.002
X-260.186 Y-525.305
X-261.627 Y-524.692
X-263.109 Y-524.168
X-264.628 Y-523.734
X-266.177 Y-523.393
X-267.751 Y-523.147
X-269.344 Y-522.999
X-270.949 Y-522.949
X-272.56 Y-522.998
X-274.172 Y-523.147
X-275.777 Y-523.397
X-277.368 Y-523.746
X-278.941 Y-524.195
X-280.487 Y-524.742
X-282.002 Y-525.385
X-283.478 Y-526.122
X-284.909 Y-526.951
X-286.291 Y-527.87
X-287.615 Y-528.875
X-288.876 Y-529.959
X-290.067 Y-531.119
X-291.185 Y-532.35
X-292.225 Y-533.648
X-293.183 Y-535.006
X-294.057 Y-536.421
X-294.843 Y-537.886
X-295.538 Y-539.397
X-296.14 Y-540.947
X-296.647 Y-542.53
X-297.056 Y-544.142
X-297.367 Y-545.775
X-297.578 Y-547.425
X-297.689 Y-549.084
X-297.7 Y-550.746
X-297.609 Y-552.407
X-297.419 Y-554.059
X-297.129 Y-555.696
X-296.74 Y-557.313
X-296.255 Y-558.903
X-295.674 Y-560.461
X-295.001 Y-561.981
X-294.237 Y-563.458
X-293.386 Y-564.887
X-292.45 Y-566.261
X-291.433 Y-567.577
X-290.339 Y-568.829
X-289.172 Y-570.013
X-287.935 Y-571.124
X-286.634 Y-572.16
X-285.273 Y-573.115
X-283.857 Y-573.987
X-282.391 Y-574.772
X-280.881 Y-575.467
X-279.332 Y-576.071
X-277.749 Y-576.58
X-276.139 Y-576.994
X-274.506 Y-577.31
X-272.858 Y-577.527
X-271.199 Y-577.646
X-269.536 Y-577.664
X-267.876 Y-577.582
X-266.223 Y-577.401
X-264.584 Y-577.122
X-262.964 Y-576.744
X-261.37 Y-576.271
X-259.807 Y-575.704
X-258.28 Y-575.046
X-256.794 Y-574.301
X-255.353 Y-573.47
X-253.962 Y-572.56
X-252.624 Y-571.573
X-251.341 Y-570.515
X-250.119 Y-569.388
X-248.959 Y-568.197
X-247.866 Y-566.944
X-246.843 Y-565.633
X-245.894 Y-564.267
X-245.02 Y-562.853
X-244.224 Y-561.393
X-243.507 Y-559.893
X-242.873 Y-558.355
X-242.323 Y-556.786
X-241.86 Y-555.189
X-241.487 Y-553.569
X-241.204 Y-551.93
X-241.013 Y-550.279
X-240.915 Y-548.619
X-240.909 Y-546.956
X-240.997 Y-545.296
X-241.177 Y-543.643
X-241.45 Y-542.002
X-241.814 Y-540.38
X-242.268 Y-538.781
X-242.812 Y-537.209
X-243.445 Y-535.672
X-244.163 Y-534.172
X-244.966 Y-532.716
X-245.851 Y-531.308
X-246.813 Y-529.952
X-247.85 Y-528.653
X-248.959 Y-527.413
X-250.134 Y-526.237
X-251.373 Y-525.128
X-252.672 Y-524.09
X-254.026 Y-523.125
X-255.432 Y-522.237
X-256.885 Y-521.43
X-258.381 Y-520.704
X-259.915 Y-520.061
X-261.481 Y-519.504
X-263.076 Y-519.031
X-264.693 Y-518.646
X-266.329 Y-518.348
X-267.979 Y-518.14
X-269.637 Y-518.022
X-271.3 Y-517.995
X-272.961 Y-518.056
X-274.617 Y-518.206
X-276.263 Y-518.442
X-277.894 Y-518.765
X-279.506 Y-519.175
X-281.093 Y-519.671
X-282.651 Y-520.25
X-284.177 Y-520.911
X-285.667 Y-521.65
X-287.116 Y-522.465
X-288.52 Y-523.355
X-289.876 Y-524.319
X-291.178 Y-525.352
X-292.425 Y-526.452
X-293.613 Y-527.615
X-294.741 Y-528.837
X-295.804 Y-530.116
X-296.799 Y-531.448
X-297.722 Y-532.831
X-298.572 Y-534.26
X-299.348 Y-535.731
X-300.047 Y-537.239
X-300.669 Y-538.781
X-301.211 Y-540.353
X-301.67 Y-541.951
X-302.046 Y-543.571
X-302.338 Y-545.208
X-302.545 Y-546.858
X-302.67 Y-548.516
X-302.71 Y-550.178
X-302.663 Y-551.84
X-302.531 Y-553.498
X-302.313 Y-555.146
X-302.012 Y-556.781
X-301.628 Y-558.399
X-301.163 Y-559.996
X-300.617 Y-561.566
X-299.991 Y-563.107
X-299.286 Y-564.612
X-298.505 Y-566.08
X-297.65 Y-567.507
X-296.725 Y-568.888
X-295.732 Y-570.222
X-294.671 Y-571.502
X-293.545 Y-572.726
X-292.358 Y-573.89
X-291.114 Y-574.993
X-289.815 Y-576.031
X-288.466 Y-577.003
X-287.069 Y-577.906
X-285.628 Y-578.735
X-284.146 Y-579.488
X-282.627 Y-580.165
X-281.076 Y-580.765
X-279.497 Y-581.286
X-277.894 Y-581.727
X-276.27 Y-582.085
X-274.63 Y-582.358
X-272.978 Y-582.547
X-271.319 Y-582.653
X-269.656 Y-582.674
X-267.995 Y-582.613
X-266.338 Y-582.467
X-264.691 Y-582.237
X-263.059 Y-581.922
X-261.444 Y-581.526
X-259.851 Y-581.049
X-258.283 Y-580.495
X-256.745 Y-579.864
X-255.239 Y-579.158
X-253.77 Y-578.379
X-252.341 Y-577.529
X-250.955 Y-576.612
X-249.613 Y-575.629
X-248.32 Y-574.584
X-247.076 Y-573.48
X-245.887 Y-572.319
X-244.754 Y-571.102
X-243.68 Y-569.832
X-242.668 Y-568.513
X-241.718 Y-567.148
X-240.832 Y-565.741
X-240.012 Y-564.295
X-239.26 Y-562.812
X-238.579 Y-561.295
X-237.972 Y-559.747
X-237.438 Y-558.172
X-236.98 Y-556.574
X-236.596 Y-554.956
X-236.289 Y-553.322
X-236.06 Y-551.675
X-235.91 Y-550.019
X-235.841 Y-548.357
X-235.851 Y-546.695
X-235.94 Y-545.034
X-236.107 Y-543.38
X-236.352 Y-541.735
X-236.676 Y-540.105
X-237.079 Y-538.491
X-237.56 Y-536.9
X-238.117 Y-535.333
X-238.749 Y-533.795
X-239.454 Y-532.289
X-240.229 Y-530.818
X-241.075 Y-529.386
X-241.989 Y-527.998
X-242.969 Y-526.655
X-244.013 Y-525.36
X-245.117 Y-524.117
X-246.278 Y-522.926
X-247.494 Y-521.792
X-248.763 Y-520.718
X-250.082 Y-519.706
X-251.449 Y-518.759
X-252.859 Y-517.878
X-254.309 Y-517.064
X-255.795 Y-516.318
X-257.314 Y-515.642
X-258.863 Y-515.038
X-260.44 Y-514.509
X-262.039 Y-514.055
X-263.658 Y-513.676
X-265.293 Y-513.372
X-266.94 Y-513.144
X-268.596 Y-512.992
X-270.257 Y-512.916
X-271.919 Y-512.918
X-273.58 Y-512.998
X-275.236 Y-513.153
X-276.882 Y-513.385
X-278.517 Y-513.69
X-280.136 Y-514.07
X-281.736 Y-514.523
X-283.313 Y-515.049
X-284.865 Y-515.646
X-286.387 Y-516.314
X-287.878 Y-517.05
X-289.335 Y-517.852
X-290.754 Y-518.719
X-292.133 Y-519.648
X-293.468 Y-520.639
X-294.757 Y-521.69
X-295.997 Y-522.797
X-297.186 Y-523.96
X-298.322 Y-525.174
X-299.403 Y-526.437
X-300.427 Y-527.747
X-301.391 Y-529.102
X-302.293 Y-530.499
X-303.131 Y-531.935
X-303.905 Y-533.406
X-304.613 Y-534.911
X-305.253 Y-536.446
X-305.825 Y-538.007
X-306.327 Y-539.592
X-306.758 Y-541.198
X-307.116 Y-542.822
X-307.402 Y-544.46
X-307.615 Y-546.109
X-307.755 Y-547.766
X-307.823 Y-549.427
X-307.817 Y-551.09
X-307.737 Y-552.75
X-307.582 Y-554.406
X-307.355 Y-556.053
X-307.055 Y-557.689
X-306.683 Y-559.309
X-306.241 Y-560.912
X-305.729 Y-562.494
X-305.148 Y-564.052
X-304.497 Y-565.582
X-303.779 Y-567.082
X-302.996 Y-568.548
X-302.149 Y-569.979
X-301.24 Y-571.372
X-300.271 Y-572.723
X-299.244 Y-574.031
X-298.16 Y-575.291
X-297.02 Y-576.502
X-295.828 Y-577.662
X-294.587 Y-578.768
X-293.298 Y-579.819
X-291.965 Y-580.812
X-290.59 Y-581.747
X-289.174 Y-582.619
X-287.721 Y-583.427
X-286.234 Y-584.171
X-284.715 Y-584.848
X-283.169 Y-585.459
X-281.597 Y-586.001
X-280.003 Y-586.475
X-278.39 Y-586.877
X-276.76 Y-587.207
X-275.117 Y-587.465
X-273.465 Y-587.65
X-271.806 Y-587.763
X-270.144 Y-587.804
X-268.481 Y-587.773
X-266.822 Y-587.668
X-265.169 Y-587.491
X-263.525 Y-587.24
X-261.894 Y-586.918
X-260.278 Y-586.526
X-258.68 Y-586.065
X-257.104 Y-585.537
X-255.551 Y-584.942
X-254.025 Y-584.281
X-252.53 Y-583.555
X-251.066 Y-582.765
X-249.637 Y-581.915
X-248.245 Y-581.006
X-246.891 Y-580.04
X-245.579 Y-579.02
X-244.309 Y-577.946
X-243.086 Y-576.82
X-241.911 Y-575.643
X-240.786 Y-574.419
X-239.712 Y-573.15
X-238.691 Y-571.837
X-237.724 Y-570.485
X-236.812 Y-569.094
X-235.958 Y-567.667
X-235.164 Y-566.206
X-234.432 Y-564.714
X-233.761 Y-563.192
X-233.155 Y-561.644
X-232.611 Y-560.072
X-232.133 Y-558.48
X-231.72 Y-556.869
X-231.374 Y-555.243
X-231.096 Y-553.604
X-230.887 Y-551.954
X-230.747 Y-550.297
X-230.675 Y-548.636
X-230.672 Y-546.973
X-230.738 Y-545.312
X-230.872 Y-543.654
X-231.075 Y-542.004
X-231.347 Y-540.364
X-231.689 Y-538.737
X-232.099 Y-537.125
X-232.575 Y-535.532
X-233.117 Y-533.96
X-233.724 Y-532.412
X-234.394 Y-530.89
X-235.128 Y-529.398
X-235.924 Y-527.939
X-236.781 Y-526.514
X-237.697 Y-525.126
X-238.67 Y-523.778
X-239.697 Y-522.47
X-240.778 Y-521.206
X-241.909 Y-519.988
X-243.091 Y-518.818
X-244.321 Y-517.7
X-245.597 Y-516.633
X-246.916 Y-515.621
X-248.275 Y-514.663
X-249.673 Y-513.762
X-251.105 Y-512.918
X-252.571 Y-512.134
X-254.069 Y-511.411
X-255.595 Y-510.751
X-257.147 Y-510.155
X-258.723 Y-509.623
X-260.318 Y-509.155
X-261.931 Y-508.751
X-263.559 Y-508.413
X-265.2 Y-508.141
X-266.85 Y-507.937
X-268.507 Y-507.8
X-270.168 Y-507.731
X-271.831 Y-507.729
X-273.492 Y-507.794
X-275.15 Y-507.925
X-276.801 Y-508.121
X-278.443 Y-508.383
X-280.073 Y-508.712
X-281.688 Y-509.106
X-283.287 Y-509.565
X-284.865 Y-510.087
X-286.422 Y-510.672
X-287.954 Y-511.317
X-289.46 Y-512.022
X-290.937 Y-512.786
X-292.382 Y-513.608
X-293.793 Y-514.487
X-295.168 Y-515.423
X-296.505 Y-516.411
X-297.802 Y-517.452
X-299.057 Y-518.543
X-300.269 Y-519.681
X-301.436 Y-520.866
X-302.554 Y-522.096
X-303.623 Y-523.37
X-304.641 Y-524.685
X-305.606 Y-526.039
X-306.517 Y-527.43
X-307.374 Y-528.855
X-308.175 Y-530.312
X-308.919 Y-531.799
X-309.604 Y-533.314
X-310.229 Y-534.855
X-310.792 Y-536.419
X-311.293 Y-538.004
X-311.733 Y-539.608
X-312.11 Y-541.228
X-312.424 Y-542.86
X-312.676 Y-544.504
X-312.863 Y-546.156
X-312.985 Y-547.814
X-313.041 Y-549.476
X-313.033 Y-551.139
X-312.959 Y-552.8
X-312.822 Y-554.457
X-312.621 Y-556.108
X-312.357 Y-557.749
X-312.03 Y-559.38
X-311.639 Y-560.996
X-311.185 Y-562.595
X-310.668 Y-564.176
X-310.091 Y-565.735
X-309.454 Y-567.271
X-308.758 Y-568.781
X-308.006 Y-570.264
X-307.196 Y-571.716
X-306.331 Y-573.136
X-305.411 Y-574.521
X-304.437 Y-575.869
X-303.411 Y-577.177
X-302.336 Y-578.446
X-301.213 Y-579.672
X-300.044 Y-580.854
X-298.83 Y-581.991
X-297.574 Y-583.08
X-296.275 Y-584.118
X-294.937 Y-585.105
X-293.562 Y-586.04
X-292.151 Y-586.92
X-290.708 Y-587.746
X-289.234 Y-588.516
X-287.732 Y-589.229
X-286.204 Y-589.884
X-284.651 Y-590.478
X-283.076 Y-591.011
X-281.481 Y-591.482
X-279.869 Y-591.892
X-278.243 Y-592.239
X-276.605 Y-592.524
X-274.957 Y-592.746
X-273.302 Y-592.905
X-271.642 Y-592.999
X-269.98 Y-593.028
X-268.317 Y-592.993
X-266.657 Y-592.894
X-265.003 Y-592.731
X-263.355 Y-592.506
X-261.718 Y-592.218
X-260.092 Y-591.869
X-258.481 Y-591.459
X-256.886 Y-590.987
X-255.311 Y-590.454
X-253.757 Y-589.862
X-252.227 Y-589.212
X-250.722 Y-588.505
X-249.244 Y-587.744
X-247.795 Y-586.928
X-246.377 Y-586.06
X-244.992 Y-585.139
X-243.643 Y-584.167
X-242.331 Y-583.146
X-241.057 Y-582.077
X-239.824 Y-580.962
X-238.632 Y-579.803
X-237.482 Y-578.601
X-236.377 Y-577.359
X-235.317 Y-576.078
X-234.306 Y-574.758
X-233.344 Y-573.402
X-232.432 Y-572.012
X-231.571 Y-570.589
X-230.763 Y-569.136
X-230.008 Y-567.654
X-229.307 Y-566.147
X-228.66 Y-564.615
X-228.07 Y-563.06
X-227.538 Y-561.485
X-227.064 Y-559.891
X-226.649 Y-558.281
X-226.293 Y-556.657
X-225.997 Y-555.021
X-225.76 Y-553.375
X-225.583 Y-551.722
X-225.466 Y-550.063
X-225.411 Y-548.401
X-225.417 Y-546.738
X-225.485 Y-545.077
X-225.614 Y-543.419
X-225.805 Y-541.767
X-226.055 Y-540.124
X-226.366 Y-538.49
X-226.736 Y-536.869
X-227.165 Y-535.263
X-227.654 Y-533.673
X-228.201 Y-532.103
X-228.807 Y-530.555
X-229.47 Y-529.03
X-230.188 Y-527.53
X-230.96 Y-526.058
X-231.786 Y-524.615
X-232.664 Y-523.203
X-233.594 Y-521.824
X-234.574 Y-520.481
X-235.603 Y-519.175
X-236.68 Y-517.908
X-237.803 Y-516.682
X-238.97 Y-515.497
X-240.179 Y-514.356
X-241.429 Y-513.259
X-242.717 Y-512.208
X-244.044 Y-511.206
X-245.407 Y-510.253
X-246.804 Y-509.351
X-248.232 Y-508.501
X-249.691 Y-507.703
X-251.178 Y-506.959
X-252.691 Y-506.268
X-254.227 Y-505.633
X-255.786 Y-505.053
X-257.364 Y-504.531
X-258.961 Y-504.066
X-260.573 Y-503.66
X-262.199 Y-503.312
X-263.836 Y-503.023
X-265.483 Y-502.792
X-267.137 Y-502.621
X-268.796 Y-502.508
X-270.458 Y-502.454
X-272.121 Y-502.461
X-273.782 Y-502.528
X-275.44 Y-502.654
X-277.092 Y-502.839
X-278.737 Y-503.083
X-280.372 Y-503.385
X-281.996 Y-503.744
X-283.606 Y-504.16
X-285.2 Y-504.633
X-286.776 Y-505.163
X-288.332 Y-505.748
X-289.867 Y-506.388
X-291.378 Y-507.082
X-292.863 Y-507.829
X-294.322 Y-508.628
X-295.751 Y-509.477
X-297.151 Y-510.375
X-298.517 Y-511.322
X-299.85 Y-512.317
X-301.146 Y-513.358
X-302.405 Y-514.444
X-303.626 Y-515.573
X-304.806 Y-516.745
X-305.944 Y-517.957
X-307.04 Y-519.207
X-308.092 Y-520.495
X-309.098 Y-521.819
X-310.057 Y-523.177
X-310.968 Y-524.568
X-311.829 Y-525.99
X-312.641 Y-527.442
X-313.401 Y-528.92
X-314.11 Y-530.424
X-314.767 Y-531.952
X-315.371 Y-533.501
X-315.92 Y-535.07
X-316.414 Y-536.658
X-316.852 Y-538.262
X-317.235 Y-539.88
X-317.561 Y-541.511
X-317.83 Y-543.151
X-318.043 Y-544.801
X-318.198 Y-546.456
X-318.297 Y-548.116
X-318.338 Y-549.778
X-318.321 Y-551.441
X-318.246 Y-553.102
X-318.114 Y-554.759
X-317.924 Y-556.411
X-317.678 Y-558.056
X-317.375 Y-559.691
X-317.016 Y-561.314
X-316.601 Y-562.924
X-316.132 Y-564.519
X-315.607 Y-566.097
X-315.027 Y-567.656
X-314.394 Y-569.193
X-313.709 Y-570.708
X-312.971 Y-572.198
X-312.183 Y-573.662
X-311.345 Y-575.098
X-310.458 Y-576.505
X-309.523 Y-577.88
X-308.542 Y-579.222
X-307.514 Y-580.529
X-306.441 Y-581.8
X-305.326 Y-583.033
X-304.169 Y-584.227
X-302.971 Y-585.38
X-301.734 Y-586.492
X-300.461 Y-587.561
X-299.151 Y-588.585
X-297.807 Y-589.564
X-296.429 Y-590.495
X-295.02 Y-591.378
X-293.582 Y-592.212
X-292.115 Y-592.996
X-290.623 Y-593.729
X-289.106 Y-594.411
X-287.567 Y-595.04
X-286.008 Y-595.617
X-284.429 Y-596.138
X-282.833 Y-596.605
X-281.222 Y-597.017
X-279.598 Y-597.373
X-277.962 Y-597.673
X-276.318 Y-597.916
X-274.666 Y-598.104
X-273.008 Y-598.235
X-271.347 Y-598.309
X-269.684 Y-598.326
X-268.022 Y-598.285
X-266.362 Y-598.188
X-264.706 Y-598.034
X-263.057 Y-597.823
X-261.416 Y-597.557
X-259.784 Y-597.236
X-258.165 Y-596.86
X-256.559 Y-596.429
X-254.968 Y-595.944
X-253.395 Y-595.406
X-251.841 Y-594.815
X-250.308 Y-594.171
X-248.797 Y-593.478
X-247.309 Y-592.734
X-245.848 Y-591.941
X-244.413 Y-591.1
X-243.007 Y-590.213
X-241.631 Y-589.279
X-240.287 Y-588.3
X-238.976 Y-587.277
X-237.7 Y-586.212
X-236.459 Y-585.105
X-235.256 Y-583.957
X-234.09 Y-582.772
X-232.964 Y-581.548
X-231.878 Y-580.289
X-230.834 Y-578.995
X-229.832 Y-577.668
X-228.875 Y-576.308
X-227.964 Y-574.918
X-227.098 Y-573.498
X-226.279 Y-572.051
X-225.507 Y-570.578
X-224.784 Y-569.081
X-224.11 Y-567.561
X-223.485 Y-566.02
X-222.912 Y-564.459
X-222.389 Y-562.881
X-221.92 Y-561.286
X-221.503 Y-559.676
X-221.139 Y-558.054
X-220.828 Y-556.42
X-220.57 Y-554.778
X-220.367 Y-553.127
X-220.217 Y-551.471
X-220.121 Y-549.811
X-220.08 Y-548.149
X-220.095 Y-546.486
X-220.164 Y-544.825
X-220.288 Y-543.167
X-220.467 Y-541.514
X-220.7 Y-539.867
X-220.987 Y-538.23
X-221.327 Y-536.602
X-221.72 Y-534.986
X-222.166 Y-533.385
X-222.666 Y-531.799
X-223.218 Y-530.23
X-223.821 Y-528.681
X-224.476 Y-527.152
X-225.18 Y-525.646
X-225.933 Y-524.164
X-226.734 Y-522.707
X-227.583 Y-521.277
X-228.478 Y-519.876
X-229.419 Y-518.505
X-230.405 Y-517.166
X-231.435 Y-515.86
X-232.507 Y-514.59
X-233.621 Y-513.355
X-234.774 Y-512.157
X-235.966 Y-510.997
X-237.195 Y-509.877
X-238.459 Y-508.798
X-239.758 Y-507.76
X-241.091 Y-506.766
X-242.456 Y-505.816
X-243.852 Y-504.912
X-245.276 Y-504.054
X-246.727 Y-503.242
X-248.204 Y-502.478
X-249.705 Y-501.763
X-251.228 Y-501.096
X-252.772 Y-500.478
X-254.335 Y-499.911
X-255.915 Y-499.396
X-257.512 Y-498.932
X-259.123 Y-498.521
X-260.747 Y-498.161
X-262.381 Y-497.855
X-264.024 Y-497.6
X-265.675 Y-497.399
X-267.331 Y-497.25
X-268.991 Y-497.155
X-270.653 Y-497.112
X-272.316 Y-497.124
X-273.977 Y-497.19
X-275.636 Y-497.309
X-277.29 Y-497.481
X-278.937 Y-497.706
X-280.577 Y-497.982
X-282.207 Y-498.311
X-283.825 Y-498.691
X-285.431 Y-499.122
X-287.023 Y-499.604
X-288.598 Y-500.137
X-290.155 Y-500.721
X-291.692 Y-501.353
X-293.209 Y-502.034
X-294.704 Y-502.762
X-296.175 Y-503.538
X-297.621 Y-504.358
X-299.04 Y-505.224
X-300.432 Y-506.135
X-301.794 Y-507.089
X-303.125 Y-508.086
X-304.423 Y-509.124
X-305.688 Y-510.203
X-306.918 Y-511.322
X-308.113 Y-512.478
X-309.271 Y-513.671
X-310.392 Y-514.9
X-311.473 Y-516.163
X-312.514 Y-517.459
X-313.514 Y-518.788
X-314.471 Y-520.147
X-315.385 Y-521.537
X-316.255 Y-522.954
X-317.08 Y-524.397
X-317.86 Y-525.866
X-318.593 Y-527.358
X-319.28 Y-528.872
X-319.92 Y-530.407
X-320.511 Y-531.961
X-321.053 Y-533.533
X-321.546 Y-535.121
X-321.988 Y-536.724
X-322.38 Y-538.34
X-322.721 Y-539.967
X-323.012 Y-541.605
X-323.251 Y-543.25
X-323.44 Y-544.902
X-323.578 Y-546.559
X-323.664 Y-548.22
X-323.697 Y-549.882
X-323.679 Y-551.545
X-323.608 Y-553.206
X-323.486 Y-554.864
X-323.312 Y-556.518
X-323.087 Y-558.165
X-322.811 Y-559.805
X-322.485 Y-561.435
X-322.108 Y-563.055
X-321.682 Y-564.662
X-321.205 Y-566.255
X-320.678 Y-567.832
X-320.103 Y-569.392
X-319.479 Y-570.933
X-318.808 Y-572.455
X-318.09 Y-573.954
X-317.326 Y-575.431
X-316.517 Y-576.884
X-315.663 Y-578.311
X-314.766 Y-579.711
X-313.825 Y-581.082
X-312.842 Y-582.423
X-311.818 Y-583.732
X-310.753 Y-585.01
X-309.649 Y-586.253
X-308.507 Y-587.462
X-307.329 Y-588.635
X-306.115 Y-589.771
X-304.867 Y-590.87
X-303.585 Y-591.929
X-302.271 Y-592.948
X-300.926 Y-593.925
X-299.55 Y-594.859
X-298.147 Y-595.751
X-296.716 Y-596.598
X-295.26 Y-597.401
X-293.78 Y-598.159
X-292.277 Y-598.871
X-290.754 Y-599.536
X-289.21 Y-600.154
X-287.648 Y-600.724
X-286.068 Y-601.244
X-284.474 Y-601.715
X-282.865 Y-602.136
X-281.244 Y-602.507
X-279.613 Y-602.828
X-277.972 Y-603.099
X-276.324 Y-603.319
X-274.67 Y-603.489
X-273.012 Y-603.608
X-271.35 Y-603.675
X-269.688 Y-603.69
X-268.025 Y-603.654
X-266.365 Y-603.566
X-264.708 Y-603.428
X-263.056 Y-603.239
X-261.41 Y-603
X-259.773 Y-602.711
X-258.145 Y-602.372
X-256.528 Y-601.984
X-254.924 Y-601.547
X-253.334 Y-601.061
X-251.76 Y-600.526
X-250.202 Y-599.943
X-248.663 Y-599.314
X-247.144 Y-598.639
X-245.645 Y-597.918
X-244.169 Y-597.154
X-242.716 Y-596.345
X-241.288 Y-595.493
X-239.886 Y-594.599
X-238.512 Y-593.663
X-237.166 Y-592.686
X-235.851 Y-591.669
X-234.566 Y-590.613
X-233.313 Y-589.52
X-232.094 Y-588.39
X-230.908 Y-587.224
X-229.757 Y-586.025
X-228.641 Y-584.791
X-227.563 Y-583.526
X-226.523 Y-582.228
X-225.522 Y-580.901
X-224.561 Y-579.544
X-223.641 Y-578.159
X-222.762 Y-576.747
X-221.925 Y-575.31
X-221.131 Y-573.849
X-220.38 Y-572.366
X-219.673 Y-570.861
X-219.01 Y-569.336
X-218.393 Y-567.792
X-217.822 Y-566.231
X-217.298 Y-564.652
X-216.822 Y-563.06
X-216.392 Y-561.453
X-216.011 Y-559.835
X-215.677 Y-558.206
X-215.391 Y-556.568
X-215.154 Y-554.922
X-214.965 Y-553.27
X-214.825 Y-551.613
X-214.735 Y-549.953
X-214.695 Y-548.291
X-214.704 Y-546.628
X-214.763 Y-544.966
X-214.872 Y-543.307
X-215.029 Y-541.652
X-215.236 Y-540.002
X-215.491 Y-538.359
X-215.794 Y-536.724
X-216.146 Y-535.099
X-216.546 Y-533.485
X-216.995 Y-531.884
X-217.491 Y-530.297
X-218.035 Y-528.726
X-218.626 Y-527.171
X-219.262 Y-525.635
X-219.943 Y-524.118
X-220.669 Y-522.623
X-221.439 Y-521.149
X-222.252 Y-519.698
X-223.108 Y-518.273
X-224.007 Y-516.874
X-224.947 Y-515.502
X-225.928 Y-514.16
X-226.948 Y-512.847
X-228.007 Y-511.565
X-229.103 Y-510.314
X-230.235 Y-509.097
X-231.403 Y-507.913
X-232.605 Y-506.765
X-233.841 Y-505.652
X-235.109 Y-504.577
X-236.409 Y-503.54
X-237.739 Y-502.542
X-239.099 Y-501.584
X-240.486 Y-500.667
X-241.899 Y-499.791
X-243.337 Y-498.957
X-244.799 Y-498.165
X-246.284 Y-497.416
X-247.79 Y-496.711
X-249.316 Y-496.051
X-250.861 Y-495.436
X-252.423 Y-494.867
X-254.002 Y-494.345
X-255.595 Y-493.869
X-257.201 Y-493.44
X-258.82 Y-493.058
X-260.448 Y-492.724
X-262.086 Y-492.436
X-263.731 Y-492.196
X-265.383 Y-492.004
X-267.04 Y-491.86
X-268.7 Y-491.765
X-270.362 Y-491.719
X-272.024 Y-491.722
X-273.686 Y-491.773
X-275.346 Y-491.872
X-277.002 Y-492.018
X-278.654 Y-492.213
X-280.299 Y-492.454
X-281.936 Y-492.743
X-283.565 Y-493.079
X-285.183 Y-493.462
X-286.789 Y-493.892
X-288.382 Y-494.369
X-289.96 Y-494.892
X-291.523 Y-495.46
X-293.069 Y-496.072
X-294.597 Y-496.729
X-296.105 Y-497.428
X-297.593 Y-498.171
X-299.059 Y-498.955
X-300.502 Y-499.781
X-301.92 Y-500.649
X-303.313 Y-501.558
X-304.679 Y-502.506
X-306.017 Y-503.493
X-307.326 Y-504.518
X-308.606 Y-505.58
X-309.855 Y-506.677
X-311.072 Y-507.81
X-312.257 Y-508.976
X-313.408 Y-510.176
X-314.525 Y-511.408
X-315.605 Y-512.672
X-316.649 Y-513.966
X-317.655 Y-515.29
X-318.623 Y-516.642
X-319.552 Y-518.021
X-320.442 Y-519.425
X-321.292 Y-520.855
X-322.101 Y-522.307
X-322.869 Y-523.782
X-323.595 Y-525.278
X-324.278 Y-526.794
X-324.917 Y-528.329
X-325.512 Y-529.882
X-326.063 Y-531.451
X-326.568 Y-533.035
X-327.029 Y-534.632
X-327.444 Y-536.242
X-327.814 Y-537.863
X-328.139 Y-539.494
X-328.417 Y-541.133
X-328.649 Y-542.78
X-328.834 Y-544.432
X-328.972 Y-546.089
X-329.062 Y-547.75
X-329.105 Y-549.412
X-329.101 Y-551.075
X-329.05 Y-552.737
X-328.953 Y-554.396
X-328.809 Y-556.053
X-328.618 Y-557.705
X-328.381 Y-559.351
X-328.099 Y-560.989
X-327.769 Y-562.619
X-327.393 Y-564.239
X-326.972 Y-565.847
X-326.504 Y-567.443
X-325.992 Y-569.025
X-325.436 Y-570.592
X-324.836 Y-572.142
X-324.192 Y-573.675
X-323.506 Y-575.19
X-322.778 Y-576.685
X-322.008 Y-578.159
X-321.197 Y-579.61
X-320.345 Y-581.038
X-319.452 Y-582.441
X-318.52 Y-583.818
X-317.549 Y-585.168
X-316.541 Y-586.49
X-315.496 Y-587.783
X-314.416 Y-589.047
X-313.3 Y-590.28
X-312.151 Y-591.482
X-310.968 Y-592.651
X-309.753 Y-593.785
X-308.506 Y-594.885
X-307.228 Y-595.949
X-305.92 Y-596.976
X-304.584 Y-597.966
X-303.221 Y-598.918
X-301.831 Y-599.831
X-300.417 Y-600.705
X-298.979 Y-601.54
X-297.518 Y-602.334
X-296.035 Y-603.087
X-294.532 Y-603.797
X-293.009 Y-604.464
X-291.468 Y-605.088
X-289.909 Y-605.668
X-288.335 Y-606.204
X-286.747 Y-606.695
X-285.145 Y-607.142
X-283.532 Y-607.544
X-281.908 Y-607.901
X-280.275 Y-608.213
X-278.633 Y-608.478
X-276.985 Y-608.697
X-275.331 Y-608.87
X-273.673 Y-608.995
X-272.012 Y-609.074
X-270.35 Y-609.106
X-268.687 Y-609.092
X-267.025 Y-609.031
X-265.366 Y-608.925
X-263.71 Y-608.773
X-262.059 Y-608.575
X-260.415 Y-608.331
X-258.777 Y-608.041
X-257.149 Y-607.706
X-255.53 Y-607.325
X-253.923 Y-606.899
X-252.328 Y-606.429
X-250.747 Y-605.915
X-249.18 Y-605.357
X-247.629 Y-604.758
X-246.096 Y-604.116
X-244.58 Y-603.432
X-243.083 Y-602.707
X-241.607 Y-601.942
X-240.153 Y-601.136
X-238.722 Y-600.29
X-237.314 Y-599.405
X-235.931 Y-598.482
X-234.573 Y-597.521
X-233.243 Y-596.524
X-231.939 Y-595.492
X-230.664 Y-594.425
X-229.418 Y-593.324
X-228.202 Y-592.19
X-227.018 Y-591.023
X-225.865 Y-589.824
X-224.746 Y-588.595
X-223.661 Y-587.335
X-222.61 Y-586.046
X-221.594 Y-584.73
X-220.615 Y-583.386
X-219.672 Y-582.017
X-218.765 Y-580.623
X-217.897 Y-579.205
X-217.066 Y-577.764
X-216.275 Y-576.302
X-215.523 Y-574.819
X-214.813 Y-573.315
X-214.143 Y-571.793
X-213.515 Y-570.254
X-212.929 Y-568.698
X-212.385 Y-567.126
X-211.884 Y-565.541
X-211.425 Y-563.943
X-211.009 Y-562.333
X-210.636 Y-560.713
X-210.307 Y-559.083
X-210.023 Y-557.445
X-209.783 Y-555.799
X-209.588 Y-554.148
X-209.438 Y-552.492
X-209.334 Y-550.832
X-209.274 Y-549.171
X-209.259 Y-547.508
X-209.289 Y-545.846
X-209.363 Y-544.185
X-209.482 Y-542.526
X-209.646 Y-540.871
X-209.854 Y-539.222
X-210.108 Y-537.578
X-210.406 Y-535.943
X-210.749 Y-534.316
X-211.137 Y-532.699
X-211.568 Y-531.093
X-212.042 Y-529.499
X-212.559 Y-527.919
X-213.119 Y-526.353
X-213.72 Y-524.803
X-214.363 Y-523.269
X-215.047 Y-521.754
X-215.773 Y-520.258
X-216.539 Y-518.782
X-217.345 Y-517.328
X-218.19 Y-515.896
X-219.075 Y-514.488
X-219.996 Y-513.104
X-220.955 Y-511.746
X-221.95 Y-510.414
X-222.981 Y-509.109
X-224.046 Y-507.832
X-225.145 Y-506.584
X-226.278 Y-505.367
X-227.443 Y-504.181
X-228.64 Y-503.027
X-229.869 Y-501.906
X-231.127 Y-500.819
X-232.414 Y-499.766
X-233.729 Y-498.748
X-235.07 Y-497.766
X-236.438 Y-496.82
X-237.83 Y-495.911
X-239.246 Y-495.039
X-240.685 Y-494.206
X-242.146 Y-493.412
X-243.628 Y-492.658
X-245.129 Y-491.944
X-246.65 Y-491.271
X-248.188 Y-490.64
X-249.742 Y-490.049
X-251.312 Y-489.5
X-252.895 Y-488.993
X-254.492 Y-488.528
X-256.1 Y-488.106
X-257.719 Y-487.726
X-259.347 Y-487.39
X-260.984 Y-487.098
X-262.628 Y-486.85
X-264.279 Y-486.646
X-265.934 Y-486.487
X-267.592 Y-486.371
X-269.254 Y-486.299
X-270.916 Y-486.271
X-272.579 Y-486.287
X-274.24 Y-486.347
X-275.9 Y-486.45
X-277.556 Y-486.598
X-279.208 Y-486.789
X-280.854 Y-487.025
X-282.493 Y-487.304
X-284.124 Y-487.626
X-285.746 Y-487.992
X-287.358 Y-488.4
X-288.959 Y-488.85
X-290.547 Y-489.342
X-292.122 Y-489.876
X-293.682 Y-490.45
X-295.227 Y-491.065
X-296.755 Y-491.721
X-298.265 Y-492.417
X-299.757 Y-493.152
X-301.228 Y-493.927
X-302.678 Y-494.74
X-304.107 Y-495.59
X-305.513 Y-496.478
X-306.895 Y-497.403
X-308.253 Y-498.363
X-309.585 Y-499.358
X-310.891 Y-500.387
X-312.17 Y-501.449
X-313.42 Y-502.545
X-314.641 Y-503.674
X-315.832 Y-504.834
X-316.992 Y-506.025
X-318.121 Y-507.246
X-319.218 Y-508.496
X-320.281 Y-509.774
X-321.311 Y-511.08
X-322.307 Y-512.411
X-323.268 Y-513.768
X-324.194 Y-515.149
X-325.084 Y-516.554
X-325.936 Y-517.981
X-326.751 Y-519.431
X-327.528 Y-520.901
X-328.266 Y-522.391
X-328.965 Y-523.9
X-329.624 Y-525.426
X-330.244 Y-526.969
X-330.824 Y-528.527
X-331.363 Y-530.1
X-331.862 Y-531.687
X-332.32 Y-533.285
X-332.736 Y-534.895
X-333.11 Y-536.515
X-333.441 Y-538.144
X-333.73 Y-539.782
X-333.976 Y-541.426
X-334.18 Y-543.077
X-334.34 Y-544.732
X-334.458 Y-546.39
X-334.533 Y-548.051
X-334.566 Y-549.714
X-334.555 Y-551.376
X-334.502 Y-553.038
X-334.406 Y-554.698
X-334.267 Y-556.355
X-334.085 Y-558.008
X-333.859 Y-559.655
X-333.591 Y-561.296
X-333.281 Y-562.93
X-332.929 Y-564.555
X-332.534 Y-566.17
X-332.099 Y-567.775
X-331.622 Y-569.368
X-331.105 Y-570.948
X-330.547 Y-572.514
X-329.949 Y-574.066
X-329.311 Y-575.601
X-328.633 Y-577.12
X-327.916 Y-578.62
X-327.16 Y-580.101
X-326.367 Y-581.562
X-325.536 Y-583.002
X-324.668 Y-584.42
X-323.764 Y-585.816
X-322.824 Y-587.188
X-321.85 Y-588.535
X-320.841 Y-589.857
X-319.799 Y-591.153
X-318.723 Y-592.421
X-317.615 Y-593.66
X-316.475 Y-594.87
X-315.304 Y-596.051
X-314.103 Y-597.201
X-312.873 Y-598.32
X-311.614 Y-599.406
X-310.328 Y-600.46
X-309.016 Y-601.481
X-307.677 Y-602.468
X-306.314 Y-603.42
X-304.927 Y-604.336
X-303.516 Y-605.217
X-302.083 Y-606.06
X-300.629 Y-606.866
X-299.154 Y-607.634
X-297.66 Y-608.364
X-296.148 Y-609.055
X-294.618 Y-609.707
X-293.073 Y-610.32
X-291.512 Y-610.893
X-289.937 Y-611.426
X-288.349 Y-611.918
X-286.748 Y-612.369
X-285.137 Y-612.779
X-283.515 Y-613.147
X-281.884 Y-613.472
X-280.246 Y-613.756
X-278.601 Y-613.997
X-276.95 Y-614.196
X-275.295 Y-614.353
X-273.636 Y-614.468
X-271.975 Y-614.54
X-270.312 Y-614.57
X-268.65 Y-614.557
X-266.988 Y-614.502
X-265.328 Y-614.404
X-263.671 Y-614.263
X-262.018 Y-614.08
X-260.371 Y-613.855
X-258.73 Y-613.588
X-257.096 Y-613.279
X-255.471 Y-612.93
X-253.854 Y-612.539
X-252.249 Y-612.107
X-250.654 Y-611.635
X-249.072 Y-611.123
X-247.504 Y-610.571
X-245.95 Y-609.979
X-244.412 Y-609.348
X-242.89 Y-608.678
X-241.385 Y-607.971
X-239.899 Y-607.225
X-238.432 Y-606.443
X-236.985 Y-605.623
X-235.559 Y-604.769
X-234.154 Y-603.878
X-232.772 Y-602.954
X-231.414 Y-601.995
X-230.08 Y-601.002
X-228.772 Y-599.976
X-227.489 Y-598.917
X-226.234 Y-597.827
X-225.006 Y-596.706
X-223.806 Y-595.555
X-222.635 Y-594.374
X-221.494 Y-593.165
X-220.384 Y-591.927
X-219.304 Y-590.663
X-218.255 Y-589.372
X-217.239 Y-588.056
X-216.257 Y-586.715
X-215.307 Y-585.35
X-214.392 Y-583.961
X-213.512 Y-582.551
X-212.667 Y-581.119
X-211.858 Y-579.666
X-211.085 Y-578.194
X-210.349 Y-576.703
X-209.65 Y-575.194
X-208.988 Y-573.669
X-208.364 Y-572.128
X-207.779 Y-570.571
X-207.232 Y-569.001
X-206.725 Y-567.418
X-206.257 Y-565.822
X-205.828 Y-564.215
X-205.44 Y-562.599
X-205.093 Y-560.973
X-204.785 Y-559.339
X-204.519 Y-557.697
X-204.293 Y-556.05
X-204.107 Y-554.398
X-203.963 Y-552.741
X-203.86 Y-551.082
X-203.798 Y-549.42
X-203.777 Y-547.757
X-203.798 Y-546.095
X-203.861 Y-544.433
X-203.965 Y-542.774
X-204.11 Y-541.117
X-204.297 Y-539.465
X-204.524 Y-537.818
X-204.792 Y-536.177
X-205.101 Y-534.543
X-205.45 Y-532.917
X-205.84 Y-531.301
X-206.269 Y-529.695
X-206.739 Y-528.1
X-207.248 Y-526.517
X-207.797 Y-524.947
X-208.385 Y-523.392
X-209.011 Y-521.851
X-209.675 Y-520.327
X-210.378 Y-518.82
X-211.117 Y-517.331
X-211.893 Y-515.86
X-212.705 Y-514.409
X-213.553 Y-512.979
X-214.437 Y-511.57
X-215.355 Y-510.184
X-216.307 Y-508.821
X-217.294 Y-507.483
X-218.313 Y-506.169
X-219.365 Y-504.881
X-220.448 Y-503.619
X-221.562 Y-502.385
X-222.707 Y-501.179
X-223.881 Y-500.002
X-225.083 Y-498.854
X-226.314 Y-497.735
X-227.572 Y-496.648
X-228.857 Y-495.592
X-230.167 Y-494.569
X-231.503 Y-493.579
X-232.862 Y-492.621
X-234.245 Y-491.698
X-235.651 Y-490.809
X-237.077 Y-489.956
X-238.525 Y-489.137
X-239.992 Y-488.355
X-241.478 Y-487.609
X-242.982 Y-486.899
X-244.503 Y-486.227
X-246.039 Y-485.593
X-247.592 Y-484.996
X-249.158 Y-484.438
X-250.738 Y-483.919
X-252.33 Y-483.439
X-253.933 Y-482.998
X-255.546 Y-482.597
X-257.169 Y-482.235
X-258.801 Y-481.913
X-260.439 Y-481.631
X-262.084 Y-481.39
X-263.735 Y-481.188
X-265.39 Y-481.026
X-267.048 Y-480.906
X-268.709 Y-480.826
X-270.371 Y-480.787
X-272.034 Y-480.788
X-273.696 Y-480.83
X-275.357 Y-480.913
X-277.015 Y-481.035
X-278.67 Y-481.199
X-280.32 Y-481.402
X-281.965 Y-481.645
X-283.604 Y-481.928
X-285.235 Y-482.25
X-286.858 Y-482.613
X-288.471 Y-483.014
X-290.074 Y-483.455
X-291.666 Y-483.935
X-293.246 Y-484.453
X-294.813 Y-485.009
X-296.366 Y-485.603
X-297.905 Y-486.234
X-299.427 Y-486.902
X-300.933 Y-487.607
X-302.422 Y-488.348
X-303.892 Y-489.124
X-305.343 Y-489.936
X-306.774 Y-490.783
X-308.185 Y-491.664
X-309.573 Y-492.579
X-310.939 Y-493.527
X-312.282 Y-494.507
X-313.6 Y-495.52
X-314.895 Y-496.564
X-316.163 Y-497.639
X-317.405 Y-498.744
X-318.621 Y-499.879
X-319.809 Y-501.042
X-320.969 Y-502.233
X-322.1 Y-503.453
X-323.201 Y-504.699
X-324.271 Y-505.971
X-325.311 Y-507.268
X-326.32 Y-508.59
X-327.296 Y-509.936
X-328.24 Y-511.305
X-329.151 Y-512.696
X-330.028 Y-514.108
X-330.872 Y-515.541
X-331.681 Y-516.994
X-332.455 Y-518.466
X-333.194 Y-519.955
X-333.896 Y-521.462
X-334.562 Y-522.986
X-335.192 Y-524.525
X-335.784 Y-526.078
X-336.34 Y-527.646
X-336.857 Y-529.226
X-337.337 Y-530.818
X-337.779 Y-532.421
X-338.182 Y-534.034
X-338.547 Y-535.656
X-338.873 Y-537.287
X-339.16 Y-538.924
X-339.408 Y-540.569
X-339.617 Y-542.218
X-339.786 Y-543.872
X-339.915 Y-545.53
X-340.005 Y-547.19
X-340.055 Y-548.852
X-340.065 Y-550.515
X-340.036 Y-552.178
X-339.968 Y-553.839
X-339.86 Y-555.498
X-339.712 Y-557.154
X-339.526 Y-558.807
X-339.3 Y-560.454
X-339.035 Y-562.095
X-338.73 Y-563.73
X-338.387 Y-565.357
X-338.004 Y-566.975
X-337.584 Y-568.584
X-337.125 Y-570.182
X-336.629 Y-571.769
X-336.095 Y-573.344
X-335.523 Y-574.905
X-334.915 Y-576.453
X-334.27 Y-577.985
X-333.59 Y-579.502
X-332.873 Y-581.003
X-332.121 Y-582.485
X-331.333 Y-583.95
X-330.51 Y-585.395
X-329.654 Y-586.82
X-328.764 Y-588.225
X-327.841 Y-589.607
X-326.885 Y-590.968
X-325.897 Y-592.306
X-324.878 Y-593.619
X-323.828 Y-594.909
X-322.747 Y-596.173
X-321.638 Y-597.411
X-320.499 Y-598.622
X-319.331 Y-599.806
X-318.135 Y-600.961
X-316.912 Y-602.088
X-315.663 Y-603.185
X-314.388 Y-604.253
X-313.088 Y-605.289
X-311.764 Y-606.295
X-310.416 Y-607.269
X-309.046 Y-608.211
X-307.654 Y-609.12
X-306.241 Y-609.996
X-304.807 Y-610.838
X-303.354 Y-611.646
X-301.882 Y-612.419
X-300.391 Y-613.157
X-298.884 Y-613.859
X-297.36 Y-614.524
X-295.821 Y-615.154
X-294.268 Y-615.747
X-292.701 Y-616.303
X-291.121 Y-616.822
X-289.53 Y-617.303
X-287.927 Y-617.747
X-286.315 Y-618.153
X-284.693 Y-618.52
X-283.063 Y-618.849
X-281.426 Y-619.139
X-279.782 Y-619.389
X-278.133 Y-619.601
X-276.479 Y-619.774
X-274.822 Y-619.907
X-273.162 Y-620.002
X-271.5 Y-620.057
X-269.837 Y-620.073
X-268.175 Y-620.05
X-266.513 Y-619.988
X-264.853 Y-619.887
X-263.196 Y-619.747
X-261.543 Y-619.568
X-259.895 Y-619.35
X-258.252 Y-619.093
X-256.616 Y-618.797
X-254.987 Y-618.463
X-253.366 Y-618.091
X-251.755 Y-617.682
X-250.153 Y-617.234
X-248.563 Y-616.75
X-246.984 Y-616.229
X-245.417 Y-615.671
X-243.864 Y-615.077
X-242.326 Y-614.447
X-240.802 Y-613.781
X-239.294 Y-613.08
X-237.804 Y-612.344
X-236.33 Y-611.573
X-234.875 Y-610.768
X-233.439 Y-609.93
X-232.023 Y-609.059
X-230.627 Y-608.156
X-229.252 Y-607.22
X-227.899 Y-606.253
X-226.569 Y-605.256
X-225.262 Y-604.228
X-223.979 Y-603.17
X-222.721 Y-602.083
X-221.489 Y-600.967
X-220.282 Y-599.823
X-219.102 Y-598.651
X-217.95 Y-597.453
X-216.825 Y-596.228
X-215.729 Y-594.978
X-214.661 Y-593.703
X-213.623 Y-592.404
X-212.615 Y-591.082
X-211.637 Y-589.737
X-210.691 Y-588.37
X-209.776 Y-586.982
X-208.893 Y-585.573
X-208.043 Y-584.144
X-207.226 Y-582.695
X-206.442 Y-581.229
X-205.692 Y-579.745
X-204.977 Y-578.244
X-204.295 Y-576.727
X-203.649 Y-575.195
X-203.038 Y-573.649
X-202.462 Y-572.089
X-201.923 Y-570.516
X-201.419 Y-568.932
X-200.951 Y-567.336
X-200.521 Y-565.73
X-200.127 Y-564.114
X-199.771 Y-562.49
X-199.452 Y-560.858
X-199.171 Y-559.219
X-198.928 Y-557.575
X-198.722 Y-555.925
X-198.554 Y-554.27
X-198.424 Y-552.613
X-198.332 Y-550.952
X-198.278 Y-549.291
X-198.262 Y-547.628
X-198.284 Y-545.965
X-198.344 Y-544.304
X-198.443 Y-542.644
X-198.58 Y-540.987
X-198.756 Y-539.333
X-198.969 Y-537.684
X-199.22 Y-536.041
X-199.509 Y-534.403
X-199.835 Y-532.773
X-200.199 Y-531.15
X-200.599 Y-529.536
X-201.037 Y-527.932
X-201.511 Y-526.339
X-202.022 Y-524.756
X-202.568 Y-523.186
X-203.152 Y-521.629
X-203.771 Y-520.086
X-204.425 Y-518.557
X-205.115 Y-517.044
X-205.839 Y-515.547
X-206.597 Y-514.067
X-207.389 Y-512.605
X-208.214 Y-511.162
X-209.072 Y-509.738
X-209.963 Y-508.333
X-210.885 Y-506.95
X-211.839 Y-505.588
X-212.824 Y-504.248
X-213.839 Y-502.932
X-214.885 Y-501.639
X-215.961 Y-500.371
X-217.065 Y-499.127
X-218.197 Y-497.91
X-219.357 Y-496.718
X-220.544 Y-495.554
X-221.757 Y-494.417
X-222.996 Y-493.308
X-224.259 Y-492.227
X-225.547 Y-491.176
X-226.859 Y-490.154
X-228.194 Y-489.162
X-229.551 Y-488.201
X-230.93 Y-487.272
X-232.33 Y-486.375
X-233.75 Y-485.51
X-235.189 Y-484.678
X-236.647 Y-483.878
X-238.123 Y-483.112
X-239.616 Y-482.38
X-241.125 Y-481.682
X-242.65 Y-481.019
X-244.189 Y-480.39
X-245.742 Y-479.796
X-247.308 Y-479.237
X-248.887 Y-478.715
X-250.477 Y-478.228
X-252.077 Y-477.778
X-253.688 Y-477.365
X-255.307 Y-476.988
X-256.935 Y-476.648
X-258.57 Y-476.345
X-260.211 Y-476.079
X-261.858 Y-475.851
X-263.51 Y-475.659
X-265.166 Y-475.505
X-266.824 Y-475.387
X-268.485 Y-475.308
X-270.147 Y-475.266
X-271.81 Y-475.261
X-273.472 Y-475.295
X-275.134 Y-475.366
X-276.793 Y-475.475
X-278.449 Y-475.621
X-280.102 Y-475.804
X-281.75 Y-476.024
X-283.393 Y-476.281
X-285.029 Y-476.575
X-286.659 Y-476.905
X-288.281 Y-477.272
X-289.894 Y-477.675
X-291.497 Y-478.115
X-293.091 Y-478.59
X-294.673 Y-479.101
X-296.243 Y-479.648
X-297.801 Y-480.229
X-299.345 Y-480.846
X-300.875 Y-481.497
X-302.391 Y-482.182
X-303.89 Y-482.9
X-305.373 Y-483.652
X-306.839 Y-484.437
X-308.287 Y-485.254
X-309.717 Y-486.103
X-311.127 Y-486.984
X-312.517 Y-487.896
X-313.887 Y-488.839
X-315.235 Y-489.812
X-316.56 Y-490.816
X-317.863 Y-491.849
X-319.143 Y-492.91
X-320.399 Y-494
X-321.63 Y-495.118
X-322.836 Y-496.262
X-324.017 Y-497.433
X-325.171 Y-498.63
X-326.299 Y-499.852
X-327.399 Y-501.099
X-328.471 Y-502.37
X-329.514 Y-503.665
X-330.528 Y-504.982
X-331.513 Y-506.322
X-332.467 Y-507.684
X-333.392 Y-509.066
X-334.285 Y-510.468
X-335.147 Y-511.89
X-335.977 Y-513.331
X-336.775 Y-514.79
X-337.541 Y-516.266
X-338.274 Y-517.758
X-338.973 Y-519.266
X-339.64 Y-520.79
X-340.272 Y-522.328
X-340.87 Y-523.879
X-341.433 Y-525.444
X-341.961 Y-527.02
X-342.454 Y-528.608
X-342.912 Y-530.207
X-343.335 Y-531.815
X-343.722 Y-533.432
X-344.073 Y-535.057
X-344.388 Y-536.69
X-344.667 Y-538.329
X-344.91 Y-539.974
X-345.117 Y-541.624
X-345.287 Y-543.278
X-345.421 Y-544.935
X-345.517 Y-546.595
X-345.577 Y-548.257
X-345.6 Y-549.919
X-345.586 Y-551.582
X-345.535 Y-553.244
X-345.448 Y-554.904
X-345.325 Y-556.563
X-345.164 Y-558.218
X-344.968 Y-559.869
X-344.735 Y-561.515
X-344.466 Y-563.156
X-344.161 Y-564.79
X-343.82 Y-566.418
X-343.443 Y-568.037
X-343.03 Y-569.648
X-342.581 Y-571.249
X-342.098 Y-572.84
X-341.579 Y-574.42
X-341.026 Y-575.988
X-340.438 Y-577.543
X-339.816 Y-579.085
X-339.16 Y-580.613
X-338.471 Y-582.127
X-337.749 Y-583.624
X-336.995 Y-585.106
X-336.208 Y-586.571
X-335.388 Y-588.018
X-334.537 Y-589.446
X-333.654 Y-590.855
X-332.741 Y-592.244
X-331.797 Y-593.613
X-330.823 Y-594.961
X-329.82 Y-596.287
X-328.787 Y-597.59
X-327.727 Y-598.871
X-326.638 Y-600.128
X-325.523 Y-601.361
X-324.38 Y-602.569
X-323.211 Y-603.751
X-322.017 Y-604.908
X-320.797 Y-606.038
X-319.552 Y-607.141
X-318.284 Y-608.215
X-316.992 Y-609.262
X-315.677 Y-610.28
X-314.34 Y-611.269
X-312.982 Y-612.228
X-311.603 Y-613.157
X-310.204 Y-614.056
X-308.786 Y-614.923
X-307.348 Y-615.76
X-305.893 Y-616.564
X-304.421 Y-617.337
X-302.932 Y-618.077
X-301.427 Y-618.784
X-299.907 Y-619.457
X-298.372 Y-620.096
X-296.823 Y-620.702
X-295.262 Y-621.274
X-293.688 Y-621.811
X-292.103 Y-622.313
X-290.507 Y-622.781
X-288.902 Y-623.213
X-287.287 Y-623.61
X-285.664 Y-623.972
X-284.034 Y-624.298
X-282.397 Y-624.589
X-280.754 Y-624.843
X-279.105 Y-625.061
X-277.452 Y-625.243
X-275.796 Y-625.388
X-274.137 Y-625.497
X-272.476 Y-625.569
X-270.813 Y-625.606
X-269.151
X-267.488 Y-625.57
X-265.827 Y-625.497
X-264.168 Y-625.388
X-262.511 Y-625.244
X-260.858 Y-625.063
X-259.21 Y-624.847
X-257.566 Y-624.594
X-255.929 Y-624.305
X-254.298 Y-623.981
X-252.675 Y-623.621
X-251.06 Y-623.226
X-249.453 Y-622.796
X-247.857 Y-622.332
X-246.271 Y-621.833
X-244.696 Y-621.3
X-243.132 Y-620.733
X-241.582 Y-620.133
X-240.045 Y-619.499
X-238.521 Y-618.832
X-237.013 Y-618.133
X-235.52 Y-617.401
X-234.043 Y-616.637
X-232.583 Y-615.841
X-231.141 Y-615.014
X-229.717 Y-614.156
X-228.311 Y-613.268
X-226.925 Y-612.349
X-225.558 Y-611.402
X-224.213 Y-610.425
X-222.888 Y-609.42
X-221.585 Y-608.387
X-220.305 Y-607.326
X-219.048 Y-606.238
X-217.814 Y-605.124
X-216.604 Y-603.983
X-215.419 Y-602.816
X-214.259 Y-601.625
X-213.125 Y-600.409
X-212.018 Y-599.168
X-210.937 Y-597.905
X-209.883 Y-596.619
X-208.857 Y-595.311
X-207.858 Y-593.981
X-206.888 Y-592.63
X-205.948 Y-591.259
X-205.036 Y-589.869
X-204.154 Y-588.459
X-203.303 Y-587.031
X-202.482 Y-585.585
X-201.692 Y-584.122
X-200.934 Y-582.642
X-200.207 Y-581.146
X-199.513 Y-579.635
X-198.851 Y-578.11
X-198.221 Y-576.571
X-197.624 Y-575.019
X-197.06 Y-573.455
X-196.53 Y-571.879
X-196.033 Y-570.292
X-195.57 Y-568.695
X-195.141 Y-567.089
X-194.746 Y-565.474
X-194.386 Y-563.851
X-194.061 Y-562.22
X-193.771 Y-560.583
X-193.516 Y-558.94
X-193.296 Y-557.292
X-193.111 Y-555.639
X-192.961 Y-553.983
X-192.846 Y-552.324
X-192.767 Y-550.663
X-192.723 Y-549.001
X-192.715 Y-547.339
X-192.742 Y-545.676
X-192.804 Y-544.014
X-192.902 Y-542.354
X-193.035 Y-540.697
X-193.204 Y-539.043
X-193.408 Y-537.393
X-193.648 Y-535.747
X-193.922 Y-534.107
X-194.232 Y-532.474
X-194.576 Y-530.847
X-194.955 Y-529.228
X-195.368 Y-527.617
X-195.816 Y-526.016
X-196.297 Y-524.424
X-196.812 Y-522.844
X-197.361 Y-521.274
X-197.943 Y-519.716
X-198.558 Y-518.172
X-199.207 Y-516.641
X-199.888 Y-515.124
X-200.602 Y-513.622
X-201.347 Y-512.136
X-202.124 Y-510.666
X-202.932 Y-509.213
X-203.771 Y-507.777
X-204.64 Y-506.359
X-205.539 Y-504.961
X-206.468 Y-503.582
X-207.426 Y-502.222
X-208.413 Y-500.884
X-209.427 Y-499.567
X-210.47 Y-498.272
X-211.54 Y-496.999
X-212.638 Y-495.75
X-213.762 Y-494.524
X-214.911 Y-493.323
X-216.086 Y-492.147
X-217.286 Y-490.995
X-218.51 Y-489.87
X-219.757 Y-488.77
X-221.028 Y-487.698
X-222.32 Y-486.652
X-223.635 Y-485.634
X-224.971 Y-484.644
X-226.328 Y-483.683
X-227.705 Y-482.751
X-229.101 Y-481.848
X-230.517 Y-480.976
X-231.951 Y-480.134
X-233.402 Y-479.322
X-234.87 Y-478.542
X-236.354 Y-477.792
X-237.854 Y-477.074
X-239.369 Y-476.388
X-240.897 Y-475.734
X-242.439 Y-475.112
X-243.994 Y-474.523
X-245.561 Y-473.967
X-247.14 Y-473.444
X-248.729 Y-472.955
X-250.328 Y-472.499
X-251.936 Y-472.078
X-253.553 Y-471.691
X-255.178 Y-471.338
X-256.81 Y-471.019
X-258.449 Y-470.734
X-260.092 Y-470.485
X-261.741 Y-470.269
X-263.394 Y-470.088
X-265.05 Y-469.942
X-266.709 Y-469.831
X-268.37 Y-469.754
X-270.033 Y-469.713
X-271.695 Y-469.706
X-273.358 Y-469.734
X-275.019 Y-469.797
X-276.679 Y-469.896
X-278.337 Y-470.029
X-279.991 Y-470.197
X-281.641 Y-470.399
X-283.287 Y-470.636
X-284.928 Y-470.908
X-286.562 Y-471.213
X-288.19 Y-471.552
X-289.81 Y-471.925
X-291.422 Y-472.332
X-293.026 Y-472.772
X-294.62 Y-473.246
X-296.203 Y-473.753
X-297.776 Y-474.293
X-299.337 Y-474.866
X-300.885 Y-475.471
X-302.421 Y-476.109
X-303.943 Y-476.779
X-305.451 Y-477.479
X-306.944 Y-478.212
X-308.421 Y-478.974
X-309.882 Y-479.768
X-311.327 Y-480.591
X-312.754 Y-481.444
X-314.163 Y-482.327
X-315.554 Y-483.239
X-316.925 Y-484.179
X-318.276 Y-485.148
X-319.607 Y-486.145
X-320.917 Y-487.169
X-322.205 Y-488.22
X-323.471 Y-489.298
X-324.715 Y-490.402
X-325.935 Y-491.531
X-327.132 Y-492.686
X-328.305 Y-493.864
X-329.453 Y-495.067
X-330.576 Y-496.293
X-331.674 Y-497.542
X-332.745 Y-498.813
X-333.79 Y-500.107
X-334.808 Y-501.421
X-335.799 Y-502.757
X-336.761 Y-504.113
X-337.695 Y-505.489
X-338.601 Y-506.883
X-339.477 Y-508.296
X-340.324 Y-509.727
X-341.142 Y-511.175
X-341.929 Y-512.639
X-342.687 Y-514.12
X-343.413 Y-515.615
X-344.109 Y-517.125
X-344.773 Y-518.65
X-345.406 Y-520.187
X-346.008 Y-521.737
X-346.576 Y-523.3
X-347.113 Y-524.874
X-347.616 Y-526.458
X-348.087 Y-528.053
X-348.525 Y-529.657
X-348.929 Y-531.27
X-349.301 Y-532.891
X-349.639 Y-534.519
X-349.943 Y-536.153
X-350.214 Y-537.794
X-350.452 Y-539.44
X-350.655 Y-541.09
X-350.825 Y-542.744
X-350.96 Y-544.401
X-351.061 Y-546.061
X-351.128 Y-547.722
X-351.161 Y-549.385
X-351.159 Y-551.047
X-351.123 Y-552.71
X-351.052 Y-554.371
X-350.948 Y-556.031
X-350.809 Y-557.688
X-350.637 Y-559.341
X-350.431 Y-560.991
X-350.191 Y-562.637
X-349.918 Y-564.277
X-349.611 Y-565.911
X-349.27 Y-567.538
X-348.896 Y-569.159
X-348.489 Y-570.771
X-348.048 Y-572.374
X-347.575 Y-573.968
X-347.069 Y-575.552
X-346.53 Y-577.125
X-345.959 Y-578.686
X-345.356 Y-580.236
X-344.722 Y-581.773
X-344.056 Y-583.297
X-343.36 Y-584.807
X-342.632 Y-586.302
X-341.874 Y-587.782
X-341.086 Y-589.246
X-340.269 Y-590.694
X-339.421 Y-592.124
X-338.544 Y-593.537
X-337.638 Y-594.931
X-336.704 Y-596.307
X-335.742 Y-597.663
X-334.752 Y-598.999
X-333.734 Y-600.314
X-332.69 Y-601.608
X-331.62 Y-602.881
X-330.525 Y-604.131
X-329.403 Y-605.359
X-328.257 Y-606.564
X-327.087 Y-607.745
X-325.892 Y-608.902
X-324.675 Y-610.034
X-323.434 Y-611.14
X-322.17 Y-612.221
X-320.884 Y-613.276
X-319.578 Y-614.304
X-318.25 Y-615.305
X-316.902 Y-616.278
X-315.534 Y-617.224
X-314.147 Y-618.141
X-312.742 Y-619.03
X-311.319 Y-619.891
X-309.879 Y-620.721
X-308.422 Y-621.523
X-306.949 Y-622.294
X-305.461 Y-623.035
X-303.957 Y-623.746
X-302.44 Y-624.425
X-300.908 Y-625.073
X-299.364 Y-625.689
X-297.807 Y-626.273
X-296.239 Y-626.826
X-294.66 Y-627.346
X-293.07 Y-627.834
X-291.471 Y-628.289
X-289.863 Y-628.712
X-288.246 Y-629.101
X-286.622 Y-629.458
X-284.991 Y-629.782
X-283.354 Y-630.072
X-281.711 Y-630.329
X-280.064 Y-630.552
X-278.412 Y-630.741
X-276.756 Y-630.896
X-275.098 Y-631.017
X-273.437 Y-631.104
X-271.775 Y-631.158
X-270.113 Y-631.177
X-268.45 Y-631.163
X-266.788 Y-631.115
X-265.127 Y-631.034
X-263.469 Y-630.918
X-261.812 Y-630.769
X-260.16 Y-630.587
X-258.511 Y-630.371
X-256.867 Y-630.122
X-255.229 Y-629.839
X-253.596 Y-629.523
X-251.97 Y-629.174
X-250.352 Y-628.792
X-248.742 Y-628.377
X-247.141 Y-627.929
X-245.549 Y-627.45
X-243.967 Y-626.938
X-242.395 Y-626.395
X-240.835 Y-625.82
X-239.286 Y-625.214
X-237.75 Y-624.577
X-236.228 Y-623.91
X-234.718 Y-623.212
X-233.224 Y-622.483
X-231.744 Y-621.725
X-230.28 Y-620.937
X-228.832 Y-620.119
X-227.401 Y-619.273
X-225.987 Y-618.398
X-224.591 Y-617.495
X-223.213 Y-616.564
X-221.854 Y-615.605
X-220.515 Y-614.62
X-219.195 Y-613.609
X-217.896 Y-612.571
X-216.617 Y-611.508
X-215.36 Y-610.42
X-214.125 Y-609.306
X-212.913 Y-608.169
X-211.723 Y-607.007
X-210.557 Y-605.821
X-209.415 Y-604.613
X-208.298 Y-603.381
X-207.205 Y-602.128
X-206.137 Y-600.854
X-205.095 Y-599.558
X-204.079 Y-598.242
X-203.089 Y-596.906
X-202.126 Y-595.551
X-201.189 Y-594.177
X-200.281 Y-592.784
X-199.399 Y-591.374
X-198.547 Y-589.947
X-197.722 Y-588.503
X-196.927 Y-587.042
X-196.161 Y-585.567
X-195.425 Y-584.076
X-194.718 Y-582.57
X-194.042 Y-581.051
X-193.396 Y-579.519
X-192.781 Y-577.975
X-192.196 Y-576.418
X-191.642 Y-574.85
X-191.119 Y-573.272
X-190.628 Y-571.684
X-190.168 Y-570.086
X-189.74 Y-568.479
X-189.343 Y-566.864
X-188.98 Y-565.242
X-188.648 Y-563.612
X-188.35 Y-561.977
X-188.084 Y-560.335
X-187.851 Y-558.689
X-187.651 Y-557.038
X-187.483 Y-555.384
X-187.349 Y-553.727
X-187.247 Y-552.067
X-187.178 Y-550.406
X-187.143 Y-548.743
X-187.14 Y-547.08
X-187.17 Y-545.418
X-187.233 Y-543.756
X-187.329 Y-542.096
X-187.459 Y-540.439
X-187.621 Y-538.784
X-187.817 Y-537.133
X-188.046 Y-535.486
X-188.308 Y-533.844
X-188.602 Y-532.207
X-188.929 Y-530.577
X-189.288 Y-528.953
X-189.679 Y-527.337
X-190.102 Y-525.729
X-190.557 Y-524.13
X-191.044 Y-522.54
X-191.563 Y-520.96
X-192.112 Y-519.391
X-192.693 Y-517.833
X-193.304 Y-516.287
X-193.947 Y-514.753
X-194.62 Y-513.233
X-195.324 Y-511.726
X-196.057 Y-510.234
X-196.82 Y-508.757
X-197.613 Y-507.295
X-198.434 Y-505.849
X-199.284 Y-504.42
X-200.162 Y-503.008
X-201.067 Y-501.613
X-202.001 Y-500.237
X-202.961 Y-498.88
X-203.948 Y-497.542
X-204.962 Y-496.224
X-206.001 Y-494.926
X-207.066 Y-493.649
X-208.157 Y-492.394
X-209.273 Y-491.161
X-210.413 Y-489.951
X-211.576 Y-488.763
X-212.764 Y-487.599
X-213.973 Y-486.458
X-215.206 Y-485.342
X-216.46 Y-484.25
X-217.735 Y-483.183
X-219.032 Y-482.142
X-220.348 Y-481.127
X-221.685 Y-480.137
X-223.04 Y-479.175
X-224.415 Y-478.239
X-225.808 Y-477.331
X-227.219 Y-476.451
X-228.647 Y-475.6
X-230.092 Y-474.776
X-231.552 Y-473.982
X-233.028 Y-473.217
X-234.519 Y-472.48
X-236.024 Y-471.774
X-237.543 Y-471.097
X-239.075 Y-470.45
X-240.619 Y-469.834
X-242.175 Y-469.247
X-243.742 Y-468.692
X-245.32 Y-468.168
X-246.908 Y-467.674
X-248.506 Y-467.213
X-250.112 Y-466.783
X-251.726 Y-466.386
X-253.348 Y-466.02
X-254.977 Y-465.686
X-256.612 Y-465.384
X-258.253 Y-465.115
X-259.899 Y-464.877
X-261.549 Y-464.672
X-263.203 Y-464.499
X-264.86 Y-464.359
X-266.519 Y-464.251
X-268.18 Y-464.175
X-269.842 Y-464.132
X-271.505 Y-464.122
X-273.167 Y-464.145
X-274.829 Y-464.2
X-276.49 Y-464.288
X-278.148 Y-464.409
X-279.804 Y-464.562
X-281.456 Y-464.747
X-283.104 Y-464.965
X-284.748 Y-465.215
X-286.387 Y-465.496
X-288.02 Y-465.81
X-289.646 Y-466.155
X-291.266 Y-466.532
X-292.878 Y-466.941
X-294.481 Y-467.38
X-296.076 Y-467.851
X-297.661 Y-468.353
X-299.236 Y-468.886
X-300.8 Y-469.45
X-302.353 Y-470.044
X-303.894 Y-470.669
X-305.423 Y-471.323
X-306.939 Y-472.007
X-308.441 Y-472.72
X-309.928 Y-473.463
X-311.402 Y-474.233
X-312.86 Y-475.033
X-314.302 Y-475.86
X-315.728 Y-476.715
X-317.137 Y-477.598
X-318.529 Y-478.508
X-319.903 Y-479.444
X-321.258 Y-480.408
X-322.594 Y-481.397
X-323.911 Y-482.413
X-325.207 Y-483.454
X-326.484 Y-484.52
X-327.739 Y-485.61
X-328.973 Y-486.725
X-330.185 Y-487.863
X-331.375 Y-489.024
X-332.542 Y-490.208
X-333.687 Y-491.414
X-334.808 Y-492.642
X-335.905 Y-493.892
X-336.978 Y-495.162
X-338.025 Y-496.453
X-339.048 Y-497.764
X-340.045 Y-499.095
X-341.016 Y-500.445
X-341.96 Y-501.814
X-342.878 Y-503.2
X-343.768 Y-504.604
X-344.632 Y-506.025
X-345.468 Y-507.463
X-346.276 Y-508.916
X-347.056 Y-510.384
X-347.808 Y-511.867
X-348.531 Y-513.365
X-349.225 Y-514.875
X-349.89 Y-516.399
X-350.526 Y-517.936
X-351.132 Y-519.484
X-351.707 Y-521.044
X-352.252 Y-522.615
X-352.766 Y-524.197
X-353.25 Y-525.787
X-353.703 Y-527.387
X-354.125 Y-528.995
X-354.517 Y-530.612
X-354.877 Y-532.235
X-355.206 Y-533.865
X-355.503 Y-535.501
X-355.769 Y-537.142
X-356.004 Y-538.788
X-356.207 Y-540.438
X-356.379 Y-542.092
X-356.518 Y-543.749
X-356.625 Y-545.408
X-356.7 Y-547.069
X-356.743 Y-548.732
X-356.754 Y-550.394
X-356.732 Y-552.057
X-356.679 Y-553.719
X-356.594 Y-555.379
X-356.477 Y-557.038
X-356.328 Y-558.694
X-356.148 Y-560.347
X-355.936 Y-561.996
X-355.693 Y-563.641
X-355.418 Y-565.281
X-355.111 Y-566.915
X-354.774 Y-568.543
X-354.405 Y-570.165
X-354.004 Y-571.779
X-353.573 Y-573.384
X-353.11 Y-574.981
X-352.617 Y-576.569
X-352.093 Y-578.148
X-351.54 Y-579.715
X-350.956 Y-581.272
X-350.343 Y-582.818
X-349.7 Y-584.351
X-349.028 Y-585.872
X-348.327 Y-587.38
X-347.597 Y-588.874
X-346.839 Y-590.354
X-346.053 Y-591.819
X-345.238 Y-593.269
X-344.396 Y-594.702
X-343.526 Y-596.119
X-342.629 Y-597.519
X-341.705 Y-598.902
X-340.755 Y-600.266
X-339.779 Y-601.612
X-338.777 Y-602.939
X-337.75 Y-604.247
X-336.698 Y-605.535
X-335.622 Y-606.802
X-334.521 Y-608.049
X-333.398 Y-609.274
X-332.25 Y-610.478
X-331.081 Y-611.659
X-329.888 Y-612.818
X-328.674 Y-613.954
X-327.438 Y-615.066
X-326.18 Y-616.154
X-324.902 Y-617.217
X-323.603 Y-618.256
X-322.285 Y-619.27
X-320.948 Y-620.258
X-319.592 Y-621.22
X-318.218 Y-622.156
X-316.826 Y-623.066
X-315.417 Y-623.95
X-313.992 Y-624.806
X-312.551 Y-625.634
X-311.094 Y-626.436
X-309.621 Y-627.209
X-308.135 Y-627.953
X-306.634 Y-628.669
X-305.12 Y-629.356
X-303.592 Y-630.013
X-302.053 Y-630.641
X-300.501 Y-631.239
X-298.939 Y-631.808
X-297.365 Y-632.346
X-295.782 Y-632.854
X-294.19 Y-633.332
X-292.588 Y-633.78
X-290.979 Y-634.197
X-289.362 Y-634.583
X-287.737 Y-634.938
X-286.106 Y-635.263
X-284.47 Y-635.556
X-282.828 Y-635.818
X-281.181 Y-636.048
X-279.53 Y-636.246
X-277.876 Y-636.412
X-276.218 Y-636.547
X-274.559 Y-636.65
X-272.897 Y-636.721
X-271.235 Y-636.761
X-269.572 Y-636.769
X-267.91 Y-636.746
X-266.248 Y-636.691
X-264.588 Y-636.605
X-262.929 Y-636.487
X-261.273 Y-636.338
X-259.62 Y-636.157
X-257.971 Y-635.945
X-256.326 Y-635.702
X-254.686 Y-635.427
X-253.052 Y-635.121
X-251.424 Y-634.783
X-249.802 Y-634.415
X-248.188 Y-634.016
X-246.582 Y-633.587
X-244.984 Y-633.128
X-243.395 Y-632.638
X-241.815 Y-632.119
X-240.245 Y-631.57
X-238.687 Y-630.991
X-237.139 Y-630.383
X-235.603 Y-629.747
X-234.079 Y-629.082
X-232.568 Y-628.388
X-231.07 Y-627.665
X-229.587 Y-626.914
X-228.118 Y-626.135
X-226.664 Y-625.329
X-225.225 Y-624.495
X-223.802 Y-623.635
X-222.396 Y-622.748
X-221.006 Y-621.834
X-219.634 Y-620.895
X-218.28 Y-619.931
X-216.943 Y-618.941
X-215.626 Y-617.927
X-214.327 Y-616.888
X-213.049 Y-615.826
X-211.79 Y-614.739
X-210.552 Y-613.629
X-209.335 Y-612.496
X-208.139 Y-611.341
X-206.966 Y-610.163
X-205.814 Y-608.963
X-204.686 Y-607.742
X-203.58 Y-606.5
X-202.498 Y-605.238
X-201.439 Y-603.956
X-200.405 Y-602.654
X-199.395 Y-601.333
X-198.409 Y-599.994
X-197.448 Y-598.637
X-196.513 Y-597.262
X-195.604 Y-595.87
X-194.72 Y-594.461
X-193.863 Y-593.037
X-193.033 Y-591.596
X-192.23 Y-590.14
X-191.455 Y-588.669
X-190.707 Y-587.184
X-189.987 Y-585.685
X-189.295 Y-584.173
X-188.631 Y-582.648
X-187.996 Y-581.112
X-187.39 Y-579.564
X-186.812 Y-578.005
X-186.263 Y-576.435
X-185.743 Y-574.856
X-185.253 Y-573.267
X-184.792 Y-571.669
X-184.361 Y-570.063
X-183.961 Y-568.449
X-183.59 Y-566.828
X-183.25 Y-565.201
X-182.941 Y-563.567
X-182.663 Y-561.928
X-182.415 Y-560.284
X-182.197 Y-558.635
X-182.011 Y-556.983
X-181.855 Y-555.327
X-181.73 Y-553.669
X-181.635 Y-552.009
X-181.572 Y-550.348
X-181.539 Y-548.685
X-181.538 Y-547.023
X-181.567 Y-545.36
X-181.627 Y-543.698
X-181.718 Y-542.038
X-181.841 Y-540.38
X-181.995 Y-538.724
X-182.179 Y-537.072
X-182.395 Y-535.423
X-182.642 Y-533.779
X-182.919 Y-532.139
X-183.226 Y-530.505
X-183.564 Y-528.877
X-183.932 Y-527.256
X-184.331 Y-525.641
X-184.759 Y-524.035
X-185.217 Y-522.436
X-185.704 Y-520.847
X-186.221 Y-519.266
X-186.768 Y-517.696
X-187.344 Y-516.136
X-187.949 Y-514.587
X-188.583 Y-513.05
X-189.246 Y-511.525
X-189.937 Y-510.013
X-190.657 Y-508.514
X-191.404 Y-507.029
X-192.179 Y-505.558
X-192.981 Y-504.101
X-193.81 Y-502.66
X-194.666 Y-501.234
X-195.548 Y-499.824
X-196.456 Y-498.432
X-197.389 Y-497.056
X-198.348 Y-495.697
X-199.333 Y-494.357
X-200.342 Y-493.036
X-201.376 Y-491.734
X-202.434 Y-490.451
X-203.516 Y-489.188
X-204.621 Y-487.946
X-205.75 Y-486.725
X-206.901 Y-485.525
X-208.074 Y-484.347
X-209.268 Y-483.19
X-210.484 Y-482.056
X-211.721 Y-480.944
X-212.978 Y-479.856
X-214.255 Y-478.791
X-215.552 Y-477.75
X-216.867 Y-476.733
X-218.201 Y-475.741
X-219.554 Y-474.774
X-220.924 Y-473.832
X-222.312 Y-472.916
X-223.717 Y-472.027
X-225.138 Y-471.163
X-226.575 Y-470.326
X-228.027 Y-469.516
X-229.494 Y-468.733
X-230.975 Y-467.977
X-232.469 Y-467.249
X-233.977 Y-466.548
X-235.498 Y-465.876
X-237.031 Y-465.231
X-238.575 Y-464.615
X-240.13 Y-464.027
X-241.696 Y-463.468
X-243.272 Y-462.938
X-244.858 Y-462.438
X-246.453 Y-461.968
X-248.056 Y-461.527
X-249.667 Y-461.116
X-251.286 Y-460.735
X-252.911 Y-460.384
X-254.543 Y-460.062
X-256.18 Y-459.771
X-257.822 Y-459.51
X-259.468 Y-459.279
X-261.119 Y-459.079
X-262.773 Y-458.908
X-264.43 Y-458.768
X-266.089 Y-458.659
X-267.75 Y-458.58
X-269.412 Y-458.531
X-271.075 Y-458.514
X-272.737 Y-458.527
X-274.399 Y-458.571
X-276.06 Y-458.646
X-277.72 Y-458.751
X-279.377 Y-458.887
X-281.032 Y-459.053
X-282.683 Y-459.25
X-284.33 Y-459.476
X-285.973 Y-459.733
X-287.611 Y-460.019
X-289.243 Y-460.336
X-290.869 Y-460.682
X-292.489 Y-461.057
X-294.102 Y-461.462
X-295.707 Y-461.897
X-297.303 Y-462.361
X-298.891 Y-462.855
X-300.47 Y-463.378
X-302.038 Y-463.93
X-303.596 Y-464.51
X-305.144 Y-465.119
X-306.68 Y-465.756
X-308.204 Y-466.42
X-309.715 Y-467.113
X-311.214 Y-467.832
X-312.7 Y-468.579
X-314.172 Y-469.353
X-315.629 Y-470.153
X-317.072 Y-470.98
X-318.499 Y-471.833
X-319.911 Y-472.711
X-321.306 Y-473.616
X-322.685 Y-474.546
X-324.046 Y-475.501
X-325.389 Y-476.48
X-326.714 Y-477.485
X-328.021 Y-478.513
X-329.309 Y-479.565
X-330.578 Y-480.64
X-331.826 Y-481.737
X-333.055 Y-482.858
X-334.263 Y-484
X-335.451 Y-485.164
X-336.617 Y-486.349
X-337.762 Y-487.555
X-338.884 Y-488.782
X-339.984 Y-490.028
X-341.062 Y-491.295
X-342.115 Y-492.581
X-343.145 Y-493.887
X-344.151 Y-495.21
X-345.133 Y-496.552
X-346.09 Y-497.912
X-347.023 Y-499.289
X-347.93 Y-500.682
X-348.812 Y-502.092
X-349.668 Y-503.517
X-350.499 Y-504.957
X-351.303 Y-506.413
X-352.081 Y-507.882
X-352.833 Y-509.365
X-353.557 Y-510.862
X-354.255 Y-512.371
X-354.924 Y-513.893
X-355.566 Y-515.427
X-356.18 Y-516.973
X-356.766 Y-518.529
X-357.323 Y-520.095
X-357.851 Y-521.672
X-358.351 Y-523.258
X-358.823 Y-524.852
X-359.265 Y-526.455
X-359.678 Y-528.066
X-360.063 Y-529.683
X-360.418 Y-531.308
X-360.744 Y-532.938
X-361.04 Y-534.574
X-361.307 Y-536.216
X-361.545 Y-537.861
X-361.752 Y-539.511
X-361.93 Y-541.164
X-362.077 Y-542.82
X-362.194 Y-544.479
X-362.281 Y-546.14
X-362.338 Y-547.801
X-362.365 Y-549.464
X-362.362 Y-551.127
X-362.329 Y-552.789
X-362.266 Y-554.451
X-362.173 Y-556.111
X-362.05 Y-557.769
X-361.897 Y-559.425
X-361.715 Y-561.077
X-361.503 Y-562.727
X-361.262 Y-564.372
X-360.99 Y-566.012
X-360.69 Y-567.648
X-360.359 Y-569.277
X-359.999 Y-570.9
X-359.609 Y-572.517
X-359.191 Y-574.126
X-358.743 Y-575.727
X-358.266 Y-577.32
X-357.761 Y-578.904
X-357.227 Y-580.479
X-356.665 Y-582.044
X-356.075 Y-583.599
X-355.457 Y-585.142
X-354.812 Y-586.675
X-354.139 Y-588.195
X-353.44 Y-589.704
X-352.713 Y-591.199
X-351.959 Y-592.681
X-351.178 Y-594.149
X-350.371 Y-595.603
X-349.538 Y-597.042
X-348.678 Y-598.465
X-347.794 Y-599.873
X-346.883 Y-601.265
X-345.948 Y-602.639
X-344.988 Y-603.997
X-344.005 Y-605.338
X-342.997 Y-606.66
X-341.965 Y-607.964
X-340.911 Y-609.25
X-339.833 Y-610.516
X-338.733 Y-611.763
X-337.611 Y-612.99
X-336.467 Y-614.197
X-335.301 Y-615.382
X-334.114 Y-616.547
X-332.906 Y-617.689
X-331.677 Y-618.81
X-330.429 Y-619.908
X-329.161 Y-620.983
X-327.873 Y-622.035
X-326.567 Y-623.064
X-325.243 Y-624.069
X-323.9 Y-625.051
X-322.541 Y-626.008
X-321.164 Y-626.941
X-319.771 Y-627.848
X-318.362 Y-628.731
X-316.937 Y-629.589
X-315.498 Y-630.42
X-314.043 Y-631.226
X-312.574 Y-632.005
X-311.091 Y-632.757
X-309.595 Y-633.482
X-308.086 Y-634.18
X-306.564 Y-634.851
X-305.031 Y-635.494
X-303.486 Y-636.11
X-301.931 Y-636.697
X-300.365 Y-637.257
X-298.79 Y-637.789
X-297.205 Y-638.292
X-295.611 Y-638.767
X-294.01 Y-639.213
X-292.4 Y-639.631
X-290.783 Y-640.019
X-289.16 Y-640.379
X-287.53 Y-640.709
X-285.895 Y-641.01
X-284.255 Y-641.281
X-282.609 Y-641.522
X-280.96 Y-641.734
X-279.307 Y-641.916
X-277.652 Y-642.068
X-275.993 Y-642.191
X-274.333 Y-642.284
X-272.672 Y-642.347
X-271.009 Y-642.381
X-269.347 Y-642.385
X-267.684 Y-642.359
X-266.022 Y-642.304
X-264.362 Y-642.22
X-262.703 Y-642.105
X-261.046 Y-641.961
X-259.393 Y-641.788
X-257.742 Y-641.584
X-256.096 Y-641.351
X-254.454 Y-641.088
X-252.817 Y-640.796
X-251.186 Y-640.475
X-249.56 Y-640.125
X-247.941 Y-639.746
X-246.329 Y-639.338
X-244.725 Y-638.902
X-243.128 Y-638.437
X-241.54 Y-637.945
X-239.961 Y-637.424
X-238.392 Y-636.875
X-236.832 Y-636.299
X-235.282 Y-635.696
X-233.744 Y-635.065
X-232.217 Y-634.406
X-230.703 Y-633.72
X-229.2 Y-633.008
X-227.711 Y-632.268
X-226.235 Y-631.503
X-224.773 Y-630.711
X-223.325 Y-629.894
X-221.891 Y-629.052
X-220.473 Y-628.184
X-219.07 Y-627.291
X-217.683 Y-626.374
X-216.312 Y-625.433
X-214.958 Y-624.468
X-213.621 Y-623.479
X-212.302 Y-622.467
X-211.001 Y-621.432
X-209.718 Y-620.374
X-208.454 Y-619.294
X-207.21 Y-618.191
X-205.985 Y-617.066
X-204.78 Y-615.92
X-203.596 Y-614.753
X-202.432 Y-613.565
X-201.29 Y-612.357
X-200.169 Y-611.129
X-199.069 Y-609.882
X-197.991 Y-608.616
X-196.936 Y-607.331
X-195.903 Y-606.028
X-194.894 Y-604.707
X-193.907 Y-603.368
X-192.944 Y-602.013
X-192.005 Y-600.641
X-191.09 Y-599.252
X-190.2 Y-597.848
X-189.334 Y-596.428
X-188.494 Y-594.993
X-187.68 Y-593.543
X-186.891 Y-592.08
X-186.128 Y-590.603
X-185.39 Y-589.112
X-184.679 Y-587.609
X-183.994 Y-586.094
X-183.336 Y-584.567
X-182.705 Y-583.029
X-182.1 Y-581.48
X-181.523 Y-579.921
X-180.973 Y-578.352
X-180.45 Y-576.773
X-179.955 Y-575.186
X-179.488 Y-573.59
X-179.049 Y-571.986
X-178.639 Y-570.375
X-178.257 Y-568.756
X-177.904 Y-567.132
X-177.579 Y-565.501
X-177.283 Y-563.865
X-177.016 Y-562.224
X-176.778 Y-560.578
X-176.568 Y-558.928
X-176.387 Y-557.276
X-176.235 Y-555.62
X-176.112 Y-553.962
X-176.018 Y-552.301
X-175.953 Y-550.64
X-175.917 Y-548.978
X-175.91 Y-547.315
X-175.932 Y-545.652
X-175.984 Y-543.99
X-176.065 Y-542.33
X-176.176 Y-540.671
X-176.316 Y-539.014
X-176.485 Y-537.359
X-176.683 Y-535.709
X-176.91 Y-534.061
X-177.165 Y-532.418
X-177.45 Y-530.78
X-177.763 Y-529.147
X-178.104 Y-527.52
X-178.474 Y-525.899
X-178.872 Y-524.284
X-179.298 Y-522.677
X-179.752 Y-521.078
X-180.235 Y-519.486
X-180.745 Y-517.904
X-181.284 Y-516.331
X-181.85 Y-514.767
X-182.443 Y-513.214
X-183.064 Y-511.672
X-183.712 Y-510.14
X-184.387 Y-508.621
X-185.088 Y-507.113
X-185.816 Y-505.618
X-186.569 Y-504.136
X-187.349 Y-502.667
X-188.154 Y-501.212
X-188.984 Y-499.771
X-189.839 Y-498.345
X-190.719 Y-496.935
X-191.623 Y-495.539
X-192.552 Y-494.16
X-193.505 Y-492.798
X-194.482 Y-491.452
X-195.483 Y-490.124
X-196.507 Y-488.814
X-197.554 Y-487.522
X-198.623 Y-486.249
X-199.715 Y-484.995
X-200.828 Y-483.76
X-201.963 Y-482.544
X-203.119 Y-481.349
X-204.295 Y-480.174
X-205.492 Y-479.02
X-206.708 Y-477.886
X-207.945 Y-476.774
X-209.2 Y-475.684
X-210.474 Y-474.616
X-211.767 Y-473.57
X-213.078 Y-472.547
X-214.406 Y-471.547
X-215.753 Y-470.571
X-217.116 Y-469.619
X-218.495 Y-468.691
X-219.891 Y-467.787
X-221.302 Y-466.908
X-222.729 Y-466.053
X-224.169 Y-465.224
X-225.625 Y-464.419
X-227.094 Y-463.64
X-228.576 Y-462.887
X-230.071 Y-462.159
X-231.579 Y-461.458
X-233.098 Y-460.782
X-234.629 Y-460.133
X-236.171 Y-459.511
X-237.724 Y-458.916
X-239.286 Y-458.349
X-240.859 Y-457.809
X-242.441 Y-457.296
X-244.031 Y-456.812
X-245.63 Y-456.355
X-247.237 Y-455.926
X-248.85 Y-455.525
X-250.471 Y-455.152
X-252.097 Y-454.807
X-253.729 Y-454.49
X-255.367 Y-454.201
X-257.009 Y-453.941
X-258.656 Y-453.709
X-260.306 Y-453.506
X-261.96 Y-453.331
X-263.616 Y-453.185
X-265.274 Y-453.067
X-266.935 Y-452.979
X-268.597 Y-452.92
X-270.259 Y-452.89
X-271.922 Y-452.888
X-273.584 Y-452.916
X-275.246 Y-452.972
X-276.907 Y-453.057
X-278.566 Y-453.171
X-280.222 Y-453.313
X-281.876 Y-453.484
X-283.527 Y-453.683
X-285.174 Y-453.91
X-286.817 Y-454.166
X-288.456 Y-454.449
X-290.089 Y-454.761
X-291.716 Y-455.101
X-293.338 Y-455.47
X-294.953 Y-455.866
X-296.56 Y-456.291
X-298.16 Y-456.743
X-299.752 Y-457.223
X-301.336 Y-457.73
X-302.91 Y-458.265
X-304.475 Y-458.826
X-306.031 Y-459.414
X-307.575 Y-460.029
X-309.109 Y-460.671
X-310.632 Y-461.338
X-312.144 Y-462.032
X-313.643 Y-462.751
X-315.129 Y-463.496
X-316.603 Y-464.266
X-318.063 Y-465.061
X-319.51 Y-465.881
X-320.942 Y-466.726
X-322.359 Y-467.596
X-323.76 Y-468.49
X-325.147 Y-469.409
X-326.517 Y-470.351
X-327.871 Y-471.316
X-329.208 Y-472.305
X-330.528 Y-473.316
X-331.83 Y-474.349
X-333.115 Y-475.405
X-334.381 Y-476.483
X-335.629 Y-477.582
X-336.858 Y-478.702
X-338.068 Y-479.842
X-339.258 Y-481.004
X-340.428 Y-482.185
X-341.577 Y-483.386
X-342.706 Y-484.607
X-343.814 Y-485.847
X-344.9 Y-487.107
X-345.964 Y-488.384
X-347.006 Y-489.68
X-348.025 Y-490.993
X-349.023 Y-492.324
X-349.997 Y-493.671
X-350.948 Y-495.035
X-351.876 Y-496.415
X-352.78 Y-497.811
X-353.66 Y-499.221
X-354.516 Y-500.647
X-355.348 Y-502.086
X-356.155 Y-503.54
X-356.938 Y-505.007
X-357.695 Y-506.487
X-358.427 Y-507.98
X-359.133 Y-509.486
X-359.813 Y-511.003
X-360.466 Y-512.532
X-361.094 Y-514.072
X-361.695 Y-515.622
X-362.269 Y-517.183
X-362.817 Y-518.753
X-363.338 Y-520.331
X-363.832 Y-521.919
X-364.299 Y-523.515
X-364.739 Y-525.118
X-365.152 Y-526.729
X-365.538 Y-528.347
X-365.895 Y-529.97
X-366.226 Y-531.6
X-366.528 Y-533.235
X-366.803 Y-534.875
X-367.049 Y-536.519
X-367.267 Y-538.168
X-367.457 Y-539.82
X-367.618 Y-541.475
X-367.751 Y-543.132
X-367.856 Y-544.791
X-367.932 Y-546.452
X-367.981 Y-548.115
X-368.001 Y-549.777
X-367.993 Y-551.44
X-367.956 Y-553.102
X-367.892 Y-554.764
X-367.8 Y-556.424
X-367.679 Y-558.082
X-367.53 Y-559.738
X-367.354 Y-561.392
X-367.149 Y-563.042
X-366.916 Y-564.688
X-366.654 Y-566.33
X-366.365 Y-567.968
X-366.047 Y-569.6
X-365.702 Y-571.226
X-365.329 Y-572.847
X-364.929 Y-574.461
X-364.501 Y-576.067
X-364.046 Y-577.667
X-363.564 Y-579.258
X-363.055 Y-580.841
X-362.52 Y-582.415
X-361.958 Y-583.98
X-361.369 Y-585.535
X-360.755 Y-587.08
X-360.114 Y-588.615
X-359.448 Y-590.138
X-358.755 Y-591.649
X-358.036 Y-593.149
X-357.292 Y-594.636
X-356.523 Y-596.11
X-355.729 Y-597.571
X-354.91 Y-599.018
X-354.066 Y-600.451
X-353.198 Y-601.869
X-352.306 Y-603.272
X-351.391 Y-604.66
X-350.452 Y-606.033
X-349.49 Y-607.389
X-348.506 Y-608.729
X-347.499 Y-610.052
X-346.469 Y-611.358
X-345.418 Y-612.646
X-344.346 Y-613.917
X-343.251 Y-615.168
X-342.135 Y-616.401
X-340.999 Y-617.615
X-339.842 Y-618.809
X-338.664 Y-619.983
X-337.467 Y-621.137
X-336.25 Y-622.27
X-335.015 Y-623.383
X-333.76 Y-624.474
X-332.488 Y-625.544
X-331.197 Y-626.593
X-329.889 Y-627.619
X-328.563 Y-628.623
X-327.221 Y-629.605
X-325.863 Y-630.564
X-324.489 Y-631.5
X-323.099 Y-632.412
X-321.693 Y-633.301
X-320.273 Y-634.165
X-318.838 Y-635.005
X-317.389 Y-635.821
X-315.926 Y-636.611
X-314.45 Y-637.377
X-312.961 Y-638.117
X-311.46 Y-638.832
X-309.947 Y-639.522
X-308.422 Y-640.185
X-306.887 Y-640.823
X-305.341 Y-641.435
X-303.785 Y-642.021
X-302.219 Y-642.58
X-300.644 Y-643.113
X-299.06 Y-643.619
X-297.468 Y-644.099
X-295.868 Y-644.551
X-294.26 Y-644.976
X-292.646 Y-645.374
X-291.025 Y-645.744
X-289.398 Y-646.086
X-287.765 Y-646.401
X-286.127 Y-646.688
X-284.485 Y-646.947
X-282.838 Y-647.178
X-281.188 Y-647.382
X-279.534 Y-647.557
X-277.878 Y-647.705
X-276.22 Y-647.825
X-274.56 Y-647.917
X-272.898 Y-647.981
X-271.236 Y-648.017
X-269.573 Y-648.025
X-267.91 Y-648.005
X-266.248 Y-647.958
X-264.587 Y-647.881
X-262.928 Y-647.777
X-261.27 Y-647.645
X-259.615 Y-647.484
X-257.963 Y-647.296
X-256.315 Y-647.08
X-254.67 Y-646.836
X-253.029 Y-646.564
X-251.394 Y-646.265
X-249.763 Y-645.938
X-248.139 Y-645.584
X-246.52 Y-645.203
X-244.908 Y-644.796
X-243.303 Y-644.361
X-241.706 Y-643.9
X-240.116 Y-643.412
X-238.535 Y-642.897
X-236.963 Y-642.356
X-235.4 Y-641.789
X-233.847 Y-641.195
X-232.304 Y-640.575
X-230.772 Y-639.93
X-229.25 Y-639.258
X-227.741 Y-638.562
X-226.243 Y-637.84
X-224.757 Y-637.093
X-223.284 Y-636.322
X-221.824 Y-635.526
X-220.377 Y-634.706
X-218.945 Y-633.863
X-217.526 Y-632.995
X-216.122 Y-632.105
X-214.733 Y-631.191
X-213.359 Y-630.254
X-212.001 Y-629.295
X-210.659 Y-628.313
X-209.334 Y-627.308
X-208.026 Y-626.282
X-206.735 Y-625.234
X-205.462 Y-624.164
X-204.207 Y-623.074
X-202.97 Y-621.963
X-201.752 Y-620.831
X-200.552 Y-619.679
X-199.372 Y-618.508
X-198.212 Y-617.317
X-197.071 Y-616.107
X-195.95 Y-614.879
X-194.85 Y-613.632
X-193.771 Y-612.367
X-192.712 Y-611.085
X-191.675 Y-609.786
X-190.659 Y-608.469
X-189.666 Y-607.136
X-188.695 Y-605.786
X-187.746 Y-604.42
X-186.821 Y-603.039
X-185.918 Y-601.643
X-185.039 Y-600.231
X-184.183 Y-598.806
X-183.351 Y-597.366
X-182.543 Y-595.913
X-181.759 Y-594.447
X-180.999 Y-592.968
X-180.264 Y-591.476
X-179.553 Y-589.973
X-178.868 Y-588.458
X-178.207 Y-586.932
X-177.571 Y-585.396
X-176.961 Y-583.849
X-176.376 Y-582.293
X-175.818 Y-580.726
X-175.286 Y-579.151
X-174.78 Y-577.567
X-174.3 Y-575.975
X-173.847 Y-574.375
X-173.421 Y-572.768
X-173.021 Y-571.154
X-172.648 Y-569.534
X-172.302 Y-567.907
X-171.982 Y-566.276
X-171.69 Y-564.639
X-171.425 Y-562.997
X-171.186 Y-561.352
X-170.975 Y-559.703
X-170.791 Y-558.05
X-170.635 Y-556.395
X-170.505 Y-554.737
X-170.403 Y-553.077
X-170.329 Y-551.416
X-170.283 Y-549.754
X-170.264 Y-548.091
X-170.273 Y-546.429
X-170.31 Y-544.766
X-170.374 Y-543.105
X-170.465 Y-541.445
X-170.585 Y-539.786
X-170.731 Y-538.13
X-170.905 Y-536.476
X-171.106 Y-534.826
X-171.335 Y-533.179
X-171.59 Y-531.536
X-171.873 Y-529.897
X-172.182 Y-528.263
X-172.519 Y-526.635
X-172.882 Y-525.013
X-173.272 Y-523.396
X-173.69 Y-521.787
X-174.134 Y-520.184
X-174.604 Y-518.59
X-175.101 Y-517.003
X-175.625 Y-515.425
X-176.174 Y-513.855
X-176.75 Y-512.295
X-177.351 Y-510.745
X-177.978 Y-509.205
X-178.63 Y-507.676
X-179.308 Y-506.157
X-180.01 Y-504.65
X-180.737 Y-503.154
X-181.489 Y-501.671
X-182.265 Y-500.201
X-183.065 Y-498.743
X-183.889 Y-497.299
X-184.737 Y-495.869
X-185.608 Y-494.453
X-186.504 Y-493.052
X-187.422 Y-491.665
X-188.363 Y-490.295
X-189.327 Y-488.94
X-190.314 Y-487.601
X-191.322 Y-486.279
X-192.352 Y-484.974
X-193.404 Y-483.686
X-194.476 Y-482.415
X-195.57 Y-481.163
X-196.683 Y-479.928
X-197.818 Y-478.712
X-198.971 Y-477.515
X-200.145 Y-476.337
X-201.337 Y-475.178
X-202.549 Y-474.039
X-203.779 Y-472.921
X-205.028 Y-471.823
X-206.295 Y-470.746
X-207.58 Y-469.69
X-208.881 Y-468.656
X-210.2 Y-467.643
X-211.536 Y-466.653
X-212.887 Y-465.684
X-214.255 Y-464.738
X-215.637 Y-463.815
X-217.035 Y-462.914
X-218.447 Y-462.037
X-219.874 Y-461.183
X-221.314 Y-460.352
X-222.768 Y-459.545
X-224.235 Y-458.762
X-225.714 Y-458.003
X-227.206 Y-457.268
X-228.71 Y-456.559
X-230.225 Y-455.874
X-231.752 Y-455.215
X-233.289 Y-454.581
X-234.836 Y-453.972
X-236.393 Y-453.389
X-237.96 Y-452.832
X-239.535 Y-452.3
X-241.119 Y-451.795
X-242.712 Y-451.315
X-244.311 Y-450.862
X-245.918 Y-450.435
X-247.532 Y-450.034
X-249.152 Y-449.659
X-250.778 Y-449.311
X-252.409 Y-448.99
X-254.046 Y-448.695
X-255.687 Y-448.427
X-257.332 Y-448.187
X-258.981 Y-447.973
X-260.633 Y-447.787
X-262.288 Y-447.628
X-263.946 Y-447.496
X-265.605 Y-447.391
X-267.266 Y-447.313
X-268.928 Y-447.263
X-270.591 Y-447.24
X-272.254 Y-447.244
X-273.916 Y-447.275
X-275.578 Y-447.333
X-277.238 Y-447.418
X-278.897 Y-447.531
X-280.554 Y-447.67
X-282.209 Y-447.836
X-283.86 Y-448.029
X-285.508 Y-448.248
X-287.153 Y-448.495
X-288.793 Y-448.769
X-290.428 Y-449.07
X-292.058 Y-449.397
X-293.683 Y-449.751
X-295.302 Y-450.131
X-296.914 Y-450.538
X-298.519 Y-450.971
X-300.117 Y-451.431
X-301.708 Y-451.916
X-303.29 Y-452.426
X-304.864 Y-452.963
X-306.429 Y-453.525
X-307.984 Y-454.112
X-309.53 Y-454.724
X-311.066 Y-455.361
X-312.592 Y-456.023
X-314.106 Y-456.71
X-315.609 Y-457.421
X-317.1 Y-458.157
X-318.579 Y-458.917
X-320.045 Y-459.701
X-321.499 Y-460.508
X-322.939 Y-461.34
X-324.365 Y-462.194
X-325.777 Y-463.072
X-327.175 Y-463.972
X-328.558 Y-464.895
X-329.926 Y-465.84
X-331.279 Y-466.808
X-332.615 Y-467.797
X-333.936 Y-468.807
X-335.24 Y-469.839
X-336.527 Y-470.891
X-337.798 Y-471.964
X-339.05 Y-473.057
X-340.285 Y-474.171
X-341.501 Y-475.305
X-342.699 Y-476.458
X-343.878 Y-477.63
X-345.038 Y-478.822
X-346.178 Y-480.032
X-347.299 Y-481.261
X-348.399 Y-482.507
X-349.479 Y-483.771
X-350.539 Y-485.053
X-351.578 Y-486.351
X-352.595 Y-487.666
X-353.592 Y-488.997
X-354.566 Y-490.344
X-355.52 Y-491.707
X-356.451 Y-493.084
X-357.359 Y-494.477
X-358.246 Y-495.884
X-359.109 Y-497.305
X-359.949 Y-498.739
X-360.766 Y-500.188
X-361.559 Y-501.649
X-362.329 Y-503.123
X-363.074 Y-504.609
X-363.795 Y-506.108
X-364.492 Y-507.617
X-365.165 Y-509.138
X-365.813 Y-510.669
X-366.436 Y-512.211
X-367.034 Y-513.762
X-367.608 Y-515.323
X-368.156 Y-516.893
X-368.679 Y-518.471
X-369.176 Y-520.058
X-369.648 Y-521.652
X-370.095 Y-523.254
X-370.515 Y-524.862
X-370.91 Y-526.478
X-371.278 Y-528.099
X-371.62 Y-529.726
X-371.935 Y-531.359
X-372.224 Y-532.996
X-372.487 Y-534.638
X-372.723 Y-536.284
X-372.932 Y-537.934
X-373.115 Y-539.586
X-373.272 Y-541.242
X-373.401 Y-542.899
X-373.505 Y-544.559
X-373.581 Y-546.22
X-373.631 Y-547.882
X-373.654 Y-549.545
X-373.651 Y-551.207
X-373.621 Y-552.87
X-373.564 Y-554.532
X-373.481 Y-556.192
X-373.37 Y-557.851
X-373.233 Y-559.508
X-373.069 Y-561.163
X-372.878 Y-562.815
X-372.661 Y-564.463
X-372.417 Y-566.108
X-372.147 Y-567.749
X-371.851 Y-569.385
X-371.528 Y-571.016
X-371.179 Y-572.642
X-370.804 Y-574.262
X-370.403 Y-575.875
X-369.976 Y-577.482
X-369.524 Y-579.082
X-369.046 Y-580.675
X-368.543 Y-582.26
X-368.014 Y-583.836
X-367.46 Y-585.404
X-366.881 Y-586.963
X-366.276 Y-588.512
X-365.647 Y-590.051
X-364.993 Y-591.579
X-364.315 Y-593.097
X-363.612 Y-594.604
X-362.885 Y-596.1
X-362.134 Y-597.583
X-361.359 Y-599.055
X-360.561 Y-600.513
X-359.74 Y-601.959
X-358.895 Y-603.391
X-358.028 Y-604.81
X-357.138 Y-606.214
X-356.226 Y-607.604
X-355.291 Y-608.98
X-354.335 Y-610.34
X-353.357 Y-611.685
X-352.358 Y-613.014
X-351.337 Y-614.326
X-350.295 Y-615.622
X-349.232 Y-616.901
X-348.149 Y-618.163
X-347.046 Y-619.407
X-345.923 Y-620.633
X-344.78 Y-621.841
X-343.618 Y-623.03
X-342.437 Y-624.201
X-341.238 Y-625.352
X-340.02 Y-626.484
X-338.785 Y-627.597
X-337.531 Y-628.69
X-336.261 Y-629.762
X-334.973 Y-630.814
X-333.669 Y-631.846
X-332.348 Y-632.856
X-331.012 Y-633.845
X-329.659 Y-634.812
X-328.291 Y-635.758
X-326.908 Y-636.681
X-325.511 Y-637.582
X-324.099 Y-638.46
X-322.673 Y-639.315
X-321.234 Y-640.148
X-319.781 Y-640.957
X-318.316 Y-641.743
X-316.838 Y-642.505
X-315.348 Y-643.244
X-313.847 Y-643.958
X-312.334 Y-644.649
X-310.811 Y-645.315
X-309.277 Y-645.957
X-307.733 Y-646.574
X-306.18 Y-647.167
X-304.617 Y-647.734
X-303.045 Y-648.276
X-301.464 Y-648.793
X-299.876 Y-649.285
X-298.28 Y-649.751
X-296.676 Y-650.191
X-295.066 Y-650.605
X-293.449 Y-650.994
X-291.827 Y-651.356
X-290.198 Y-651.693
X-288.565 Y-652.003
X-286.926 Y-652.287
X-285.284 Y-652.545
X-283.637 Y-652.777
X-281.987 Y-652.983
X-280.334 Y-653.162
X-278.679 Y-653.315
X-277.021 Y-653.442
X-275.361 Y-653.542
X-273.7 Y-653.616
X-272.038 Y-653.663
X-270.375 Y-653.683
X-268.712 Y-653.676
X-267.05 Y-653.643
X-265.388 Y-653.584
X-263.728 Y-653.498
X-262.069 Y-653.385
X-260.412 Y-653.246
X-258.757 Y-653.081
X-257.106 Y-652.889
X-255.457 Y-652.671
X-253.813 Y-652.427
X-252.172 Y-652.157
X-250.536 Y-651.861
X-248.904 Y-651.539
X-247.278 Y-651.191
X-245.658 Y-650.818
X-244.044 Y-650.419
X-242.436 Y-649.994
X-240.836 Y-649.543
X-239.243 Y-649.068
X-237.657 Y-648.567
X-236.08 Y-648.04
X-234.511 Y-647.489
X-232.951 Y-646.913
X-231.401 Y-646.312
X-229.86 Y-645.687
X-228.329 Y-645.038
X-226.809 Y-644.364
X-225.3 Y-643.667
X-223.802 Y-642.946
X-222.315 Y-642.201
X-220.84 Y-641.433
X-219.377 Y-640.642
X-217.927 Y-639.829
X-216.49 Y-638.992
X-215.067 Y-638.133
X-213.657 Y-637.251
X-212.262 Y-636.347
X-210.88 Y-635.421
X-209.514 Y-634.474
X-208.163 Y-633.505
X-206.827 Y-632.515
X-205.507 Y-631.504
X-204.203 Y-630.472
X-202.915 Y-629.42
X-201.645 Y-628.347
X-200.391 Y-627.255
X-199.154 Y-626.144
X-197.935 Y-625.013
X-196.734 Y-623.863
X-195.551 Y-622.695
X-194.386 Y-621.508
X-193.24 Y-620.304
X-192.113 Y-619.081
X-191.006 Y-617.841
X-189.918 Y-616.583
X-188.85 Y-615.309
X-187.802 Y-614.018
X-186.775 Y-612.71
X-185.768 Y-611.387
X-184.782 Y-610.048
X-183.818 Y-608.693
X-182.875 Y-607.324
X-181.953 Y-605.94
X-181.053 Y-604.542
X-180.175 Y-603.13
X-179.319 Y-601.704
X-178.486 Y-600.265
X-177.675 Y-598.814
X-176.887 Y-597.35
X-176.122 Y-595.873
X-175.38 Y-594.385
X-174.661 Y-592.886
X-173.966 Y-591.375
X-173.295 Y-589.854
X-172.648 Y-588.322
X-172.025 Y-586.781
X-171.426 Y-585.23
X-170.852 Y-583.669
X-170.303 Y-582.1
X-169.777 Y-580.522
X-169.277 Y-578.936
X-168.802 Y-577.343
X-168.351 Y-575.742
X-167.926 Y-574.135
X-167.526 Y-572.521
X-167.151 Y-570.901
X-166.801 Y-569.276
X-166.477 Y-567.645
X-166.179 Y-566.009
X-165.906 Y-564.369
X-165.658 Y-562.725
X-165.437 Y-561.077
X-165.241 Y-559.426
X-165.072 Y-557.771
X-164.929 Y-556.115
X-164.811 Y-554.456
X-164.72 Y-552.796
X-164.655 Y-551.135
X-164.615 Y-549.472
X-164.602 Y-547.81
X-164.615 Y-546.147
X-164.654 Y-544.485
X-164.719 Y-542.823
X-164.81 Y-541.163
X-164.927 Y-539.504
X-165.07 Y-537.848
X-165.238 Y-536.193
X-165.433 Y-534.542
X-165.653 Y-532.894
X-165.899 Y-531.25
X-166.171 Y-529.609
X-166.469 Y-527.973
X-166.793 Y-526.342
X-167.142 Y-524.717
X-167.516 Y-523.097
X-167.916 Y-521.483
X-168.342 Y-519.875
X-168.792 Y-518.275
X-169.268 Y-516.681
X-169.768 Y-515.096
X-170.294 Y-513.518
X-170.843 Y-511.949
X-171.418 Y-510.389
X-172.016 Y-508.837
X-172.639 Y-507.296
X-173.286 Y-505.764
X-173.957 Y-504.242
X-174.651 Y-502.732
X-175.37 Y-501.232
X-176.111 Y-499.744
X-176.876 Y-498.268
X-177.665 Y-496.804
X-178.476 Y-495.352
X-179.309 Y-493.913
X-180.166 Y-492.488
X-181.044 Y-491.076
X-181.945 Y-489.679
X-182.867 Y-488.295
X-183.811 Y-486.926
X-184.776 Y-485.572
X-185.762 Y-484.234
X-186.769 Y-482.91
X-187.797 Y-481.603
X-188.845 Y-480.312
X-189.912 Y-479.038
X-191 Y-477.78
X-192.107 Y-476.539
X-193.234 Y-475.316
X-194.38 Y-474.111
X-195.544 Y-472.924
X-196.727 Y-471.756
X-197.928 Y-470.606
X-199.147 Y-469.475
X-200.383 Y-468.363
X-201.637 Y-467.271
X-202.908 Y-466.199
X-204.195 Y-465.146
X-205.498 Y-464.114
X-206.818 Y-463.102
X-208.153 Y-462.111
X-209.503 Y-461.141
X-210.869 Y-460.192
X-212.249 Y-459.264
X-213.643 Y-458.358
X-215.051 Y-457.474
X-216.473 Y-456.612
X-217.908 Y-455.772
X-219.356 Y-454.955
X-220.817 Y-454.161
X-222.29 Y-453.389
X-223.775 Y-452.641
X-225.271 Y-451.915
X-226.778 Y-451.214
X-228.296 Y-450.536
X-229.825 Y-449.881
X-231.364 Y-449.251
X-232.912 Y-448.644
X-234.469 Y-448.062
X-236.036 Y-447.504
X-237.61 Y-446.97
X-239.193 Y-446.461
X-240.784 Y-445.977
X-242.382 Y-445.517
X-243.987 Y-445.082
X-245.598 Y-444.672
X-247.216 Y-444.287
X-248.839 Y-443.927
X-250.468 Y-443.593
X-252.102 Y-443.284
X-253.74 Y-443.001
X-255.383 Y-442.743
X-257.029 Y-442.511
X-258.679 Y-442.304
X-260.332 Y-442.123
X-261.987 Y-441.968
X-263.645 Y-441.838
X-265.305 Y-441.734
X-266.965 Y-441.655
X-268.627 Y-441.603
X-270.29 Y-441.576
X-271.953 Y-441.574
X-273.615 Y-441.598
X-275.277 Y-441.648
X-276.938 Y-441.724
X-278.598 Y-441.826
X-280.256 Y-441.953
X-281.911 Y-442.106
X-283.565 Y-442.284
X-285.215 Y-442.489
X-286.862 Y-442.718
X-288.505 Y-442.973
X-290.144 Y-443.254
X-291.778 Y-443.56
X-293.407 Y-443.891
X-295.032 Y-444.247
X-296.65 Y-444.628
X-298.263 Y-445.034
X-299.869 Y-445.465
X-301.468 Y-445.92
X-303.06 Y-446.4
X-304.644 Y-446.904
X-306.221 Y-447.433
X-307.789 Y-447.986
X-309.348 Y-448.563
X-310.898 Y-449.164
X-312.439 Y-449.789
X-313.97 Y-450.438
X-315.491 Y-451.11
X-317.001 Y-451.806
X-318.5 Y-452.525
X-319.989 Y-453.266
X-321.465 Y-454.031
X-322.93 Y-454.818
X-324.382 Y-455.628
X-325.822 Y-456.46
X-327.248 Y-457.314
X-328.662 Y-458.19
X-330.062 Y-459.087
X-331.448 Y-460.005
X-332.82 Y-460.945
X-334.177 Y-461.906
X-335.519 Y-462.887
X-336.846 Y-463.889
X-338.157 Y-464.911
X-339.453 Y-465.954
X-340.732 Y-467.016
X-341.995 Y-468.098
X-343.241 Y-469.198
X-344.47 Y-470.318
X-345.682 Y-471.457
X-346.876 Y-472.614
X-348.052 Y-473.79
X-349.21 Y-474.983
X-350.349 Y-476.194
X-351.47 Y-477.422
X-352.572 Y-478.667
X-353.655 Y-479.929
X-354.719 Y-481.207
X-355.763 Y-482.501
X-356.787 Y-483.811
X-357.79 Y-485.137
X-358.773 Y-486.478
X-359.736 Y-487.833
X-360.678 Y-489.204
X-361.598 Y-490.589
X-362.497 Y-491.987
X-363.375 Y-493.4
X-364.231 Y-494.825
X-365.065 Y-496.264
X-365.876 Y-497.715
X-366.666 Y-499.178
X-367.433 Y-500.653
X-368.177 Y-502.14
X-368.899 Y-503.638
X-369.598 Y-505.147
X-370.273 Y-506.666
X-370.926 Y-508.196
X-371.555 Y-509.735
X-372.16 Y-511.284
X-372.742 Y-512.841
X-373.3 Y-514.408
X-373.833 Y-515.982
X-374.343 Y-517.565
X-374.828 Y-519.156
X-375.289 Y-520.753
X-375.725 Y-522.358
X-376.137 Y-523.969
X-376.524 Y-525.586
X-376.886 Y-527.208
X-377.224 Y-528.837
X-377.536 Y-530.47
X-377.824 Y-532.107
X-378.087 Y-533.749
X-378.325 Y-535.395
X-378.537 Y-537.044
X-378.725 Y-538.696
X-378.887 Y-540.351
X-379.024 Y-542.008
X-379.136 Y-543.667
X-379.222 Y-545.328
X-379.283 Y-546.989
X-379.318 Y-548.652
X-379.329 Y-550.314
X-379.313 Y-551.977
X-379.273 Y-553.639
X-379.207 Y-555.301
X-379.115 Y-556.961
X-378.999 Y-558.62
X-378.857 Y-560.276
X-378.689 Y-561.931
X-378.497 Y-563.582
X-378.279 Y-565.231
X-378.037 Y-566.876
X-377.769 Y-568.517
X-377.477 Y-570.154
X-377.16 Y-571.786
X-376.818 Y-573.413
X-376.451 Y-575.035
X-376.059 Y-576.651
X-375.643 Y-578.26
X-375.202 Y-579.864
X-374.737 Y-581.46
X-374.247 Y-583.049
X-373.733 Y-584.631
X-373.196 Y-586.204
X-372.634 Y-587.769
X-372.049 Y-589.325
X-371.439 Y-590.872
X-370.807 Y-592.41
X-370.151 Y-593.938
X-369.472 Y-595.456
X-368.77 Y-596.963
X-368.045 Y-598.459
X-367.297 Y-599.945
X-366.527 Y-601.418
X-365.735 Y-602.88
X-364.92 Y-604.33
X-364.084 Y-605.767
X-363.225 Y-607.191
X-362.345 Y-608.602
X-361.444 Y-609.999
X-360.521 Y-611.382
X-359.578 Y-612.751
X-358.614 Y-614.106
X-357.629 Y-615.446
X-356.624 Y-616.77
X-355.598 Y-618.079
X-354.553 Y-619.372
X-353.489 Y-620.65
X-352.405 Y-621.911
X-351.302 Y-623.155
X-350.18 Y-624.383
X-349.04 Y-625.593
X-347.882 Y-626.786
X-346.706 Y-627.961
X-345.511 Y-629.118
X-344.3 Y-630.257
X-343.071 Y-631.377
X-341.825 Y-632.478
X-340.563 Y-633.56
X-339.284 Y-634.623
X-337.989 Y-635.666
X-336.678 Y-636.689
X-335.353 Y-637.693
X-334.011 Y-638.676
X-332.656 Y-639.638
X-331.285 Y-640.58
X-329.901 Y-641.5
X-328.502 Y-642.4
X-327.09 Y-643.278
X-325.665 Y-644.135
X-324.227 Y-644.97
X-322.777 Y-645.783
X-321.315 Y-646.574
X-319.84 Y-647.343
X-318.354 Y-648.089
X-316.857 Y-648.813
X-315.349 Y-649.513
X-313.831 Y-650.19
X-312.302 Y-650.845
X-310.764 Y-651.476
X-309.216 Y-652.083
X-307.659 Y-652.667
X-306.093 Y-653.227
X-304.52 Y-653.764
X-302.938 Y-654.276
X-301.348 Y-654.764
X-299.752 Y-655.228
X-298.148 Y-655.668
X-296.538 Y-656.084
X-294.922 Y-656.475
X-293.3 Y-656.841
X-291.673 Y-657.183
X-290.041 Y-657.5
X-288.404 Y-657.793
X-286.763 Y-658.06
X-285.118 Y-658.303
X-283.469 Y-658.52
X-281.818 Y-658.712
X-280.163 Y-658.88
X-278.507 Y-659.022
X-276.848 Y-659.139
X-275.188 Y-659.231
X-273.526 Y-659.298
X-271.864 Y-659.339
X-270.202 Y-659.356
X-268.539 Y-659.347
X-266.876 Y-659.313
X-265.215 Y-659.255
X-263.554 Y-659.171
X-261.895 Y-659.062
X-260.238 Y-658.928
X-258.582 Y-658.769
X-256.93 Y-658.585
X-255.28 Y-658.376
X-253.634 Y-658.142
X-251.992 Y-657.883
X-250.353 Y-657.599
X-248.719 Y-657.291
X-247.09 Y-656.958
X-245.466 Y-656.601
X-243.848 Y-656.219
X-242.236 Y-655.813
X-240.63 Y-655.382
X-239.03 Y-654.928
X-237.438 Y-654.449
X-235.853 Y-653.947
X-234.275 Y-653.421
X-232.706 Y-652.871
X-231.145 Y-652.297
X-229.593 Y-651.701
X-228.05 Y-651.081
X-226.517 Y-650.438
X-224.993 Y-649.772
X-223.48 Y-649.084
X-221.977 Y-648.372
X-220.485 Y-647.639
X-219.004 Y-646.882
X-217.535 Y-646.104
X-216.077 Y-645.304
X-214.632 Y-644.482
X-213.199 Y-643.639
X-211.779 Y-642.774
X-210.372 Y-641.888
X-208.978 Y-640.981
X-207.598 Y-640.053
X-206.232 Y-639.105
X-204.88 Y-638.137
X-203.543 Y-637.148
X-202.221 Y-636.14
X-200.914 Y-635.112
X-199.623 Y-634.065
X-198.347 Y-632.999
X-197.087 Y-631.913
X-195.844 Y-630.809
X-194.617 Y-629.687
X-193.407 Y-628.546
X-192.215 Y-627.387
X-191.04 Y-626.211
X-189.882 Y-625.017
X-188.742 Y-623.807
X-187.621 Y-622.579
X-186.518 Y-621.335
X-185.433 Y-620.074
X-184.368 Y-618.798
X-183.322 Y-617.506
X-182.294 Y-616.198
X-181.287 Y-614.875
X-180.299 Y-613.538
X-179.331 Y-612.186
X-178.384 Y-610.82
X-177.456 Y-609.439
X-176.55 Y-608.046
X-175.664 Y-606.638
X-174.799 Y-605.218
X-173.956 Y-603.785
X-173.134 Y-602.34
X-172.334 Y-600.882
X-171.555 Y-599.413
X-170.799 Y-597.932
X-170.064 Y-596.441
X-169.352 Y-594.938
X-168.662 Y-593.425
X-167.995 Y-591.902
X-167.35 Y-590.37
X-166.728 Y-588.827
X-166.13 Y-587.276
X-165.554 Y-585.716
X-165.001 Y-584.148
X-164.472 Y-582.572
X-163.966 Y-580.988
X-163.484 Y-579.396
X-163.026 Y-577.798
X-162.591 Y-576.193
X-162.181 Y-574.582
X-161.794 Y-572.965
X-161.432 Y-571.342
X-161.094 Y-569.714
X-160.78 Y-568.081
X-160.49 Y-566.444
X-160.225 Y-564.802
X-159.984 Y-563.157
X-159.768 Y-561.508
X-159.576 Y-559.857
X-159.409 Y-558.202
X-159.267 Y-556.546
X-159.149 Y-554.887
X-159.055 Y-553.227
X-158.987 Y-551.566
X-158.943 Y-549.904
X-158.923 Y-548.241
X-158.929 Y-546.578
X-158.959 Y-544.916
X-159.014 Y-543.254
X-159.094 Y-541.593
X-159.199 Y-539.933
X-159.328 Y-538.276
X-159.482 Y-536.62
X-159.661 Y-534.967
X-159.864 Y-533.317
X-160.092 Y-531.67
X-160.344 Y-530.026
X-160.621 Y-528.387
X-160.922 Y-526.751
X-161.247 Y-525.121
X-161.597 Y-523.495
X-161.97 Y-521.875
X-162.368 Y-520.26
X-162.79 Y-518.652
X-163.235 Y-517.05
X-163.704 Y-515.455
X-164.197 Y-513.867
X-164.714 Y-512.286
X-165.254 Y-510.714
X-165.818 Y-509.15
X-166.405 Y-507.594
X-167.014 Y-506.047
X-167.647 Y-504.509
X-168.303 Y-502.981
X-168.981 Y-501.463
X-169.682 Y-499.955
X-170.406 Y-498.458
X-171.151 Y-496.972
X-171.919 Y-495.497
X-172.708 Y-494.033
X-173.519 Y-492.582
X-174.351 Y-491.143
X-175.205 Y-489.716
X-176.08 Y-488.302
X-176.976 Y-486.901
X-177.892 Y-485.513
X-178.829 Y-484.14
X-179.787 Y-482.78
X-180.764 Y-481.435
X-181.762 Y-480.105
X-182.779 Y-478.79
X-183.816 Y-477.49
X-184.871 Y-476.205
X-185.946 Y-474.937
X-187.04 Y-473.684
X-188.152 Y-472.448
X-189.282 Y-471.229
X-190.431 Y-470.026
X-191.597 Y-468.841
X-192.78 Y-467.673
X-193.981 Y-466.522
X-195.198 Y-465.39
X-196.433 Y-464.276
X-197.683 Y-463.18
X-198.95 Y-462.103
X-200.232 Y-461.045
X-201.531 Y-460.006
X-202.844 Y-458.986
X-204.173 Y-457.986
X-205.516 Y-457.006
X-206.874 Y-456.046
X-208.245 Y-455.107
X-209.631 Y-454.187
X-211.03 Y-453.289
X-212.442 Y-452.411
X-213.867 Y-451.554
X-215.304 Y-450.718
X-216.754 Y-449.904
X-218.216 Y-449.111
X-219.689 Y-448.34
X-221.173 Y-447.591
X-222.668 Y-446.864
X-224.174 Y-446.158
X-225.69 Y-445.476
X-227.216 Y-444.815
X-228.752 Y-444.178
X-230.297 Y-443.563
X-231.851 Y-442.971
X-233.413 Y-442.403
X-234.984 Y-441.857
X-236.563 Y-441.335
X-238.149 Y-440.836
X-239.742 Y-440.361
X-241.343 Y-439.909
X-242.949 Y-439.481
X-244.562 Y-439.077
X-246.181 Y-438.696
X-247.805 Y-438.34
X-249.434 Y-438.007
X-251.068 Y-437.698
X-252.706 Y-437.414
X-254.348 Y-437.154
X-255.994 Y-436.917
X-257.643 Y-436.705
X-259.295 Y-436.518
X-260.95 Y-436.354
X-262.607 Y-436.216
X-264.266 Y-436.101
X-265.926 Y-436.012
X-267.588 Y-435.946
X-269.25 Y-435.905
X-270.913 Y-435.889
X-272.575 Y-435.897
X-274.238 Y-435.929
X-275.9 Y-435.986
X-277.56 Y-436.068
X-279.22 Y-436.173
X-280.877 Y-436.303
X-282.533 Y-436.458
X-284.186 Y-436.636
X-285.836 Y-436.839
X-287.484 Y-437.066
X-289.127 Y-437.317
X-290.767 Y-437.592
X-292.403 Y-437.892
X-294.034 Y-438.215
X-295.66 Y-438.562
X-297.281 Y-438.933
X-298.896 Y-439.328
X-300.505 Y-439.747
X-302.108 Y-440.189
X-303.704 Y-440.654
X-305.294 Y-441.143
X-306.876 Y-441.655
X-308.45 Y-442.19
X-310.016 Y-442.748
X-311.574 Y-443.329
X-313.123 Y-443.933
X-314.664 Y-444.559
X-316.195 Y-445.208
X-317.716 Y-445.879
X-319.227 Y-446.572
X-320.728 Y-447.287
X-322.219 Y-448.024
X-323.698 Y-448.783
X-325.167 Y-449.563
X-326.623 Y-450.365
X-328.068 Y-451.188
X-329.501 Y-452.032
X-330.921 Y-452.897
X-332.328 Y-453.783
X-333.722 Y-454.689
X-335.103 Y-455.615
X-336.47 Y-456.561
X-337.824 Y-457.527
X-339.163 Y-458.513
X-340.487 Y-459.519
X-341.797 Y-460.543
X-343.091 Y-461.586
X-344.371 Y-462.649
X-345.634 Y-463.729
X-346.882 Y-464.828
X-348.114 Y-465.945
X-349.329 Y-467.08
X-350.528 Y-468.232
X-351.71 Y-469.402
X-352.874 Y-470.589
X-354.021 Y-471.793
X-355.15 Y-473.013
X-356.262 Y-474.25
X-357.355 Y-475.503
X-358.43 Y-476.772
X-359.486 Y-478.056
X-360.523 Y-479.355
X-361.542 Y-480.669
X-362.541 Y-481.998
X-363.521 Y-483.342
X-364.481 Y-484.699
X-365.422 Y-486.071
X-366.342 Y-487.455
X-367.242 Y-488.853
X-368.122 Y-490.264
X-368.981 Y-491.688
X-369.819 Y-493.124
X-370.637 Y-494.572
X-371.433 Y-496.031
X-372.208 Y-497.503
X-372.961 Y-498.985
X-373.693 Y-500.478
X-374.403 Y-501.982
X-375.091 Y-503.495
X-375.757 Y-505.019
X-376.4 Y-506.552
X-377.022 Y-508.094
X-377.621 Y-509.646
X-378.197 Y-511.205
X-378.751 Y-512.773
X-379.281 Y-514.349
X-379.789 Y-515.932
X-380.274 Y-517.523
X-380.736 Y-519.12
X-381.175 Y-520.724
X-381.59 Y-522.334
X-381.982 Y-523.95
X-382.35 Y-525.571
X-382.695 Y-527.198
X-383.016 Y-528.829
X-383.314 Y-530.465
X-383.587 Y-532.105
X-383.837 Y-533.749
X-384.063 Y-535.397
X-384.264 Y-537.047
X-384.442 Y-538.7
X-384.596 Y-540.356
X-384.726 Y-542.014
X-384.832 Y-543.673
X-384.914 Y-545.334
X-384.971 Y-546.995
X-385.005 Y-548.658
X-385.015 Y-550.321
X-385 Y-551.983
X-384.962 Y-553.646
X-384.899 Y-555.307
X-384.813 Y-556.968
X-384.702 Y-558.627
X-384.567 Y-560.284
X-384.408 Y-561.939
X-384.226 Y-563.592
X-384.019 Y-565.242
X-383.788 Y-566.888
X-383.533 Y-568.531
X-383.255 Y-570.171
X-382.953 Y-571.806
X-382.627 Y-573.436
X-382.278 Y-575.062
X-381.905 Y-576.682
X-381.508 Y-578.297
X-381.089 Y-579.906
X-380.646 Y-581.509
X-380.18 Y-583.105
X-379.691 Y-584.694
X-379.179 Y-586.276
X-378.644 Y-587.851
X-378.087 Y-589.417
X-377.507 Y-590.975
X-376.905 Y-592.525
X-376.28 Y-594.066
X-375.632 Y-595.598
X-374.963 Y-597.12
X-374.271 Y-598.632
X-373.558 Y-600.134
X-372.823 Y-601.625
X-372.066 Y-603.106
X-371.289 Y-604.576
X-370.49 Y-606.034
X-369.669 Y-607.48
X-368.829 Y-608.915
X-367.967 Y-610.337
X-367.085 Y-611.746
X-366.183 Y-613.143
X-365.26 Y-614.526
X-364.318 Y-615.896
X-363.356 Y-617.253
X-362.375 Y-618.595
X-361.374 Y-619.923
X-360.354 Y-621.236
X-359.315 Y-622.534
X-358.258 Y-623.817
X-357.182 Y-625.085
X-356.088 Y-626.337
X-354.975 Y-627.573
X-353.845 Y-628.793
X-352.698 Y-629.996
X-351.533 Y-631.182
X-350.351 Y-632.352
X-349.152 Y-633.504
X-347.937 Y-634.639
X-346.705 Y-635.756
X-345.458 Y-636.855
X-344.194 Y-637.937
X-342.916 Y-638.999
X-341.622 Y-640.044
X-340.313 Y-641.069
X-338.989 Y-642.075
X-337.651 Y-643.063
X-336.299 Y-644.03
X-334.933 Y-644.978
X-333.553 Y-645.907
X-332.161 Y-646.815
X-330.755 Y-647.702
X-329.336 Y-648.57
X-327.905 Y-649.416
X-326.462 Y-650.242
X-325.007 Y-651.047
X-323.541 Y-651.831
X-322.063 Y-652.594
X-320.575 Y-653.335
X-319.076 Y-654.054
X-317.566 Y-654.752
X-316.047 Y-655.428
X-314.519 Y-656.082
X-312.981 Y-656.714
X-311.434 Y-657.324
X-309.878 Y-657.911
X-308.314 Y-658.476
X-306.742 Y-659.019
X-305.163 Y-659.538
X-303.576 Y-660.035
X-301.982 Y-660.508
X-300.381 Y-660.958
X-298.774 Y-661.385
X-297.161 Y-661.789
X-295.543 Y-662.17
X-293.919 Y-662.527
X-292.29 Y-662.861
X-290.656 Y-663.171
X-289.019 Y-663.458
X-287.377 Y-663.72
X-285.731 Y-663.96
X-284.083 Y-664.175
X-282.431 Y-664.367
X-280.777 Y-664.535
X-279.12 Y-664.68
X-277.462 Y-664.8
X-275.802 Y-664.897
X-274.141 Y-664.969
X-272.479 Y-665.018
X-270.816 Y-665.043
X-269.153 Y-665.044
X-267.491 Y-665.02
X-265.829 Y-664.973
X-264.167 Y-664.902
X-262.507 Y-664.807
X-260.849 Y-664.688
X-259.192 Y-664.546
X-257.538 Y-664.379
X-255.886 Y-664.189
X-254.237 Y-663.975
X-252.591 Y-663.738
X-250.949 Y-663.477
X-249.311 Y-663.192
X-247.677 Y-662.884
X-246.048 Y-662.553
X-244.423 Y-662.198
X-242.804 Y-661.821
X-241.19 Y-661.42
X-239.582 Y-660.996
X-237.981 Y-660.549
X-236.386 Y-660.079
X-234.798 Y-659.586
X-233.217 Y-659.071
X-231.644 Y-658.533
X-230.078 Y-657.972
X-228.521 Y-657.39
X-226.972 Y-656.784
X-225.432 Y-656.157
X-223.901 Y-655.508
X-222.38 Y-654.838
X-220.868 Y-654.145
X-219.366 Y-653.431
X-217.875 Y-652.696
X-216.394 Y-651.94
X-214.924 Y-651.163
X-213.466 Y-650.365
X-212.018 Y-649.546
X-210.583 Y-648.706
X-209.16 Y-647.847
X-207.749 Y-646.967
X-206.351 Y-646.067
X-204.965 Y-645.148
X-203.593 Y-644.208
X-202.235 Y-643.249
X-200.89 Y-642.271
X-199.56 Y-641.274
X-198.243 Y-640.258
X-196.941 Y-639.224
X-195.655 Y-638.171
X-194.383 Y-637.1
X-193.126 Y-636.011
X-191.885 Y-634.904
X-190.66 Y-633.78
X-189.451 Y-632.639
X-188.258 Y-631.481
X-187.082 Y-630.305
X-185.922 Y-629.114
X-184.779 Y-627.906
X-183.654 Y-626.682
X-182.546 Y-625.442
X-181.456 Y-624.187
X-180.383 Y-622.916
X-179.329 Y-621.63
X-178.294 Y-620.329
X-177.276 Y-619.014
X-176.278 Y-617.684
X-175.298 Y-616.34
X-174.338 Y-614.983
X-173.397 Y-613.612
X-172.475 Y-612.228
X-171.574 Y-610.831
X-170.692 Y-609.422
X-169.829 Y-608
X-168.988 Y-606.566
X-168.166 Y-605.121
X-167.365 Y-603.663
X-166.585 Y-602.195
X-165.825 Y-600.716
X-165.087 Y-599.226
X-164.369 Y-597.726
X-163.673 Y-596.216
X-162.998 Y-594.697
X-162.345 Y-593.168
X-161.714 Y-591.629
X-161.105 Y-590.082
X-160.517 Y-588.527
X-159.952 Y-586.963
X-159.409 Y-585.391
X-158.888 Y-583.812
X-158.389 Y-582.226
X-157.913 Y-580.633
X-157.46 Y-579.033
X-157.029 Y-577.427
X-156.621 Y-575.815
X-156.236 Y-574.198
X-155.874 Y-572.575
X-155.534 Y-570.947
X-155.218 Y-569.315
X-154.925 Y-567.678
X-154.655 Y-566.037
X-154.408 Y-564.393
X-154.184 Y-562.745
X-153.984 Y-561.095
X-153.807 Y-559.441
X-153.654 Y-557.786
X-153.524 Y-556.128
X-153.418 Y-554.469
X-153.336 Y-552.808
X-153.276 Y-551.146
X-153.241 Y-549.484
X-153.229 Y-547.821
X-153.24 Y-546.159
X-153.275 Y-544.496
X-153.334 Y-542.834
X-153.416 Y-541.174
X-153.521 Y-539.514
X-153.65 Y-537.857
X-153.802 Y-536.201
X-153.978 Y-534.547
X-154.177 Y-532.897
X-154.399 Y-531.249
X-154.645 Y-529.604
X-154.914 Y-527.963
X-155.206 Y-526.327
X-155.522 Y-524.694
X-155.861 Y-523.066
X-156.222 Y-521.443
X-156.607 Y-519.826
X-157.015 Y-518.214
X-157.445 Y-516.607
X-157.898 Y-515.008
X-158.374 Y-513.414
X-158.872 Y-511.828
X-159.393 Y-510.249
X-159.936 Y-508.677
X-160.501 Y-507.113
X-161.088 Y-505.558
X-161.697 Y-504.011
X-162.328 Y-502.472
X-162.98 Y-500.943
X-163.654 Y-499.423
X-164.35 Y-497.913
X-165.067 Y-496.412
X-165.805 Y-494.922
X-166.564 Y-493.443
X-167.344 Y-491.975
X-168.145 Y-490.518
X-168.967 Y-489.072
X-169.808 Y-487.638
X-170.671 Y-486.216
X-171.553 Y-484.807
X-172.455 Y-483.41
X-173.376 Y-482.026
X-174.318 Y-480.655
X-175.278 Y-479.298
X-176.257 Y-477.954
X-177.256 Y-476.625
X-178.273 Y-475.309
X-179.309 Y-474.008
X-180.362 Y-472.722
X-181.434 Y-471.451
X-182.524 Y-470.195
X-183.631 Y-468.955
X-184.756 Y-467.73
X-185.898 Y-466.522
X-187.057 Y-465.329
X-188.233 Y-464.154
X-189.425 Y-462.995
X-190.634 Y-461.853
X-191.859 Y-460.728
X-193.099 Y-459.621
X-194.355 Y-458.532
X-195.626 Y-457.46
X-196.913 Y-456.406
X-198.214 Y-455.371
X-199.529 Y-454.354
X-200.859 Y-453.355
X-202.202 Y-452.376
X-203.56 Y-451.415
X-204.93 Y-450.474
X-206.314 Y-449.552
X-207.711 Y-448.65
X-209.12 Y-447.767
X-210.541 Y-446.904
X-211.975 Y-446.062
X-213.42 Y-445.24
X-214.877 Y-444.438
X-216.345 Y-443.657
X-217.824 Y-442.897
X-219.313 Y-442.158
X-220.813 Y-441.44
X-222.322 Y-440.743
X-223.842 Y-440.067
X-225.37 Y-439.413
X-226.908 Y-438.78
X-228.455 Y-438.169
X-230.009 Y-437.58
X-231.572 Y-437.013
X-233.143 Y-436.468
X-234.722 Y-435.945
X-236.307 Y-435.444
X-237.899 Y-434.965
X-239.498 Y-434.509
X-241.104 Y-434.075
X-242.715 Y-433.664
X-244.331 Y-433.276
X-245.953 Y-432.91
X-247.581 Y-432.567
X-249.212 Y-432.248
X-250.848 Y-431.951
X-252.488 Y-431.677
X-254.132 Y-431.426
X-255.779 Y-431.199
X-257.429 Y-430.994
X-259.082 Y-430.813
X-260.737 Y-430.654
X-262.395 Y-430.519
X-262.572 Y-430.507
X-262.646 Y-430.503
X-262.72 Y-430.501
X-262.794 Y-430.5
X-274.484
X-276.145 Y-430.583
X-277.807 Y-430.611
X-279.469 Y-430.672
X-281.129 Y-430.765
X-282.788 Y-430.886
X-284.444 Y-431.036
X-286.097 Y-431.214
X-287.747 Y-431.418
X-289.394 Y-431.648
X-291.037 Y-431.904
X-292.676 Y-432.185
X-294.31 Y-432.49
X-295.94 Y-432.819
X-297.565 Y-433.172
X-299.184 Y-433.548
X-300.798 Y-433.948
X-302.407 Y-434.37
X-304.009 Y-434.816
X-305.604 Y-435.284
X-307.193 Y-435.774
X-308.774 Y-436.287
X-310.349 Y-436.822
X-311.915 Y-437.38
X-313.474 Y-437.959
X-315.025 Y-438.559
X-316.567 Y-439.181
X-318.1 Y-439.825
X-319.624 Y-440.49
X-321.138 Y-441.176
X-322.643 Y-441.884
X-324.138 Y-442.612
X-325.622 Y-443.361
X-327.096 Y-444.131
X-328.559 Y-444.922
X-330.01 Y-445.732
X-331.451 Y-446.563
X-332.879 Y-447.414
X-334.296 Y-448.285
X-335.7 Y-449.175
X-337.092 Y-450.085
X-338.471 Y-451.014
X-339.837 Y-451.962
X-341.19 Y-452.929
X-342.529 Y-453.914
X-343.854 Y-454.918
X-345.166 Y-455.941
X-346.463 Y-456.981
X-347.745 Y-458.039
X-349.013 Y-459.115
X-350.266 Y-460.208
X-351.503 Y-461.319
X-352.725 Y-462.447
X-353.931 Y-463.592
X-355.12 Y-464.754
X-356.294 Y-465.932
X-357.451 Y-467.126
X-358.591 Y-468.336
X-359.715 Y-469.562
X-360.821 Y-470.803
X-361.91 Y-472.06
X-362.981 Y-473.331
X-364.035 Y-474.617
X-365.071 Y-475.918
X-366.089 Y-477.233
X-367.088 Y-478.561
X-368.069 Y-479.904
X-369.032 Y-481.26
X-369.975 Y-482.629
X-370.9 Y-484.011
X-371.805 Y-485.406
X-372.691 Y-486.813
X-373.558 Y-488.232
X-374.404 Y-489.663
X-375.231 Y-491.106
X-376.037 Y-492.56
X-376.823 Y-494.025
X-377.589 Y-495.501
X-378.334 Y-496.988
X-379.058 Y-498.484
X-379.762 Y-499.991
X-380.445 Y-501.507
X-381.106 Y-503.032
X-381.747 Y-504.567
X-382.366 Y-506.11
X-382.964 Y-507.661
X-383.541 Y-509.221
X-384.096 Y-510.788
X-384.629 Y-512.363
X-385.141 Y-513.945
X-385.63 Y-515.534
X-386.098 Y-517.13
X-386.544 Y-518.732
X-386.967 Y-520.34
X-387.368 Y-521.954
X-387.746 Y-523.573
X-388.102 Y-525.197
X-388.436 Y-526.826
X-388.746 Y-528.459
X-389.035 Y-530.097
X-389.3 Y-531.738
X-389.543 Y-533.383
X-389.763 Y-535.031
X-389.96 Y-536.682
X-390.135 Y-538.336
X-390.286 Y-539.992
X-390.415 Y-541.65
X-390.521 Y-543.309
X-390.604 Y-544.97
X-390.665 Y-546.631
