%
(1001)
(origin stock top)
(T1  D=12.7 CR=0 - ZMIN=-12 - flat end mill)
G90 G94
G17
G21

(top_left)
M9
T1 M6
S6500 M3
G54
G0 X-213.483 Y-205.069
Z15
Z5
Z2.55
G3 X-206.533 Y-214.931 Z0.558 I3.475 J-4.931 F283.3
X-213.483 Y-205.069 Z-1.434 I-3.475 J4.931
X-206.533 Y-214.931 Z-3.426 I3.475 J-4.931
X-213.483 Y-205.069 Z-5.418 I-3.475 J4.931
X-206.533 Y-214.931 Z-7.409 I3.475 J-4.931
X-213.483 Y-205.069 Z-9.401 I-3.475 J4.931
X-206.533 Y-214.931 Z-11.393 I3.475 J-4.931
X-203.976 Y-210 Z-12 I-3.475 J4.931
X-216.041 I-6.033
X-203.976 I6.033
G1 X-203.972 Y-209.677 F849.6
X-203.94 Y-209.356
X-203.699 Y-208.086
X-203.65 Y-207.929
X-203.606 Y-207.753
X-203.572 Y-207.558
X-203.549 Y-207.345
X-203.54 Y-207.114
X-203.546 Y-206.866
X-203.57 Y-206.602
X-203.615 Y-206.325
X-203.681 Y-206.034
X-203.771 Y-205.734
X-203.887 Y-205.424
X-204.029 Y-205.109
X-204.199 Y-204.79
X-204.397 Y-204.471
X-204.625 Y-204.154
X-204.882 Y-203.842
X-205.168 Y-203.538
X-205.483 Y-203.245
X-205.827 Y-202.966
X-206.197 Y-202.704
X-206.593 Y-202.461
X-207.013 Y-202.241
X-207.455 Y-202.045
X-207.917 Y-201.875
X-208.398 Y-201.735
X-208.893 Y-201.625
X-209.402 Y-201.548
X-209.921 Y-201.503
X-210.447 Y-201.493
X-210.978 Y-201.518
X-211.511 Y-201.579
X-212.043 Y-201.676
X-212.57 Y-201.809
X-213.092 Y-201.978
X-213.603 Y-202.182
X-214.103 Y-202.42
X-214.588 Y-202.693
X-215.055 Y-202.998
X-215.503 Y-203.335
X-215.929 Y-203.702
X-216.331 Y-204.098
X-216.707 Y-204.52
X-217.054 Y-204.967
X-217.372 Y-205.438
X-217.659 Y-205.929
X-217.912 Y-206.439
X-218.132 Y-206.966
X-218.316 Y-207.506
X-218.465 Y-208.059
X-218.576 Y-208.62
X-218.65 Y-209.188
X-218.686 Y-209.76
X-218.685 Y-210.334
X-218.645 Y-210.907
X-218.567 Y-211.476
X-218.451 Y-212.039
X-218.299 Y-212.593
X-218.11 Y-213.136
X-217.885 Y-213.666
X-217.626 Y-214.179
X-217.333 Y-214.675
X-217.007 Y-215.15
X-216.651 Y-215.603
X-216.266 Y-216.031
X-215.853 Y-216.432
X-215.414 Y-216.805
X-214.951 Y-217.149
X-214.466 Y-217.461
X-213.962 Y-217.74
X-213.441 Y-217.985
X-212.904 Y-218.196
X-212.354 Y-218.37
X-211.794 Y-218.507
X-211.226 Y-218.607
X-210.653 Y-218.669
X-210.077 Y-218.692
X-209.5 Y-218.678
X-208.926 Y-218.625
X-208.356 Y-218.534
X-207.794 Y-218.406
X-207.242 Y-218.241
X-206.701 Y-218.039
X-206.175 Y-217.802
X-205.666 Y-217.531
X-205.177 Y-217.227
X-204.708 Y-216.89
X-204.263 Y-216.524
X-203.843 Y-216.128
X-203.45 Y-215.706
X-203.086 Y-215.258
X-202.752 Y-214.788
X-202.451 Y-214.296
X-201.876 Y-213.202
X-201.434 Y-212.206
X-201.128 Y-211.369
X-200.909 Y-210.62
X-200.751 Y-209.911
X-200.649 Y-209.241
X-200.593 Y-208.594
X-200.581 Y-207.962
X-200.61 Y-207.343
X-200.68 Y-206.735
X-200.788 Y-206.139
X-200.935 Y-205.554
X-201.12 Y-204.981
X-201.344 Y-204.421
X-201.605 Y-203.874
X-201.903 Y-203.343
X-202.239 Y-202.828
X-202.611 Y-202.333
X-203.02 Y-201.858
X-203.463 Y-201.407
X-203.941 Y-200.982
X-204.452 Y-200.585
X-204.993 Y-200.219
X-205.564 Y-199.886
X-206.161 Y-199.589
X-206.783 Y-199.33
X-207.426 Y-199.11
X-208.089 Y-198.932
X-208.767 Y-198.797
X-209.459 Y-198.707
X-210.16 Y-198.662
X-210.869 Y-198.664
X-211.58 Y-198.713
X-212.292 Y-198.81
X-213 Y-198.955
X-213.701 Y-199.148
X-214.392 Y-199.389
X-215.069 Y-199.676
X-215.729 Y-200.009
X-216.368 Y-200.386
X-216.983 Y-200.807
X-217.571 Y-201.269
X-218.128 Y-201.771
X-218.653 Y-202.311
X-219.142 Y-202.885
X-219.593 Y-203.493
X-220.004 Y-204.13
X-220.372 Y-204.794
X-220.696 Y-205.482
X-220.974 Y-206.192
X-221.204 Y-206.92
X-221.386 Y-207.662
X-221.519 Y-208.415
X-221.601 Y-209.177
X-221.633 Y-209.943
X-221.614 Y-210.71
X-221.544 Y-211.475
X-221.423 Y-212.233
X-221.253 Y-212.983
X-221.032 Y-213.72
X-220.764 Y-214.441
X-220.447 Y-215.144
X-220.085 Y-215.824
X-219.679 Y-216.478
X-219.229 Y-217.105
X-218.739 Y-217.7
X-218.211 Y-218.262
X-217.646 Y-218.787
X-217.048 Y-219.274
X-216.418 Y-219.721
X-215.76 Y-220.124
X-215.077 Y-220.484
X-214.371 Y-220.797
X-213.646 Y-221.063
X-212.905 Y-221.28
X-212.151 Y-221.447
X-211.388 Y-221.564
X-210.618 Y-221.63
X-209.846 Y-221.645
X-209.074 Y-221.609
X-208.306 Y-221.522
X-207.546 Y-221.384
X-206.797 Y-221.196
X-206.062 Y-220.958
X-205.344 Y-220.672
X-204.646 Y-220.34
X-203.972 Y-219.962
X-203.325 Y-219.539
X-202.707 Y-219.075
X-202.057 Y-218.516
X-201.43 Y-217.899
X-200.796 Y-217.188
X-200.195 Y-216.415
X-199.646 Y-215.602
X-199.155 Y-214.762
X-198.728 Y-213.905
X-198.366 Y-213.038
X-198.068 Y-212.166
X-197.833 Y-211.293
X-197.66 Y-210.424
X-197.547 Y-209.56
X-197.492 Y-208.703
X-197.495 Y-207.854
X-197.553 Y-207.014
X-197.665 Y-206.186
X-197.832 Y-205.37
X-198.052 Y-204.569
X-198.325 Y-203.785
X-198.648 Y-203.021
X-199.023 Y-202.278
X-199.447 Y-201.56
X-199.92 Y-200.869
X-200.439 Y-200.208
X-201.004 Y-199.58
X-201.613 Y-198.988
X-202.263 Y-198.434
X-202.952 Y-197.922
X-203.678 Y-197.454
X-204.438 Y-197.032
X-205.23 Y-196.66
X-206.049 Y-196.339
X-206.893 Y-196.071
X-207.758 Y-195.858
X-208.64 Y-195.703
X-209.537 Y-195.605
X-210.444 Y-195.568
X-211.357 Y-195.59
X-212.271 Y-195.673
X-213.183 Y-195.818
X-214.088 Y-196.024
X-214.981 Y-196.291
X-215.858 Y-196.617
X-216.716 Y-197.003
X-217.549 Y-197.447
X-218.354 Y-197.946
X-219.126 Y-198.5
X-219.862 Y-199.105
X-220.559 Y-199.76
X-221.212 Y-200.462
X-221.819 Y-201.207
X-222.376 Y-201.992
X-222.881 Y-202.814
X-223.331 Y-203.669
X-223.723 Y-204.554
X-224.057 Y-205.464
X-224.33 Y-206.396
X-224.541 Y-207.345
X-224.689 Y-208.307
X-224.773 Y-209.277
X-224.792 Y-210.252
X-224.747 Y-211.227
X-224.637 Y-212.197
X-224.462 Y-213.159
X-224.224 Y-214.107
X-223.924 Y-215.038
X-223.562 Y-215.948
X-223.141 Y-216.832
X-222.662 Y-217.686
X-222.126 Y-218.508
X-221.538 Y-219.292
X-220.898 Y-220.035
X-220.211 Y-220.735
X-219.478 Y-221.388
X-218.703 Y-221.99
X-217.891 Y-222.541
X-217.043 Y-223.036
X-216.164 Y-223.474
X-215.258 Y-223.853
X-214.328 Y-224.17
X-213.38 Y-224.426
X-212.416 Y-224.618
X-211.442 Y-224.746
X-210.462 Y-224.809
X-209.479 Y-224.807
X-208.498 Y-224.739
X-207.525 Y-224.607
X-206.562 Y-224.41
X-205.614 Y-224.15
X-204.685 Y-223.828
X-203.766 Y-223.439
X-202.86 Y-222.982
X-201.962 Y-222.452
X-201.081 Y-221.85
X-200.228 Y-221.179
X-199.409 Y-220.443
X-198.63 Y-219.643
X-197.899 Y-218.786
X-197.223 Y-217.876
X-196.609 Y-216.924
X-196.06 Y-215.935
X-195.581 Y-214.917
X-195.173 Y-213.879
X-194.838 Y-212.825
X-194.576 Y-211.759
X-194.387 Y-210.688
X-194.27 Y-209.614
X-194.225 Y-208.541
X-194.251 Y-207.474
X-194.348 Y-206.414
X-194.513 Y-205.367
X-194.748 Y-204.335
X-195.05 Y-203.323
X-195.418 Y-202.332
X-195.852 Y-201.368
X-196.349 Y-200.434
X-196.907 Y-199.534
X-197.526 Y-198.67
X-198.202 Y-197.847
X-198.934 Y-197.069
X-199.718 Y-196.338
X-200.553 Y-195.658
X-201.433 Y-195.033
X-202.358 Y-194.465
X-203.322 Y-193.958
X-204.322 Y-193.513
X-205.354 Y-193.134
X-206.413 Y-192.823
X-207.497 Y-192.582
X-208.599 Y-192.413
X-209.715 Y-192.316
X-210.84 Y-192.293
X-211.969 Y-192.346
X-213.097 Y-192.473
X-214.219 Y-192.677
X-215.33 Y-192.955
X-216.424 Y-193.308
X-217.496 Y-193.734
X-218.542 Y-194.232
X-219.555 Y-194.8
X-220.531 Y-195.436
X-221.466 Y-196.137
X-222.354 Y-196.9
X-223.192 Y-197.723
X-223.975 Y-198.602
X-224.7 Y-199.532
X-225.362 Y-200.51
X-225.959 Y-201.532
X-226.488 Y-202.593
X-226.946 Y-203.688
X-227.331 Y-204.813
X-227.641 Y-205.962
X-227.875 Y-207.13
X-228.03 Y-208.313
X-228.107 Y-209.504
X-228.104 Y-210.699
X-228.023 Y-211.892
X-227.862 Y-213.077
X-227.623 Y-214.25
X-227.306 Y-215.406
X-226.913 Y-216.538
X-226.446 Y-217.642
X-225.906 Y-218.714
X-225.297 Y-219.748
X-224.62 Y-220.739
X-223.878 Y-221.683
X-223.075 Y-222.577
X-222.214 Y-223.415
X-221.3 Y-224.195
X-220.335 Y-224.912
X-219.325 Y-225.564
X-218.274 Y-226.148
X-217.186 Y-226.661
X-216.067 Y-227.101
X-214.92 Y-227.465
X-213.752 Y-227.753
X-212.567 Y-227.962
X-211.371 Y-228.093
X-210.169 Y-228.144
X-208.966 Y-228.115
X-207.767 Y-228.006
X-206.575 Y-227.817
X-205.392 Y-227.549
X-204.219 Y-227.199
X-203.058 Y-226.768
X-201.915 Y-226.255
X-200.795 Y-225.659
X-199.704 Y-224.982
X-198.653 Y-224.23
X-197.654 Y-223.41
X-196.711 Y-222.527
X-195.827 Y-221.585
X-195.005 Y-220.588
X-194.249 Y-219.54
X-193.561 Y-218.446
X-192.945 Y-217.311
X-192.403 Y-216.138
X-191.938 Y-214.933
X-191.552 Y-213.7
X-191.247 Y-212.444
X-191.024 Y-211.171
X-190.886 Y-209.887
X-190.832 Y-208.596
X-190.864 Y-207.304
X-190.981 Y-206.019
X-191.183 Y-204.747
X-191.469 Y-203.491
X-191.837 Y-202.259
X-192.285 Y-201.053
X-192.813 Y-199.88
X-193.419 Y-198.743
X-194.099 Y-197.647
X-194.851 Y-196.597
X-195.672 Y-195.599
X-196.557 Y-194.658
X-197.502 Y-193.777
X-198.503 Y-192.96
X-199.556 Y-192.211
X-200.655 Y-191.532
X-201.797 Y-190.926
X-202.975 Y-190.396
X-204.185 Y-189.944
X-205.422 Y-189.571
X-206.681 Y-189.278
X-207.956 Y-189.067
X-209.241 Y-188.938
X-210.532 Y-188.891
X-211.824 Y-188.925
X-213.111 Y-189.041
X-214.388 Y-189.238
X-215.65 Y-189.514
X-216.892 Y-189.869
X-218.111 Y-190.299
X-219.3 Y-190.805
X-220.455 Y-191.382
X-221.573 Y-192.03
X-222.649 Y-192.746
X-223.679 Y-193.526
X-224.658 Y-194.37
X-225.583 Y-195.271
X-226.451 Y-196.229
X-227.259 Y-197.237
X-228.004 Y-198.293
X-228.683 Y-199.391
X-229.295 Y-200.529
X-229.838 Y-201.702
X-230.308 Y-202.905
X-230.706 Y-204.135
X-231.028 Y-205.386
X-231.273 Y-206.655
X-231.44 Y-207.936
X-231.529 Y-209.225
X-231.54 Y-210.517
X-231.473 Y-211.807
X-231.329 Y-213.091
X-231.109 Y-214.364
X-230.813 Y-215.622
X-230.442 Y-216.86
X-229.998 Y-218.073
X-229.481 Y-219.257
X-228.894 Y-220.408
X-228.238 Y-221.521
X-227.516 Y-222.592
X-226.73 Y-223.618
X-225.885 Y-224.596
X-224.983 Y-225.521
X-224.028 Y-226.391
X-223.022 Y-227.202
X-221.97 Y-227.952
X-220.875 Y-228.638
X-219.741 Y-229.256
X-218.571 Y-229.805
X-217.37 Y-230.281
X-216.143 Y-230.685
X-214.893 Y-231.015
X-213.627 Y-231.269
X-212.347 Y-231.448
X-211.059 Y-231.551
X-209.767 Y-231.577
X-208.476 Y-231.525
X-207.19 Y-231.396
X-205.915 Y-231.19
X-204.654 Y-230.908
X-203.412 Y-230.552
X-202.193 Y-230.125
X-201 Y-229.629
X-199.837 Y-229.066
X-198.708 Y-228.437
X-197.618 Y-227.743
X-196.569 Y-226.989
X-195.564 Y-226.177
X-194.605 Y-225.311
X-193.696 Y-224.393
X-192.837 Y-223.428
X-192.033 Y-222.416
X-191.288 Y-221.361
X-190.602 Y-220.266
X-189.977 Y-219.135
X-189.415 Y-217.971
X-188.917 Y-216.779
X-188.485 Y-215.562
X-188.122 Y-214.322
X-187.83 Y-213.063
X-187.608 Y-211.79
X-187.458 Y-210.507
X-187.379 Y-209.217
X-187.371 Y-207.925
X-187.435 Y-206.635
X-187.573 Y-205.35
X-187.785 Y-204.075
X-188.068 Y-202.815
X-188.421 Y-201.572
X-188.843 Y-200.351
X-189.332 Y-199.155
X-189.887 Y-197.988
X-190.51 Y-196.856
X-191.195 Y-195.761
X-191.941 Y-194.706
X-192.745 Y-193.694
X-193.604 Y-192.729
X-194.514 Y-191.812
X-195.475 Y-190.948
X-196.484 Y-190.141
X-197.536 Y-189.392
X-198.629 Y-188.702
X-199.758 Y-188.073
X-200.919 Y-187.507
X-202.11 Y-187.005
X-203.327 Y-186.571
X-204.566 Y-186.205
X-205.823 Y-185.909
X-207.095 Y-185.681
X-208.378 Y-185.523
X-209.667 Y-185.433
X-210.958 Y-185.413
X-212.249 Y-185.464
X-213.536 Y-185.585
X-214.814 Y-185.776
X-216.08 Y-186.035
X-217.33 Y-186.36
X-218.562 Y-186.751
X-219.771 Y-187.205
X-220.954 Y-187.725
X-222.107 Y-188.308
X-223.228 Y-188.951
X-224.313 Y-189.652
X-225.36 Y-190.41
X-226.365 Y-191.221
X-227.327 Y-192.084
X-228.242 Y-192.997
X-229.106 Y-193.957
X-229.918 Y-194.962
X-230.677 Y-196.007
X-231.381 Y-197.09
X-232.029 Y-198.209
X-232.618 Y-199.358
X-233.146 Y-200.538
X-233.61 Y-201.744
X-234.011 Y-202.972
X-234.347 Y-204.22
X-234.618 Y-205.483
X-234.823 Y-206.758
X-234.963 Y-208.043
X-235.036 Y-209.333
X-235.04 Y-210.625
X-234.977 Y-211.916
X-234.847 Y-213.201
X-234.652 Y-214.478
X-234.392 Y-215.744
X-234.068 Y-216.995
X-233.679 Y-218.227
X-233.225 Y-219.437
X-232.709 Y-220.621
X-232.132 Y-221.777
X-231.497 Y-222.902
X-230.804 Y-223.993
X-230.058 Y-225.048
X-229.258 Y-226.062
X-228.405 Y-227.033
X-227.503 Y-227.958
X-226.555 Y-228.836
X-225.564 Y-229.664
X-224.531 Y-230.441
X-223.46 Y-231.164
X-222.353 Y-231.83
X-221.213 Y-232.437
X-220.042 Y-232.984
X-218.845 Y-233.47
X-217.624 Y-233.893
X-216.383 Y-234.254
X-215.126 Y-234.551
X-213.855 Y-234.784
X-212.574 Y-234.951
X-211.285 Y-235.05
X-209.994 Y-235.082
X-208.702 Y-235.048
X-207.414 Y-234.949
X-206.132 Y-234.784
X-204.861 Y-234.555
X-203.603 Y-234.261
X-202.361 Y-233.903
X-201.139 Y-233.483
X-199.94 Y-233.002
X-198.766 Y-232.463
X-197.62 Y-231.866
X-196.504 Y-231.214
X-195.422 Y-230.508
X-194.376 Y-229.75
X-193.369 Y-228.941
X-192.402 Y-228.084
X-191.477 Y-227.181
X-190.597 Y-226.235
X-189.763 Y-225.248
X-188.977 Y-224.223
X-188.241 Y-223.161
X-187.558 Y-222.064
X-186.929 Y-220.936
X-186.355 Y-219.778
X-185.836 Y-218.595
X-185.374 Y-217.388
X-184.971 Y-216.161
X-184.627 Y-214.915
X-184.345 Y-213.654
X-184.124 Y-212.381
X-183.966 Y-211.099
X-183.869 Y-209.811
X-183.835 Y-208.519
X-183.863 Y-207.227
X-183.954 Y-205.938
X-184.108 Y-204.655
X-184.325 Y-203.382
X-184.604 Y-202.12
X-184.945 Y-200.874
X-185.345 Y-199.645
X-185.804 Y-198.438
X-186.322 Y-197.254
X-186.896 Y-196.097
X-187.527 Y-194.969
X-188.214 Y-193.874
X-188.952 Y-192.814
X-189.741 Y-191.791
X-190.579 Y-190.807
X-191.463 Y-189.865
X-192.391 Y-188.966
X-193.362 Y-188.114
X-194.374 Y-187.311
X-195.424 Y-186.558
X-196.509 Y-185.856
X-197.627 Y-185.208
X-198.774 Y-184.613
X-199.948 Y-184.073
X-201.146 Y-183.591
X-202.367 Y-183.167
X-203.606 Y-182.803
X-204.862 Y-182.498
X-206.131 Y-182.254
X-207.41 Y-182.069
X-208.696 Y-181.945
X-209.986 Y-181.88
X-211.278 Y-181.877
X-212.569 Y-181.936
X-213.855 Y-182.056
X-215.135 Y-182.237
X-216.404 Y-182.476
X-217.662 Y-182.774
X-218.904 Y-183.13
X-220.128 Y-183.543
X-221.332 Y-184.012
X-222.512 Y-184.538
X-223.666 Y-185.118
X-224.793 Y-185.752
X-225.888 Y-186.436
X-226.952 Y-187.17
X-227.98 Y-187.952
X-228.972 Y-188.78
X-229.924 Y-189.653
X-230.835 Y-190.57
X-231.702 Y-191.528
X-232.524 Y-192.525
X-233.3 Y-193.558
X-234.028 Y-194.625
X-234.708 Y-195.724
X-235.337 Y-196.853
X-235.914 Y-198.009
X-236.436 Y-199.191
X-236.903 Y-200.395
X-237.315 Y-201.62
X-237.671 Y-202.862
X-237.97 Y-204.119
X-238.213 Y-205.388
X-238.398 Y-206.667
X-238.525 Y-207.953
X-238.591 Y-209.243
X-238.599 Y-210.535
X-238.548 Y-211.826
X-238.439 Y-213.114
X-238.273 Y-214.395
X-238.049 Y-215.667
X-237.769 Y-216.929
X-237.431 Y-218.176
X-237.036 Y-219.406
X-236.585 Y-220.617
X-236.079 Y-221.806
X-235.521 Y-222.971
X-234.911 Y-224.11
X-234.25 Y-225.22
X-233.541 Y-226.3
X-232.783 Y-227.347
X-231.978 Y-228.357
X-231.128 Y-229.33
X-230.234 Y-230.264
X-229.3 Y-231.156
X-228.326 Y-232.005
X-227.316 Y-232.811
X-226.271 Y-233.57
X-225.192 Y-234.281
X-224.081 Y-234.942
X-222.942 Y-235.551
X-221.776 Y-236.107
X-220.586 Y-236.611
X-219.375 Y-237.062
X-218.145 Y-237.458
X-216.899 Y-237.798
X-215.639 Y-238.083
X-214.366 Y-238.309
X-213.085 Y-238.476
X-211.798 Y-238.585
X-210.507 Y-238.637
X-209.215 Y-238.631
X-207.924 Y-238.568
X-206.638 Y-238.448
X-205.358 Y-238.27
X-204.088 Y-238.035
X-202.829 Y-237.743
X-201.585 Y-237.395
X-200.357 Y-236.992
X-199.148 Y-236.536
X-197.96 Y-236.029
X-196.795 Y-235.47
X-195.655 Y-234.862
X-194.543 Y-234.204
X-193.46 Y-233.498
X-192.41 Y-232.746
X-191.393 Y-231.949
X-190.411 Y-231.109
X-189.465 Y-230.229
X-188.558 Y-229.31
X-187.689 Y-228.353
X-186.862 Y-227.36
X-186.079 Y-226.332
X-185.341 Y-225.271
X-184.649 Y-224.18
X-184.004 Y-223.061
X-183.407 Y-221.915
X-182.858 Y-220.746
X-182.359 Y-219.554
X-181.91 Y-218.342
X-181.514 Y-217.113
X-181.171 Y-215.867
X-180.883 Y-214.607
X-180.649 Y-213.337
X-180.468 Y-212.057
X-180.343 Y-210.771
X-180.271 Y-209.481
X-180.254 Y-208.189
X-180.293 Y-206.898
X-180.388 Y-205.609
X-180.539 Y-204.326
X-180.745 Y-203.051
X-181.006 Y-201.785
X-181.32 Y-200.532
X-181.688 Y-199.293
X-182.107 Y-198.071
X-182.578 Y-196.868
X-183.102 Y-195.687
X-183.677 Y-194.53
X-184.301 Y-193.398
X-184.973 Y-192.295
X-185.692 Y-191.221
X-186.455 Y-190.179
X-187.262 Y-189.17
X-188.111 Y-188.196
X-189.001 Y-187.259
X-189.932 Y-186.363
X-190.9 Y-185.507
X-191.904 Y-184.694
X-192.942 Y-183.924
X-194.011 Y-183.199
X-195.11 Y-182.519
X-196.236 Y-181.886
X-197.388 Y-181.3
X-198.564 Y-180.766
X-199.762 Y-180.282
X-200.98 Y-179.85
X-202.215 Y-179.47
X-203.464 Y-179.141
X-204.726 Y-178.865
X-205.999 Y-178.642
X-207.28 Y-178.471
X-208.566 Y-178.354
X-209.857 Y-178.292
X-211.149 Y-178.285
X-212.44 Y-178.332
X-213.728 Y-178.433
X-215.011 Y-178.586
X-216.287 Y-178.792
X-217.553 Y-179.05
X-218.807 Y-179.359
X-220.048 Y-179.72
X-221.272 Y-180.133
X-222.478 Y-180.597
X-223.664 Y-181.11
X-224.828 Y-181.672
X-225.967 Y-182.28
X-227.082 Y-182.934
X-228.169 Y-183.633
X-229.226 Y-184.375
X-230.252 Y-185.16
X-231.245 Y-185.988
X-232.202 Y-186.855
X-233.123 Y-187.761
X-234.007 Y-188.704
X-234.852 Y-189.682
X-235.657 Y-190.692
X-236.421 Y-191.734
X-237.142 Y-192.806
X-237.819 Y-193.907
X-238.45 Y-195.034
X-239.034 Y-196.187
X-239.57 Y-197.362
X-240.059 Y-198.558
X-240.499 Y-199.773
X-240.891 Y-201.004
X-241.233 Y-202.25
X-241.525 Y-203.509
X-241.765 Y-204.778
X-241.953 Y-206.057
X-242.089 Y-207.342
X-242.172 Y-208.631
X-242.204 Y-209.923
X-242.184 Y-211.214
X-242.113 Y-212.505
X-241.991 Y-213.791
X-241.817 Y-215.071
X-241.592 Y-216.343
X-241.314 Y-217.605
X-240.985 Y-218.855
X-240.606 Y-220.09
X-240.178 Y-221.309
X-239.702 Y-222.51
X-239.178 Y-223.691
X-238.608 Y-224.851
X-237.993 Y-225.987
X-237.331 Y-227.097
X-236.625 Y-228.178
X-235.875 Y-229.231
X-235.084 Y-230.252
X-234.252 Y-231.241
X-233.382 Y-232.196
X-232.475 Y-233.116
X-231.532 Y-234
X-230.554 Y-234.845
X-229.543 Y-235.649
X-228.5 Y-236.411
X-227.427 Y-237.131
X-226.326 Y-237.807
X-225.198 Y-238.438
X-224.047 Y-239.024
X-222.873 Y-239.564
X-221.679 Y-240.057
X-220.466 Y-240.502
X-219.236 Y-240.897
X-217.991 Y-241.242
X-216.732 Y-241.537
X-215.464 Y-241.78
X-214.186 Y-241.973
X-212.902 Y-242.115
X-211.613 Y-242.207
X-210.322 Y-242.247
X-209.03 Y-242.236
X-207.739 Y-242.173
X-206.452 Y-242.058
X-205.171 Y-241.892
X-203.897 Y-241.675
X-202.633 Y-241.407
X-201.38 Y-241.091
X-200.141 Y-240.726
X-198.916 Y-240.314
X-197.709 Y-239.854
X-196.521 Y-239.347
X-195.353 Y-238.793
X-194.208 Y-238.194
X-193.088 Y-237.551
X-191.993 Y-236.865
X-190.925 Y-236.138
X-189.885 Y-235.371
X-188.876 Y-234.564
X-187.897 Y-233.721
X-186.952 Y-232.84
X-186.041 Y-231.923
X-185.167 Y-230.972
X-184.329 Y-229.988
X-183.53 Y-228.973
X-182.77 Y-227.928
X-182.05 Y-226.855
X-181.37 Y-225.756
X-180.732 Y-224.633
X-180.137 Y-223.486
X-179.587 Y-222.317
X-179.082 Y-221.128
X-178.623 Y-219.92
X-178.211 Y-218.695
X-177.845 Y-217.456
X-177.527 Y-216.204
X-177.256 Y-214.941
X-177.032 Y-213.668
X-176.857 Y-212.388
X-176.731 Y-211.102
X-176.656 Y-209.812
X-176.63 Y-208.52
X-176.654 Y-207.228
X-176.727 Y-205.938
X-176.849 Y-204.652
X-177.02 Y-203.372
X-177.24 Y-202.098
X-177.507 Y-200.834
X-177.823 Y-199.581
X-178.188 Y-198.342
X-178.6 Y-197.117
X-179.059 Y-195.909
X-179.564 Y-194.72
X-180.115 Y-193.551
X-180.709 Y-192.404
X-181.347 Y-191.28
X-182.026 Y-190.181
X-182.747 Y-189.109
X-183.509 Y-188.066
X-184.311 Y-187.053
X-185.151 Y-186.071
X-186.028 Y-185.123
X-186.941 Y-184.208
X-187.888 Y-183.329
X-188.868 Y-182.487
X-189.878 Y-181.681
X-190.919 Y-180.915
X-191.987 Y-180.189
X-193.083 Y-179.505
X-194.205 Y-178.863
X-195.35 Y-178.264
X-196.517 Y-177.71
X-197.704 Y-177.199
X-198.909 Y-176.734
X-200.131 Y-176.314
X-201.368 Y-175.94
X-202.617 Y-175.612
X-203.879 Y-175.333
X-205.15 Y-175.101
X-206.429 Y-174.918
X-207.714 Y-174.783
X-209.003 Y-174.696
X-210.295 Y-174.657
X-211.587 Y-174.666
X-212.877 Y-174.722
X-214.165 Y-174.826
X-215.448 Y-174.978
X-216.725 Y-175.178
X-217.993 Y-175.426
X-219.251 Y-175.721
X-220.497 Y-176.062
X-221.73 Y-176.449
X-222.947 Y-176.881
X-224.148 Y-177.357
X-225.331 Y-177.877
X-226.494 Y-178.44
X-227.636 Y-179.046
X-228.754 Y-179.694
X-229.847 Y-180.382
X-230.914 Y-181.111
X-231.954 Y-181.878
X-232.964 Y-182.683
X-233.945 Y-183.524
X-234.895 Y-184.4
X-235.813 Y-185.309
X-236.696 Y-186.252
X-237.544 Y-187.227
X-238.356 Y-188.232
X-239.131 Y-189.266
X-239.867 Y-190.328
X-240.564 Y-191.416
X-241.221 Y-192.528
X-241.837 Y-193.664
X-242.412 Y-194.821
X-242.945 Y-195.998
X-243.435 Y-197.193
X-243.881 Y-198.406
X-244.282 Y-199.634
X-244.638 Y-200.876
X-244.948 Y-202.131
X-245.213 Y-203.395
X-245.432 Y-204.669
X-245.605 Y-205.949
X-245.732 Y-207.235
X-245.812 Y-208.524
X-245.846 Y-209.816
X-245.833 Y-211.108
X-245.772 Y-212.399
X-245.665 Y-213.686
X-245.511 Y-214.969
X-245.311 Y-216.246
X-245.065 Y-217.514
X-244.774 Y-218.773
X-244.438 Y-220.02
X-244.057 Y-221.255
X-243.632 Y-222.475
X-243.162 Y-223.679
X-242.649 Y-224.865
X-242.094 Y-226.031
X-241.496 Y-227.177
X-240.858 Y-228.3
X-240.18 Y-229.4
X-239.463 Y-230.475
X-238.708 Y-231.523
X-237.916 Y-232.544
X-237.087 Y-233.535
X-236.222 Y-234.496
X-235.324 Y-235.424
X-234.393 Y-236.32
X-233.43 Y-237.181
X-232.436 Y-238.007
X-231.413 Y-238.797
X-230.363 Y-239.549
X-229.287 Y-240.264
X-228.185 Y-240.939
X-227.06 Y-241.574
X-225.912 Y-242.168
X-224.744 Y-242.72
X-223.557 Y-243.23
X-222.352 Y-243.696
X-221.131 Y-244.119
X-219.896 Y-244.497
X-218.648 Y-244.832
X-217.388 Y-245.121
X-216.12 Y-245.365
X-214.843 Y-245.563
X-213.56 Y-245.714
X-212.272 Y-245.82
X-210.981 Y-245.879
X-209.689 Y-245.891
X-208.398 Y-245.858
X-207.108 Y-245.779
X-205.822 Y-245.654
X-204.541 Y-245.483
X-203.267 Y-245.267
X-202.002 Y-245.005
X-200.747 Y-244.699
X-199.503 Y-244.348
X-198.273 Y-243.954
X-197.057 Y-243.516
X-195.858 Y-243.036
X-194.676 Y-242.514
X-193.512 Y-241.952
X-192.37 Y-241.349
X-191.248 Y-240.707
X-190.151 Y-240.026
X-189.077 Y-239.307
X-188.029 Y-238.551
X-187.008 Y-237.759
X-186.015 Y-236.932
X-185.051 Y-236.072
X-184.118 Y-235.179
X-183.215 Y-234.254
X-182.345 Y-233.299
X-181.508 Y-232.315
X-180.706 Y-231.302
X-179.939 Y-230.262
X-179.208 Y-229.197
X-178.514 Y-228.107
X-177.858 Y-226.993
X-177.241 Y-225.858
X-176.663 Y-224.703
X-176.125 Y-223.528
X-175.627 Y-222.336
X-175.17 Y-221.127
X-174.756 Y-219.904
X-174.384 Y-218.666
X-174.054 Y-217.417
X-173.768 Y-216.157
X-173.526 Y-214.888
X-173.327 Y-213.611
X-173.172 Y-212.328
X-173.062 Y-211.041
X-172.995 Y-209.751
X-172.973 Y-208.459
X-172.996 Y-207.167
X-173.064 Y-205.877
X-173.177 Y-204.589
X-173.333 Y-203.307
X-173.534 Y-202.031
X-173.779 Y-200.762
X-174.068 Y-199.503
X-174.4 Y-198.254
X-174.774 Y-197.017
X-175.191 Y-195.794
X-175.65 Y-194.587
X-176.151 Y-193.396
X-176.693 Y-192.223
X-177.276 Y-191.069
X-177.898 Y-189.937
X-178.558 Y-188.826
X-179.256 Y-187.739
X-179.992 Y-186.677
X-180.763 Y-185.64
X-181.57 Y-184.631
X-182.411 Y-183.65
X-183.285 Y-182.699
X-184.193 Y-181.779
X-185.131 Y-180.891
X-186.099 Y-180.035
X-187.096 Y-179.214
X-188.121 Y-178.427
X-189.172 Y-177.675
X-190.248 Y-176.96
X-191.348 Y-176.282
X-192.47 Y-175.642
X-193.614 Y-175.041
X-194.778 Y-174.48
X-195.961 Y-173.96
X-197.16 Y-173.48
X-198.375 Y-173.041
X-199.605 Y-172.643
X-200.847 Y-172.288
X-202.101 Y-171.974
X-203.364 Y-171.704
X-204.636 Y-171.476
X-205.915 Y-171.292
X-207.199 Y-171.151
X-208.487 Y-171.055
X-209.778 Y-171.002
X-211.07 Y-170.993
X-212.362 Y-171.026
X-213.652 Y-171.104
X-214.938 Y-171.224
X-216.22 Y-171.388
X-217.495 Y-171.594
X-218.763 Y-171.843
X-220.022 Y-172.135
X-221.27 Y-172.469
X-222.506 Y-172.845
X-223.729 Y-173.262
X-224.937 Y-173.72
X-226.13 Y-174.217
X-227.305 Y-174.754
X-228.462 Y-175.33
X-229.599 Y-175.943
X-230.715 Y-176.594
X-231.808 Y-177.282
X-232.878 Y-178.007
X-233.923 Y-178.767
X-234.942 Y-179.561
X-235.935 Y-180.389
X-236.899 Y-181.249
X-237.834 Y-182.14
X-238.74 Y-183.061
X-239.615 Y-184.012
X-240.458 Y-184.991
X-241.268 Y-185.998
X-242.044 Y-187.031
X-242.785 Y-188.089
X-243.491 Y-189.171
X-244.161 Y-190.276
X-244.794 Y-191.403
X-245.389 Y-192.549
X-245.947 Y-193.715
X-246.466 Y-194.898
X-246.946 Y-196.098
X-247.386 Y-197.312
X-247.787 Y-198.541
X-248.146 Y-199.782
X-248.463 Y-201.034
X-248.739 Y-202.297
X-248.974 Y-203.567
X-249.167 Y-204.845
X-249.318 Y-206.128
X-249.427 Y-207.415
X-249.494 Y-208.706
X-249.518 Y-209.998
X-249.501 Y-211.29
X-249.441 Y-212.58
X-249.338 Y-213.868
X-249.193 Y-215.152
X-249.005 Y-216.43
X-248.776 Y-217.702
X-248.505 Y-218.965
X-248.193 Y-220.219
X-247.841 Y-221.462
X-247.448 Y-222.693
X-247.015 Y-223.911
X-246.543 Y-225.113
X-246.032 Y-226.3
X-245.481 Y-227.469
X-244.892 Y-228.619
X-244.266 Y-229.749
X-243.603 Y-230.858
X-242.905 Y-231.945
X-242.171 Y-233.008
X-241.403 Y-234.048
X-240.602 Y-235.061
X-239.768 Y-236.048
X-238.903 Y-237.008
X-238.006 Y-237.938
X-237.079 Y-238.838
X-236.123 Y-239.707
X-235.139 Y-240.544
X-234.128 Y-241.349
X-233.092 Y-242.12
X-232.03 Y-242.857
X-230.946 Y-243.56
X-229.839 Y-244.227
X-228.711 Y-244.857
X-227.564 Y-245.45
X-226.397 Y-246.005
X-225.212 Y-246.521
X-224.012 Y-246.998
X-222.796 Y-247.436
X-221.566 Y-247.834
X-220.325 Y-248.191
X-219.072 Y-248.508
X-217.81 Y-248.784
X-216.54 Y-249.02
X-215.262 Y-249.213
X-213.979 Y-249.365
X-212.692 Y-249.475
X-211.401 Y-249.542
X-210.11 Y-249.568
X-208.818 Y-249.551
X-207.527 Y-249.492
X-206.239 Y-249.392
X-204.955 Y-249.251
X-203.675 Y-249.068
X-202.403 Y-248.844
X-201.138 Y-248.58
X-199.883 Y-248.275
X-198.638 Y-247.929
X-197.405 Y-247.543
X-196.185 Y-247.118
X-194.979 Y-246.653
X-193.788 Y-246.151
X-192.615 Y-245.611
X-191.458 Y-245.035
X-190.321 Y-244.421
X-189.204 Y-243.773
X-188.107 Y-243.089
X-187.033 Y-242.371
X-185.982 Y-241.619
X-184.956 Y-240.834
X-183.955 Y-240.017
X-182.98 Y-239.169
X-182.033 Y-238.291
X-181.113 Y-237.383
X-180.222 Y-236.447
X-179.361 Y-235.484
X-178.531 Y-234.494
X-177.731 Y-233.479
X-176.964 Y-232.44
X-176.23 Y-231.377
X-175.53 Y-230.291
X-174.864 Y-229.183
X-174.233 Y-228.056
X-173.638 Y-226.909
X-173.079 Y-225.744
X-172.557 Y-224.562
X-172.071 Y-223.365
X-171.623 Y-222.153
X-171.213 Y-220.928
X-170.842 Y-219.69
X-170.509 Y-218.442
X-170.217 Y-217.183
X-169.964 Y-215.916
X-169.751 Y-214.642
X-169.579 Y-213.361
X-169.446 Y-212.076
X-169.354 Y-210.787
X-169.301 Y-209.496
X-169.29 Y-208.204
X-169.318 Y-206.912
X-169.387 Y-205.622
X-169.497 Y-204.335
X-169.648 Y-203.052
X-169.839 Y-201.774
X-170.071 Y-200.503
X-170.342 Y-199.239
X-170.653 Y-197.985
X-171.003 Y-196.741
X-171.391 Y-195.509
X-171.819 Y-194.29
X-172.284 Y-193.084
X-172.786 Y-191.894
X-173.326 Y-190.72
X-173.903 Y-189.564
X-174.517 Y-188.427
X-175.166 Y-187.31
X-175.85 Y-186.214
X-176.568 Y-185.139
X-177.319 Y-184.088
X-178.102 Y-183.061
X-178.918 Y-182.059
X-179.764 Y-181.082
X-180.64 Y-180.133
X-181.546 Y-179.212
X-182.481 Y-178.319
X-183.443 Y-177.457
X-184.432 Y-176.626
X-185.447 Y-175.826
X-186.486 Y-175.057
X-187.548 Y-174.322
X-188.633 Y-173.62
X-189.739 Y-172.952
X-190.865 Y-172.319
X-192.01 Y-171.721
X-193.174 Y-171.159
X-194.354 Y-170.634
X-195.551 Y-170.146
X-196.762 Y-169.696
X-197.986 Y-169.284
X-199.223 Y-168.91
X-200.471 Y-168.574
X-201.728 Y-168.277
X-202.994 Y-168.019
X-204.268 Y-167.8
X-205.547 Y-167.62
X-206.831 Y-167.48
X-208.12 Y-167.379
X-209.41 Y-167.319
X-210.702 Y-167.299
X-211.994 Y-167.319
X-213.285 Y-167.378
X-214.573 Y-167.477
X-215.858 Y-167.615
X-217.138 Y-167.793
X-218.411 Y-168.009
X-219.678 Y-168.264
X-220.936 Y-168.557
X-222.185 Y-168.889
X-223.423 Y-169.26
X-224.648 Y-169.668
X-225.861 Y-170.114
X-227.06 Y-170.597
X-228.243 Y-171.116
X-229.41 Y-171.67
X-230.56 Y-172.259
X-231.691 Y-172.884
X-232.803 Y-173.542
X-233.895 Y-174.233
X-234.965 Y-174.957
X-236.012 Y-175.714
X-237.036 Y-176.502
X-238.035 Y-177.322
X-239.008 Y-178.171
X-239.956 Y-179.049
X-240.877 Y-179.955
X-241.77 Y-180.889
X-242.635 Y-181.849
X-243.47 Y-182.835
X-244.275 Y-183.845
X-245.05 Y-184.88
X-245.793 Y-185.937
X-246.503 Y-187.016
X-247.18 Y-188.116
X-247.823 Y-189.237
X-248.433 Y-190.376
X-249.008 Y-191.533
X-249.548 Y-192.707
X-250.052 Y-193.897
X-250.521 Y-195.101
X-250.953 Y-196.318
X-251.349 Y-197.548
X-251.708 Y-198.789
X-252.029 Y-200.041
X-252.311 Y-201.302
X-252.556 Y-202.571
X-252.762 Y-203.846
X-252.93 Y-205.127
X-253.059 Y-206.413
X-253.15 Y-207.702
X-253.202 Y-208.993
X-253.216 Y-210.285
X-253.192 Y-211.576
X-253.128 Y-212.867
X-253.026 Y-214.155
X-252.885 Y-215.439
X-252.706 Y-216.719
X-252.487 Y-217.992
X-252.231 Y-219.259
X-251.937 Y-220.517
X-251.605 Y-221.765
X-251.237 Y-223.004
X-250.831 Y-224.231
X-250.39 Y-225.445
X-249.912 Y-226.645
X-249.399 Y-227.831
X-248.85 Y-229.001
X-248.266 Y-230.153
X-247.648 Y-231.288
X-246.996 Y-232.403
X-246.31 Y-233.499
X-245.593 Y-234.573
X-244.843 Y-235.626
X-244.063 Y-236.656
X-243.253 Y-237.662
X-242.412 Y-238.643
X-241.543 Y-239.599
X-240.646 Y-240.529
X-239.721 Y-241.432
X-238.77 Y-242.305
X-237.792 Y-243.15
X-236.79 Y-243.965
X-235.763 Y-244.75
X-234.714 Y-245.504
X-233.643 Y-246.227
X-232.551 Y-246.917
X-231.438 Y-247.575
X-230.307 Y-248.199
X-229.158 Y-248.789
X-227.991 Y-249.344
X-226.808 Y-249.864
X-225.611 Y-250.349
X-224.399 Y-250.797
X-223.174 Y-251.208
X-221.937 Y-251.583
X-220.69 Y-251.921
X-219.434 Y-252.222
X-218.169 Y-252.485
X-216.897 Y-252.711
X-215.618 Y-252.899
X-214.335 Y-253.049
X-213.048 Y-253.16
X-211.758 Y-253.233
X-210.466 Y-253.267
X-209.174 Y-253.262
X-207.883 Y-253.219
X-206.593 Y-253.138
X-205.307 Y-253.019
X-204.024 Y-252.862
X-202.747 Y-252.668
X-201.476 Y-252.436
X-200.212 Y-252.166
X-198.957 Y-251.86
X-197.711 Y-251.517
X-196.476 Y-251.137
X-195.253 Y-250.721
X-194.043 Y-250.268
X-192.846 Y-249.781
X-191.665 Y-249.258
X-190.498 Y-248.702
X-189.349 Y-248.112
X-188.217 Y-247.49
X-187.103 Y-246.834
X-186.009 Y-246.147
X-184.935 Y-245.428
X-183.883 Y-244.679
X-182.853 Y-243.899
X-181.846 Y-243.089
X-180.864 Y-242.25
X-179.905 Y-241.383
X-178.973 Y-240.489
X-178.066 Y-239.569
X-177.186 Y-238.623
X-176.333 Y-237.652
X-175.508 Y-236.657
X-174.713 Y-235.639
X-173.946 Y-234.599
X-173.21 Y-233.537
X-172.506 Y-232.454
X-171.833 Y-231.351
X-171.192 Y-230.229
X-170.583 Y-229.089
X-170.008 Y-227.933
X-169.466 Y-226.76
X-168.957 Y-225.572
X-168.483 Y-224.37
X-168.043 Y-223.155
X-167.638 Y-221.928
X-167.268 Y-220.69
X-166.935 Y-219.442
X-166.637 Y-218.185
X-166.377 Y-216.919
X-166.153 Y-215.647
X-165.965 Y-214.368
X-165.815 Y-213.085
X-165.701 Y-211.798
X-165.625 Y-210.508
X-165.585 Y-209.217
X-165.582 Y-207.925
X-165.617 Y-206.633
X-165.688 Y-205.343
X-165.796 Y-204.056
X-165.943 Y-202.772
X-166.126 Y-201.493
X-166.347 Y-200.22
X-166.604 Y-198.954
X-166.898 Y-197.695
X-167.227 Y-196.446
X-167.593 Y-195.207
X-167.993 Y-193.978
X-168.429 Y-192.762
X-168.9 Y-191.559
X-169.405 Y-190.369
X-169.944 Y-189.195
X-170.517 Y-188.037
X-171.123 Y-186.896
X-171.763 Y-185.774
X-172.435 Y-184.67
X-173.138 Y-183.586
X-173.872 Y-182.523
X-174.636 Y-181.481
X-175.43 Y-180.462
X-176.252 Y-179.465
X-177.103 Y-178.493
X-177.982 Y-177.545
X-178.887 Y-176.623
X-179.818 Y-175.728
X-180.776 Y-174.86
X-181.758 Y-174.021
X-182.764 Y-173.21
X-183.792 Y-172.428
X-184.843 Y-171.676
X-185.914 Y-170.954
X-187.006 Y-170.263
X-188.117 Y-169.603
X-189.246 Y-168.975
X-190.393 Y-168.38
X-191.556 Y-167.818
X-192.735 Y-167.289
X-193.929 Y-166.795
X-195.137 Y-166.335
X-196.357 Y-165.91
X-197.589 Y-165.52
X-198.831 Y-165.166
X-200.083 Y-164.846
X-201.344 Y-164.562
X-202.611 Y-164.314
X-203.886 Y-164.101
X-205.166 Y-163.925
X-206.45 Y-163.785
X-207.738 Y-163.682
X-209.029 Y-163.615
X-210.32 Y-163.586
X-211.612 Y-163.593
X-212.904 Y-163.637
X-214.193 Y-163.717
X-215.48 Y-163.833
X-216.763 Y-163.986
X-218.041 Y-164.174
X-219.314 Y-164.398
X-220.58 Y-164.657
X-221.838 Y-164.952
X-223.087 Y-165.282
X-224.326 Y-165.648
X-225.554 Y-166.049
X-226.771 Y-166.484
X-227.975 Y-166.953
X-229.165 Y-167.456
X-230.341 Y-167.991
X-231.501 Y-168.56
X-232.645 Y-169.16
X-233.772 Y-169.792
X-234.881 Y-170.455
X-235.971 Y-171.149
X-237.042 Y-171.872
X-238.091 Y-172.626
X-239.119 Y-173.409
X-240.124 Y-174.221
X-241.106 Y-175.06
X-242.065 Y-175.926
X-242.999 Y-176.819
X-243.908 Y-177.737
X-244.791 Y-178.68
X-245.648 Y-179.647
X-246.478 Y-180.638
X-247.28 Y-181.651
X-248.054 Y-182.686
X-248.798 Y-183.742
X-249.513 Y-184.818
X-250.197 Y-185.914
X-250.85 Y-187.029
X-251.472 Y-188.161
X-252.063 Y-189.311
X-252.621 Y-190.476
X-253.147 Y-191.656
X-253.641 Y-192.85
X-254.101 Y-194.057
X-254.528 Y-195.277
X-254.921 Y-196.507
X-255.28 Y-197.748
X-255.605 Y-198.999
X-255.894 Y-200.258
X-256.148 Y-201.525
X-256.366 Y-202.799
X-256.55 Y-204.078
X-256.698 Y-205.361
X-256.81 Y-206.648
X-256.888 Y-207.938
X-256.93 Y-209.229
X-256.936 Y-210.522
X-256.907 Y-211.813
X-256.842 Y-213.104
X-256.742 Y-214.392
X-256.606 Y-215.677
X-256.434 Y-216.957
X-256.226 Y-218.233
X-255.984 Y-219.502
X-255.706 Y-220.763
X-255.394 Y-222.017
X-255.047 Y-223.262
X-254.667 Y-224.497
X-254.253 Y-225.721
X-253.805 Y-226.933
X-253.325 Y-228.132
X-252.811 Y-229.318
X-252.265 Y-230.489
X-251.687 Y-231.644
X-251.076 Y-232.783
X-250.435 Y-233.904
X-249.762 Y-235.008
X-249.06 Y-236.092
X-248.328 Y-237.157
X-247.567 Y-238.201
X-246.778 Y-239.224
X-245.961 Y-240.225
X-245.117 Y-241.204
X-244.247 Y-242.158
X-243.35 Y-243.089
X-242.428 Y-243.994
X-241.482 Y-244.873
X-240.511 Y-245.726
X-239.517 Y-246.551
X-238.5 Y-247.349
X-237.462 Y-248.119
X-236.404 Y-248.859
X-235.325 Y-249.571
X-234.228 Y-250.253
X-233.112 Y-250.905
X-231.979 Y-251.526
X-230.829 Y-252.115
X-229.664 Y-252.673
X-228.483 Y-253.198
X-227.289 Y-253.689
X-226.081 Y-254.148
X-224.861 Y-254.573
X-223.629 Y-254.965
X-222.388 Y-255.322
X-221.137 Y-255.646
X-219.878 Y-255.935
X-218.611 Y-256.19
X-217.338 Y-256.41
X-216.059 Y-256.596
X-214.776 Y-256.746
X-213.489 Y-256.861
X-212.199 Y-256.94
X-210.908 Y-256.984
X-209.616 Y-256.992
X-208.324 Y-256.964
X-207.034 Y-256.902
X-205.745 Y-256.804
X-204.46 Y-256.671
X-203.179 Y-256.504
X-201.903 Y-256.302
X-200.632 Y-256.066
X-199.369 Y-255.795
X-198.113 Y-255.491
X-196.867 Y-255.152
X-195.63 Y-254.778
X-194.403 Y-254.372
X-193.188 Y-253.932
X-191.986 Y-253.459
X-190.796 Y-252.955
X-189.621 Y-252.418
X-188.46 Y-251.85
X-187.315 Y-251.252
X-186.186 Y-250.623
X-185.075 Y-249.965
X-183.981 Y-249.276
X-182.906 Y-248.559
X-181.851 Y-247.814
X-180.817 Y-247.039
X-179.804 Y-246.238
X-178.813 Y-245.409
X-177.844 Y-244.554
X-176.898 Y-243.674
X-175.976 Y-242.769
X-175.078 Y-241.84
X-174.205 Y-240.887
X-173.357 Y-239.912
X-172.536 Y-238.915
X-171.741 Y-237.896
X-170.973 Y-236.857
X-170.234 Y-235.797
X-169.523 Y-234.718
X-168.841 Y-233.621
X-168.189 Y-232.505
X-167.567 Y-231.373
X-166.975 Y-230.224
X-166.414 Y-229.061
X-165.883 Y-227.883
X-165.384 Y-226.691
X-164.916 Y-225.487
X-164.48 Y-224.27
X-164.076 Y-223.043
X-163.705 Y-221.805
X-163.367 Y-220.558
X-163.063 Y-219.302
X-162.793 Y-218.039
X-162.557 Y-216.769
X-162.354 Y-215.493
X-162.186 Y-214.212
X-162.051 Y-212.927
X-161.95 Y-211.638
X-161.884 Y-210.348
X-161.851 Y-209.056
X-161.853 Y-207.764
X-161.888 Y-206.473
X-161.958 Y-205.183
X-162.063 Y-203.895
X-162.202 Y-202.61
X-162.376 Y-201.33
X-162.584 Y-200.055
X-162.827 Y-198.786
X-163.102 Y-197.523
X-163.411 Y-196.269
X-163.753 Y-195.023
X-164.128 Y-193.786
X-164.536 Y-192.56
X-164.976 Y-191.345
X-165.447 Y-190.143
X-165.951 Y-188.953
X-166.487 Y-187.777
X-167.054 Y-186.616
X-167.652 Y-185.471
X-168.28 Y-184.342
X-168.939 Y-183.23
X-169.626 Y-182.136
X-170.343 Y-181.061
X-171.087 Y-180.005
X-171.86 Y-178.969
X-172.659 Y-177.954
X-173.485 Y-176.96
X-174.336 Y-175.989
X-175.214 Y-175.04
X-176.116 Y-174.115
X-177.043 Y-173.215
X-177.994 Y-172.34
X-178.968 Y-171.491
X-179.964 Y-170.668
X-180.981 Y-169.872
X-182.019 Y-169.103
X-183.077 Y-168.361
X-184.154 Y-167.647
X-185.25 Y-166.962
X-186.363 Y-166.306
X-187.493 Y-165.68
X-188.639 Y-165.083
X-189.801 Y-164.517
X-190.977 Y-163.983
X-192.167 Y-163.48
X-193.37 Y-163.009
X-194.585 Y-162.57
X-195.812 Y-162.163
X-197.048 Y-161.788
X-198.294 Y-161.446
X-199.548 Y-161.136
X-200.81 Y-160.859
X-202.079 Y-160.615
X-203.354 Y-160.405
X-204.634 Y-160.227
X-205.918 Y-160.084
X-207.205 Y-159.974
X-208.495 Y-159.899
X-209.787 Y-159.858
X-211.079 Y-159.851
X-212.37 Y-159.877
X-213.661 Y-159.937
X-214.95 Y-160.031
X-216.236 Y-160.158
X-217.518 Y-160.318
X-218.795 Y-160.511
X-220.067 Y-160.738
X-221.333 Y-160.997
X-222.592 Y-161.289
X-223.842 Y-161.614
X-225.084 Y-161.972
X-226.315 Y-162.362
X-227.536 Y-162.784
X-228.746 Y-163.238
X-229.944 Y-163.723
X-231.128 Y-164.239
X-232.299 Y-164.785
X-233.456 Y-165.362
X-234.597 Y-165.967
X-235.722 Y-166.602
X-236.831 Y-167.265
X-237.922 Y-167.957
X-238.995 Y-168.677
X-240.049 Y-169.425
X-241.082 Y-170.2
X-242.096 Y-171.002
X-243.088 Y-171.83
X-244.058 Y-172.683
X-245.006 Y-173.561
X-245.932 Y-174.462
X-246.834 Y-175.387
X-247.712 Y-176.335
X-248.565 Y-177.305
X-249.394 Y-178.296
X-250.197 Y-179.309
X-250.973 Y-180.341
X-251.723 Y-181.394
X-252.444 Y-182.466
X-253.138 Y-183.556
X-253.803 Y-184.663
X-254.44 Y-185.788
X-255.048 Y-186.928
X-255.626 Y-188.083
X-256.174 Y-189.253
X-256.693 Y-190.437
X-257.181 Y-191.633
X-257.639 Y-192.841
X-258.066 Y-194.061
X-258.462 Y-195.291
X-258.825 Y-196.53
X-259.156 Y-197.779
X-259.455 Y-199.036
X-259.721 Y-200.301
X-259.955 Y-201.571
X-260.156 Y-202.848
X-260.325 Y-204.129
X-260.461 Y-205.414
X-260.564 Y-206.702
X-260.634 Y-207.992
X-260.672 Y-209.283
X-260.677 Y-210.575
X-260.649 Y-211.867
X-260.588 Y-213.158
X-260.494 Y-214.446
X-260.366 Y-215.732
X-260.205 Y-217.014
X-260.011 Y-218.291
X-259.785 Y-219.563
X-259.526 Y-220.829
X-259.235 Y-222.088
X-258.912 Y-223.339
X-258.558 Y-224.582
X-258.172 Y-225.815
X-257.756 Y-227.038
X-257.308 Y-228.25
X-256.83 Y-229.45
X-256.32 Y-230.638
X-255.781 Y-231.812
X-255.211 Y-232.971
X-254.611 Y-234.116
X-253.983 Y-235.245
X-253.326 Y-236.357
X-252.641 Y-237.453
X-251.928 Y-238.53
X-251.188 Y-239.59
X-250.422 Y-240.63
X-249.629 Y-241.65
X-248.811 Y-242.65
X-247.968 Y-243.629
X-247.1 Y-244.587
X-246.208 Y-245.521
X-245.292 Y-246.432
X-244.352 Y-247.319
X-243.39 Y-248.182
X-242.407 Y-249.02
X-241.402 Y-249.833
X-240.378 Y-250.619
X-239.333 Y-251.38
X-238.27 Y-252.114
X-237.188 Y-252.821
X-236.089 Y-253.5
X-234.973 Y-254.152
X-233.841 Y-254.774
X-232.694 Y-255.368
X-231.531 Y-255.932
X-230.354 Y-256.465
X-229.164 Y-256.968
X-227.962 Y-257.441
X-226.747 Y-257.882
X-225.522 Y-258.293
X-224.287 Y-258.673
X-223.043 Y-259.021
X-221.79 Y-259.338
X-220.53 Y-259.623
X-219.263 Y-259.876
X-217.99 Y-260.097
X-216.712 Y-260.286
X-215.429 Y-260.441
X-214.143 Y-260.564
X-212.854 Y-260.654
X-211.563 Y-260.71
X-210.272 Y-260.734
X-208.98 Y-260.726
X-207.688 Y-260.684
X-206.398 Y-260.61
X-205.111 Y-260.504
X-203.826 Y-260.366
X-202.545 Y-260.195
X-201.269 Y-259.993
X-199.999 Y-259.759
X-198.734 Y-259.492
X-197.477 Y-259.193
X-196.228 Y-258.863
X-194.988 Y-258.501
X-193.757 Y-258.107
X-192.537 Y-257.683
X-191.327 Y-257.229
X-190.129 Y-256.744
X-188.944 Y-256.23
X-187.772 Y-255.687
X-186.613 Y-255.114
X-185.469 Y-254.514
X-184.341 Y-253.885
X-183.228 Y-253.229
X-182.132 Y-252.544
X-181.053 Y-251.833
X-179.993 Y-251.094
X-178.952 Y-250.329
X-177.93 Y-249.539
X-176.928 Y-248.723
X-175.946 Y-247.883
X-174.985 Y-247.019
X-174.046 Y-246.132
X-173.129 Y-245.221
X-172.235 Y-244.289
X-171.364 Y-243.335
X-170.516 Y-242.36
X-169.692 Y-241.364
X-168.894 Y-240.349
X-168.121 Y-239.313
X-167.374 Y-238.259
X-166.654 Y-237.186
X-165.96 Y-236.096
X-165.294 Y-234.989
X-164.655 Y-233.866
X-164.043 Y-232.728
X-163.46 Y-231.575
X-162.905 Y-230.408
X-162.379 Y-229.228
X-161.882 Y-228.035
X-161.414 Y-226.831
X-160.976 Y-225.616
X-160.568 Y-224.39
X-160.191 Y-223.154
X-159.844 Y-221.909
X-159.529 Y-220.656
X-159.245 Y-219.396
X-158.992 Y-218.129
X-158.771 Y-216.856
X-158.58 Y-215.578
X-158.422 Y-214.296
X-158.294 Y-213.01
X-158.198 Y-211.721
X-158.134 Y-210.431
X-158.101 Y-209.139
X-158.1 Y-207.847
X-158.131 Y-206.555
X-158.195 Y-205.265
X-158.291 Y-203.976
X-158.419 Y-202.691
X-158.578 Y-201.409
X-158.77 Y-200.131
X-158.993 Y-198.858
X-159.247 Y-197.591
X-159.532 Y-196.331
X-159.848 Y-195.078
X-160.195 Y-193.834
X-160.572 Y-192.598
X-160.979 Y-191.372
X-161.416 Y-190.156
X-161.883 Y-188.951
X-162.381 Y-187.759
X-162.908 Y-186.579
X-163.465 Y-185.413
X-164.05 Y-184.261
X-164.663 Y-183.124
X-165.305 Y-182.002
X-165.973 Y-180.897
X-166.669 Y-179.808
X-167.391 Y-178.737
X-168.14 Y-177.683
X-168.913 Y-176.649
X-169.712 Y-175.633
X-170.536 Y-174.638
X-171.384 Y-173.663
X-172.256 Y-172.71
X-173.152 Y-171.778
X-174.071 Y-170.87
X-175.011 Y-169.984
X-175.974 Y-169.122
X-176.957 Y-168.284
X-177.961 Y-167.47
X-178.984 Y-166.681
X-180.026 Y-165.918
X-181.087 Y-165.18
X-182.165 Y-164.468
X-183.26 Y-163.782
X-184.371 Y-163.123
X-185.499 Y-162.492
X-186.642 Y-161.89
X-187.799 Y-161.316
X-188.971 Y-160.77
X-190.155 Y-160.254
X-191.352 Y-159.767
X-192.56 Y-159.31
X-193.779 Y-158.882
X-195.009 Y-158.484
X-196.247 Y-158.115
X-197.494 Y-157.777
X-198.749 Y-157.47
X-200.011 Y-157.192
X-201.279 Y-156.945
X-202.553 Y-156.73
X-203.832 Y-156.546
X-205.115 Y-156.394
X-206.401 Y-156.273
X-207.69 Y-156.183
X-208.981 Y-156.126
X-210.273 Y-156.099
X-211.565 Y-156.104
X-212.857 Y-156.14
X-214.147 Y-156.207
X-215.435 Y-156.306
X-216.721 Y-156.435
X-218.003 Y-156.595
X-219.281 Y-156.786
X-220.554 Y-157.007
X-221.821 Y-157.26
X-223.081 Y-157.544
X-224.334 Y-157.859
X-225.58 Y-158.204
X-226.816 Y-158.579
X-228.043 Y-158.984
X-229.26 Y-159.418
X-230.466 Y-159.881
X-231.661 Y-160.374
X-232.843 Y-160.894
X-234.013 Y-161.443
X-235.169 Y-162.019
X-236.311 Y-162.623
X-237.439 Y-163.254
X-238.551 Y-163.913
X-239.646 Y-164.598
X-240.724 Y-165.31
X-241.785 Y-166.048
X-242.828 Y-166.811
X-243.852 Y-167.598
X-244.857 Y-168.411
X-245.842 Y-169.247
X-246.807 Y-170.106
X-247.751 Y-170.988
X-248.674 Y-171.892
X-249.575 Y-172.818
X-250.454 Y-173.765
X-251.31 Y-174.733
X-252.143 Y-175.721
X-252.951 Y-176.729
X-253.735 Y-177.756
X-254.493 Y-178.802
X-255.227 Y-179.866
X-255.934 Y-180.947
X-256.616 Y-182.044
X-257.271 Y-183.158
X-257.9 Y-184.287
X-258.501 Y-185.43
X-259.076 Y-186.588
X-259.622 Y-187.758
X-260.141 Y-188.942
X-260.632 Y-190.137
X-261.094 Y-191.343
X-261.527 Y-192.561
X-261.93 Y-193.788
X-262.304 Y-195.025
X-262.647 Y-196.271
X-262.961 Y-197.524
X-263.245 Y-198.785
X-263.499 Y-200.051
X-263.723 Y-201.324
X-263.916 Y-202.601
X-264.079 Y-203.883
X-264.212 Y-205.168
X-264.314 Y-206.456
X-264.386 Y-207.746
X-264.428 Y-209.038
X-264.439 Y-210.33
X-264.418 Y-211.622
X-264.366 Y-212.913
X-264.283 Y-214.202
X-264.17 Y-215.489
X-264.026 Y-216.773
X-263.851 Y-218.053
X-263.646 Y-219.329
X-263.411 Y-220.6
X-263.146 Y-221.864
X-262.851 Y-223.122
X-262.526 Y-224.373
X-262.173 Y-225.615
X-261.79 Y-226.849
X-261.377 Y-228.074
X-260.936 Y-229.288
X-260.465 Y-230.491
X-259.966 Y-231.683
X-259.438 Y-232.862
X-258.882 Y-234.029
X-258.299 Y-235.182
X-257.689 Y-236.32
X-257.051 Y-237.444
X-256.388 Y-238.553
X-255.698 Y-239.646
X-254.983 Y-240.722
X-254.243 Y-241.781
X-253.478 Y-242.822
X-252.688 Y-243.845
X-251.875 Y-244.849
X-251.037 Y-245.832
X-250.176 Y-246.796
X-249.293 Y-247.738
X-248.387 Y-248.66
X-247.459 Y-249.559
X-246.51 Y-250.436
X-245.541 Y-251.291
X-244.552 Y-252.122
X-243.543 Y-252.929
X-242.516 Y-253.713
X-241.471 Y-254.473
X-240.408 Y-255.207
X-239.328 Y-255.917
X-238.231 Y-256.6
X-237.119 Y-257.257
X-235.991 Y-257.887
X-234.848 Y-258.49
X-233.691 Y-259.065
X-232.521 Y-259.613
X-231.338 Y-260.133
X-230.143 Y-260.625
X-228.937 Y-261.088
X-227.72 Y-261.522
X-226.494 Y-261.928
X-225.258 Y-262.305
X-224.014 Y-262.653
X-222.761 Y-262.972
X-221.502 Y-263.261
X-220.236 Y-263.52
X-218.965 Y-263.748
X-217.688 Y-263.946
X-216.407 Y-264.114
X-215.122 Y-264.251
X-213.834 Y-264.357
X-212.544 Y-264.433
X-211.253 Y-264.479
X-209.961 Y-264.494
X-208.669 Y-264.479
X-207.378 Y-264.434
X-206.088 Y-264.358
X-204.8 Y-264.253
X-203.515 Y-264.117
X-202.234 Y-263.952
X-200.957 Y-263.756
X-199.685 Y-263.53
X-198.418 Y-263.273
X-197.158 Y-262.987
X-195.906 Y-262.672
X-194.66 Y-262.326
X-193.424 Y-261.952
X-192.196 Y-261.549
X-190.978 Y-261.118
X-189.771 Y-260.659
X-188.574 Y-260.171
X-187.389 Y-259.656
X-186.216 Y-259.115
X-185.056 Y-258.546
X-183.909 Y-257.95
X-182.777 Y-257.327
X-181.66 Y-256.678
X-180.558 Y-256.004
X-179.472 Y-255.303
X-178.403 Y-254.578
X-177.351 Y-253.827
X-176.317 Y-253.053
X-175.301 Y-252.255
X-174.303 Y-251.434
X-173.325 Y-250.59
X-172.366 Y-249.724
X-171.427 Y-248.836
X-170.509 Y-247.928
X-169.611 Y-246.998
X-168.736 Y-246.048
X-167.883 Y-245.077
X-167.052 Y-244.088
X-166.245 Y-243.079
X-165.461 Y-242.051
X-164.702 Y-241.006
X-163.967 Y-239.944
X-163.256 Y-238.865
X-162.57 Y-237.77
X-161.91 Y-236.659
X-161.275 Y-235.534
X-160.666 Y-234.394
X-160.083 Y-233.241
X-159.526 Y-232.075
X-158.996 Y-230.897
X-158.494 Y-229.707
X-158.019 Y-228.505
X-157.572 Y-227.293
X-157.154 Y-226.07
X-156.764 Y-224.838
X-156.402 Y-223.598
X-156.069 Y-222.35
X-155.765 Y-221.094
X-155.49 Y-219.831
X-155.244 Y-218.563
X-155.027 Y-217.289
X-154.839 Y-216.011
X-154.68 Y-214.729
X-154.551 Y-213.443
X-154.451 Y-212.155
X-154.381 Y-210.865
X-154.34 Y-209.573
X-154.33 Y-208.281
X-154.35 Y-206.989
X-154.4 Y-205.698
X-154.48 Y-204.409
X-154.589 Y-203.121
X-154.728 Y-201.837
X-154.897 Y-200.556
X-155.095 Y-199.279
X-155.322 Y-198.007
X-155.578 Y-196.741
X-155.864 Y-195.48
X-156.177 Y-194.227
X-156.52 Y-192.981
X-156.891 Y-191.744
X-157.291 Y-190.515
X-157.719 Y-189.296
X-158.176 Y-188.087
X-158.66 Y-186.89
X-159.172 Y-185.703
X-159.712 Y-184.529
X-160.278 Y-183.368
X-160.871 Y-182.22
X-161.49 Y-181.086
X-162.135 Y-179.966
X-162.805 Y-178.862
X-163.501 Y-177.773
X-164.221 Y-176.7
X-164.965 Y-175.644
X-165.734 Y-174.605
X-166.526 Y-173.585
X-167.342 Y-172.583
X-168.181 Y-171.601
X-169.043 Y-170.638
X-169.927 Y-169.695
X-170.832 Y-168.773
X-171.758 Y-167.872
X-172.705 Y-166.993
X-173.671 Y-166.135
X-174.657 Y-165.3
X-175.661 Y-164.488
X-176.684 Y-163.698
X-177.725 Y-162.932
X-178.782 Y-162.19
X-179.857 Y-161.472
X-180.948 Y-160.78
X-182.054 Y-160.113
X-183.176 Y-159.472
X-184.312 Y-158.856
X-185.462 Y-158.267
X-186.625 Y-157.705
X-187.801 Y-157.169
X-188.989 Y-156.661
X-190.188 Y-156.179
X-191.397 Y-155.725
X-192.617 Y-155.298
X-193.846 Y-154.899
X-195.084 Y-154.528
X-196.329 Y-154.186
X-197.583 Y-153.871
X-198.843 Y-153.586
X-200.109 Y-153.33
X-201.381 Y-153.102
X-202.658 Y-152.905
X-203.939 Y-152.736
X-205.223 Y-152.596
X-206.511 Y-152.486
X-207.8 Y-152.405
X-209.091 Y-152.353
X-210.383 Y-152.331
X-211.675 Y-152.337
X-212.967 Y-152.373
X-214.257 Y-152.437
X-215.546 Y-152.53
X-216.832 Y-152.653
X-218.115 Y-152.805
X-219.394 Y-152.987
X-220.669 Y-153.197
X-221.939 Y-153.436
X-223.203 Y-153.705
X-224.46 Y-154.001
X-225.711 Y-154.327
X-226.954 Y-154.68
X-228.188 Y-155.061
X-229.414 Y-155.47
X-230.63 Y-155.906
X-231.836 Y-156.369
X-233.032 Y-156.859
X-234.216 Y-157.375
X-235.388 Y-157.918
X-236.548 Y-158.488
X-237.695 Y-159.084
X-238.827 Y-159.705
X-239.946 Y-160.352
X-241.049 Y-161.025
X-242.137 Y-161.721
X-243.209 Y-162.443
X-244.265 Y-163.188
X-245.304 Y-163.956
X-246.325 Y-164.748
X-247.328 Y-165.562
X-248.313 Y-166.398
X-249.279 Y-167.256
X-250.226 Y-168.135
X-251.153 Y-169.035
X-252.059 Y-169.956
X-252.945 Y-170.897
X-253.809 Y-171.858
X-254.651 Y-172.838
X-255.471 Y-173.836
X-256.268 Y-174.853
X-257.042 Y-175.888
X-257.793 Y-176.939
X-258.52 Y-178.007
X-259.223 Y-179.091
X-259.902 Y-180.19
X-260.556 Y-181.304
X-261.186 Y-182.433
X-261.79 Y-183.575
X-262.369 Y-184.73
X-262.922 Y-185.898
X-263.449 Y-187.078
X-263.949 Y-188.269
X-264.421 Y-189.471
X-264.867 Y-190.684
X-265.286 Y-191.906
X-265.677 Y-193.138
X-266.04 Y-194.378
X-266.376 Y-195.625
X-266.684 Y-196.88
X-266.964 Y-198.142
X-267.216 Y-199.409
X-267.44 Y-200.681
X-267.636 Y-201.958
X-267.804 Y-203.24
X-267.943 Y-204.524
X-268.053 Y-205.811
X-268.135 Y-207.101
X-268.187 Y-208.392
X-268.21 Y-209.684
X-268.205 Y-210.976
X-268.171 Y-212.267
X-268.107 Y-213.558
X-268.016 Y-214.847
X-267.895 Y-216.133
X-267.746 Y-217.417
X-267.569 Y-218.696
X-267.364 Y-219.972
X-267.13 Y-221.243
X-266.869 Y-222.508
X-266.579 Y-223.767
X-266.262 Y-225.02
X-265.917 Y-226.265
X-265.543 Y-227.502
X-265.143 Y-228.73
X-264.714 Y-229.949
X-264.259 Y-231.158
X-263.777 Y-232.357
X-263.268 Y-233.545
X-262.734 Y-234.721
X-262.173 Y-235.885
X-261.586 Y-237.036
X-260.975 Y-238.174
X-260.338 Y-239.299
X-259.677 Y-240.409
X-258.991 Y-241.504
X-258.282 Y-242.584
X-257.548 Y-243.647
X-256.791 Y-244.694
X-256.011 Y-245.724
X-255.207 Y-246.736
X-254.382 Y-247.73
X-253.534 Y-248.705
X-252.665 Y-249.661
X-251.775 Y-250.598
X-250.864 Y-251.514
X-249.934 Y-252.411
X-248.983 Y-253.286
X-248.014 Y-254.14
X-247.026 Y-254.973
X-246.02 Y-255.784
X-244.997 Y-256.573
X-243.956 Y-257.338
X-242.898 Y-258.08
X-241.824 Y-258.798
X-240.734 Y-259.492
X-239.629 Y-260.161
X-238.509 Y-260.806
X-237.375 Y-261.426
X-236.228 Y-262.02
X-235.068 Y-262.589
X-233.896 Y-263.132
X-232.711 Y-263.649
X-231.516 Y-264.139
X-230.31 Y-264.604
X-229.095 Y-265.041
X-227.87 Y-265.452
X-226.636 Y-265.836
X-225.394 Y-266.191
X-224.144 Y-266.52
X-222.887 Y-266.82
X-221.624 Y-267.092
X-220.356 Y-267.336
X-219.082 Y-267.552
X-217.803 Y-267.739
X-216.521 Y-267.898
X-215.236 Y-268.029
X-213.948 Y-268.132
X-212.658 Y-268.206
X-211.367 Y-268.252
X-210.075 Y-268.269
X-208.783 Y-268.258
X-207.491 Y-268.219
X-206.201 Y-268.152
X-204.912 Y-268.055
X-203.626 Y-267.931
X-202.343 Y-267.777
X-201.064 Y-267.596
X-199.789 Y-267.386
X-198.519 Y-267.148
X-197.255 Y-266.883
X-195.996 Y-266.589
X-194.745 Y-266.269
X-193.501 Y-265.921
X-192.264 Y-265.546
X-191.036 Y-265.144
X-189.817 Y-264.715
X-188.608 Y-264.261
X-187.409 Y-263.78
X-186.22 Y-263.273
X-185.043 Y-262.74
X-183.878 Y-262.181
X-182.726 Y-261.597
X-181.586 Y-260.987
X-180.46 Y-260.354
X-179.349 Y-259.695
X-178.251 Y-259.013
X-177.169 Y-258.307
X-176.103 Y-257.578
X-175.052 Y-256.826
X-174.018 Y-256.051
X-173.001 Y-255.254
X-172.001 Y-254.436
X-171.019 Y-253.597
X-170.055 Y-252.736
X-169.111 Y-251.854
X-168.185 Y-250.953
X-167.28 Y-250.031
X-166.394 Y-249.09
X-165.53 Y-248.13
X-164.686 Y-247.151
X-163.863 Y-246.155
X-163.063 Y-245.141
X-162.284 Y-244.11
X-161.528 Y-243.062
X-160.794 Y-241.998
X-160.084 Y-240.919
X-159.396 Y-239.825
X-158.733 Y-238.717
X-158.093 Y-237.594
X-157.477 Y-236.458
X-156.886 Y-235.309
X-156.321 Y-234.148
X-155.78 Y-232.974
X-155.265 Y-231.789
X-154.776 Y-230.593
X-154.313 Y-229.387
X-153.876 Y-228.171
X-153.465 Y-226.946
X-153.081 Y-225.713
X-152.723 Y-224.471
X-152.392 Y-223.222
X-152.088 Y-221.966
X-151.811 Y-220.704
X-151.561 Y-219.437
X-151.338 Y-218.164
X-151.142 Y-216.887
X-150.975 Y-215.606
X-150.835 Y-214.321
X-150.723 Y-213.034
X-150.639 Y-211.745
X-150.583 Y-210.454
X-150.555 Y-209.162
Y-207.87
X-150.583 Y-206.578
X-150.638 Y-205.287
X-150.722 Y-203.998
X-150.833 Y-202.711
X-150.971 Y-201.426
X-151.138 Y-200.145
X-151.331 Y-198.867
X-151.552 Y-197.594
X-151.801 Y-196.326
X-152.077 Y-195.064
X-152.38 Y-193.808
X-152.711 Y-192.559
X-153.069 Y-191.318
X-153.453 Y-190.084
X-153.864 Y-188.859
X-154.301 Y-187.643
X-154.765 Y-186.437
X-155.255 Y-185.242
X-155.77 Y-184.057
X-156.31 Y-182.883
X-156.876 Y-181.722
X-157.466 Y-180.572
X-158.081 Y-179.436
X-158.72 Y-178.313
X-159.384 Y-177.204
X-160.071 Y-176.11
X-160.782 Y-175.031
X-161.516 Y-173.968
X-162.273 Y-172.921
X-163.053 Y-171.891
X-163.854 Y-170.877
X-164.677 Y-169.881
X-165.522 Y-168.903
X-166.387 Y-167.944
X-167.273 Y-167.003
X-168.179 Y-166.082
X-169.104 Y-165.18
X-170.049 Y-164.299
X-171.012 Y-163.437
X-171.993 Y-162.597
X-172.992 Y-161.778
X-174.009 Y-160.981
X-175.043 Y-160.206
X-176.093 Y-159.453
X-177.159 Y-158.723
X-178.241 Y-158.017
X-179.338 Y-157.334
X-180.449 Y-156.674
X-181.574 Y-156.039
X-182.713 Y-155.428
X-183.864 Y-154.841
X-185.027 Y-154.279
X-186.202 Y-153.742
X-187.389 Y-153.231
X-188.586 Y-152.744
X-189.793 Y-152.284
X-191.01 Y-151.849
X-192.236 Y-151.441
X-193.47 Y-151.059
X-194.712 Y-150.704
X-195.962 Y-150.375
X-197.218 Y-150.073
X-198.481 Y-149.799
X-199.749 Y-149.551
X-201.022 Y-149.33
X-202.299 Y-149.137
X-203.581 Y-148.971
X-204.865 Y-148.832
X-206.153 Y-148.72
X-207.442 Y-148.636
X-208.733 Y-148.579
X-210.024 Y-148.55
X-211.316 Y-148.548
X-212.608 Y-148.573
X-213.899 Y-148.627
X-215.189 Y-148.707
X-216.476 Y-148.815
X-217.761 Y-148.951
X-219.043 Y-149.114
X-220.321 Y-149.304
X-221.595 Y-149.521
X-222.863 Y-149.765
X-224.127 Y-150.036
X-225.384 Y-150.333
X-226.635 Y-150.657
X-227.878 Y-151.008
X-229.115 Y-151.384
X-230.342 Y-151.786
X-231.561 Y-152.215
X-232.771 Y-152.669
X-233.971 Y-153.149
X-235.16 Y-153.654
X-236.338 Y-154.184
X-237.505 Y-154.739
X-238.66 Y-155.318
X-239.802 Y-155.922
X-240.931 Y-156.55
X-242.047 Y-157.201
X-243.149 Y-157.876
X-244.236 Y-158.574
X-245.309 Y-159.294
X-246.366 Y-160.037
X-247.408 Y-160.802
X-248.433 Y-161.588
X-249.441 Y-162.396
X-250.432 Y-163.225
X-251.405 Y-164.075
X-252.36 Y-164.945
X-253.297 Y-165.835
X-254.214 Y-166.745
X-255.113 Y-167.674
X-255.991 Y-168.621
X-256.849 Y-169.587
X-257.687 Y-170.571
X-258.504 Y-171.571
X-259.3 Y-172.589
X-260.075 Y-173.623
X-260.827 Y-174.674
X-261.558 Y-175.739
X-262.266 Y-176.82
X-262.951 Y-177.915
X-263.614 Y-179.025
X-264.252 Y-180.148
X-264.867 Y-181.285
X-265.458 Y-182.434
X-266.024 Y-183.595
X-266.567 Y-184.768
X-267.084 Y-185.952
X-267.576 Y-187.146
X-268.044 Y-188.351
X-268.486 Y-189.565
X-268.902 Y-190.788
X-269.293 Y-192.019
X-269.658 Y-193.259
X-269.997 Y-194.505
X-270.311 Y-195.759
X-270.598 Y-197.019
X-270.858 Y-198.284
X-271.092 Y-199.555
X-271.299 Y-200.83
X-271.479 Y-202.11
X-271.633 Y-203.393
X-271.759 Y-204.679
X-271.859 Y-205.967
X-271.932 Y-207.257
X-271.977 Y-208.548
X-271.996 Y-209.84
X-271.988 Y-211.132
X-271.953 Y-212.423
X-271.891 Y-213.714
X-271.802 Y-215.003
X-271.686 Y-216.29
X-271.544 Y-217.574
X-271.375 Y-218.855
X-271.178 Y-220.132
X-270.956 Y-221.405
X-270.706 Y-222.673
X-270.43 Y-223.935
X-270.128 Y-225.191
X-269.8 Y-226.441
X-269.446 Y-227.683
X-269.065 Y-228.918
X-268.659 Y-230.145
X-268.228 Y-231.363
X-267.771 Y-232.571
X-267.29 Y-233.77
X-266.783 Y-234.959
X-266.252 Y-236.137
X-265.697 Y-237.303
X-265.117 Y-238.458
X-264.513 Y-239.6
X-263.886 Y-240.73
X-263.235 Y-241.846
X-262.56 Y-242.948
X-261.863 Y-244.036
X-261.144 Y-245.109
X-260.402 Y-246.167
X-259.638 Y-247.209
X-258.853 Y-248.235
X-258.046 Y-249.244
X-257.219 Y-250.237
X-256.371 Y-251.212
X-255.503 Y-252.169
X-254.616 Y-253.108
X-253.709 Y-254.028
X-252.783 Y-254.93
X-251.839 Y-255.811
X-250.876 Y-256.673
X-249.895 Y-257.514
X-248.897 Y-258.335
X-247.883 Y-259.135
X-246.851 Y-259.913
X-245.804 Y-260.67
X-244.741 Y-261.405
X-243.664 Y-262.117
X-242.571 Y-262.807
X-241.464 Y-263.474
X-240.344 Y-264.118
X-239.211 Y-264.738
X-238.065 Y-265.335
X-236.907 Y-265.908
X-235.737 Y-266.456
X-234.556 Y-266.98
X-233.364 Y-267.48
X-232.162 Y-267.954
X-230.951 Y-268.403
X-229.73 Y-268.827
X-228.501 Y-269.225
X-227.264 Y-269.598
X-226.019 Y-269.945
X-224.768 Y-270.266
X-223.51 Y-270.56
X-222.246 Y-270.829
X-220.977 Y-271.071
X-219.703 Y-271.287
X-218.425 Y-271.477
X-217.143 Y-271.64
X-215.858 Y-271.776
X-214.571 Y-271.886
X-213.282 Y-271.969
X-211.991 Y-272.025
X-210.699 Y-272.054
X-209.407 Y-272.056
X-208.115 Y-272.032
X-206.824 Y-271.981
X-205.534 Y-271.903
X-204.247 Y-271.798
X-202.961 Y-271.667
X-201.679 Y-271.51
X-200.4 Y-271.325
X-199.125 Y-271.115
X-197.855 Y-270.878
X-196.59 Y-270.616
X-195.33 Y-270.327
X-194.077 Y-270.013
X-192.831 Y-269.672
X-191.592 Y-269.306
X-190.36 Y-268.915
X-189.137 Y-268.498
X-187.923 Y-268.057
X-186.718 Y-267.59
X-185.523 Y-267.099
X-184.338 Y-266.583
X-183.165 Y-266.044
X-182.002 Y-265.48
X-180.851 Y-264.892
X-179.713 Y-264.282
X-178.587 Y-263.648
X-177.474 Y-262.991
X-176.375 Y-262.312
X-175.29 Y-261.611
X-174.219 Y-260.887
X-173.164 Y-260.142
X-172.124 Y-259.375
X-171.1 Y-258.587
X-170.092 Y-257.779
X-169.1 Y-256.95
X-168.126 Y-256.101
X-167.17 Y-255.233
X-166.231 Y-254.345
X-165.31 Y-253.439
X-164.408 Y-252.514
X-163.525 Y-251.57
X-162.662 Y-250.609
X-161.817 Y-249.631
X-160.993 Y-248.636
X-160.19 Y-247.624
X-159.406 Y-246.597
X-158.644 Y-245.553
X-157.904 Y-244.495
X-157.185 Y-243.421
X-156.488 Y-242.333
X-155.813 Y-241.231
X-155.16 Y-240.116
X-154.531 Y-238.988
X-153.924 Y-237.847
X-153.341 Y-236.694
X-152.781 Y-235.53
X-152.245 Y-234.354
X-151.732 Y-233.168
X-151.244 Y-231.972
X-150.78 Y-230.766
X-150.341 Y-229.551
X-149.926 Y-228.327
X-149.536 Y-227.096
X-149.171 Y-225.856
X-148.831 Y-224.609
X-148.517 Y-223.356
X-148.229 Y-222.097
X-147.966 Y-220.832
X-147.728 Y-219.562
X-147.517 Y-218.287
X-147.331 Y-217.008
X-147.172 Y-215.726
X-147.038 Y-214.441
X-146.93 Y-213.154
X-146.849 Y-211.864
X-146.794 Y-210.573
X-146.764 Y-209.281
X-146.761 Y-207.989
X-146.785 Y-206.698
X-146.834 Y-205.406
X-146.91 Y-204.117
X-147.012 Y-202.829
X-147.14 Y-201.543
X-147.294 Y-200.26
X-147.474 Y-198.981
X-147.68 Y-197.705
X-147.912 Y-196.434
X-148.17 Y-195.168
X-148.454 Y-193.907
X-148.763 Y-192.653
X-149.097 Y-191.405
X-149.457 Y-190.164
X-149.841 Y-188.93
X-150.251 Y-187.705
X-150.685 Y-186.488
X-151.144 Y-185.28
X-151.628 Y-184.082
X-152.136 Y-182.894
X-152.667 Y-181.717
X-153.223 Y-180.55
X-153.803 Y-179.395
X-154.405 Y-178.252
X-155.031 Y-177.122
X-155.679 Y-176.004
X-156.35 Y-174.9
X-157.044 Y-173.81
X-157.759 Y-172.734
X-158.496 Y-171.673
X-159.255 Y-170.627
X-160.034 Y-169.596
X-160.834 Y-168.582
X-161.654 Y-167.583
X-162.495 Y-166.602
X-163.355 Y-165.638
X-164.235 Y-164.692
X-165.134 Y-163.764
X-166.051 Y-162.854
X-166.987 Y-161.963
X-167.94 Y-161.091
X-168.911 Y-160.238
X-169.899 Y-159.406
X-170.904 Y-158.593
X-171.925 Y-157.802
X-172.962 Y-157.03
X-174.014 Y-156.28
X-175.081 Y-155.552
X-176.162 Y-154.845
X-177.258 Y-154.16
X-178.367 Y-153.497
X-179.489 Y-152.857
X-180.624 Y-152.239
X-181.771 Y-151.645
X-182.93 Y-151.074
X-184.101 Y-150.527
X-185.282 Y-150.003
X-186.474 Y-149.504
X-187.675 Y-149.028
X-188.886 Y-148.577
X-190.105 Y-148.15
X-191.333 Y-147.748
X-192.569 Y-147.37
X-193.812 Y-147.018
X-195.062 Y-146.691
X-196.318 Y-146.388
X-197.58 Y-146.111
X-198.847 Y-145.859
X-200.119 Y-145.633
X-201.396 Y-145.433
X-202.676 Y-145.258
X-203.959 Y-145.109
X-205.245 Y-144.986
X-206.534 Y-144.889
X-207.824 Y-144.817
X-209.115 Y-144.771
X-210.407 Y-144.752
X-211.699 Y-144.758
X-212.991 Y-144.79
X-214.281 Y-144.848
X-215.571 Y-144.931
X-216.858 Y-145.04
X-218.143 Y-145.175
X-219.425 Y-145.336
X-220.704 Y-145.522
X-221.978 Y-145.733
X-223.249 Y-145.97
X-224.514 Y-146.233
X-225.773 Y-146.521
X-227.027 Y-146.834
X-228.274 Y-147.171
X-229.514 Y-147.534
X-230.747 Y-147.921
X-231.972 Y-148.333
X-233.188 Y-148.769
X-234.395 Y-149.229
X-235.593 Y-149.713
X-236.781 Y-150.221
X-237.959 Y-150.752
X-239.126 Y-151.306
X-240.282 Y-151.884
X-241.426 Y-152.484
X-242.558 Y-153.107
X-243.677 Y-153.752
X-244.783 Y-154.42
X-245.876 Y-155.11
X-246.955 Y-155.821
X-248.019 Y-156.553
X-249.069 Y-157.307
X-250.104 Y-158.081
X-251.123 Y-158.875
X-252.126 Y-159.689
X-253.112 Y-160.523
X-254.082 Y-161.377
X-255.035 Y-162.249
X-255.971 Y-163.141
X-256.889 Y-164.05
X-257.788 Y-164.978
X-258.669 Y-165.923
X-259.532 Y-166.885
X-260.375 Y-167.864
X-261.198 Y-168.86
X-262.001 Y-169.872
X-262.784 Y-170.899
X-263.547 Y-171.942
X-264.289 Y-173
X-265.01 Y-174.072
X-265.71 Y-175.159
X-266.387 Y-176.259
X-267.044 Y-177.372
X-267.678 Y-178.497
X-268.289 Y-179.635
X-268.879 Y-180.785
X-269.445 Y-181.947
X-269.989 Y-183.119
X-270.509 Y-184.301
X-271.006 Y-185.494
X-271.479 Y-186.696
X-271.928 Y-187.908
X-272.353 Y-189.128
X-272.754 Y-190.356
X-273.131 Y-191.592
X-273.483 Y-192.835
X-273.811 Y-194.085
X-274.114 Y-195.341
X-274.392 Y-196.603
X-274.645 Y-197.87
X-274.873 Y-199.142
X-275.077 Y-200.418
X-275.255 Y-201.697
X-275.408 Y-202.98
X-275.535 Y-204.266
X-275.638 Y-205.554
X-275.715 Y-206.844
X-275.767 Y-208.135
X-275.793 Y-209.427
Y-210.719
X-275.768 Y-212.01
X-275.718 Y-213.301
X-275.642 Y-214.591
X-275.541 Y-215.879
X-275.414 Y-217.165
X-275.262 Y-218.448
X-275.085 Y-219.728
X-274.883 Y-221.004
X-274.656 Y-222.276
X-274.404 Y-223.544
X-274.127 Y-224.806
X-273.826 Y-226.062
X-273.499 Y-227.312
X-273.149 Y-228.556
X-272.774 Y-229.792
X-272.374 Y-231.021
X-271.951 Y-232.242
X-271.503 Y-233.454
X-271.032 Y-234.657
X-270.537 Y-235.85
X-270.019 Y-237.034
X-269.477 Y-238.207
X-268.913 Y-239.369
X-268.326 Y-240.52
X-267.716 Y-241.659
X-267.084 Y-242.786
X-266.431 Y-243.901
X-265.755 Y-245.002
X-265.058 Y-246.09
X-264.34 Y-247.164
X-263.601 Y-248.224
X-262.841 Y-249.269
X-262.061 Y-250.299
X-261.261 Y-251.313
X-260.44 Y-252.312
X-259.601 Y-253.294
X-258.742 Y-254.259
X-257.864 Y-255.207
X-256.968 Y-256.138
X-256.054 Y-257.051
X-255.122 Y-257.946
X-254.173 Y-258.822
X-253.206 Y-259.68
X-252.223 Y-260.519
X-251.224 Y-261.338
X-250.209 Y-262.137
X-249.179 Y-262.917
X-248.133 Y-263.676
X-247.073 Y-264.414
X-245.998 Y-265.132
X-244.91 Y-265.828
X-243.808 Y-266.502
X-242.692 Y-267.155
X-241.565 Y-267.785
X-240.425 Y-268.394
X-239.273 Y-268.979
X-238.11 Y-269.543
X-236.937 Y-270.083
X-235.753 Y-270.6
X-234.559 Y-271.094
X-233.355 Y-271.564
X-232.143 Y-272.011
X-230.922 Y-272.434
X-229.693 Y-272.833
X-228.457 Y-273.208
X-227.213 Y-273.558
X-225.963 Y-273.884
X-224.706 Y-274.186
X-223.444 Y-274.463
X-222.177 Y-274.714
X-220.905 Y-274.941
X-219.629 Y-275.143
X-218.349 Y-275.32
X-217.066 Y-275.472
X-215.78 Y-275.599
X-214.492 Y-275.7
X-213.202 Y-275.777
X-211.911 Y-275.828
X-210.619 Y-275.854
X-209.327 Y-275.855
X-208.036 Y-275.83
X-206.744 Y-275.781
X-205.455 Y-275.707
X-204.166 Y-275.607
X-202.88 Y-275.482
X-201.597 Y-275.332
X-200.317 Y-275.157
X-199.04 Y-274.957
X-197.768 Y-274.732
X-196.5 Y-274.483
X-195.238 Y-274.209
X-193.981 Y-273.91
X-192.73 Y-273.587
X-191.485 Y-273.24
X-190.247 Y-272.869
X-189.017 Y-272.474
X-187.795 Y-272.055
X-186.581 Y-271.612
X-185.376 Y-271.147
X-184.18 Y-270.658
X-182.993 Y-270.146
X-181.817 Y-269.612
X-180.652 Y-269.054
X-179.497 Y-268.474
X-178.354 Y-267.872
X-177.223 Y-267.248
X-176.103 Y-266.602
X-174.997 Y-265.935
X-173.904 Y-265.246
X-172.824 Y-264.536
X-171.758 Y-263.806
X-170.706 Y-263.056
X-169.669 Y-262.285
X-168.647 Y-261.495
X-167.64 Y-260.685
X-166.649 Y-259.857
X-165.674 Y-259.009
X-164.715 Y-258.143
X-163.773 Y-257.258
X-162.848 Y-256.356
X-161.941 Y-255.436
X-161.052 Y-254.499
X-160.18 Y-253.545
X-159.328 Y-252.574
X-158.494 Y-251.587
X-157.679 Y-250.584
X-156.884 Y-249.566
X-156.108 Y-248.533
X-155.352 Y-247.485
X-154.616 Y-246.423
X-153.901 Y-245.347
X-153.206 Y-244.258
X-152.532 Y-243.155
X-151.879 Y-242.04
X-151.248 Y-240.913
X-150.639 Y-239.774
X-150.051 Y-238.623
X-149.485 Y-237.461
X-148.942 Y-236.289
X-148.421 Y-235.106
X-147.924 Y-233.914
X-147.449 Y-232.713
X-146.997 Y-231.502
X-146.569 Y-230.283
X-146.164 Y-229.056
X-145.782 Y-227.822
X-145.424 Y-226.58
X-145.09 Y-225.332
X-144.78 Y-224.078
X-144.494 Y-222.818
X-144.231 Y-221.553
X-143.993 Y-220.283
X-143.78 Y-219.008
X-143.59 Y-217.73
X-143.426 Y-216.449
X-143.285 Y-215.164
X-143.17 Y-213.878
X-143.079 Y-212.589
X-143.013 Y-211.298
X-142.972 Y-210.007
X-142.956 Y-208.715
X-142.964 Y-207.423
X-142.997 Y-206.131
X-143.055 Y-204.841
X-143.138 Y-203.551
X-143.245 Y-202.264
X-143.376 Y-200.978
X-143.533 Y-199.696
X-143.713 Y-198.416
X-143.919 Y-197.141
X-144.148 Y-195.869
X-144.402 Y-194.602
X-144.68 Y-193.34
X-144.982 Y-192.084
X-145.308 Y-190.834
X-145.659 Y-189.59
X-146.033 Y-188.354
X-146.431 Y-187.124
X-146.852 Y-185.903
X-147.297 Y-184.69
X-147.765 Y-183.486
X-148.255 Y-182.29
X-148.769 Y-181.105
X-149.305 Y-179.929
X-149.864 Y-178.764
X-150.445 Y-177.61
X-151.047 Y-176.467
X-151.672 Y-175.336
X-152.317 Y-174.217
X-152.985 Y-173.11
X-153.673 Y-172.017
X-154.382 Y-170.937
X-155.112 Y-169.871
X-155.862 Y-168.819
X-156.632 Y-167.781
X-157.422 Y-166.759
X-158.232 Y-165.752
X-159.06 Y-164.76
X-159.908 Y-163.785
X-160.773 Y-162.826
X-161.658 Y-161.884
X-162.559 Y-160.959
X-163.479 Y-160.051
X-164.415 Y-159.16
X-165.368 Y-158.288
X-166.338 Y-157.434
X-167.324 Y-156.599
X-168.326 Y-155.783
X-169.342 Y-154.986
X-170.375 Y-154.209
X-171.421 Y-153.451
X-172.483 Y-152.714
X-173.558 Y-151.998
X-174.646 Y-151.302
X-175.748 Y-150.626
X-176.862 Y-149.972
X-177.989 Y-149.34
X-179.127 Y-148.729
X-180.277 Y-148.139
X-181.438 Y-147.572
X-182.609 Y-147.027
X-183.791 Y-146.504
X-184.982 Y-146.004
X-186.183 Y-145.526
X-187.392 Y-145.071
X-188.61 Y-144.639
X-189.835 Y-144.231
X-191.069 Y-143.846
X-192.309 Y-143.485
X-193.556 Y-143.147
X-194.81 Y-142.833
X-196.069 Y-142.543
X-197.333 Y-142.277
X-198.602 Y-142.035
X-199.876 Y-141.817
X-201.153 Y-141.624
X-202.434 Y-141.454
X-203.718 Y-141.309
X-205.005 Y-141.188
X-206.293 Y-141.091
X-207.583 Y-141.019
X-208.874 Y-140.971
X-210.166 Y-140.947
X-211.458 Y-140.948
X-212.75 Y-140.973
X-214.041 Y-141.023
X-215.331 Y-141.097
X-216.619 Y-141.196
X-217.905 Y-141.319
X-219.189 Y-141.467
X-220.47 Y-141.638
X-221.747 Y-141.834
X-223.02 Y-142.054
X-224.289 Y-142.297
X-225.553 Y-142.565
X-226.812 Y-142.856
X-228.065 Y-143.171
X-229.312 Y-143.51
X-230.552 Y-143.871
X-231.786 Y-144.256
X-233.011 Y-144.664
X-234.23 Y-145.095
X-235.439 Y-145.549
X-236.64 Y-146.026
X-237.832 Y-146.525
X-239.014 Y-147.047
X-240.186 Y-147.591
X-241.348 Y-148.156
X-242.498 Y-148.744
X-243.638 Y-149.353
X-244.766 Y-149.983
X-245.882 Y-150.634
X-246.985 Y-151.306
X-248.076 Y-151.999
X-249.153 Y-152.712
X-250.217 Y-153.445
X-251.268 Y-154.198
X-252.303 Y-154.97
X-253.325 Y-155.761
X-254.331 Y-156.572
X-255.322 Y-157.401
X-256.297 Y-158.249
X-257.256 Y-159.114
X-258.199 Y-159.998
X-259.125 Y-160.899
X-260.033 Y-161.818
X-260.925 Y-162.753
X-261.799 Y-163.705
X-262.655 Y-164.673
X-263.492 Y-165.656
X-264.311 Y-166.656
X-265.112 Y-167.67
X-265.893 Y-168.699
X-266.655 Y-169.743
X-267.397 Y-170.8
X-268.12 Y-171.871
X-268.822 Y-172.955
X-269.505 Y-174.053
X-270.166 Y-175.163
X-270.807 Y-176.285
X-271.426 Y-177.419
X-272.024 Y-178.564
X-272.601 Y-179.72
X-273.156 Y-180.887
X-273.689 Y-182.064
X-274.2 Y-183.251
X-274.689 Y-184.447
X-275.155 Y-185.652
X-275.599 Y-186.865
X-276.02 Y-188.086
X-276.419 Y-189.315
X-276.794 Y-190.552
X-277.147 Y-191.795
X-277.476 Y-193.044
X-277.782 Y-194.299
X-278.065 Y-195.56
X-278.324 Y-196.826
X-278.559 Y-198.096
X-278.771 Y-199.371
X-278.959 Y-200.649
X-279.123 Y-201.931
X-279.263 Y-203.215
X-279.379 Y-204.502
X-279.471 Y-205.791
X-279.539 Y-207.081
X-279.583 Y-208.373
X-279.603 Y-209.665
X-279.599 Y-210.957
X-279.571 Y-212.248
X-279.519 Y-213.539
X-279.443 Y-214.829
X-279.343 Y-216.117
X-279.219 Y-217.403
X-279.072 Y-218.687
X-278.9 Y-219.968
X-278.705 Y-221.245
X-278.486 Y-222.518
X-278.243 Y-223.787
X-277.977 Y-225.052
X-277.687 Y-226.311
X-277.374 Y-227.564
X-277.037 Y-228.812
X-276.678 Y-230.053
X-276.295 Y-231.287
X-275.89 Y-232.514
X-275.462 Y-233.733
X-275.011 Y-234.944
X-274.538 Y-236.146
X-274.042 Y-237.339
X-273.525 Y-238.523
X-272.986 Y-239.697
X-272.425 Y-240.861
X-271.843 Y-242.015
X-271.239 Y-243.157
X-270.614 Y-244.288
X-269.968 Y-245.407
X-269.302 Y-246.514
X-268.614 Y-247.608
X-267.907 Y-248.689
X-267.18 Y-249.757
X-266.433 Y-250.811
X-265.666 Y-251.852
X-264.881 Y-252.877
X-264.076 Y-253.888
X-263.253 Y-254.884
X-262.412 Y-255.865
X-261.552 Y-256.829
X-260.675 Y-257.778
X-259.78 Y-258.71
X-258.869 Y-259.626
X-257.94 Y-260.525
X-256.995 Y-261.406
X-256.034 Y-262.269
X-255.057 Y-263.114
X-254.064 Y-263.941
X-253.056 Y-264.749
X-252.033 Y-265.539
X-250.996 Y-266.309
X-249.944 Y-267.06
X-248.879 Y-267.791
X-247.8 Y-268.503
X-246.709 Y-269.194
X-245.605 Y-269.865
X-244.488 Y-270.515
X-243.36 Y-271.145
X-242.22 Y-271.753
X-241.069 Y-272.34
X-239.908 Y-272.906
X-238.736 Y-273.451
X-237.554 Y-273.974
X-236.363 Y-274.474
X-235.163 Y-274.952
X-233.954 Y-275.408
X-232.737 Y-275.841
X-231.512 Y-276.252
X-230.279 Y-276.64
X-229.04 Y-277.005
X-227.794 Y-277.346
X-226.542 Y-277.665
X-225.284 Y-277.961
X-224.021 Y-278.233
X-222.753 Y-278.482
X-221.481 Y-278.707
X-220.204 Y-278.909
X-218.925 Y-279.087
X-217.642 Y-279.241
X-216.356 Y-279.372
X-215.069 Y-279.48
X-213.779 Y-279.563
X-212.489 Y-279.622
X-211.197 Y-279.657
X-209.905 Y-279.669
X-208.613 Y-279.656
X-207.322 Y-279.62
X-206.031 Y-279.56
X-204.742 Y-279.476
X-203.454 Y-279.368
X-202.169 Y-279.237
X-200.886 Y-279.082
X-199.606 Y-278.903
X-198.33 Y-278.701
X-197.058 Y-278.476
X-195.79 Y-278.227
X-194.527 Y-277.955
X-193.269 Y-277.66
X-192.017 Y-277.342
X-190.771 Y-277.001
X-189.531 Y-276.637
X-188.298 Y-276.25
X-187.073 Y-275.841
X-185.855 Y-275.409
X-184.645 Y-274.955
X-183.444 Y-274.479
X-182.252 Y-273.981
X-181.069 Y-273.461
X-179.896 Y-272.92
X-178.732 Y-272.357
X-177.58 Y-271.774
X-176.438 Y-271.169
X-175.307 Y-270.543
X-174.188 Y-269.898
X-173.081 Y-269.232
X-171.986 Y-268.545
X-170.904 Y-267.84
X-169.835 Y-267.114
X-168.779 Y-266.369
X-167.737 Y-265.605
X-166.71 Y-264.822
X-165.696 Y-264.021
X-164.698 Y-263.201
X-163.714 Y-262.363
X-162.746 Y-261.507
X-161.793 Y-260.634
X-160.857 Y-259.744
X-159.937 Y-258.837
X-159.033 Y-257.913
X-158.147 Y-256.973
X-157.277 Y-256.018
X-156.425 Y-255.046
X-155.591 Y-254.06
X-154.775 Y-253.058
X-153.977 Y-252.042
X-153.197 Y-251.012
X-152.436 Y-249.968
X-151.694 Y-248.91
X-150.972 Y-247.838
X-150.269 Y-246.754
X-149.587 Y-245.657
X-148.924 Y-244.548
X-148.281 Y-243.427
X-147.659 Y-242.295
X-147.057 Y-241.152
X-146.476 Y-239.997
X-145.916 Y-238.833
X-145.377 Y-237.659
X-144.86 Y-236.475
X-144.364 Y-235.282
X-143.889 Y-234.08
X-143.437 Y-232.87
X-143.006 Y-231.652
X-142.598 Y-230.426
X-142.211 Y-229.193
X-141.847 Y-227.953
X-141.506 Y-226.707
X-141.187 Y-225.455
X-140.892 Y-224.197
X-140.619 Y-222.934
X-140.369 Y-221.666
X-140.142 Y-220.395
X-139.938 Y-219.119
X-139.757 Y-217.839
X-139.599 Y-216.557
X-139.465 Y-215.272
X-139.354 Y-213.985
X-139.266 Y-212.696
X-139.202 Y-211.405
X-139.161 Y-210.114
X-139.143 Y-208.822
X-139.149 Y-207.53
X-139.178 Y-206.238
X-139.23 Y-204.947
X-139.306 Y-203.657
X-139.405 Y-202.369
X-139.528 Y-201.083
X-139.674 Y-199.799
X-139.843 Y-198.518
X-140.036 Y-197.24
X-140.252 Y-195.967
X-140.491 Y-194.697
X-140.752 Y-193.431
X-141.037 Y-192.171
X-141.344 Y-190.916
X-141.675 Y-189.667
X-142.027 Y-188.424
X-142.403 Y-187.188
X-142.8 Y-185.958
X-143.22 Y-184.736
X-143.662 Y-183.522
X-144.125 Y-182.316
X-144.611 Y-181.119
X-145.118 Y-179.93
X-145.646 Y-178.751
X-146.197 Y-177.582
X-146.768 Y-176.423
X-147.36 Y-175.275
X-147.973 Y-174.138
X-148.606 Y-173.011
X-149.26 Y-171.897
X-149.934 Y-170.795
X-150.627 Y-169.704
X-151.341 Y-168.627
X-152.073 Y-167.563
X-152.825 Y-166.512
X-153.596 Y-165.475
X-154.385 Y-164.452
X-155.193 Y-163.444
X-156.019 Y-162.45
X-156.862 Y-161.471
X-157.724 Y-160.508
X-158.602 Y-159.561
X-159.498 Y-158.63
X-160.41 Y-157.715
X-161.339 Y-156.817
X-162.284 Y-155.936
X-163.245 Y-155.072
X-164.221 Y-154.225
X-165.212 Y-153.397
X-166.219 Y-152.586
X-167.239 Y-151.794
X-168.274 Y-151.02
X-169.323 Y-150.265
X-170.385 Y-149.529
X-171.46 Y-148.813
X-172.548 Y-148.116
X-173.648 Y-147.438
X-174.76 Y-146.781
X-175.884 Y-146.144
X-177.02 Y-145.527
X-178.166 Y-144.931
X-179.323 Y-144.355
X-180.49 Y-143.801
X-181.667 Y-143.268
X-182.853 Y-142.756
X-184.049 Y-142.266
X-185.253 Y-141.797
X-186.465 Y-141.35
X-187.685 Y-140.925
X-188.912 Y-140.522
X-190.147 Y-140.141
X-191.388 Y-139.782
X-192.636 Y-139.445
X-193.889 Y-139.131
X-195.148 Y-138.84
X-196.412 Y-138.571
X-197.68 Y-138.325
X-198.953 Y-138.102
X-200.229 Y-137.901
X-201.509 Y-137.724
X-202.792 Y-137.57
X-204.077 Y-137.439
X-205.365 Y-137.331
X-206.654 Y-137.246
X-207.944 Y-137.184
X-209.236 Y-137.145
X-210.528 Y-137.129
X-211.82 Y-137.137
X-213.112 Y-137.168
X-214.403 Y-137.221
X-215.692 Y-137.298
X-216.981 Y-137.398
X-218.267 Y-137.521
X-219.551 Y-137.667
X-220.832 Y-137.835
X-222.109 Y-138.027
X-223.384 Y-138.241
X-224.654 Y-138.478
X-225.919 Y-138.738
X-227.18 Y-139.02
X-228.436 Y-139.325
X-229.686 Y-139.653
X-230.929 Y-140.002
X-232.167 Y-140.374
X-233.398 Y-140.767
X-234.621 Y-141.183
X-235.837 Y-141.62
X-237.045 Y-142.079
X-238.244 Y-142.559
X-239.435 Y-143.061
X-240.616 Y-143.583
X-241.789 Y-144.127
X-242.951 Y-144.691
X-244.103 Y-145.276
X-245.245 Y-145.881
X-246.375 Y-146.507
X-247.495 Y-147.152
X-248.602 Y-147.817
X-249.698 Y-148.503
X-250.781 Y-149.207
X-251.851 Y-149.931
X-252.909 Y-150.673
X-253.953 Y-151.434
X-254.983 Y-152.214
X-256 Y-153.011
X-257.002 Y-153.827
X-257.989 Y-154.66
X-258.962 Y-155.511
X-259.919 Y-156.378
X-260.861 Y-157.263
X-261.787 Y-158.164
X-262.697 Y-159.081
X-263.59 Y-160.015
X-264.467 Y-160.963
X-265.327 Y-161.928
X-266.17 Y-162.907
X-266.995 Y-163.901
X-267.802 Y-164.91
X-268.591 Y-165.933
X-269.362 Y-166.97
X-270.115 Y-168.02
X-270.849 Y-169.084
X-271.564 Y-170.16
X-272.26 Y-171.249
X-272.936 Y-172.35
X-273.593 Y-173.462
X-274.23 Y-174.586
X-274.847 Y-175.721
X-275.444 Y-176.867
X-276.021 Y-178.023
X-276.577 Y-179.19
X-277.112 Y-180.366
X-277.627 Y-181.551
X-278.121 Y-182.745
X-278.593 Y-183.947
X-279.044 Y-185.158
X-279.474 Y-186.377
X-279.881 Y-187.603
X-280.267 Y-188.836
X-280.632 Y-190.075
X-280.974 Y-191.321
X-281.294 Y-192.573
X-281.592 Y-193.83
X-281.868 Y-195.092
X-282.122 Y-196.359
X-282.353 Y-197.631
X-282.562 Y-198.906
X-282.748 Y-200.184
X-282.912 Y-201.466
X-283.053 Y-202.75
X-283.171 Y-204.037
X-283.267 Y-205.325
X-283.34 Y-206.615
X-283.391 Y-207.906
X-283.418 Y-209.198
X-283.423 Y-210.49
X-283.404 Y-211.782
X-283.363 Y-213.073
X-283.299 Y-214.364
X-283.212 Y-215.653
X-283.103 Y-216.94
X-282.971 Y-218.226
X-282.816 Y-219.509
X-282.639 Y-220.788
X-282.44 Y-222.065
X-282.217 Y-223.338
X-281.973 Y-224.606
X-281.706 Y-225.871
X-281.417 Y-227.13
X-281.106 Y-228.384
X-280.773 Y-229.632
X-280.418 Y-230.875
X-280.041 Y-232.111
X-279.642 Y-233.34
X-279.222 Y-234.561
X-278.78 Y-235.775
X-278.317 Y-236.982
X-277.832 Y-238.179
X-277.327 Y-239.368
X-276.801 Y-240.549
X-276.254 Y-241.719
X-275.686 Y-242.88
X-275.098 Y-244.03
X-274.49 Y-245.171
X-273.862 Y-246.3
X-273.215 Y-247.418
X-272.548 Y-248.524
X-271.861 Y-249.619
X-271.155 Y-250.701
X-270.431 Y-251.771
X-269.687 Y-252.828
X-268.926 Y-253.871
X-268.145 Y-254.901
X-267.347 Y-255.917
X-266.531 Y-256.919
X-265.697 Y-257.906
X-264.847 Y-258.878
X-263.979 Y-259.836
X-263.094 Y-260.777
X-262.193 Y-261.703
X-261.276 Y-262.614
X-260.343 Y-263.508
X-259.395 Y-264.385
X-258.431 Y-265.245
X-257.452 Y-266.089
X-256.459 Y-266.915
X-255.451 Y-267.723
X-254.429 Y-268.514
X-253.393 Y-269.287
X-252.344 Y-270.041
X-251.282 Y-270.777
X-250.208 Y-271.494
X-249.12 Y-272.192
X-248.02 Y-272.87
X-246.909 Y-273.529
X-245.786 Y-274.168
X-244.652 Y-274.788
X-243.508 Y-275.387
X-242.353 Y-275.967
X-241.188 Y-276.525
X-240.013 Y-277.064
X-238.83 Y-277.581
X-237.637 Y-278.078
X-236.436 Y-278.554
X-235.226 Y-279.008
X-234.009 Y-279.442
X-232.784 Y-279.853
X-231.552 Y-280.244
X-230.314 Y-280.612
X-229.07 Y-280.959
X-227.819 Y-281.284
X-226.563 Y-281.587
X-225.302 Y-281.868
X-224.036 Y-282.126
X-222.765 Y-282.362
X-221.491 Y-282.576
X-220.213 Y-282.767
X-218.932 Y-282.936
X-217.649 Y-283.083
X-216.363 Y-283.207
X-215.075 Y-283.308
X-213.785 Y-283.387
X-212.494 Y-283.443
X-211.202 Y-283.477
X-209.91 Y-283.488
X-208.618 Y-283.476
X-207.327 Y-283.442
X-206.036 Y-283.386
X-204.746 Y-283.307
X-203.458 Y-283.205
X-202.172 Y-283.081
X-200.889 Y-282.934
X-199.608 Y-282.765
X-198.33 Y-282.573
X-197.056 Y-282.359
X-195.785 Y-282.123
X-194.519 Y-281.864
X-193.258 Y-281.584
X-192.002 Y-281.282
X-190.751 Y-280.958
X-189.506 Y-280.612
X-188.267 Y-280.245
X-187.035 Y-279.856
X-185.81 Y-279.446
X-184.592 Y-279.015
X-183.382 Y-278.563
X-182.18 Y-278.089
X-180.986 Y-277.595
X-179.8 Y-277.081
X-178.624 Y-276.546
X-177.458 Y-275.99
X-176.301 Y-275.414
X-175.155 Y-274.818
X-174.019 Y-274.202
X-172.894 Y-273.567
X-171.78 Y-272.913
X-170.677 Y-272.239
X-169.587 Y-271.546
X-168.508 Y-270.835
X-167.442 Y-270.105
X-166.389 Y-269.356
X-165.349 Y-268.59
X-164.322 Y-267.806
X-163.308 Y-267.004
X-162.309 Y-266.185
X-161.324 Y-265.349
X-160.354 Y-264.496
X-159.398 Y-263.627
X-158.457 Y-262.741
X-157.532 Y-261.839
X-156.623 Y-260.921
X-155.73 Y-259.987
X-154.853 Y-259.039
X-153.992 Y-258.075
X-153.148 Y-257.096
X-152.321 Y-256.104
X-151.511 Y-255.097
X-150.719 Y-254.076
X-149.944 Y-253.042
X-149.188 Y-251.995
X-148.449 Y-250.935
X-147.729 Y-249.862
X-147.027 Y-248.777
X-146.344 Y-247.681
X-145.679 Y-246.573
X-145.034 Y-245.453
X-144.409 Y-244.323
X-143.802 Y-243.182
X-143.216 Y-242.031
X-142.649 Y-240.869
X-142.103 Y-239.698
X-141.576 Y-238.518
X-141.071 Y-237.329
X-140.585 Y-236.132
X-140.121 Y-234.926
X-139.677 Y-233.713
X-139.254 Y-232.492
X-138.852 Y-231.264
X-138.471 Y-230.03
X-138.111 Y-228.789
X-137.773 Y-227.541
X-137.457 Y-226.289
X-137.161 Y-225.031
X-136.888 Y-223.768
X-136.636 Y-222.501
X-136.406 Y-221.23
X-136.198 Y-219.954
X-136.011 Y-218.676
X-135.847 Y-217.394
X-135.705 Y-216.11
X-135.585 Y-214.824
X-135.488 Y-213.535
X-135.412 Y-212.245
X-135.359 Y-210.954
X-135.328 Y-209.663
X-135.319 Y-208.371
X-135.332 Y-207.079
X-135.368 Y-205.787
X-135.426 Y-204.496
X-135.506 Y-203.207
X-135.608 Y-201.919
X-135.732 Y-200.633
X-135.878 Y-199.349
X-136.047 Y-198.068
X-136.237 Y-196.79
X-136.449 Y-195.515
X-136.683 Y-194.245
X-136.939 Y-192.978
X-137.217 Y-191.716
X-137.517 Y-190.46
X-137.838 Y-189.208
X-138.181 Y-187.962
X-138.545 Y-186.723
X-138.931 Y-185.49
X-139.337 Y-184.263
X-139.765 Y-183.044
X-140.213 Y-181.832
X-140.683 Y-180.628
X-141.173 Y-179.433
X-141.683 Y-178.246
X-142.214 Y-177.068
X-142.765 Y-175.899
X-143.336 Y-174.74
X-143.927 Y-173.591
X-144.537 Y-172.452
X-145.167 Y-171.324
X-145.816 Y-170.207
X-146.484 Y-169.101
X-147.172 Y-168.007
X-147.878 Y-166.925
X-148.603 Y-165.856
X-149.346 Y-164.799
X-150.107 Y-163.755
X-150.886 Y-162.724
X-151.683 Y-161.707
X-152.497 Y-160.703
X-153.328 Y-159.714
X-154.175 Y-158.739
X-155.04 Y-157.779
X-155.921 Y-156.833
X-156.818 Y-155.904
X-157.731 Y-154.989
X-158.659 Y-154.09
X-159.603 Y-153.208
X-160.561 Y-152.341
X-161.534 Y-151.492
X-162.522 Y-150.659
X-163.524 Y-149.843
X-164.54 Y-149.044
X-165.57 Y-148.264
X-166.612 Y-147.501
X-167.668 Y-146.756
X-168.736 Y-146.029
X-169.817 Y-145.321
X-170.91 Y-144.631
X-172.014 Y-143.96
X-173.129 Y-143.308
X-174.256 Y-142.676
X-175.393 Y-142.063
X-176.541 Y-141.469
X-177.698 Y-140.895
X-178.865 Y-140.341
X-180.042 Y-139.806
X-181.227 Y-139.292
X-182.421 Y-138.799
X-183.623 Y-138.325
X-184.834 Y-137.873
X-186.051 Y-137.441
X-187.276 Y-137.03
X-188.508 Y-136.64
X-189.747 Y-136.272
X-190.991 Y-135.925
X-192.241 Y-135.599
X-193.497 Y-135.294
X-194.758 Y-135.011
X-196.023 Y-134.749
X-197.292 Y-134.509
X-198.566 Y-134.29
X-199.843 Y-134.094
X-201.123 Y-133.919
X-202.406 Y-133.766
X-203.691 Y-133.634
X-204.979 Y-133.525
X-206.268 Y-133.437
X-207.558 Y-133.371
X-208.85 Y-133.328
X-210.141 Y-133.306
X-211.433
X-212.725 Y-133.329
X-214.017 Y-133.373
X-215.307 Y-133.44
X-216.596 Y-133.528
X-217.883 Y-133.639
X-219.169 Y-133.771
X-220.451 Y-133.925
X-221.732 Y-134.1
X-223.008 Y-134.297
X-224.282 Y-134.516
X-225.551 Y-134.757
X-226.816 Y-135.019
X-228.077 Y-135.302
X-229.333 Y-135.607
X-230.583 Y-135.933
X-231.828 Y-136.28
X-233.066 Y-136.648
X-234.298 Y-137.036
X-235.524 Y-137.446
X-236.742 Y-137.877
X-237.953 Y-138.328
X-239.156 Y-138.799
X-240.35 Y-139.291
X-241.537 Y-139.803
X-242.714 Y-140.335
X-243.882 Y-140.887
X-245.041 Y-141.459
X-246.19 Y-142.05
X-247.329 Y-142.66
X-248.457 Y-143.29
X-249.575 Y-143.938
X-250.681 Y-144.605
X-251.776 Y-145.291
X-252.859 Y-145.995
X-253.931 Y-146.718
X-254.99 Y-147.458
X-256.036 Y-148.216
X-257.07 Y-148.991
X-258.09 Y-149.784
X-259.097 Y-150.594
X-260.089 Y-151.421
X-261.068 Y-152.265
X-262.032 Y-153.125
X-262.982 Y-154.001
X-263.916 Y-154.893
X-264.836 Y-155.8
X-265.74 Y-156.723
X-266.629 Y-157.661
X-267.501 Y-158.614
X-268.358 Y-159.582
X-269.198 Y-160.563
X-270.021 Y-161.559
X-270.828 Y-162.569
X-271.617 Y-163.591
X-272.389 Y-164.627
X-273.144 Y-165.676
X-273.881 Y-166.737
X-274.6 Y-167.811
X-275.301 Y-168.896
X-275.984 Y-169.993
X-276.648 Y-171.102
X-277.293 Y-172.221
X-277.919 Y-173.351
X-278.526 Y-174.492
X-279.113 Y-175.643
X-279.682 Y-176.803
X-280.23 Y-177.973
X-280.76 Y-179.151
X-281.269 Y-180.339
X-281.758 Y-181.535
X-282.227 Y-182.739
X-282.676 Y-183.95
X-283.104 Y-185.169
X-283.512 Y-186.395
X-283.9 Y-187.628
X-284.266 Y-188.867
X-284.612 Y-190.112
X-284.937 Y-191.362
X-285.241 Y-192.618
X-285.524 Y-193.879
X-285.785 Y-195.144
X-286.026 Y-196.414
X-286.244 Y-197.687
X-286.442 Y-198.964
X-286.617 Y-200.244
X-286.772 Y-201.527
X-286.905 Y-202.812
X-287.016 Y-204.099
X-287.106 Y-205.388
X-287.174 Y-206.678
X-287.221 Y-207.97
X-287.245 Y-209.261
X-287.249 Y-210.553
X-287.23 Y-211.845
X-287.19 Y-213.137
X-287.129 Y-214.427
X-287.046 Y-215.717
X-286.941 Y-217.005
X-286.815 Y-218.29
X-286.667 Y-219.574
X-286.498 Y-220.855
X-286.307 Y-222.133
X-286.094 Y-223.407
X-285.861 Y-224.678
X-285.606 Y-225.945
X-285.329 Y-227.207
X-285.032 Y-228.464
X-284.714 Y-229.716
X-284.375 Y-230.963
X-284.015 Y-232.204
X-283.634 Y-233.439
X-283.233 Y-234.667
X-282.811 Y-235.888
X-282.369 Y-237.102
X-281.907 Y-238.309
X-281.425 Y-239.508
X-280.922 Y-240.698
X-280.4 Y-241.88
X-279.858 Y-243.053
X-279.297 Y-244.216
X-278.716 Y-245.371
X-278.116 Y-246.515
X-277.496 Y-247.649
X-276.858 Y-248.772
X-276.201 Y-249.884
X-275.525 Y-250.986
X-274.831 Y-252.076
X-274.119 Y-253.154
X-273.39 Y-254.22
X-272.642 Y-255.274
X-271.877 Y-256.315
X-271.094 Y-257.343
X-270.295 Y-258.358
X-269.478 Y-259.36
X-268.645 Y-260.347
X-267.796 Y-261.321
X-266.931 Y-262.28
X-266.049 Y-263.225
X-265.152 Y-264.155
X-264.24 Y-265.07
X-263.312 Y-265.969
X-262.369 Y-266.853
X-261.412 Y-267.72
X-260.44 Y-268.572
X-259.454 Y-269.407
X-258.454 Y-270.225
X-257.441 Y-271.027
X-256.414 Y-271.811
X-255.375 Y-272.579
X-254.323 Y-273.329
X-253.258 Y-274.061
X-252.182 Y-274.775
X-251.093 Y-275.471
X-249.993 Y-276.149
X-248.882 Y-276.809
X-247.76 Y-277.45
X-246.628 Y-278.072
X-245.485 Y-278.675
X-244.333 Y-279.259
X-243.17 Y-279.823
X-241.999 Y-280.368
X-240.818 Y-280.893
X-239.629 Y-281.399
X-238.432 Y-281.884
X-237.226 Y-282.349
X-236.013 Y-282.795
X-234.793 Y-283.219
X-233.566 Y-283.624
X-232.332 Y-284.008
X-231.092 Y-284.371
X-229.847 Y-284.713
X-228.595 Y-285.035
X-227.339 Y-285.336
X-226.077 Y-285.615
X-224.811 Y-285.874
X-223.541 Y-286.112
X-222.268 Y-286.328
X-220.99 Y-286.523
X-219.71 Y-286.697
X-218.427 Y-286.85
X-217.142 Y-286.981
X-215.854 Y-287.09
X-214.565 Y-287.178
X-213.275 Y-287.245
X-211.984 Y-287.289
X-210.692 Y-287.313
X-209.4 Y-287.315
X-208.108 Y-287.295
X-206.816 Y-287.254
X-205.526 Y-287.192
X-204.236 Y-287.108
X-202.949 Y-287.003
X-201.663 Y-286.876
X-200.379 Y-286.728
X-199.098 Y-286.559
X-197.82 Y-286.368
X-196.546 Y-286.157
X-195.275 Y-285.924
X-194.008 Y-285.67
X-192.745 Y-285.396
X-191.488 Y-285.1
X-190.235 Y-284.784
X-188.988 Y-284.446
X-187.746 Y-284.088
X-186.511 Y-283.71
X-185.282 Y-283.311
X-184.06 Y-282.892
X-182.845 Y-282.453
X-181.637 Y-281.994
X-180.437 Y-281.515
X-179.245 Y-281.016
X-178.061 Y-280.498
X-176.887 Y-279.96
X-175.721 Y-279.403
X-174.564 Y-278.826
X-173.418 Y-278.231
X-172.281 Y-277.617
X-171.154 Y-276.985
X-170.038 Y-276.334
X-168.933 Y-275.665
X-167.839 Y-274.977
X-166.756 Y-274.272
X-165.686 Y-273.549
X-164.627 Y-272.808
X-163.581 Y-272.05
X-162.547 Y-271.275
X-161.526 Y-270.483
X-160.518 Y-269.674
X-159.524 Y-268.849
X-158.543 Y-268.008
X-157.576 Y-267.151
X-156.624 Y-266.278
X-155.686 Y-265.389
X-154.762 Y-264.486
X-153.854 Y-263.567
X-152.96 Y-262.634
X-152.082 Y-261.686
X-151.22 Y-260.724
X-150.373 Y-259.747
X-149.543 Y-258.758
X-148.729 Y-257.754
X-147.931 Y-256.738
X-147.15 Y-255.708
X-146.387 Y-254.666
X-145.64 Y-253.612
X-144.911 Y-252.545
X-144.199 Y-251.467
X-143.506 Y-250.377
X-142.83 Y-249.276
X-142.172 Y-248.164
X-141.532 Y-247.041
X-140.911 Y-245.908
X-140.308 Y-244.765
X-139.724 Y-243.612
X-139.159 Y-242.45
X-138.614 Y-241.279
X-138.087 Y-240.1
X-137.58 Y-238.911
X-137.092 Y-237.715
X-136.623 Y-236.511
X-136.175 Y-235.299
X-135.746 Y-234.08
X-135.337 Y-232.854
X-134.949 Y-231.622
X-134.581 Y-230.384
X-134.233 Y-229.139
X-133.906 Y-227.889
X-133.599 Y-226.634
X-133.313 Y-225.374
X-133.047 Y-224.11
X-132.802 Y-222.841
X-132.577 Y-221.569
X-132.374 Y-220.293
X-132.191 Y-219.014
X-132.03 Y-217.732
X-131.889 Y-216.448
X-131.77 Y-215.161
X-131.671 Y-213.873
X-131.593 Y-212.583
X-131.537 Y-211.292
X-131.502 Y-210.001
X-131.487 Y-208.709
X-131.494 Y-207.417
X-131.522 Y-206.125
X-131.572 Y-204.834
X-131.643 Y-203.544
X-131.734 Y-202.255
X-131.847 Y-200.968
X-131.981 Y-199.683
X-132.136 Y-198.4
X-132.312 Y-197.12
X-132.509 Y-195.843
X-132.726 Y-194.569
X-132.965 Y-193.299
X-133.224 Y-192.034
X-133.504 Y-190.772
X-133.805 Y-189.516
X-134.126 Y-188.264
X-134.467 Y-187.018
X-134.829 Y-185.778
X-135.211 Y-184.543
X-135.613 Y-183.315
X-136.035 Y-182.094
X-136.477 Y-180.88
X-136.939 Y-179.674
X-137.421 Y-178.475
X-137.923 Y-177.284
X-138.444 Y-176.102
X-138.984 Y-174.928
X-139.543 Y-173.763
X-140.121 Y-172.608
X-140.719 Y-171.462
X-141.334 Y-170.326
X-141.969 Y-169.201
X-142.621 Y-168.085
X-143.292 Y-166.981
X-143.981 Y-165.888
X-144.687 Y-164.806
X-145.411 Y-163.736
X-146.153 Y-162.678
X-146.912 Y-161.632
X-147.687 Y-160.599
X-148.48 Y-159.578
X-149.289 Y-158.571
X-150.114 Y-157.577
X-150.956 Y-156.597
X-151.814 Y-155.631
X-152.687 Y-154.678
X-153.576 Y-153.741
X-154.48 Y-152.818
X-155.399 Y-151.909
X-156.333 Y-151.016
X-157.281 Y-150.139
X-158.243 Y-149.277
X-159.22 Y-148.43
X-160.21 Y-147.6
X-161.213 Y-146.786
X-162.23 Y-145.989
X-163.259 Y-145.208
X-164.301 Y-144.444
X-165.356 Y-143.697
X-166.422 Y-142.968
X-167.5 Y-142.255
X-168.59 Y-141.561
X-169.691 Y-140.884
X-170.802 Y-140.226
X-171.925 Y-139.586
X-173.057 Y-138.965
X-174.2 Y-138.361
X-175.352 Y-137.777
X-176.514 Y-137.212
X-177.685 Y-136.665
X-178.864 Y-136.138
X-180.052 Y-135.629
X-181.248 Y-135.14
X-182.452 Y-134.671
X-183.663 Y-134.221
X-184.882 Y-133.792
X-186.107 Y-133.382
X-187.339 Y-132.992
X-188.577 Y-132.621
X-189.821 Y-132.272
X-191.07 Y-131.942
X-192.324 Y-131.632
X-193.584 Y-131.343
X-194.847 Y-131.075
X-196.116 Y-130.827
X-197.388 Y-130.6
X-198.663 Y-130.394
X-199.942 Y-130.208
X-201.223 Y-130.044
X-202.507 Y-129.9
X-203.793 Y-129.776
X-205.081 Y-129.674
X-206.371 Y-129.592
X-207.661 Y-129.532
X-208.953 Y-129.492
X-210.245 Y-129.473
X-211.537 Y-129.475
X-212.829 Y-129.498
X-214.12 Y-129.542
X-215.41 Y-129.607
X-216.7 Y-129.692
X-217.987 Y-129.799
X-219.273 Y-129.926
X-220.557 Y-130.073
X-221.838 Y-130.242
X-223.116 Y-130.432
X-224.391 Y-130.642
X-225.662 Y-130.873
X-226.929 Y-131.124
X-228.192 Y-131.396
X-229.451 Y-131.688
X-230.705 Y-132
X-231.953 Y-132.333
X-233.196 Y-132.685
X-234.433 Y-133.058
X-235.664 Y-133.45
X-236.889 Y-133.863
X-238.107 Y-134.295
X-239.317 Y-134.746
X-240.521 Y-135.217
X-241.716 Y-135.707
X-242.903 Y-136.216
X-244.082 Y-136.745
X-245.253 Y-137.292
X-246.414 Y-137.858
X-247.567 Y-138.443
X-248.709 Y-139.046
X-249.842 Y-139.668
X-250.964 Y-140.308
X-252.076 Y-140.966
X-253.178 Y-141.641
X-254.268 Y-142.335
X-255.347 Y-143.045
X-256.414 Y-143.773
X-257.47 Y-144.518
X-258.514 Y-145.28
X-259.545 Y-146.058
X-260.564 Y-146.853
X-261.569 Y-147.664
X-262.562 Y-148.492
X-263.541 Y-149.335
X-264.507 Y-150.193
X-265.458 Y-151.067
X-266.396 Y-151.956
X-267.319 Y-152.86
X-268.227 Y-153.779
X-269.121 Y-154.712
X-269.999 Y-155.659
X-270.863 Y-156.621
X-271.71 Y-157.596
X-272.542 Y-158.585
X-273.358 Y-159.587
X-274.157 Y-160.602
X-274.941 Y-161.629
X-275.707 Y-162.669
X-276.457 Y-163.721
X-277.191 Y-164.785
X-277.907 Y-165.861
X-278.605 Y-166.948
X-279.286 Y-168.045
X-279.95 Y-169.154
X-280.596 Y-170.273
X-281.223 Y-171.403
X-281.833 Y-172.542
X-282.424 Y-173.691
X-282.997 Y-174.849
X-283.552 Y-176.016
X-284.087 Y-177.192
X-284.604 Y-178.376
X-285.101 Y-179.568
X-285.579 Y-180.769
X-286.038 Y-181.977
X-286.478 Y-183.192
X-286.898 Y-184.413
X-287.298 Y-185.642
X-287.679 Y-186.876
X-288.04 Y-188.117
X-288.382 Y-189.363
X-288.703 Y-190.615
X-289.004 Y-191.871
X-289.285 Y-193.132
X-289.546 Y-194.398
X-289.787 Y-195.667
X-290.008 Y-196.94
X-290.208 Y-198.217
X-290.388 Y-199.496
X-290.547 Y-200.778
X-290.686 Y-202.063
X-290.804 Y-203.349
X-290.902 Y-204.638
X-290.978 Y-205.928
X-291.035 Y-207.218
X-291.07 Y-208.51
X-291.085 Y-209.802
X-291.079 Y-211.094
X-291.053 Y-212.386
X-291.006 Y-213.677
X-290.939 Y-214.967
X-290.851 Y-216.256
X-290.743 Y-217.544
X-290.614 Y-218.829
X-290.464 Y-220.113
X-290.294 Y-221.394
X-290.104 Y-222.672
X-289.893 Y-223.946
X-289.662 Y-225.218
X-289.411 Y-226.485
X-289.139 Y-227.748
X-288.848 Y-229.007
X-288.536 Y-230.261
X-288.205 Y-231.51
X-287.853 Y-232.753
X-287.482 Y-233.99
X-287.09 Y-235.222
X-286.68 Y-236.447
X-286.249 Y-237.665
X-285.8 Y-238.876
X-285.331 Y-240.08
X-284.843 Y-241.277
X-284.336 Y-242.465
X-283.81 Y-243.646
X-283.266 Y-244.817
X-282.703 Y-245.98
X-282.121 Y-247.134
X-281.521 Y-248.278
X-280.903 Y-249.413
X-280.267 Y-250.537
X-279.613 Y-251.652
X-278.942 Y-252.756
X-278.253 Y-253.849
X-277.546 Y-254.931
X-276.823 Y-256.001
X-276.082 Y-257.06
X-275.324 Y-258.106
X-274.55 Y-259.141
X-273.76 Y-260.163
X-272.953 Y-261.172
X-272.13 Y-262.168
X-271.292 Y-263.152
X-270.438 Y-264.121
X-269.569 Y-265.077
X-268.685 Y-266.019
X-267.785 Y-266.947
X-266.871 Y-267.86
X-265.943 Y-268.759
X-265 Y-269.643
X-264.044 Y-270.511
X-263.074 Y-271.365
X-262.09 Y-272.202
X-261.093 Y-273.024
X-260.084 Y-273.83
X-259.061 Y-274.62
X-258.026 Y-275.394
X-256.979 Y-276.15
X-255.919 Y-276.89
X-254.848 Y-277.613
X-253.766 Y-278.319
X-252.673 Y-279.007
X-251.568 Y-279.678
X-250.454 Y-280.331
X-249.329 Y-280.967
X-248.194 Y-281.584
X-247.049 Y-282.183
X-245.895 Y-282.764
X-244.732 Y-283.327
X-243.56 Y-283.871
X-242.38 Y-284.396
X-241.191 Y-284.903
X-239.994 Y-285.39
X-238.79 Y-285.859
X-237.579 Y-286.308
X-236.36 Y-286.738
X-235.135 Y-287.149
X-233.904 Y-287.539
X-232.666 Y-287.911
X-231.423 Y-288.262
X-230.174 Y-288.593
X-228.92 Y-288.905
X-227.661 Y-289.196
X-226.398 Y-289.468
X-225.131 Y-289.719
X-223.86 Y-289.951
X-222.585 Y-290.162
X-221.307 Y-290.353
X-220.026 Y-290.523
X-218.743 Y-290.673
X-217.457 Y-290.803
X-216.17 Y-290.913
X-214.881 Y-291.002
X-213.591 Y-291.07
X-212.3 Y-291.118
X-211.008 Y-291.146
X-209.716 Y-291.153
X-208.424 Y-291.14
X-207.132 Y-291.106
X-205.841 Y-291.051
X-204.551 Y-290.976
X-203.263 Y-290.881
X-201.976 Y-290.765
X-200.691 Y-290.629
X-199.409 Y-290.472
X-198.129 Y-290.296
X-196.852 Y-290.099
X-195.578 Y-289.882
X-194.308 Y-289.644
X-193.042 Y-289.387
X-191.78 Y-289.11
X-190.522 Y-288.813
X-189.27 Y-288.496
X-188.022 Y-288.16
X-186.78 Y-287.804
X-185.544 Y-287.428
X-184.314 Y-287.033
X-183.09 Y-286.619
X-181.873 Y-286.185
X-180.663 Y-285.732
X-179.46 Y-285.26
X-178.265 Y-284.77
X-177.078 Y-284.26
X-175.898 Y-283.732
X-174.728 Y-283.185
X-173.566 Y-282.62
X-172.413 Y-282.036
X-171.269 Y-281.435
X-170.135 Y-280.816
X-169.011 Y-280.179
X-167.897 Y-279.525
X-166.793 Y-278.853
X-165.7 Y-278.164
X-164.618 Y-277.458
X-163.547 Y-276.735
X-162.488 Y-275.996
X-161.44 Y-275.24
X-160.404 Y-274.467
X-159.381 Y-273.679
X-158.369 Y-272.874
X-157.371 Y-272.054
X-156.386 Y-271.219
X-155.413 Y-270.368
X-154.455 Y-269.501
X-153.51 Y-268.62
X-152.579 Y-267.724
X-151.662 Y-266.814
X-150.759 Y-265.889
X-149.871 Y-264.951
X-148.998 Y-263.999
X-148.14 Y-263.033
X-147.296 Y-262.054
X-146.468 Y-261.062
X-145.656 Y-260.057
X-144.86 Y-259.04
X-144.079 Y-258.01
X-143.315 Y-256.969
X-142.567 Y-255.915
X-141.835 Y-254.85
X-141.12 Y-253.774
X-140.422 Y-252.686
X-139.741 Y-251.588
X-139.078 Y-250.48
X-138.432 Y-249.361
X-137.803 Y-248.232
X-137.192 Y-247.094
X-136.599 Y-245.946
X-136.024 Y-244.789
X-135.467 Y-243.623
X-134.929 Y-242.448
X-134.408 Y-241.266
X-133.906 Y-240.075
X-133.423 Y-238.877
X-132.958 Y-237.671
X-132.513 Y-236.459
X-132.086 Y-235.239
X-131.678 Y-234.013
X-131.29 Y-232.781
X-130.92 Y-231.542
X-130.57 Y-230.299
X-130.24 Y-229.05
X-129.929 Y-227.796
X-129.637 Y-226.537
X-129.365 Y-225.274
X-129.113 Y-224.007
X-128.881 Y-222.735
X-128.669 Y-221.461
X-128.477 Y-220.183
X-128.305 Y-218.903
X-128.153 Y-217.62
X-128.021 Y-216.334
X-127.908 Y-215.047
X-127.816 Y-213.758
X-127.744 Y-212.468
X-127.692 Y-211.177
X-127.661 Y-209.886
X-127.649 Y-208.594
X-127.658 Y-207.302
X-127.686 Y-206.01
X-127.735 Y-204.719
X-127.804 Y-203.429
X-127.893 Y-202.14
X-128.002 Y-200.852
X-128.132 Y-199.567
X-128.281 Y-198.283
X-128.45 Y-197.002
X-128.639 Y-195.724
X-128.849 Y-194.449
X-129.078 Y-193.178
X-129.328 Y-191.91
X-129.597 Y-190.646
X-129.885 Y-189.387
X-130.194 Y-188.132
X-130.522 Y-186.882
X-130.869 Y-185.638
X-131.235 Y-184.399
X-131.621 Y-183.166
X-132.026 Y-181.939
X-132.451 Y-180.718
X-132.894 Y-179.505
X-133.356 Y-178.298
X-133.837 Y-177.099
X-134.336 Y-175.907
X-134.854 Y-174.724
X-135.391 Y-173.548
X-135.945 Y-172.381
X-136.518 Y-171.223
X-137.109 Y-170.074
X-137.718 Y-168.935
X-138.345 Y-167.805
X-138.989 Y-166.685
X-139.651 Y-165.575
X-140.33 Y-164.476
X-141.026 Y-163.387
X-141.739 Y-162.31
X-142.468 Y-161.243
X-143.214 Y-160.188
X-143.977 Y-159.145
X-144.755 Y-158.114
X-145.55 Y-157.095
X-146.36 Y-156.089
X-147.186 Y-155.095
X-148.028 Y-154.115
X-148.884 Y-153.148
X-149.756 Y-152.194
X-150.642 Y-151.254
X-151.543 Y-150.327
X-152.458 Y-149.415
X-153.387 Y-148.517
X-154.33 Y-147.634
X-155.287 Y-146.766
X-156.258 Y-145.913
X-157.241 Y-145.075
X-158.238 Y-144.253
X-159.247 Y-143.446
X-160.268 Y-142.655
X-161.302 Y-141.88
X-162.348 Y-141.121
X-163.405 Y-140.378
X-164.474 Y-139.652
X-165.554 Y-138.943
X-166.645 Y-138.25
X-167.746 Y-137.575
X-168.858 Y-136.917
X-169.98 Y-136.276
X-171.112 Y-135.652
X-172.253 Y-135.047
X-173.403 Y-134.459
X-174.563 Y-133.889
X-175.731 Y-133.337
X-176.908 Y-132.803
X-178.093 Y-132.288
X-179.285 Y-131.791
X-180.486 Y-131.313
X-181.693 Y-130.854
X-182.908 Y-130.413
X-184.129 Y-129.992
X-185.357 Y-129.589
X-186.591 Y-129.205
X-187.83 Y-128.841
X-189.076 Y-128.495
X-190.326 Y-128.169
X-191.581 Y-127.863
X-192.841 Y-127.576
X-194.105 Y-127.308
X-195.373 Y-127.06
X-196.645 Y-126.832
X-197.92 Y-126.624
X-199.198 Y-126.435
X-200.479 Y-126.266
X-201.762 Y-126.116
X-203.048 Y-125.987
X-204.335 Y-125.878
X-205.624 Y-125.788
X-206.914 Y-125.719
X-208.205 Y-125.669
X-209.497 Y-125.64
X-210.789 Y-125.631
X-212.081 Y-125.641
X-213.373 Y-125.672
X-214.664 Y-125.722
X-215.954 Y-125.792
X-217.243 Y-125.882
X-218.53 Y-125.992
X-219.816 Y-126.122
X-221.099 Y-126.272
X-222.38 Y-126.441
X-223.658 Y-126.63
X-224.933 Y-126.839
X-226.205 Y-127.067
X-227.473 Y-127.315
X-228.737 Y-127.582
X-229.997 Y-127.869
X-231.252 Y-128.175
X-232.503 Y-128.501
X-233.748 Y-128.846
X-234.988 Y-129.21
X-236.221 Y-129.593
X-237.449 Y-129.995
X-238.671 Y-130.416
X-239.886 Y-130.856
X-241.094 Y-131.314
X-242.295 Y-131.791
X-243.488 Y-132.286
X-244.674 Y-132.799
X-245.852 Y-133.331
X-247.021 Y-133.88
X-248.182 Y-134.448
X-249.334 Y-135.033
X-250.476 Y-135.636
X-251.61 Y-136.256
X-252.734 Y-136.894
X-253.847 Y-137.549
X-254.951 Y-138.22
X-256.044 Y-138.909
X-257.127 Y-139.614
X-258.199 Y-140.336
X-259.259 Y-141.074
X-260.308 Y-141.829
X-261.345 Y-142.6
X-262.37 Y-143.386
X-263.383 Y-144.188
X-264.384 Y-145.006
X-265.371 Y-145.838
X-266.347 Y-146.686
X-267.309 Y-147.548
X-268.257 Y-148.426
X-269.193 Y-149.317
X-270.114 Y-150.223
X-271.021 Y-151.143
X-271.915 Y-152.076
X-272.794 Y-153.023
X-273.658 Y-153.984
X-274.507 Y-154.957
X-275.342 Y-155.943
X-276.161 Y-156.942
X-276.965 Y-157.954
X-277.754 Y-158.977
X-278.526 Y-160.013
X-279.283 Y-161.06
X-280.023 Y-162.119
X-280.748 Y-163.189
X-281.455 Y-164.27
X-282.146 Y-165.362
X-282.821 Y-166.464
X-283.478 Y-167.577
X-284.118 Y-168.699
X-284.742 Y-169.831
X-285.347 Y-170.972
X-285.936 Y-172.122
X-286.506 Y-173.281
X-287.059 Y-174.449
X-287.594 Y-175.625
X-288.111 Y-176.809
X-288.61 Y-178.001
X-289.091 Y-179.2
X-289.553 Y-180.407
X-289.997 Y-181.62
X-290.423 Y-182.84
X-290.829 Y-184.067
X-291.217 Y-185.299
X-291.586 Y-186.538
X-291.936 Y-187.781
X-292.266 Y-189.03
X-292.578 Y-190.284
X-292.871 Y-191.543
X-293.144 Y-192.806
X-293.398 Y-194.072
X-293.633 Y-195.343
X-293.848 Y-196.617
X-294.044 Y-197.894
X-294.22 Y-199.174
X-294.377 Y-200.456
X-294.514 Y-201.741
X-294.632 Y-203.028
X-294.73 Y-204.316
X-294.809 Y-205.606
X-294.867 Y-206.897
X-294.907 Y-208.188
X-294.926 Y-209.48
Y-210.772
X-294.906 Y-212.064
X-294.867 Y-213.355
X-294.807 Y-214.646
X-294.728 Y-215.936
X-294.629 Y-217.224
X-294.511 Y-218.511
X-294.372 Y-219.795
X-294.215 Y-221.078
X-294.038 Y-222.357
X-293.841 Y-223.635
X-293.625 Y-224.908
X-293.39 Y-226.179
X-293.135 Y-227.446
X-292.862 Y-228.708
X-292.569 Y-229.967
X-292.256 Y-231.22
X-291.925 Y-232.469
X-291.575 Y-233.713
X-291.206 Y-234.951
X-290.818 Y-236.184
X-290.412 Y-237.41
X-289.986 Y-238.63
X-289.543 Y-239.844
X-289.081 Y-241.05
X-288.6 Y-242.25
X-288.101 Y-243.442
X-287.584 Y-244.626
X-287.049 Y-245.802
X-286.496 Y-246.97
X-285.926 Y-248.129
X-285.338 Y-249.279
X-284.732 Y-250.421
X-284.109 Y-251.553
X-283.47 Y-252.675
X-282.813 Y-253.788
X-282.139 Y-254.89
X-281.449 Y-255.982
X-280.742 Y-257.064
X-280.018 Y-258.135
X-279.279 Y-259.194
X-278.523 Y-260.242
X-277.752 Y-261.279
X-276.965 Y-262.303
X-276.162 Y-263.316
X-275.344 Y-264.316
X-274.511 Y-265.304
X-273.663 Y-266.279
X-272.8 Y-267.24
X-271.923 Y-268.189
X-271.031 Y-269.124
X-270.125 Y-270.045
X-269.206 Y-270.952
X-268.272 Y-271.846
X-267.325 Y-272.725
X-266.365 Y-273.59
X-265.392 Y-274.439
X-264.406 Y-275.275
X-263.407 Y-276.094
X-262.397 Y-276.899
X-261.374 Y-277.688
X-260.339 Y-278.462
X-259.292 Y-279.22
X-258.234 Y-279.961
X-257.165 Y-280.687
X-256.085 Y-281.396
X-254.995 Y-282.089
X-253.894 Y-282.765
X-252.782 Y-283.424
X-251.661 Y-284.067
X-250.53 Y-284.692
X-249.39 Y-285.299
X-248.241 Y-285.889
X-247.082 Y-286.462
X-245.916 Y-287.017
X-244.741 Y-287.554
X-243.558 Y-288.074
X-242.367 Y-288.575
X-241.169 Y-289.059
X-239.963 Y-289.524
X-238.751 Y-289.97
X-237.532 Y-290.398
X-236.306 Y-290.808
X-235.075 Y-291.199
X-233.837 Y-291.571
X-232.595 Y-291.925
X-231.347 Y-292.259
X-230.094 Y-292.575
X-228.836 Y-292.871
X-227.574 Y-293.149
X-226.308 Y-293.407
X-225.039 Y-293.646
X-223.765 Y-293.865
X-222.489 Y-294.065
X-221.209 Y-294.246
X-219.927 Y-294.407
X-218.643 Y-294.549
X-217.357 Y-294.671
X-216.069 Y-294.774
X-214.78 Y-294.857
X-213.489 Y-294.921
X-212.198 Y-294.966
X-210.906 Y-294.99
X-209.614 Y-294.996
X-208.322 Y-294.981
X-207.03 Y-294.947
X-205.739 Y-294.894
X-204.449 Y-294.821
X-203.161 Y-294.728
X-201.874 Y-294.617
X-200.588 Y-294.485
X-199.305 Y-294.335
X-198.024 Y-294.165
X-196.746 Y-293.975
X-195.471 Y-293.766
X-194.199 Y-293.538
X-192.931 Y-293.29
X-191.667 Y-293.024
X-190.407 Y-292.738
X-189.151 Y-292.434
X-187.9 Y-292.111
X-186.654 Y-291.768
X-185.414 Y-291.408
X-184.178 Y-291.028
X-182.949 Y-290.63
X-181.726 Y-290.214
X-180.509 Y-289.779
X-179.299 Y-289.326
X-178.096 Y-288.855
X-176.9 Y-288.365
X-175.712 Y-287.858
X-174.531 Y-287.333
X-173.359 Y-286.791
X-172.194 Y-286.231
X-171.039 Y-285.653
X-169.892 Y-285.058
X-168.754 Y-284.446
X-167.625 Y-283.817
X-166.506 Y-283.171
X-165.397 Y-282.508
X-164.298 Y-281.829
X-163.21 Y-281.133
X-162.131 Y-280.421
X-161.064 Y-279.693
X-160.007 Y-278.949
X-158.962 Y-278.19
X-157.928 Y-277.415
X-156.906 Y-276.624
X-155.896 Y-275.819
X-154.898 Y-274.998
X-153.913 Y-274.163
X-152.94 Y-273.313
X-151.979 Y-272.448
X-151.032 Y-271.569
X-150.098 Y-270.676
X-149.178 Y-269.77
X-148.271 Y-268.849
X-147.378 Y-267.916
X-146.499 Y-266.969
X-145.634 Y-266.008
X-144.784 Y-265.035
X-143.949 Y-264.05
X-143.128 Y-263.052
X-142.322 Y-262.042
X-141.532 Y-261.02
X-140.757 Y-259.986
X-139.997 Y-258.941
X-139.253 Y-257.885
X-138.524 Y-256.818
X-137.812 Y-255.74
X-137.116 Y-254.651
X-136.436 Y-253.553
X-135.772 Y-252.444
X-135.125 Y-251.326
X-134.495 Y-250.198
X-133.882 Y-249.06
X-133.286 Y-247.914
X-132.707 Y-246.759
X-132.145 Y-245.596
X-131.6 Y-244.424
X-131.073 Y-243.244
X-130.564 Y-242.057
X-130.073 Y-240.862
X-129.599 Y-239.659
X-129.144 Y-238.45
X-128.707 Y-237.235
X-128.288 Y-236.012
X-127.887 Y-234.784
X-127.504 Y-233.55
X-127.14 Y-232.31
X-126.794 Y-231.065
X-126.467 Y-229.816
X-126.158 Y-228.561
X-125.868 Y-227.302
X-125.597 Y-226.038
X-125.345 Y-224.771
X-125.112 Y-223.5
X-124.897 Y-222.226
X-124.702 Y-220.949
X-124.526 Y-219.669
X-124.369 Y-218.387
X-124.23 Y-217.102
X-124.112 Y-215.815
X-124.012 Y-214.527
X-123.932 Y-213.238
X-123.871 Y-211.947
X-123.829 Y-210.656
X-123.807 Y-209.364
X-123.804 Y-208.072
X-123.82 Y-206.78
X-123.855 Y-205.488
X-123.91 Y-204.197
X-123.984 Y-202.907
X-124.077 Y-201.619
X-124.189 Y-200.331
X-124.32 Y-199.046
X-124.471 Y-197.763
X-124.64 Y-196.482
X-124.829 Y-195.204
X-125.037 Y-193.929
X-125.264 Y-192.657
X-125.51 Y-191.388
X-125.774 Y-190.123
X-126.057 Y-188.863
X-126.36 Y-187.607
X-126.681 Y-186.355
X-127.02 Y-185.108
X-127.379 Y-183.867
X-127.756 Y-182.631
X-128.151 Y-181.401
X-128.564 Y-180.177
X-128.996 Y-178.959
X-129.446 Y-177.748
X-129.914 Y-176.544
X-130.4 Y-175.346
X-130.903 Y-174.157
X-131.425 Y-172.974
X-131.963 Y-171.8
X-132.52 Y-170.634
X-133.093 Y-169.476
X-133.684 Y-168.327
X-134.292 Y-167.187
X-134.917 Y-166.056
X-135.558 Y-164.934
X-136.216 Y-163.822
X-136.891 Y-162.721
X-137.582 Y-161.629
X-138.289 Y-160.548
X-139.013 Y-159.477
X-139.752 Y-158.417
X-140.507 Y-157.369
X-141.278 Y-156.332
