%
(1001)
(origin stock top)
(T1  D=21 CR=0 - ZMIN=-12 - flat end mill)
G90 G94
G17
G21

(top_right)
M9
T1 M6
S6500 M3
G54
G0 X-207.684 Y-559.642
Z15
Z5
Z2.55
G3 X-212.794 Y-540.358 Z-0.744 I-2.555 J9.642 F333.3
X-207.684 Y-559.642 Z-4.037 I2.555 J-9.642
X-212.794 Y-540.358 Z-7.331 I-2.555 J9.642
X-207.684 Y-559.642 Z-10.625 I2.555 J-9.642
X-200.264 Y-550 Z-12 I-2.555 J9.642
X-220.214 I-9.975
X-200.264 I9.975
G1 X-200.262 Y-549.584 F850
X-200.234 Y-549.17
X-200.179 Y-548.758
X-199.855 Y-547.127
X-199.781 Y-546.895
X-199.716 Y-546.635
X-199.662 Y-546.347
X-199.624 Y-546.033
X-199.603 Y-545.692
Y-545.325
X-199.628 Y-544.935
X-199.68 Y-544.523
X-199.761 Y-544.091
X-199.875 Y-543.642
X-200.024 Y-543.179
X-200.209 Y-542.704
X-200.433 Y-542.221
X-200.696 Y-541.733
X-201 Y-541.245
X-201.346 Y-540.76
X-201.733 Y-540.282
X-202.162 Y-539.815
X-202.632 Y-539.364
X-203.141 Y-538.931
X-203.689 Y-538.521
X-204.273 Y-538.137
X-204.892 Y-537.784
X-205.543 Y-537.464
X-206.224 Y-537.18
X-206.931 Y-536.935
X-207.663 Y-536.731
X-208.414 Y-536.571
X-209.183 Y-536.456
X-209.965 Y-536.389
X-210.757 Y-536.369
X-211.555 Y-536.399
X-212.355 Y-536.479
X-213.155 Y-536.609
X-213.949 Y-536.789
X-214.735 Y-537.019
X-215.51 Y-537.298
X-216.268 Y-537.626
X-217.008 Y-538.002
X-217.726 Y-538.425
X-218.418 Y-538.892
X-219.082 Y-539.402
X-219.715 Y-539.954
X-220.314 Y-540.546
X-220.876 Y-541.174
X-221.4 Y-541.837
X-221.882 Y-542.533
X-222.321 Y-543.258
X-222.714 Y-544.009
X-223.061 Y-544.784
X-223.36 Y-545.58
X-223.609 Y-546.394
X-223.808 Y-547.222
X-223.955 Y-548.061
X-224.05 Y-548.909
X-224.093 Y-549.761
X-224.083 Y-550.614
X-224.02 Y-551.466
X-223.904 Y-552.312
X-223.737 Y-553.15
X-223.518 Y-553.977
X-223.248 Y-554.788
X-222.929 Y-555.582
X-222.561 Y-556.354
X-222.146 Y-557.103
X-221.685 Y-557.824
X-221.181 Y-558.516
X-220.635 Y-559.175
X-220.049 Y-559.799
X-219.426 Y-560.387
X-218.767 Y-560.934
X-218.076 Y-561.44
X-217.355 Y-561.902
X-216.607 Y-562.319
X-215.834 Y-562.689
X-215.04 Y-563.01
X-214.227 Y-563.282
X-213.399 Y-563.503
X-212.559 Y-563.672
X-211.711 Y-563.79
X-210.856 Y-563.854
X-209.999 Y-563.866
X-209.143 Y-563.825
X-208.292 Y-563.731
X-207.447 Y-563.585
X-206.614 Y-563.386
X-205.794 Y-563.137
X-204.991 Y-562.837
X-204.208 Y-562.489
X-203.448 Y-562.092
X-202.714 Y-561.65
X-202.009 Y-561.163
X-201.335 Y-560.633
X-200.695 Y-560.063
X-200.092 Y-559.454
X-199.527 Y-558.809
X-199.004 Y-558.131
X-198.523 Y-557.421
X-198.087 Y-556.683
X-197.331 Y-555.202
X-196.661 Y-553.699
X-196.192 Y-552.445
X-195.848 Y-551.316
X-195.598 Y-550.264
X-195.425 Y-549.27
X-195.318 Y-548.306
X-195.273 Y-547.365
X-195.285 Y-546.445
X-195.353 Y-545.545
X-195.475 Y-544.661
X-195.65 Y-543.793
X-195.877 Y-542.939
X-196.157 Y-542.101
X-196.489 Y-541.28
X-196.873 Y-540.477
X-197.308 Y-539.695
X-197.794 Y-538.936
X-198.33 Y-538.203
X-198.916 Y-537.499
X-199.55 Y-536.825
X-200.231 Y-536.185
X-200.958 Y-535.583
X-201.729 Y-535.02
X-202.541 Y-534.501
X-203.393 Y-534.029
X-204.28 Y-533.605
X-205.201 Y-533.235
X-206.151 Y-532.918
X-207.127 Y-532.659
X-208.125 Y-532.459
X-209.142 Y-532.32
X-210.172 Y-532.244
X-211.211 Y-532.232
X-212.255 Y-532.283
X-213.3 Y-532.4
X-214.341 Y-532.583
X-215.375 Y-532.83
X-216.396 Y-533.142
X-217.4 Y-533.519
X-218.383 Y-533.958
X-219.34 Y-534.46
X-220.268 Y-535.021
X-221.163 Y-535.641
X-222.02 Y-536.317
X-222.836 Y-537.046
X-223.607 Y-537.826
X-224.33 Y-538.655
X-225.002 Y-539.528
X-225.62 Y-540.443
X-226.182 Y-541.396
X-226.684 Y-542.384
X-227.125 Y-543.402
X-227.502 Y-544.447
X-227.815 Y-545.514
X-228.061 Y-546.599
X-228.24 Y-547.699
X-228.351 Y-548.809
X-228.393 Y-549.924
X-228.366 Y-551.041
X-228.27 Y-552.154
X-228.106 Y-553.26
X-227.873 Y-554.355
X-227.573 Y-555.433
X-227.207 Y-556.491
X-226.776 Y-557.525
X-226.282 Y-558.531
X-225.726 Y-559.504
X-225.112 Y-560.442
X-224.44 Y-561.34
X-223.714 Y-562.195
X-222.937 Y-563.004
X-222.11 Y-563.763
X-221.239 Y-564.47
X-220.325 Y-565.121
X-219.373 Y-565.715
X-218.385 Y-566.25
X-217.367 Y-566.722
X-216.321 Y-567.13
X-215.252 Y-567.474
X-214.163 Y-567.75
X-213.06 Y-567.959
X-211.946 Y-568.099
X-210.825 Y-568.17
X-209.702 Y-568.171
X-208.581 Y-568.104
X-207.466 Y-567.967
X-206.361 Y-567.761
X-205.272 Y-567.488
X-204.201 Y-567.148
X-203.153 Y-566.742
X-202.133 Y-566.273
X-201.143 Y-565.741
X-200.188 Y-565.149
X-199.272 Y-564.5
X-198.397 Y-563.795
X-197.475 Y-562.952
X-196.53 Y-561.976
X-195.63 Y-560.921
X-194.777 Y-559.789
X-193.993 Y-558.6
X-193.29 Y-557.377
X-192.675 Y-556.135
X-192.15 Y-554.885
X-191.712 Y-553.63
X-191.359 Y-552.376
X-191.088 Y-551.123
X-190.899 Y-549.873
X-190.788 Y-548.63
X-190.754 Y-547.396
X-190.797 Y-546.174
X-190.914 Y-544.966
X-191.104 Y-543.775
X-191.367 Y-542.602
X-191.7 Y-541.451
X-192.104 Y-540.324
X-192.576 Y-539.225
X-193.116 Y-538.155
X-193.722 Y-537.118
X-194.394 Y-536.118
X-195.129 Y-535.157
X-195.925 Y-534.239
X-196.782 Y-533.367
X-197.695 Y-532.545
X-198.664 Y-531.777
X-199.684 Y-531.066
X-200.752 Y-530.415
X-201.866 Y-529.828
X-203.021 Y-529.307
X-204.213 Y-528.856
X-205.437 Y-528.478
X-206.69 Y-528.174
X-207.967 Y-527.946
X-209.262 Y-527.798
X-210.57 Y-527.729
X-211.887 Y-527.741
X-213.206 Y-527.835
X-214.523 Y-528.011
X-215.831 Y-528.269
X-217.127 Y-528.609
X-218.404 Y-529.029
X-219.657 Y-529.53
X-220.881 Y-530.109
X-222.071 Y-530.765
X-223.221 Y-531.495
X-224.327 Y-532.297
X-225.384 Y-533.168
X-226.388 Y-534.105
X-227.335 Y-535.105
X-228.219 Y-536.163
X-229.039 Y-537.276
X-229.789 Y-538.44
X-230.467 Y-539.65
X-231.07 Y-540.901
X-231.595 Y-542.189
X-232.04 Y-543.509
X-232.404 Y-544.855
X-232.683 Y-546.223
X-232.878 Y-547.607
X-232.987 Y-549.001
X-233.01 Y-550.4
X-232.946 Y-551.799
X-232.796 Y-553.193
X-232.56 Y-554.575
X-232.239 Y-555.941
X-231.834 Y-557.285
X-231.347 Y-558.602
X-230.778 Y-559.887
X-230.132 Y-561.135
X-229.409 Y-562.341
X-228.613 Y-563.5
X-227.746 Y-564.609
X-226.813 Y-565.661
X-225.816 Y-566.655
X-224.759 Y-567.585
X-223.647 Y-568.448
X-222.483 Y-569.241
X-221.273 Y-569.96
X-220.02 Y-570.604
X-218.73 Y-571.169
X-217.407 Y-571.653
X-216.057 Y-572.055
X-214.684 Y-572.372
X-213.294 Y-572.604
X-211.893 Y-572.75
X-210.485 Y-572.809
X-209.076 Y-572.781
X-207.671 Y-572.666
X-206.277 Y-572.464
X-204.897 Y-572.177
X-203.537 Y-571.805
X-202.203 Y-571.349
X-200.898 Y-570.812
X-199.611 Y-570.185
X-198.33 Y-569.462
X-197.066 Y-568.641
X-195.826 Y-567.721
X-194.621 Y-566.706
X-193.464 Y-565.603
X-192.368 Y-564.42
X-191.342 Y-563.165
X-190.395 Y-561.849
X-189.533 Y-560.48
X-188.76 Y-559.067
X-188.081 Y-557.617
X-187.496 Y-556.137
X-187.007 Y-554.634
X-186.614 Y-553.116
X-186.319 Y-551.586
X-186.119 Y-550.052
X-186.016 Y-548.517
X-186.007 Y-546.988
X-186.093 Y-545.468
X-186.271 Y-543.963
X-186.541 Y-542.476
X-186.902 Y-541.011
X-187.352 Y-539.574
X-187.89 Y-538.169
X-188.513 Y-536.799
X-189.221 Y-535.469
X-190.01 Y-534.183
X-190.88 Y-532.945
X-191.827 Y-531.761
X-192.848 Y-530.633
X-193.941 Y-529.568
X-195.102 Y-528.567
X-196.327 Y-527.637
X-197.613 Y-526.781
X-198.956 Y-526.002
X-200.35 Y-525.305
X-201.79 Y-524.692
X-203.273 Y-524.168
X-204.791 Y-523.734
X-206.341 Y-523.393
X-207.915 Y-523.147
X-209.507 Y-522.999
X-211.113 Y-522.949
X-212.724 Y-522.998
X-214.335 Y-523.147
X-215.94 Y-523.397
X-217.532 Y-523.746
X-219.105 Y-524.195
X-220.651 Y-524.742
X-222.166 Y-525.385
X-223.642 Y-526.122
X-225.073 Y-526.951
X-226.454 Y-527.87
X-227.779 Y-528.875
X-229.04 Y-529.959
X-230.231 Y-531.119
X-231.348 Y-532.35
X-232.388 Y-533.648
X-233.347 Y-535.006
X-234.221 Y-536.421
X-235.007 Y-537.886
X-235.702 Y-539.397
X-236.304 Y-540.947
X-236.81 Y-542.53
X-237.22 Y-544.142
X-237.531 Y-545.775
X-237.742 Y-547.425
X-237.853 Y-549.084
X-237.863 Y-550.746
X-237.773 Y-552.407
X-237.582 Y-554.059
X-237.292 Y-555.696
X-236.904 Y-557.313
X-236.419 Y-558.903
X-235.838 Y-560.461
X-235.165 Y-561.981
X-234.401 Y-563.458
X-233.55 Y-564.887
X-232.614 Y-566.261
X-231.597 Y-567.577
X-230.503 Y-568.829
X-229.335 Y-570.013
X-228.099 Y-571.124
X-226.798 Y-572.16
X-225.437 Y-573.115
X-224.021 Y-573.987
X-222.555 Y-574.772
X-221.045 Y-575.467
X-219.496 Y-576.071
X-217.913 Y-576.58
X-216.302 Y-576.994
X-214.67 Y-577.31
X-213.021 Y-577.527
X-211.363 Y-577.646
X-209.7 Y-577.664
X-208.039 Y-577.582
X-206.387 Y-577.401
X-204.748 Y-577.122
X-203.128 Y-576.744
X-201.534 Y-576.271
X-199.971 Y-575.704
X-198.444 Y-575.046
X-196.958 Y-574.301
X-195.517 Y-573.47
X-194.126 Y-572.56
X-192.787 Y-571.573
X-191.505 Y-570.515
X-190.282 Y-569.388
X-189.122 Y-568.197
X-188.029 Y-566.944
X-187.007 Y-565.633
X-186.057 Y-564.267
X-185.184 Y-562.853
X-184.387 Y-561.393
X-183.671 Y-559.893
X-183.037 Y-558.355
X-182.487 Y-556.786
X-182.024 Y-555.189
X-181.65 Y-553.569
X-181.368 Y-551.93
X-181.177 Y-550.279
X-181.079 Y-548.619
X-181.073 Y-546.956
X-181.161 Y-545.296
X-181.341 Y-543.643
X-181.614 Y-542.002
X-181.978 Y-540.38
X-182.432 Y-538.781
X-182.976 Y-537.209
X-183.608 Y-535.672
X-184.327 Y-534.172
X-185.13 Y-532.716
X-186.014 Y-531.308
X-186.977 Y-529.952
X-188.014 Y-528.653
X-189.122 Y-527.413
X-190.298 Y-526.237
X-191.537 Y-525.128
X-192.836 Y-524.09
X-194.19 Y-523.125
X-195.596 Y-522.237
X-197.049 Y-521.43
X-198.545 Y-520.704
X-200.079 Y-520.061
X-201.645 Y-519.504
X-203.24 Y-519.031
X-204.857 Y-518.646
X-206.493 Y-518.348
X-208.142 Y-518.14
X-209.801 Y-518.022
X-211.464 Y-517.995
X-213.125 Y-518.056
X-214.781 Y-518.206
X-216.427 Y-518.442
X-218.058 Y-518.765
X-219.67 Y-519.175
X-221.257 Y-519.671
X-222.815 Y-520.25
X-224.341 Y-520.911
X-225.83 Y-521.65
X-227.28 Y-522.465
X-228.684 Y-523.355
X-230.039 Y-524.319
X-231.342 Y-525.352
X-232.589 Y-526.452
X-233.777 Y-527.615
X-234.904 Y-528.837
X-235.968 Y-530.116
X-236.962 Y-531.448
X-237.886 Y-532.831
X-238.736 Y-534.26
X-239.511 Y-535.731
X-240.211 Y-537.239
X-240.833 Y-538.781
X-241.375 Y-540.353
X-241.834 Y-541.951
X-242.21 Y-543.571
X-242.501 Y-545.208
X-242.709 Y-546.858
X-242.833 Y-548.516
X-242.873 Y-550.178
X-242.827 Y-551.84
X-242.695 Y-553.498
X-242.477 Y-555.146
X-242.175 Y-556.781
X-241.792 Y-558.399
X-241.327 Y-559.996
X-240.781 Y-561.566
X-240.155 Y-563.107
X-239.45 Y-564.612
X-238.669 Y-566.08
X-237.814 Y-567.507
X-236.889 Y-568.888
X-235.895 Y-570.222
X-234.835 Y-571.502
X-233.709 Y-572.726
X-232.522 Y-573.89
X-231.277 Y-574.993
X-229.979 Y-576.031
X-228.63 Y-577.003
X-227.233 Y-577.906
X-225.792 Y-578.735
X-224.31 Y-579.488
X-222.791 Y-580.165
X-221.24 Y-580.765
X-219.661 Y-581.286
X-218.058 Y-581.727
X-216.434 Y-582.085
X-214.794 Y-582.358
X-213.142 Y-582.547
X-211.482 Y-582.653
X-209.82 Y-582.674
X-208.158 Y-582.613
X-206.502 Y-582.467
X-204.855 Y-582.237
X-203.222 Y-581.922
X-201.608 Y-581.526
X-200.015 Y-581.049
X-198.447 Y-580.495
X-196.909 Y-579.864
X-195.403 Y-579.158
X-193.934 Y-578.379
X-192.505 Y-577.529
X-191.118 Y-576.612
X-189.777 Y-575.629
X-188.483 Y-574.584
X-187.24 Y-573.48
X-186.05 Y-572.319
X-184.918 Y-571.102
X-183.844 Y-569.832
X-182.831 Y-568.513
X-181.881 Y-567.148
X-180.995 Y-565.741
X-180.175 Y-564.295
X-179.423 Y-562.812
X-178.743 Y-561.295
X-178.135 Y-559.747
X-177.602 Y-558.172
X-177.143 Y-556.574
X-176.76 Y-554.956
X-176.453 Y-553.322
X-176.224 Y-551.675
X-176.074 Y-550.019
X-176.005 Y-548.357
X-176.014 Y-546.695
X-176.103 Y-545.034
X-176.27 Y-543.38
X-176.516 Y-541.735
X-176.839 Y-540.105
X-177.243 Y-538.491
X-177.724 Y-536.9
X-178.281 Y-535.333
X-178.913 Y-533.795
X-179.617 Y-532.289
X-180.393 Y-530.818
X-181.238 Y-529.386
X-182.153 Y-527.998
X-183.133 Y-526.655
X-184.177 Y-525.36
X-185.28 Y-524.117
X-186.441 Y-522.926
X-187.657 Y-521.792
X-188.927 Y-520.718
X-190.246 Y-519.706
X-191.613 Y-518.759
X-193.023 Y-517.878
X-194.473 Y-517.064
X-195.959 Y-516.318
X-197.478 Y-515.642
X-199.027 Y-515.038
X-200.603 Y-514.509
X-202.203 Y-514.055
X-203.822 Y-513.676
X-205.457 Y-513.372
X-207.104 Y-513.144
X-208.759 Y-512.992
X-210.42 Y-512.916
X-212.083 Y-512.918
X-213.744 Y-512.998
X-215.4 Y-513.153
X-217.046 Y-513.385
X-218.68 Y-513.69
X-220.299 Y-514.07
X-221.899 Y-514.523
X-223.477 Y-515.049
X-225.028 Y-515.646
X-226.551 Y-516.314
X-228.042 Y-517.05
X-229.499 Y-517.852
X-230.918 Y-518.719
X-232.296 Y-519.648
X-233.632 Y-520.639
X-234.92 Y-521.69
X-236.16 Y-522.797
X-237.349 Y-523.96
X-238.486 Y-525.174
X-239.567 Y-526.437
X-240.591 Y-527.747
X-241.555 Y-529.102
X-242.457 Y-530.499
X-243.295 Y-531.935
X-244.069 Y-533.406
X-244.776 Y-534.911
X-245.417 Y-536.446
X-245.989 Y-538.007
X-246.491 Y-539.592
X-246.922 Y-541.198
X-247.28 Y-542.822
X-247.566 Y-544.46
X-247.779 Y-546.109
X-247.919 Y-547.766
X-247.987 Y-549.427
X-247.981 Y-551.09
X-247.901 Y-552.75
X-247.746 Y-554.406
X-247.519 Y-556.053
X-247.219 Y-557.689
X-246.847 Y-559.309
X-246.405 Y-560.912
X-245.893 Y-562.494
X-245.311 Y-564.052
X-244.661 Y-565.582
X-243.943 Y-567.082
X-243.159 Y-568.548
X-242.312 Y-569.979
X-241.404 Y-571.372
X-240.435 Y-572.723
X-239.408 Y-574.031
X-238.323 Y-575.291
X-237.184 Y-576.502
X-235.992 Y-577.662
X-234.751 Y-578.768
X-233.462 Y-579.819
X-232.129 Y-580.812
X-230.754 Y-581.747
X-229.338 Y-582.619
X-227.885 Y-583.427
X-226.398 Y-584.171
X-224.879 Y-584.848
X-223.333 Y-585.459
X-221.761 Y-586.001
X-220.167 Y-586.475
X-218.554 Y-586.877
X-216.924 Y-587.207
X-215.281 Y-587.465
X-213.629 Y-587.65
X-211.97 Y-587.763
X-210.308 Y-587.804
X-208.645 Y-587.773
X-206.986 Y-587.668
X-205.333 Y-587.491
X-203.689 Y-587.24
X-202.057 Y-586.918
X-200.442 Y-586.526
X-198.844 Y-586.065
X-197.267 Y-585.537
X-195.715 Y-584.942
X-194.189 Y-584.281
X-192.693 Y-583.555
X-191.23 Y-582.765
X-189.801 Y-581.915
X-188.408 Y-581.006
X-187.055 Y-580.04
X-185.743 Y-579.02
X-184.473 Y-577.946
X-183.25 Y-576.82
X-182.075 Y-575.643
X-180.949 Y-574.419
X-179.876 Y-573.15
X-178.854 Y-571.837
X-177.887 Y-570.485
X-176.976 Y-569.094
X-176.122 Y-567.667
X-175.328 Y-566.206
X-174.595 Y-564.714
X-173.925 Y-563.192
X-173.318 Y-561.644
X-172.775 Y-560.072
X-172.297 Y-558.48
X-171.884 Y-556.869
X-171.537 Y-555.243
X-171.259 Y-553.604
X-171.05 Y-551.954
X-170.91 Y-550.297
X-170.839 Y-548.636
X-170.836 Y-546.973
X-170.902 Y-545.312
X-171.035 Y-543.654
X-171.238 Y-542.004
X-171.511 Y-540.364
X-171.853 Y-538.737
X-172.262 Y-537.125
X-172.739 Y-535.532
X-173.281 Y-533.96
X-173.888 Y-532.412
X-174.558 Y-530.89
X-175.292 Y-529.398
X-176.088 Y-527.939
X-176.945 Y-526.514
X-177.861 Y-525.126
X-178.834 Y-523.778
X-179.861 Y-522.47
X-180.941 Y-521.206
X-182.073 Y-519.988
X-183.255 Y-518.818
X-184.485 Y-517.7
X-185.761 Y-516.633
X-187.08 Y-515.621
X-188.439 Y-514.663
X-189.836 Y-513.762
X-191.269 Y-512.918
X-192.735 Y-512.134
X-194.233 Y-511.411
X-195.759 Y-510.751
X-197.311 Y-510.155
X-198.886 Y-509.623
X-200.482 Y-509.155
X-202.095 Y-508.751
X-203.723 Y-508.413
X-205.363 Y-508.141
X-207.013 Y-507.937
X-208.671 Y-507.8
X-210.332 Y-507.731
X-211.995 Y-507.729
X-213.656 Y-507.794
X-215.314 Y-507.925
X-216.965 Y-508.121
X-218.607 Y-508.383
X-220.237 Y-508.712
X-221.852 Y-509.106
X-223.45 Y-509.565
X-225.029 Y-510.087
X-226.586 Y-510.672
X-228.118 Y-511.317
X-229.624 Y-512.022
X-231.101 Y-512.786
X-232.546 Y-513.608
X-233.957 Y-514.487
X-235.332 Y-515.423
X-236.669 Y-516.411
X-237.966 Y-517.452
X-239.221 Y-518.543
X-240.433 Y-519.681
X-241.599 Y-520.866
X-242.718 Y-522.096
X-243.787 Y-523.37
X-244.804 Y-524.685
X-245.77 Y-526.039
X-246.681 Y-527.43
X-247.538 Y-528.855
X-248.339 Y-530.312
X-249.083 Y-531.799
X-249.768 Y-533.314
X-250.392 Y-534.855
X-250.956 Y-536.419
X-251.457 Y-538.004
X-251.897 Y-539.608
X-252.274 Y-541.228
X-252.588 Y-542.86
X-252.839 Y-544.504
X-253.026 Y-546.156
X-253.148 Y-547.814
X-253.205 Y-549.476
X-253.196 Y-551.139
X-253.123 Y-552.8
X-252.986 Y-554.457
X-252.785 Y-556.108
X-252.521 Y-557.749
X-252.194 Y-559.38
X-251.803 Y-560.996
X-251.349 Y-562.595
X-250.832 Y-564.176
X-250.255 Y-565.735
X-249.618 Y-567.271
X-248.922 Y-568.781
X-248.169 Y-570.264
X-247.36 Y-571.716
X-246.495 Y-573.136
X-245.574 Y-574.521
X-244.6 Y-575.869
X-243.575 Y-577.177
X-242.5 Y-578.446
X-241.377 Y-579.672
X-240.207 Y-580.854
X-238.994 Y-581.991
X-237.737 Y-583.08
X-236.439 Y-584.118
X-235.101 Y-585.105
X-233.725 Y-586.04
X-232.315 Y-586.92
X-230.872 Y-587.746
X-229.398 Y-588.516
X-227.896 Y-589.229
X-226.367 Y-589.884
X-224.814 Y-590.478
X-223.239 Y-591.011
X-221.645 Y-591.482
X-220.033 Y-591.892
X-218.407 Y-592.239
X-216.769 Y-592.524
X-215.121 Y-592.746
X-213.466 Y-592.905
X-211.806 Y-592.999
X-210.143 Y-593.028
X-208.481 Y-592.993
X-206.821 Y-592.894
X-205.166 Y-592.731
X-203.519 Y-592.506
X-201.881 Y-592.218
X-200.256 Y-591.869
X-198.644 Y-591.459
X-197.05 Y-590.987
X-195.475 Y-590.454
X-193.921 Y-589.862
X-192.391 Y-589.212
X-190.885 Y-588.505
X-189.407 Y-587.744
X-187.958 Y-586.928
X-186.54 Y-586.06
X-185.156 Y-585.139
X-183.807 Y-584.167
X-182.494 Y-583.146
X-181.221 Y-582.077
X-179.987 Y-580.962
X-178.795 Y-579.803
X-177.646 Y-578.601
X-176.541 Y-577.359
X-175.481 Y-576.078
X-174.47 Y-574.758
X-173.507 Y-573.402
X-172.595 Y-572.012
X-171.735 Y-570.589
X-170.927 Y-569.136
X-170.172 Y-567.654
X-169.47 Y-566.147
X-168.824 Y-564.615
X-168.234 Y-563.06
X-167.701 Y-561.485
X-167.227 Y-559.891
X-166.812 Y-558.281
X-166.457 Y-556.657
X-166.16 Y-555.021
X-165.924 Y-553.375
X-165.747 Y-551.722
X-165.63 Y-550.063
X-165.574 Y-548.401
X-165.581 Y-546.738
X-165.649 Y-545.077
X-165.778 Y-543.419
X-165.968 Y-541.767
X-166.219 Y-540.124
X-166.529 Y-538.49
X-166.899 Y-536.869
X-167.328 Y-535.263
X-167.817 Y-533.673
X-168.365 Y-532.103
X-168.971 Y-530.555
X-169.633 Y-529.03
X-170.352 Y-527.53
X-171.124 Y-526.058
X-171.95 Y-524.615
X-172.828 Y-523.203
X-173.757 Y-521.824
X-174.737 Y-520.481
X-175.767 Y-519.175
X-176.844 Y-517.908
X-177.966 Y-516.682
X-179.133 Y-515.497
X-180.343 Y-514.356
X-181.592 Y-513.259
X-182.881 Y-512.208
X-184.208 Y-511.206
X-185.571 Y-510.253
X-186.967 Y-509.351
X-188.396 Y-508.501
X-189.855 Y-507.703
X-191.342 Y-506.959
X-192.855 Y-506.268
X-194.391 Y-505.633
X-195.949 Y-505.053
X-197.528 Y-504.531
X-199.124 Y-504.066
X-200.737 Y-503.66
X-202.363 Y-503.312
X-204 Y-503.023
X-205.647 Y-502.792
X-207.301 Y-502.621
X-208.96 Y-502.508
X-210.622 Y-502.454
X-212.284 Y-502.461
X-213.946 Y-502.528
X-215.604 Y-502.654
X-217.256 Y-502.839
X-218.901 Y-503.083
X-220.536 Y-503.385
X-222.159 Y-503.744
X-223.769 Y-504.16
X-225.363 Y-504.633
X-226.939 Y-505.163
X-228.496 Y-505.748
X-230.03 Y-506.388
X-231.541 Y-507.082
X-233.027 Y-507.829
X-234.485 Y-508.628
X-235.915 Y-509.477
X-237.314 Y-510.375
X-238.681 Y-511.322
X-240.013 Y-512.317
X-241.31 Y-513.358
X-242.569 Y-514.444
X-243.789 Y-515.573
X-244.969 Y-516.745
X-246.108 Y-517.957
X-247.204 Y-519.207
X-248.255 Y-520.495
X-249.262 Y-521.819
X-250.221 Y-523.177
X-251.131 Y-524.568
X-251.993 Y-525.99
X-252.805 Y-527.442
X-253.565 Y-528.92
X-254.274 Y-530.424
X-254.931 Y-531.952
X-255.534 Y-533.501
X-256.084 Y-535.07
X-256.578 Y-536.658
X-257.016 Y-538.262
X-257.399 Y-539.88
X-257.724 Y-541.511
X-257.994 Y-543.151
X-258.206 Y-544.801
X-258.362 Y-546.456
X-258.46 Y-548.116
X-258.502 Y-549.778
X-258.485 Y-551.441
X-258.41 Y-553.102
X-258.278 Y-554.759
X-258.088 Y-556.411
X-257.842 Y-558.056
X-257.539 Y-559.691
X-257.18 Y-561.314
X-256.765 Y-562.924
X-256.296 Y-564.519
X-255.771 Y-566.097
X-255.191 Y-567.656
X-254.558 Y-569.193
X-253.872 Y-570.708
X-253.135 Y-572.198
X-252.347 Y-573.662
X-251.508 Y-575.098
X-250.622 Y-576.505
X-249.687 Y-577.88
X-248.705 Y-579.222
X-247.677 Y-580.529
X-246.605 Y-581.8
X-245.49 Y-583.033
X-244.332 Y-584.227
X-243.135 Y-585.38
X-241.898 Y-586.492
X-240.625 Y-587.561
X-239.315 Y-588.585
X-237.97 Y-589.564
X-236.593 Y-590.495
X-235.184 Y-591.378
X-233.745 Y-592.212
X-232.279 Y-592.996
X-230.787 Y-593.729
X-229.27 Y-594.411
X-227.731 Y-595.04
X-226.172 Y-595.617
X-224.593 Y-596.138
X-222.997 Y-596.605
X-221.386 Y-597.017
X-219.762 Y-597.373
X-218.126 Y-597.673
X-216.481 Y-597.916
X-214.829 Y-598.104
X-213.172 Y-598.235
X-211.511 Y-598.309
X-209.848 Y-598.326
X-208.186 Y-598.285
X-206.526 Y-598.188
X-204.87 Y-598.034
X-203.221 Y-597.823
X-201.579 Y-597.557
X-199.948 Y-597.236
X-198.328 Y-596.86
X-196.722 Y-596.429
X-195.132 Y-595.944
X-193.559 Y-595.406
X-192.005 Y-594.815
X-190.471 Y-594.171
X-188.96 Y-593.478
X-187.473 Y-592.734
X-186.012 Y-591.941
X-184.577 Y-591.1
X-183.171 Y-590.213
X-181.795 Y-589.279
X-180.451 Y-588.3
X-179.14 Y-587.277
X-177.864 Y-586.212
X-176.623 Y-585.105
X-175.419 Y-583.957
X-174.254 Y-582.772
X-173.128 Y-581.548
X-172.042 Y-580.289
X-170.997 Y-578.995
X-169.996 Y-577.668
X-169.039 Y-576.308
X-168.127 Y-574.918
X-167.262 Y-573.498
X-166.443 Y-572.051
X-165.671 Y-570.578
X-164.948 Y-569.081
X-164.274 Y-567.561
X-163.649 Y-566.02
X-163.075 Y-564.459
X-162.553 Y-562.881
X-162.083 Y-561.286
X-161.667 Y-559.676
X-161.302 Y-558.054
X-160.991 Y-556.42
X-160.734 Y-554.778
X-160.53 Y-553.127
X-160.381 Y-551.471
X-160.285 Y-549.811
X-160.244 Y-548.149
X-160.258 Y-546.486
X-160.328 Y-544.825
X-160.452 Y-543.167
X-160.631 Y-541.514
X-160.864 Y-539.867
X-161.15 Y-538.23
X-161.49 Y-536.602
X-161.884 Y-534.986
X-162.33 Y-533.385
X-162.829 Y-531.799
X-163.381 Y-530.23
X-163.985 Y-528.681
X-164.639 Y-527.152
X-165.343 Y-525.646
X-166.097 Y-524.164
X-166.898 Y-522.707
X-167.747 Y-521.277
X-168.642 Y-519.876
X-169.583 Y-518.505
X-170.569 Y-517.166
X-171.599 Y-515.86
X-172.671 Y-514.59
X-173.784 Y-513.355
X-174.938 Y-512.157
X-176.129 Y-510.997
X-177.358 Y-509.877
X-178.623 Y-508.798
X-179.922 Y-507.76
X-181.255 Y-506.766
X-182.62 Y-505.816
X-184.015 Y-504.912
X-185.439 Y-504.054
X-186.891 Y-503.242
X-188.368 Y-502.478
X-189.868 Y-501.763
X-191.391 Y-501.096
X-192.935 Y-500.478
X-194.498 Y-499.911
X-196.079 Y-499.396
X-197.676 Y-498.932
X-199.287 Y-498.521
X-200.911 Y-498.161
X-202.545 Y-497.855
X-204.188 Y-497.6
X-205.838 Y-497.399
X-207.495 Y-497.25
X-209.155 Y-497.155
X-210.817 Y-497.112
X-212.479 Y-497.124
X-214.141 Y-497.19
X-215.799 Y-497.309
X-217.453 Y-497.481
X-219.101 Y-497.706
X-220.74 Y-497.982
X-222.37 Y-498.311
X-223.989 Y-498.691
X-225.595 Y-499.122
X-227.186 Y-499.604
X-228.761 Y-500.137
X-230.318 Y-500.721
X-231.856 Y-501.353
X-233.373 Y-502.034
X-234.868 Y-502.762
X-236.339 Y-503.538
X-237.785 Y-504.358
X-239.204 Y-505.224
X-240.596 Y-506.135
X-241.958 Y-507.089
X-243.288 Y-508.086
X-244.587 Y-509.124
X-245.852 Y-510.203
X-247.082 Y-511.322
X-248.277 Y-512.478
X-249.435 Y-513.671
X-250.555 Y-514.9
X-251.637 Y-516.163
X-252.678 Y-517.459
X-253.678 Y-518.788
X-254.635 Y-520.147
X-255.549 Y-521.537
X-256.419 Y-522.954
X-257.244 Y-524.397
X-258.023 Y-525.866
X-258.757 Y-527.358
X-259.444 Y-528.872
X-260.083 Y-530.407
X-260.675 Y-531.961
X-261.217 Y-533.533
X-261.71 Y-535.121
X-262.152 Y-536.724
X-262.543 Y-538.34
X-262.885 Y-539.967
X-263.175 Y-541.605
X-263.415 Y-543.25
X-263.604 Y-544.902
X-263.741 Y-546.559
X-263.827 Y-548.22
X-263.861 Y-549.882
X-263.842 Y-551.545
X-263.772 Y-553.206
X-263.649 Y-554.864
X-263.475 Y-556.518
X-263.25 Y-558.165
X-262.975 Y-559.805
X-262.648 Y-561.435
X-262.272 Y-563.055
X-261.845 Y-564.662
X-261.369 Y-566.255
X-260.842 Y-567.832
X-260.267 Y-569.392
X-259.643 Y-570.933
X-258.971 Y-572.455
X-258.253 Y-573.954
X-257.49 Y-575.431
X-256.68 Y-576.884
X-255.827 Y-578.311
X-254.93 Y-579.711
X-253.989 Y-581.082
X-253.006 Y-582.423
X-251.981 Y-583.732
X-250.917 Y-585.01
X-249.813 Y-586.253
X-248.671 Y-587.462
X-247.493 Y-588.635
X-246.279 Y-589.771
X-245.031 Y-590.87
X-243.749 Y-591.929
X-242.435 Y-592.948
X-241.089 Y-593.925
X-239.714 Y-594.859
X-238.31 Y-595.751
X-236.88 Y-596.598
X-235.424 Y-597.401
X-233.944 Y-598.159
X-232.441 Y-598.871
X-230.917 Y-599.536
X-229.374 Y-600.154
X-227.811 Y-600.724
X-226.232 Y-601.244
X-224.638 Y-601.715
X-223.029 Y-602.136
X-221.408 Y-602.507
X-219.777 Y-602.828
X-218.136 Y-603.099
X-216.488 Y-603.319
X-214.834 Y-603.489
X-213.175 Y-603.608
X-211.514 Y-603.675
X-209.851 Y-603.69
X-208.189 Y-603.654
X-206.529 Y-603.566
X-204.872 Y-603.428
X-203.22 Y-603.239
X-201.574 Y-603
X-199.937 Y-602.711
X-198.309 Y-602.372
X-196.692 Y-601.984
X-195.088 Y-601.547
X-193.498 Y-601.061
X-191.923 Y-600.526
X-190.366 Y-599.943
X-188.827 Y-599.314
X-187.307 Y-598.639
X-185.809 Y-597.918
X-184.332 Y-597.154
X-182.88 Y-596.345
X-181.451 Y-595.493
X-180.049 Y-594.599
X-178.675 Y-593.663
X-177.33 Y-592.686
X-176.014 Y-591.669
X-174.73 Y-590.613
X-173.477 Y-589.52
X-172.257 Y-588.39
X-171.071 Y-587.224
X-169.92 Y-586.025
X-168.805 Y-584.791
X-167.727 Y-583.526
X-166.687 Y-582.228
X-165.686 Y-580.901
X-164.725 Y-579.544
X-163.805 Y-578.159
X-162.926 Y-576.747
X-162.089 Y-575.31
X-161.295 Y-573.849
X-160.544 Y-572.366
X-159.836 Y-570.861
X-159.174 Y-569.336
X-158.557 Y-567.792
X-157.986 Y-566.231
X-157.462 Y-564.652
X-156.985 Y-563.06
X-156.556 Y-561.453
X-156.174 Y-559.835
X-155.841 Y-558.206
X-155.555 Y-556.568
X-155.318 Y-554.922
X-155.129 Y-553.27
X-154.989 Y-551.613
X-154.899 Y-549.953
X-154.859 Y-548.291
X-154.868 Y-546.628
X-154.927 Y-544.966
X-155.036 Y-543.307
X-155.193 Y-541.652
X-155.399 Y-540.002
X-155.654 Y-538.359
X-155.958 Y-536.724
X-156.31 Y-535.099
X-156.71 Y-533.485
X-157.159 Y-531.884
X-157.655 Y-530.297
X-158.199 Y-528.726
X-158.789 Y-527.171
X-159.426 Y-525.635
X-160.107 Y-524.118
X-160.833 Y-522.623
X-161.603 Y-521.149
X-162.416 Y-519.698
X-163.272 Y-518.273
X-164.171 Y-516.874
X-165.111 Y-515.502
X-166.091 Y-514.16
X-167.112 Y-512.847
X-168.171 Y-511.565
X-169.267 Y-510.314
X-170.399 Y-509.097
X-171.567 Y-507.913
X-172.769 Y-506.765
X-174.005 Y-505.652
X-175.273 Y-504.577
X-176.573 Y-503.54
X-177.903 Y-502.542
X-179.262 Y-501.584
X-180.649 Y-500.667
X-182.063 Y-499.791
X-183.501 Y-498.957
X-184.963 Y-498.165
X-186.448 Y-497.416
X-187.953 Y-496.711
X-189.479 Y-496.051
X-191.024 Y-495.436
X-192.587 Y-494.867
X-194.165 Y-494.345
X-195.759 Y-493.869
X-197.365 Y-493.44
X-198.983 Y-493.058
X-200.612 Y-492.724
X-202.25 Y-492.436
X-203.895 Y-492.196
X-205.547 Y-492.004
X-207.203 Y-491.86
X-208.863 Y-491.765
X-210.525 Y-491.719
X-212.188 Y-491.722
X-213.85 Y-491.773
X-215.51 Y-491.872
X-217.166 Y-492.018
X-218.818 Y-492.213
X-220.463 Y-492.454
X-222.1 Y-492.743
X-223.729 Y-493.079
X-225.347 Y-493.462
X-226.953 Y-493.892
X-228.546 Y-494.369
X-230.124 Y-494.892
X-231.687 Y-495.46
X-233.233 Y-496.072
X-234.76 Y-496.729
X-236.269 Y-497.428
X-237.757 Y-498.171
X-239.223 Y-498.955
X-240.666 Y-499.781
X-242.084 Y-500.649
X-243.477 Y-501.558
X-244.842 Y-502.506
X-246.181 Y-503.493
X-247.49 Y-504.518
X-248.77 Y-505.58
X-250.018 Y-506.677
X-251.236 Y-507.81
X-252.421 Y-508.976
X-253.572 Y-510.176
X-254.689 Y-511.408
X-255.769 Y-512.672
X-256.813 Y-513.966
X-257.819 Y-515.29
X-258.787 Y-516.642
X-259.716 Y-518.021
X-260.606 Y-519.425
X-261.456 Y-520.855
X-262.265 Y-522.307
X-263.033 Y-523.782
X-263.759 Y-525.278
X-264.442 Y-526.794
X-265.081 Y-528.329
X-265.676 Y-529.882
X-266.227 Y-531.451
X-266.732 Y-533.035
X-267.193 Y-534.632
X-267.608 Y-536.242
X-267.978 Y-537.863
X-268.302 Y-539.494
X-268.581 Y-541.133
X-268.813 Y-542.78
X-268.998 Y-544.432
X-269.136 Y-546.089
X-269.226 Y-547.75
X-269.269 Y-549.412
X-269.265 Y-551.075
X-269.214 Y-552.737
X-269.117 Y-554.396
X-268.972 Y-556.053
X-268.782 Y-557.705
X-268.545 Y-559.351
X-268.262 Y-560.989
X-267.933 Y-562.619
X-267.557 Y-564.239
X-267.135 Y-565.847
X-266.668 Y-567.443
X-266.156 Y-569.025
X-265.6 Y-570.592
X-264.999 Y-572.142
X-264.356 Y-573.675
X-263.67 Y-575.19
X-262.942 Y-576.685
X-262.172 Y-578.159
X-261.361 Y-579.61
X-260.508 Y-581.038
X-259.616 Y-582.441
X-258.684 Y-583.818
X-257.713 Y-585.168
X-256.705 Y-586.49
X-255.66 Y-587.783
X-254.579 Y-589.047
X-253.464 Y-590.28
X-252.315 Y-591.482
X-251.132 Y-592.651
X-249.917 Y-593.785
X-248.669 Y-594.885
X-247.391 Y-595.949
X-246.084 Y-596.976
X-244.748 Y-597.966
X-243.385 Y-598.918
X-241.995 Y-599.831
X-240.581 Y-600.705
X-239.143 Y-601.54
X-237.682 Y-602.334
X-236.199 Y-603.087
X-234.696 Y-603.797
X-233.173 Y-604.464
X-231.631 Y-605.088
X-230.073 Y-605.668
X-228.499 Y-606.204
X-226.911 Y-606.695
X-225.309 Y-607.142
X-223.696 Y-607.544
X-222.072 Y-607.901
X-220.438 Y-608.213
X-218.797 Y-608.478
X-217.149 Y-608.697
X-215.495 Y-608.87
X-213.837 Y-608.995
X-212.176 Y-609.074
X-210.513 Y-609.106
X-208.851 Y-609.092
X-207.189 Y-609.031
X-205.53 Y-608.925
X-203.874 Y-608.773
X-202.223 Y-608.575
X-200.578 Y-608.331
X-198.941 Y-608.041
X-197.312 Y-607.706
X-195.694 Y-607.325
X-194.087 Y-606.899
X-192.492 Y-606.429
X-190.91 Y-605.915
X-189.344 Y-605.357
X-187.793 Y-604.758
X-186.259 Y-604.116
X-184.744 Y-603.432
X-183.247 Y-602.707
X-181.771 Y-601.942
X-180.317 Y-601.136
X-178.885 Y-600.29
X-177.478 Y-599.405
X-176.095 Y-598.482
X-174.737 Y-597.521
X-173.406 Y-596.524
X-172.103 Y-595.492
X-170.828 Y-594.425
X-169.582 Y-593.324
X-168.366 Y-592.19
X-167.181 Y-591.023
X-166.029 Y-589.824
X-164.91 Y-588.595
X-163.824 Y-587.335
X-162.774 Y-586.046
X-161.758 Y-584.73
X-160.779 Y-583.386
X-159.835 Y-582.017
X-158.929 Y-580.623
X-158.06 Y-579.205
X-157.23 Y-577.764
X-156.439 Y-576.302
X-155.687 Y-574.819
X-154.977 Y-573.315
X-154.307 Y-571.793
X-153.679 Y-570.254
X-153.093 Y-568.698
X-152.549 Y-567.126
X-152.048 Y-565.541
X-151.589 Y-563.943
X-151.173 Y-562.333
X-150.8 Y-560.713
X-150.471 Y-559.083
X-150.186 Y-557.445
X-149.947 Y-555.799
X-149.752 Y-554.148
X-149.602 Y-552.492
X-149.497 Y-550.832
X-149.438 Y-549.171
X-149.423 Y-547.508
X-149.452 Y-545.846
X-149.527 Y-544.185
X-149.646 Y-542.526
X-149.809 Y-540.871
X-150.018 Y-539.222
X-150.272 Y-537.578
X-150.57 Y-535.943
X-150.913 Y-534.316
X-151.3 Y-532.699
X-151.731 Y-531.093
X-152.206 Y-529.499
X-152.723 Y-527.919
X-153.282 Y-526.353
X-153.884 Y-524.803
X-154.527 Y-523.269
X-155.211 Y-521.754
X-155.936 Y-520.258
X-156.702 Y-518.782
X-157.509 Y-517.328
X-158.354 Y-515.896
X-159.238 Y-514.488
X-160.16 Y-513.104
X-161.119 Y-511.746
X-162.114 Y-510.414
X-163.145 Y-509.109
X-164.21 Y-507.832
X-165.309 Y-506.584
X-166.441 Y-505.367
X-167.607 Y-504.181
X-168.804 Y-503.027
X-170.032 Y-501.906
X-171.291 Y-500.819
X-172.577 Y-499.766
X-173.892 Y-498.748
X-175.234 Y-497.766
X-176.601 Y-496.82
X-177.994 Y-495.911
X-179.41 Y-495.039
X-180.848 Y-494.206
X-182.309 Y-493.412
X-183.791 Y-492.658
X-185.293 Y-491.944
X-186.814 Y-491.271
X-188.352 Y-490.64
X-189.906 Y-490.049
X-191.475 Y-489.5
X-193.059 Y-488.993
X-194.656 Y-488.528
X-196.264 Y-488.106
X-197.883 Y-487.726
X-199.511 Y-487.39
X-201.148 Y-487.098
X-202.792 Y-486.85
X-204.442 Y-486.646
X-206.097 Y-486.487
X-207.756 Y-486.371
X-209.417 Y-486.299
X-211.08 Y-486.271
X-212.742 Y-486.287
X-214.404 Y-486.347
X-216.064 Y-486.45
X-217.72 Y-486.598
X-219.372 Y-486.789
X-221.018 Y-487.025
X-222.657 Y-487.304
X-224.288 Y-487.626
X-225.91 Y-487.992
X-227.522 Y-488.4
X-229.122 Y-488.85
X-230.711 Y-489.342
X-232.286 Y-489.876
X-233.846 Y-490.45
X-235.391 Y-491.065
X-236.919 Y-491.721
X-238.429 Y-492.417
X-239.92 Y-493.152
X-241.392 Y-493.927
X-242.842 Y-494.74
X-244.271 Y-495.59
X-245.676 Y-496.478
X-247.059 Y-497.403
X-248.416 Y-498.363
X-249.748 Y-499.358
X-251.055 Y-500.387
X-252.333 Y-501.449
X-253.584 Y-502.545
X-254.805 Y-503.674
X-255.996 Y-504.834
X-257.156 Y-506.025
X-258.285 Y-507.246
X-259.381 Y-508.496
X-260.445 Y-509.774
X-261.475 Y-511.08
X-262.471 Y-512.411
X-263.432 Y-513.768
X-264.358 Y-515.149
X-265.247 Y-516.554
X-266.1 Y-517.981
X-266.915 Y-519.431
X-267.691 Y-520.901
X-268.429 Y-522.391
X-269.128 Y-523.9
X-269.788 Y-525.426
X-270.408 Y-526.969
X-270.987 Y-528.527
X-271.527 Y-530.1
X-272.026 Y-531.687
X-272.483 Y-533.285
X-272.899 Y-534.895
X-273.273 Y-536.515
X-273.605 Y-538.144
X-273.894 Y-539.782
X-274.14 Y-541.426
X-274.343 Y-543.077
X-274.504 Y-544.732
X-274.622 Y-546.39
X-274.697 Y-548.051
X-274.729 Y-549.714
X-274.719 Y-551.376
X-274.666 Y-553.038
X-274.57 Y-554.698
X-274.431 Y-556.355
X-274.248 Y-558.008
X-274.023 Y-559.655
X-273.755 Y-561.296
X-273.445 Y-562.93
X-273.092 Y-564.555
X-272.698 Y-566.17
X-272.263 Y-567.775
X-271.786 Y-569.368
X-271.269 Y-570.948
X-270.711 Y-572.514
X-270.113 Y-574.066
X-269.475 Y-575.601
X-268.797 Y-577.12
X-268.08 Y-578.62
X-267.324 Y-580.101
X-266.53 Y-581.562
X-265.699 Y-583.002
X-264.831 Y-584.42
X-263.927 Y-585.816
X-262.988 Y-587.188
X-262.014 Y-588.535
X-261.005 Y-589.857
X-259.963 Y-591.153
X-258.887 Y-592.421
X-257.779 Y-593.66
X-256.639 Y-594.87
X-255.468 Y-596.051
X-254.267 Y-597.201
X-253.037 Y-598.32
X-251.778 Y-599.406
X-250.492 Y-600.46
X-249.179 Y-601.481
X-247.841 Y-602.468
X-246.478 Y-603.42
X-245.091 Y-604.336
X-243.68 Y-605.217
X-242.247 Y-606.06
X-240.793 Y-606.866
X-239.318 Y-607.634
X-237.824 Y-608.364
X-236.312 Y-609.055
X-234.782 Y-609.707
X-233.236 Y-610.32
X-231.676 Y-610.893
X-230.101 Y-611.426
X-228.512 Y-611.918
X-226.912 Y-612.369
X-225.3 Y-612.779
X-223.679 Y-613.147
X-222.048 Y-613.472
X-220.41 Y-613.756
X-218.765 Y-613.997
X-217.114 Y-614.196
X-215.459 Y-614.353
X-213.8 Y-614.468
X-212.139 Y-614.54
X-210.476 Y-614.57
X-208.813 Y-614.557
X-207.152 Y-614.502
X-205.492 Y-614.404
X-203.835 Y-614.263
X-202.182 Y-614.08
X-200.535 Y-613.855
X-198.894 Y-613.588
X-197.26 Y-613.279
X-195.634 Y-612.93
X-194.018 Y-612.539
X-192.412 Y-612.107
X-190.818 Y-611.635
X-189.236 Y-611.123
X-187.668 Y-610.571
X-186.114 Y-609.979
X-184.575 Y-609.348
X-183.053 Y-608.678
X-181.549 Y-607.971
X-180.063 Y-607.225
X-178.596 Y-606.443
X-177.148 Y-605.623
X-175.722 Y-604.769
X-174.318 Y-603.878
X-172.936 Y-602.954
X-171.578 Y-601.995
X-170.244 Y-601.002
X-168.935 Y-599.976
X-167.653 Y-598.917
X-166.398 Y-597.827
X-165.17 Y-596.706
X-163.97 Y-595.555
X-162.799 Y-594.374
X-161.658 Y-593.165
X-160.547 Y-591.927
X-159.468 Y-590.663
X-158.419 Y-589.372
X-157.403 Y-588.056
X-156.42 Y-586.715
X-155.471 Y-585.35
X-154.556 Y-583.961
X-153.676 Y-582.551
X-152.831 Y-581.119
X-152.022 Y-579.666
X-151.249 Y-578.194
X-150.513 Y-576.703
X-149.814 Y-575.194
X-149.152 Y-573.669
X-148.528 Y-572.128
X-147.943 Y-570.571
X-147.396 Y-569.001
X-146.888 Y-567.418
X-146.42 Y-565.822
X-145.992 Y-564.215
X-145.604 Y-562.599
X-145.256 Y-560.973
X-144.949 Y-559.339
X-144.682 Y-557.697
X-144.456 Y-556.05
X-144.271 Y-554.398
X-144.127 Y-552.741
X-144.023 Y-551.082
X-143.962 Y-549.42
X-143.941 Y-547.757
X-143.962 Y-546.095
X-144.025 Y-544.433
X-144.129 Y-542.774
X-144.274 Y-541.117
X-144.46 Y-539.465
X-144.688 Y-537.818
X-144.956 Y-536.177
X-145.265 Y-534.543
X-145.614 Y-532.917
X-146.003 Y-531.301
X-146.433 Y-529.695
X-146.903 Y-528.1
X-147.412 Y-526.517
X-147.961 Y-524.947
X-148.548 Y-523.392
X-149.175 Y-521.851
X-149.839 Y-520.327
X-150.541 Y-518.82
X-151.281 Y-517.331
X-152.057 Y-515.86
X-152.869 Y-514.409
X-153.717 Y-512.979
X-154.6 Y-511.57
X-155.519 Y-510.184
X-156.471 Y-508.821
X-157.457 Y-507.483
X-158.477 Y-506.169
X-159.528 Y-504.881
X-160.612 Y-503.619
X-161.726 Y-502.385
X-162.87 Y-501.179
X-164.044 Y-500.002
X-165.247 Y-498.854
X-166.478 Y-497.735
X-167.736 Y-496.648
X-169.02 Y-495.592
X-170.331 Y-494.569
X-171.666 Y-493.579
X-173.026 Y-492.621
X-174.409 Y-491.698
X-175.814 Y-490.809
X-177.241 Y-489.956
X-178.689 Y-489.137
X-180.156 Y-488.355
X-181.642 Y-487.609
X-183.146 Y-486.899
X-184.666 Y-486.227
X-186.203 Y-485.593
X-187.755 Y-484.996
X-189.322 Y-484.438
X-190.901 Y-483.919
X-192.493 Y-483.439
X-194.097 Y-482.998
X-195.71 Y-482.597
X-197.333 Y-482.235
X-198.964 Y-481.913
X-200.603 Y-481.631
X-202.248 Y-481.39
X-203.899 Y-481.188
X-205.553 Y-481.026
X-207.212 Y-480.906
X-208.873 Y-480.826
X-210.535 Y-480.787
X-212.198 Y-480.788
X-213.86 Y-480.83
X-215.521 Y-480.913
X-217.179 Y-481.035
X-218.834 Y-481.199
X-220.484 Y-481.402
X-222.129 Y-481.645
X-223.767 Y-481.928
X-225.398 Y-482.25
X-227.021 Y-482.613
X-228.635 Y-483.014
X-230.238 Y-483.455
X-231.83 Y-483.935
X-233.41 Y-484.453
X-234.977 Y-485.009
X-236.53 Y-485.603
X-238.068 Y-486.234
X-239.591 Y-486.902
X-241.097 Y-487.607
X-242.586 Y-488.348
X-244.056 Y-489.124
X-245.507 Y-489.936
X-246.938 Y-490.783
X-248.348 Y-491.664
X-249.737 Y-492.579
X-251.103 Y-493.527
X-252.445 Y-494.507
X-253.764 Y-495.52
X-255.058 Y-496.564
X-256.327 Y-497.639
X-257.569 Y-498.744
X-258.785 Y-499.879
X-259.973 Y-501.042
X-261.133 Y-502.233
X-262.264 Y-503.453
X-263.365 Y-504.699
X-264.435 Y-505.971
X-265.475 Y-507.268
X-266.483 Y-508.59
X-267.46 Y-509.936
X-268.404 Y-511.305
X-269.315 Y-512.696
X-270.192 Y-514.108
X-271.036 Y-515.541
X-271.845 Y-516.994
X-272.619 Y-518.466
X-273.357 Y-519.955
X-274.06 Y-521.462
X-274.726 Y-522.986
X-275.356 Y-524.525
X-275.948 Y-526.078
X-276.503 Y-527.646
X-277.021 Y-529.226
X-277.501 Y-530.818
X-277.942 Y-532.421
X-278.346 Y-534.034
X-278.711 Y-535.656
X-279.037 Y-537.287
X-279.324 Y-538.924
X-279.572 Y-540.569
X-279.78 Y-542.218
X-279.949 Y-543.872
X-280.079 Y-545.53
X-280.168 Y-547.19
X-280.218 Y-548.852
X-280.229 Y-550.515
X-280.2 Y-552.178
X-280.131 Y-553.839
X-280.023 Y-555.498
X-279.876 Y-557.154
X-279.689 Y-558.807
X-279.464 Y-560.454
X-279.198 Y-562.095
X-278.894 Y-563.73
X-278.55 Y-565.357
X-278.168 Y-566.975
X-277.748 Y-568.584
X-277.289 Y-570.182
X-276.793 Y-571.769
X-276.258 Y-573.344
X-275.687 Y-574.905
X-275.079 Y-576.453
X-274.434 Y-577.985
X-273.753 Y-579.502
X-273.037 Y-581.003
X-272.284 Y-582.485
X-271.497 Y-583.95
X-270.674 Y-585.395
X-269.818 Y-586.82
X-268.928 Y-588.225
X-268.004 Y-589.607
X-267.049 Y-590.968
X-266.061 Y-592.306
X-265.042 Y-593.619
X-263.992 Y-594.909
X-262.911 Y-596.173
X-261.801 Y-597.411
X-260.662 Y-598.622
X-259.495 Y-599.806
X-258.299 Y-600.961
X-257.076 Y-602.088
X-255.827 Y-603.185
X-254.552 Y-604.253
X-253.252 Y-605.289
X-251.928 Y-606.295
X-250.58 Y-607.269
X-249.21 Y-608.211
X-247.818 Y-609.12
X-246.404 Y-609.996
X-244.971 Y-610.838
X-243.517 Y-611.646
X-242.045 Y-612.419
X-240.555 Y-613.157
X-239.048 Y-613.859
X-237.524 Y-614.524
X-235.985 Y-615.154
X-234.432 Y-615.747
X-232.865 Y-616.303
X-231.285 Y-616.822
X-229.694 Y-617.303
X-228.091 Y-617.747
X-226.479 Y-618.153
X-224.857 Y-618.52
X-223.227 Y-618.849
X-221.59 Y-619.139
X-219.946 Y-619.389
X-218.297 Y-619.601
X-216.643 Y-619.774
X-214.986 Y-619.907
X-213.325 Y-620.002
X-211.664 Y-620.057
X-210.001 Y-620.073
X-208.338 Y-620.05
X-206.677 Y-619.988
X-205.017 Y-619.887
X-203.36 Y-619.747
X-201.707 Y-619.568
X-200.059 Y-619.35
X-198.416 Y-619.093
X-196.78 Y-618.797
X-195.151 Y-618.463
X-193.53 Y-618.091
X-191.919 Y-617.682
X-190.317 Y-617.234
X-188.727 Y-616.75
X-187.148 Y-616.229
X-185.581 Y-615.671
X-184.028 Y-615.077
X-182.489 Y-614.447
X-180.966 Y-613.781
X-179.458 Y-613.08
X-177.967 Y-612.344
X-176.494 Y-611.573
X-175.039 Y-610.768
X-173.603 Y-609.93
X-172.186 Y-609.059
X-170.791 Y-608.156
X-169.416 Y-607.22
X-168.063 Y-606.253
X-166.733 Y-605.256
X-165.426 Y-604.228
X-164.143 Y-603.17
X-162.885 Y-602.083
X-161.652 Y-600.967
X-160.446 Y-599.823
X-159.266 Y-598.651
X-158.114 Y-597.453
X-156.989 Y-596.228
X-155.892 Y-594.978
X-154.825 Y-593.703
X-153.787 Y-592.404
X-152.779 Y-591.082
X-151.801 Y-589.737
X-150.854 Y-588.37
X-149.939 Y-586.982
X-149.056 Y-585.573
X-148.206 Y-584.144
X-147.389 Y-582.695
X-146.606 Y-581.229
X-145.856 Y-579.745
X-145.14 Y-578.244
X-144.459 Y-576.727
X-143.813 Y-575.195
X-143.202 Y-573.649
X-142.626 Y-572.089
X-142.086 Y-570.516
X-141.583 Y-568.932
X-141.115 Y-567.336
X-140.684 Y-565.73
X-140.291 Y-564.114
X-139.935 Y-562.49
X-139.616 Y-560.858
X-139.335 Y-559.219
X-139.092 Y-557.575
X-138.886 Y-555.925
X-138.718 Y-554.27
X-138.588 Y-552.613
X-138.496 Y-550.952
X-138.442 Y-549.291
X-138.426 Y-547.628
X-138.448 Y-545.965
X-138.508 Y-544.304
X-138.607 Y-542.644
X-138.744 Y-540.987
X-138.919 Y-539.333
X-139.133 Y-537.684
X-139.384 Y-536.041
X-139.673 Y-534.403
X-139.999 Y-532.773
X-140.362 Y-531.15
X-140.763 Y-529.536
X-141.201 Y-527.932
X-141.675 Y-526.339
X-142.185 Y-524.756
X-142.732 Y-523.186
X-143.315 Y-521.629
X-143.934 Y-520.086
X-144.589 Y-518.557
X-145.278 Y-517.044
X-146.002 Y-515.547
X-146.761 Y-514.067
X-147.553 Y-512.605
X-148.378 Y-511.162
X-149.236 Y-509.738
X-150.127 Y-508.333
X-151.049 Y-506.95
X-152.003 Y-505.588
X-152.988 Y-504.248
X-154.003 Y-502.932
X-155.049 Y-501.639
X-156.124 Y-500.371
X-157.228 Y-499.127
X-158.361 Y-497.91
X-159.521 Y-496.718
X-160.707 Y-495.554
X-161.921 Y-494.417
X-163.159 Y-493.308
X-164.423 Y-492.227
X-165.711 Y-491.176
X-167.023 Y-490.154
X-168.358 Y-489.162
X-169.715 Y-488.201
X-171.094 Y-487.272
X-172.494 Y-486.375
X-173.914 Y-485.51
X-175.353 Y-484.678
X-176.811 Y-483.878
X-178.287 Y-483.112
X-179.78 Y-482.38
X-181.289 Y-481.682
X-182.813 Y-481.019
X-184.353 Y-480.39
X-185.906 Y-479.796
X-187.472 Y-479.237
X-189.05 Y-478.715
X-190.64 Y-478.228
X-192.241 Y-477.778
X-193.852 Y-477.365
X-195.471 Y-476.988
X-197.099 Y-476.648
X-198.734 Y-476.345
X-200.375 Y-476.079
X-202.022 Y-475.851
X-203.674 Y-475.659
X-205.329 Y-475.505
X-206.988 Y-475.387
X-208.649 Y-475.308
X-210.311 Y-475.266
X-211.974 Y-475.261
X-213.636 Y-475.295
X-215.297 Y-475.366
X-216.957 Y-475.475
X-218.613 Y-475.621
X-220.266 Y-475.804
X-221.914 Y-476.024
X-223.556 Y-476.281
X-225.193 Y-476.575
X-226.823 Y-476.905
X-228.444 Y-477.272
X-230.057 Y-477.675
X-231.661 Y-478.115
X-233.255 Y-478.59
X-234.837 Y-479.101
X-236.407 Y-479.648
X-237.965 Y-480.229
X-239.509 Y-480.846
X-241.039 Y-481.497
X-242.554 Y-482.182
X-244.054 Y-482.9
X-245.537 Y-483.652
X-247.003 Y-484.437
X-248.451 Y-485.254
X-249.88 Y-486.103
X-251.291 Y-486.984
X-252.681 Y-487.896
X-254.05 Y-488.839
X-255.398 Y-489.812
X-256.724 Y-490.816
X-258.027 Y-491.849
X-259.307 Y-492.91
X-260.563 Y-494
X-261.794 Y-495.118
X-263 Y-496.262
X-264.181 Y-497.433
X-265.335 Y-498.63
X-266.462 Y-499.852
X-267.562 Y-501.099
X-268.635 Y-502.37
X-269.678 Y-503.665
X-270.692 Y-504.982
X-271.677 Y-506.322
X-272.631 Y-507.684
X-273.555 Y-509.066
X-274.448 Y-510.468
X-275.31 Y-511.89
X-276.141 Y-513.331
X-276.939 Y-514.79
X-277.704 Y-516.266
X-278.437 Y-517.758
X-279.137 Y-519.266
X-279.803 Y-520.79
X-280.436 Y-522.328
X-281.034 Y-523.879
X-281.597 Y-525.444
X-282.125 Y-527.02
X-282.618 Y-528.608
X-283.076 Y-530.207
X-283.499 Y-531.815
X-283.886 Y-533.432
X-284.237 Y-535.057
X-284.552 Y-536.69
X-284.831 Y-538.329
X-285.074 Y-539.974
X-285.281 Y-541.624
X-285.451 Y-543.278
X-285.585 Y-544.935
X-285.681 Y-546.595
X-285.741 Y-548.257
X-285.764 Y-549.919
X-285.75 Y-551.582
X-285.699 Y-553.244
X-285.612 Y-554.904
X-285.488 Y-556.563
X-285.328 Y-558.218
X-285.132 Y-559.869
X-284.899 Y-561.515
X-284.63 Y-563.156
X-284.325 Y-564.79
X-283.984 Y-566.418
X-283.607 Y-568.037
X-283.194 Y-569.648
X-282.745 Y-571.249
X-282.261 Y-572.84
X-281.743 Y-574.42
X-281.189 Y-575.988
X-280.602 Y-577.543
X-279.98 Y-579.085
X-279.324 Y-580.613
X-278.635 Y-582.127
X-277.913 Y-583.624
X-277.158 Y-585.106
X-276.371 Y-586.571
X-275.552 Y-588.018
X-274.701 Y-589.446
X-273.818 Y-590.855
X-272.905 Y-592.244
X-271.96 Y-593.613
X-270.987 Y-594.961
X-269.983 Y-596.287
X-268.951 Y-597.59
X-267.891 Y-598.871
X-266.802 Y-600.128
X-265.686 Y-601.361
X-264.544 Y-602.569
X-263.375 Y-603.751
X-262.181 Y-604.908
X-260.961 Y-606.038
X-259.716 Y-607.141
X-258.448 Y-608.215
X-257.155 Y-609.262
X-255.841 Y-610.28
X-254.504 Y-611.269
X-253.146 Y-612.228
X-251.767 Y-613.157
X-250.368 Y-614.056
X-248.949 Y-614.923
X-247.512 Y-615.76
X-246.057 Y-616.564
X-244.585 Y-617.337
X-243.096 Y-618.077
X-241.591 Y-618.784
X-240.07 Y-619.457
X-238.535 Y-620.096
X-236.987 Y-620.702
X-235.425 Y-621.274
X-233.852 Y-621.811
X-232.267 Y-622.313
X-230.671 Y-622.781
X-229.066 Y-623.213
X-227.451 Y-623.61
X-225.828 Y-623.972
X-224.198 Y-624.298
X-222.561 Y-624.589
X-220.917 Y-624.843
X-219.269 Y-625.061
X-217.616 Y-625.243
X-215.96 Y-625.388
X-214.301 Y-625.497
X-212.639 Y-625.569
X-210.977 Y-625.606
X-209.314
X-207.652 Y-625.57
X-205.991 Y-625.497
X-204.332 Y-625.388
X-202.675 Y-625.244
X-201.022 Y-625.063
X-199.374 Y-624.847
X-197.73 Y-624.594
X-196.093 Y-624.305
X-194.462 Y-623.981
X-192.838 Y-623.621
X-191.223 Y-623.226
X-189.617 Y-622.796
X-188.021 Y-622.332
X-186.434 Y-621.833
X-184.859 Y-621.3
X-183.296 Y-620.733
X-181.746 Y-620.133
X-180.208 Y-619.499
X-178.685 Y-618.832
X-177.177 Y-618.133
X-175.684 Y-617.401
X-174.207 Y-616.637
X-172.747 Y-615.841
X-171.305 Y-615.014
X-169.88 Y-614.156
X-168.475 Y-613.268
X-167.088 Y-612.349
X-165.722 Y-611.402
X-164.376 Y-610.425
X-163.052 Y-609.42
X-161.749 Y-608.387
X-160.469 Y-607.326
X-159.211 Y-606.238
X-157.977 Y-605.124
X-156.768 Y-603.983
X-155.583 Y-602.816
X-154.423 Y-601.625
X-153.289 Y-600.409
X-152.181 Y-599.168
X-151.1 Y-597.905
X-150.047 Y-596.619
X-149.02 Y-595.311
X-148.022 Y-593.981
X-147.052 Y-592.63
X-146.111 Y-591.259
X-145.2 Y-589.869
X-144.318 Y-588.459
X-143.466 Y-587.031
X-142.645 Y-585.585
X-141.856 Y-584.122
X-141.097 Y-582.642
X-140.371 Y-581.146
X-139.677 Y-579.635
X-139.014 Y-578.11
X-138.385 Y-576.571
X-137.788 Y-575.019
X-137.224 Y-573.455
X-136.694 Y-571.879
X-136.197 Y-570.292
X-135.734 Y-568.695
X-135.305 Y-567.089
X-134.91 Y-565.474
X-134.55 Y-563.851
X-134.225 Y-562.22
X-133.935 Y-560.583
X-133.679 Y-558.94
X-133.459 Y-557.292
X-133.274 Y-555.639
X-133.125 Y-553.983
X-133.01 Y-552.324
X-132.931 Y-550.663
X-132.887 Y-549.001
X-132.879 Y-547.339
X-132.906 Y-545.676
X-132.968 Y-544.014
X-133.065 Y-542.354
X-133.199 Y-540.697
X-133.367 Y-539.043
X-133.572 Y-537.393
X-133.811 Y-535.747
X-134.086 Y-534.107
X-134.396 Y-532.474
X-134.74 Y-530.847
X-135.119 Y-529.228
X-135.532 Y-527.617
X-135.979 Y-526.016
X-136.461 Y-524.424
X-136.976 Y-522.844
X-137.525 Y-521.274
X-138.107 Y-519.716
X-138.722 Y-518.172
X-139.371 Y-516.641
X-140.052 Y-515.124
X-140.765 Y-513.622
X-141.511 Y-512.136
X-142.288 Y-510.666
X-143.096 Y-509.213
X-143.935 Y-507.777
X-144.804 Y-506.359
X-145.703 Y-504.961
X-146.632 Y-503.582
X-147.59 Y-502.222
X-148.576 Y-500.884
X-149.591 Y-499.567
X-150.634 Y-498.272
X-151.704 Y-496.999
X-152.802 Y-495.75
X-153.925 Y-494.524
X-155.075 Y-493.323
X-156.25 Y-492.147
X-157.45 Y-490.995
X-158.673 Y-489.87
X-159.921 Y-488.77
X-161.191 Y-487.698
X-162.484 Y-486.652
X-163.799 Y-485.634
X-165.135 Y-484.644
X-166.492 Y-483.683
X-167.869 Y-482.751
X-169.265 Y-481.848
X-170.681 Y-480.976
X-172.114 Y-480.134
X-173.566 Y-479.322
X-175.034 Y-478.542
X-176.518 Y-477.792
X-178.018 Y-477.074
X-179.532 Y-476.388
X-181.061 Y-475.734
X-182.603 Y-475.112
X-184.158 Y-474.523
X-185.725 Y-473.967
X-187.304 Y-473.444
X-188.893 Y-472.955
X-190.492 Y-472.499
X-192.1 Y-472.078
X-193.717 Y-471.691
X-195.342 Y-471.338
X-196.974 Y-471.019
X-198.612 Y-470.734
X-200.256 Y-470.485
X-201.905 Y-470.269
X-203.558 Y-470.088
X-205.214 Y-469.942
X-206.873 Y-469.831
X-208.534 Y-469.754
X-210.196 Y-469.713
X-211.859 Y-469.706
X-213.522 Y-469.734
X-215.183 Y-469.797
X-216.843 Y-469.896
X-218.5 Y-470.029
X-220.155 Y-470.197
X-221.805 Y-470.399
X-223.451 Y-470.636
X-225.091 Y-470.908
X-226.726 Y-471.213
X-228.354 Y-471.552
X-229.974 Y-471.925
X-231.586 Y-472.332
X-233.189 Y-472.772
X-234.783 Y-473.246
X-236.367 Y-473.753
X-237.94 Y-474.293
X-239.5 Y-474.866
X-241.049 Y-475.471
X-242.585 Y-476.109
X-244.107 Y-476.779
X-245.614 Y-477.479
X-247.107 Y-478.212
X-248.585 Y-478.974
X-250.046 Y-479.768
X-251.491 Y-480.591
X-252.918 Y-481.444
X-254.327 Y-482.327
X-255.717 Y-483.239
X-257.089 Y-484.179
X-258.44 Y-485.148
X-259.771 Y-486.145
X-261.081 Y-487.169
X-262.369 Y-488.22
X-263.635 Y-489.298
X-264.878 Y-490.402
X-266.099 Y-491.531
X-267.296 Y-492.686
X-268.469 Y-493.864
X-269.617 Y-495.067
X-270.74 Y-496.293
X-271.837 Y-497.542
X-272.909 Y-498.813
X-273.954 Y-500.107
X-274.972 Y-501.421
X-275.963 Y-502.757
X-276.925 Y-504.113
X-277.859 Y-505.489
X-278.764 Y-506.883
X-279.641 Y-508.296
X-280.488 Y-509.727
X-281.305 Y-511.175
X-282.093 Y-512.639
X-282.85 Y-514.12
X-283.577 Y-515.615
X-284.273 Y-517.125
X-284.937 Y-518.65
X-285.57 Y-520.187
X-286.171 Y-521.737
X-286.74 Y-523.3
X-287.276 Y-524.874
X-287.78 Y-526.458
X-288.251 Y-528.053
X-288.688 Y-529.657
X-289.093 Y-531.27
X-289.464 Y-532.891
X-289.802 Y-534.519
X-290.107 Y-536.153
X-290.378 Y-537.794
X-290.615 Y-539.44
X-290.819 Y-541.09
X-290.988 Y-542.744
X-291.124 Y-544.401
X-291.225 Y-546.061
X-291.292 Y-547.722
X-291.324 Y-549.385
X-291.322 Y-551.047
X-291.286 Y-552.71
X-291.216 Y-554.371
X-291.112 Y-556.031
X-290.973 Y-557.688
X-290.801 Y-559.341
X-290.595 Y-560.991
X-290.355 Y-562.637
X-290.082 Y-564.277
X-289.774 Y-565.911
X-289.434 Y-567.538
X-289.06 Y-569.159
X-288.653 Y-570.771
X-288.212 Y-572.374
X-287.739 Y-573.968
X-287.232 Y-575.552
X-286.694 Y-577.125
X-286.123 Y-578.686
X-285.52 Y-580.236
X-284.886 Y-581.773
X-284.22 Y-583.297
X-283.523 Y-584.807
X-282.796 Y-586.302
X-282.038 Y-587.782
X-281.25 Y-589.246
X-280.432 Y-590.694
X-279.585 Y-592.124
X-278.708 Y-593.537
X-277.802 Y-594.931
X-276.868 Y-596.307
X-275.905 Y-597.663
X-274.915 Y-598.999
X-273.898 Y-600.314
X-272.854 Y-601.608
X-271.784 Y-602.881
X-270.688 Y-604.131
X-269.567 Y-605.359
X-268.421 Y-606.564
X-267.251 Y-607.745
X-266.056 Y-608.902
X-264.838 Y-610.034
X-263.597 Y-611.14
X-262.334 Y-612.221
X-261.048 Y-613.276
X-259.741 Y-614.304
X-258.413 Y-615.305
X-257.065 Y-616.278
X-255.698 Y-617.224
X-254.311 Y-618.141
X-252.906 Y-619.03
X-251.483 Y-619.891
X-250.043 Y-620.721
X-248.586 Y-621.523
X-247.113 Y-622.294
X-245.625 Y-623.035
X-244.121 Y-623.746
X-242.604 Y-624.425
X-241.072 Y-625.073
X-239.528 Y-625.689
X-237.971 Y-626.273
X-236.403 Y-626.826
X-234.823 Y-627.346
X-233.234 Y-627.834
X-231.635 Y-628.289
X-230.027 Y-628.712
X-228.41 Y-629.101
X-226.786 Y-629.458
X-225.155 Y-629.782
X-223.518 Y-630.072
X-221.875 Y-630.329
X-220.227 Y-630.552
X-218.575 Y-630.741
X-216.92 Y-630.896
X-215.262 Y-631.017
X-213.601 Y-631.104
X-211.939 Y-631.158
X-210.277 Y-631.177
X-208.614 Y-631.163
X-206.952 Y-631.115
X-205.291 Y-631.034
X-203.632 Y-630.918
X-201.976 Y-630.769
X-200.323 Y-630.587
X-198.675 Y-630.371
X-197.031 Y-630.122
X-195.392 Y-629.839
X-193.76 Y-629.523
X-192.134 Y-629.174
X-190.516 Y-628.792
X-188.906 Y-628.377
X-187.304 Y-627.929
X-185.712 Y-627.45
X-184.13 Y-626.938
X-182.559 Y-626.395
X-180.998 Y-625.82
X-179.45 Y-625.214
X-177.914 Y-624.577
X-176.391 Y-623.91
X-174.882 Y-623.212
X-173.387 Y-622.483
X-171.908 Y-621.725
X-170.444 Y-620.937
X-168.996 Y-620.119
X-167.565 Y-619.273
X-166.151 Y-618.398
X-164.755 Y-617.495
X-163.377 Y-616.564
X-162.018 Y-615.605
X-160.678 Y-614.62
X-159.359 Y-613.609
X-158.059 Y-612.571
X-156.781 Y-611.508
X-155.524 Y-610.42
X-154.289 Y-609.306
X-153.076 Y-608.169
X-151.887 Y-607.007
X-150.721 Y-605.821
X-149.579 Y-604.613
X-148.462 Y-603.381
X-147.369 Y-602.128
X-146.301 Y-600.854
X-145.259 Y-599.558
X-144.243 Y-598.242
X-143.253 Y-596.906
X-142.289 Y-595.551
X-141.353 Y-594.177
X-140.444 Y-592.784
X-139.563 Y-591.374
X-138.71 Y-589.947
X-137.886 Y-588.503
X-137.091 Y-587.042
X-136.325 Y-585.567
X-135.589 Y-584.076
X-134.882 Y-582.57
X-134.206 Y-581.051
X-133.56 Y-579.519
X-132.944 Y-577.975
X-132.359 Y-576.418
X-131.806 Y-574.85
X-131.283 Y-573.272
X-130.791 Y-571.684
X-130.331 Y-570.086
X-129.903 Y-568.479
X-129.507 Y-566.864
X-129.143 Y-565.242
X-128.812 Y-563.612
X-128.514 Y-561.977
X-128.248 Y-560.335
X-128.015 Y-558.689
X-127.814 Y-557.038
X-127.647 Y-555.384
X-127.512 Y-553.727
X-127.411 Y-552.067
X-127.342 Y-550.406
X-127.306 Y-548.743
X-127.304 Y-547.08
X-127.334 Y-545.418
X-127.397 Y-543.756
X-127.493 Y-542.096
X-127.623 Y-540.439
X-127.785 Y-538.784
X-127.981 Y-537.133
X-128.21 Y-535.486
X-128.471 Y-533.844
X-128.766 Y-532.207
X-129.092 Y-530.577
X-129.452 Y-528.953
X-129.843 Y-527.337
X-130.266 Y-525.729
X-130.721 Y-524.13
X-131.208 Y-522.54
X-131.726 Y-520.96
X-132.276 Y-519.391
X-132.856 Y-517.833
X-133.468 Y-516.287
X-134.111 Y-514.753
X-134.784 Y-513.233
X-135.488 Y-511.726
X-136.221 Y-510.234
X-136.984 Y-508.757
X-137.777 Y-507.295
X-138.598 Y-505.849
X-139.448 Y-504.42
X-140.325 Y-503.008
X-141.231 Y-501.613
X-142.164 Y-500.237
X-143.125 Y-498.88
X-144.112 Y-497.542
X-145.125 Y-496.224
X-146.165 Y-494.926
X-147.23 Y-493.649
X-148.321 Y-492.394
X-149.437 Y-491.161
X-150.576 Y-489.951
X-151.74 Y-488.763
X-152.927 Y-487.599
X-154.137 Y-486.458
X-155.369 Y-485.342
X-156.624 Y-484.25
X-157.899 Y-483.183
X-159.195 Y-482.142
X-160.512 Y-481.127
X-161.848 Y-480.137
X-163.204 Y-479.175
X-164.579 Y-478.239
X-165.972 Y-477.331
X-167.382 Y-476.451
X-168.811 Y-475.6
X-170.255 Y-474.776
X-171.716 Y-473.982
X-173.192 Y-473.217
X-174.683 Y-472.48
X-176.188 Y-471.774
X-177.707 Y-471.097
X-179.239 Y-470.45
X-180.783 Y-469.834
X-182.339 Y-469.247
X-183.906 Y-468.692
X-185.484 Y-468.168
X-187.072 Y-467.674
X-188.669 Y-467.213
X-190.276 Y-466.783
X-191.89 Y-466.386
X-193.512 Y-466.02
X-195.141 Y-465.686
X-196.776 Y-465.384
X-198.417 Y-465.115
X-200.063 Y-464.877
X-201.713 Y-464.672
X-203.366 Y-464.499
X-205.023 Y-464.359
X-206.683 Y-464.251
X-208.344 Y-464.175
X-210.006 Y-464.132
X-211.668 Y-464.122
X-213.331 Y-464.145
X-214.993 Y-464.2
X-216.653 Y-464.288
X-218.312 Y-464.409
X-219.967 Y-464.562
X-221.62 Y-464.747
X-223.268 Y-464.965
X-224.912 Y-465.215
X-226.551 Y-465.496
X-228.184 Y-465.81
X-229.81 Y-466.155
X-231.43 Y-466.532
X-233.042 Y-466.941
X-234.645 Y-467.38
X-236.24 Y-467.851
X-237.825 Y-468.353
X-239.4 Y-468.886
X-240.964 Y-469.45
X-242.517 Y-470.044
X-244.058 Y-470.669
X-245.587 Y-471.323
X-247.102 Y-472.007
X-248.604 Y-472.72
X-250.092 Y-473.463
X-251.565 Y-474.233
X-253.023 Y-475.033
X-254.466 Y-475.86
X-255.892 Y-476.715
X-257.301 Y-477.598
X-258.693 Y-478.508
X-260.067 Y-479.444
X-261.422 Y-480.408
X-262.758 Y-481.397
X-264.075 Y-482.413
X-265.371 Y-483.454
X-266.647 Y-484.52
X-267.903 Y-485.61
X-269.137 Y-486.725
X-270.349 Y-487.863
X-271.539 Y-489.024
X-272.706 Y-490.208
X-273.851 Y-491.414
X-274.972 Y-492.642
X-276.069 Y-493.892
X-277.141 Y-495.162
X-278.189 Y-496.453
X-279.212 Y-497.764
X-280.209 Y-499.095
X-281.179 Y-500.445
X-282.124 Y-501.814
X-283.041 Y-503.2
X-283.932 Y-504.604
X-284.796 Y-506.025
X-285.632 Y-507.463
X-286.44 Y-508.916
X-287.22 Y-510.384
X-287.972 Y-511.867
X-288.695 Y-513.365
X-289.389 Y-514.875
X-290.054 Y-516.399
X-290.69 Y-517.936
X-291.295 Y-519.484
X-291.871 Y-521.044
X-292.416 Y-522.615
X-292.93 Y-524.197
X-293.414 Y-525.787
X-293.867 Y-527.387
X-294.289 Y-528.995
X-294.68 Y-530.612
X-295.04 Y-532.235
X-295.369 Y-533.865
X-295.667 Y-535.501
X-295.933 Y-537.142
X-296.168 Y-538.788
X-296.371 Y-540.438
X-296.542 Y-542.092
X-296.682 Y-543.749
X-296.789 Y-545.408
X-296.864 Y-547.069
X-296.907 Y-548.732
X-296.917 Y-550.394
X-296.896 Y-552.057
X-296.843 Y-553.719
X-296.758 Y-555.379
X-296.641 Y-557.038
X-296.492 Y-558.694
X-296.312 Y-560.347
X-296.1 Y-561.996
X-295.856 Y-563.641
X-295.581 Y-565.281
X-295.275 Y-566.915
X-294.937 Y-568.543
X-294.568 Y-570.165
X-294.168 Y-571.779
X-293.736 Y-573.384
X-293.274 Y-574.981
X-292.781 Y-576.569
X-292.257 Y-578.148
X-291.703 Y-579.715
X-291.12 Y-581.272
X-290.506 Y-582.818
X-289.863 Y-584.351
X-289.191 Y-585.872
X-288.49 Y-587.38
X-287.761 Y-588.874
X-287.003 Y-590.354
X-286.216 Y-591.819
X-285.402 Y-593.269
X-284.56 Y-594.702
X-283.69 Y-596.119
X-282.793 Y-597.519
X-281.869 Y-598.902
X-280.919 Y-600.266
X-279.942 Y-601.612
X-278.941 Y-602.939
X-277.914 Y-604.247
X-276.862 Y-605.535
X-275.785 Y-606.802
X-274.685 Y-608.049
X-273.561 Y-609.274
X-272.414 Y-610.478
X-271.244 Y-611.659
X-270.052 Y-612.818
X-268.837 Y-613.954
X-267.601 Y-615.066
X-266.344 Y-616.154
X-265.066 Y-617.217
X-263.767 Y-618.256
X-262.449 Y-619.27
X-261.112 Y-620.258
X-259.756 Y-621.22
X-258.382 Y-622.156
X-256.99 Y-623.066
X-255.581 Y-623.95
X-254.156 Y-624.806
X-252.714 Y-625.634
X-251.257 Y-626.436
X-249.785 Y-627.209
X-248.298 Y-627.953
X-246.798 Y-628.669
X-245.283 Y-629.356
X-243.756 Y-630.013
X-242.216 Y-630.641
X-240.665 Y-631.239
X-239.102 Y-631.808
X-237.529 Y-632.346
X-235.946 Y-632.854
X-234.354 Y-633.332
X-232.752 Y-633.78
X-231.143 Y-634.197
X-229.525 Y-634.583
X-227.901 Y-634.938
X-226.27 Y-635.263
X-224.633 Y-635.556
X-222.991 Y-635.818
X-221.345 Y-636.048
X-219.694 Y-636.246
X-218.039 Y-636.412
X-216.382 Y-636.547
X-214.722 Y-636.65
X-213.061 Y-636.721
X-211.399 Y-636.761
X-209.736 Y-636.769
X-208.074 Y-636.746
X-206.412 Y-636.691
X-204.751 Y-636.605
X-203.093 Y-636.487
X-201.437 Y-636.338
X-199.784 Y-636.157
X-198.135 Y-635.945
X-196.49 Y-635.702
X-194.85 Y-635.427
X-193.216 Y-635.121
X-191.587 Y-634.783
X-189.966 Y-634.415
X-188.352 Y-634.016
X-186.745 Y-633.587
X-185.147 Y-633.128
X-183.558 Y-632.638
X-181.979 Y-632.119
X-180.409 Y-631.57
X-178.85 Y-630.991
X-177.303 Y-630.383
X-175.767 Y-629.747
X-174.243 Y-629.082
X-172.732 Y-628.388
X-171.234 Y-627.665
X-169.751 Y-626.914
X-168.282 Y-626.135
X-166.827 Y-625.329
X-165.389 Y-624.495
X-163.966 Y-623.635
X-162.56 Y-622.748
X-161.17 Y-621.834
X-159.798 Y-620.895
X-158.443 Y-619.931
X-157.107 Y-618.941
X-155.79 Y-617.927
X-154.491 Y-616.888
X-153.212 Y-615.826
X-151.954 Y-614.739
X-150.715 Y-613.629
X-149.498 Y-612.496
X-148.303 Y-611.341
X-147.129 Y-610.163
X-145.978 Y-608.963
X-144.85 Y-607.742
X-143.744 Y-606.5
X-142.662 Y-605.238
X-141.603 Y-603.956
X-140.568 Y-602.654
X-139.558 Y-601.333
X-138.573 Y-599.994
X-137.612 Y-598.637
X-136.677 Y-597.262
X-135.767 Y-595.87
X-134.884 Y-594.461
X-134.027 Y-593.037
X-133.197 Y-591.596
X-132.394 Y-590.14
X-131.618 Y-588.669
X-130.871 Y-587.184
X-130.151 Y-585.685
X-129.459 Y-584.173
X-128.795 Y-582.648
X-128.16 Y-581.112
X-127.553 Y-579.564
X-126.975 Y-578.005
X-126.427 Y-576.435
X-125.907 Y-574.856
X-125.417 Y-573.267
X-124.956 Y-571.669
X-124.525 Y-570.063
X-124.124 Y-568.449
X-123.754 Y-566.828
X-123.414 Y-565.201
X-123.105 Y-563.567
X-122.826 Y-561.928
X-122.578 Y-560.284
X-122.361 Y-558.635
X-122.174 Y-556.983
X-122.019 Y-555.327
X-121.893 Y-553.669
X-121.799 Y-552.009
X-121.736 Y-550.348
X-121.703 Y-548.685
X-121.701 Y-547.023
X-121.731 Y-545.36
X-121.791 Y-543.698
X-121.882 Y-542.038
X-122.005 Y-540.38
X-122.158 Y-538.724
X-122.343 Y-537.072
X-122.559 Y-535.423
X-122.805 Y-533.779
X-123.082 Y-532.139
X-123.39 Y-530.505
X-123.728 Y-528.877
X-124.096 Y-527.256
X-124.494 Y-525.641
X-124.923 Y-524.035
X-125.381 Y-522.436
X-125.868 Y-520.847
X-126.385 Y-519.266
X-126.932 Y-517.696
X-127.507 Y-516.136
X-128.113 Y-514.587
X-128.747 Y-513.05
X-129.41 Y-511.525
X-130.101 Y-510.013
X-130.821 Y-508.514
X-131.568 Y-507.029
X-132.343 Y-505.558
X-133.145 Y-504.101
X-133.974 Y-502.66
X-134.829 Y-501.234
X-135.711 Y-499.824
X-136.619 Y-498.432
X-137.553 Y-497.056
X-138.512 Y-495.697
X-139.496 Y-494.357
X-140.506 Y-493.036
X-141.54 Y-491.734
X-142.598 Y-490.451
X-143.68 Y-489.188
X-144.785 Y-487.946
X-145.914 Y-486.725
X-147.064 Y-485.525
X-148.237 Y-484.347
X-149.432 Y-483.19
X-150.648 Y-482.056
X-151.885 Y-480.944
X-153.142 Y-479.856
X-154.419 Y-478.791
X-155.715 Y-477.75
X-157.031 Y-476.733
X-158.365 Y-475.741
X-159.718 Y-474.774
X-161.088 Y-473.832
X-162.476 Y-472.916
X-163.881 Y-472.027
X-165.302 Y-471.163
X-166.738 Y-470.326
X-168.19 Y-469.516
X-169.657 Y-468.733
X-171.138 Y-467.977
X-172.633 Y-467.249
X-174.141 Y-466.548
X-175.662 Y-465.876
X-177.194 Y-465.231
X-178.739 Y-464.615
X-180.294 Y-464.027
X-181.86 Y-463.468
X-183.436 Y-462.938
X-185.022 Y-462.438
X-186.617 Y-461.968
X-188.22 Y-461.527
X-189.831 Y-461.116
X-191.45 Y-460.735
X-193.075 Y-460.384
X-194.706 Y-460.062
X-196.343 Y-459.771
X-197.985 Y-459.51
X-199.632 Y-459.279
X-201.283 Y-459.079
X-202.937 Y-458.908
X-204.594 Y-458.768
X-206.253 Y-458.659
X-207.914 Y-458.58
X-209.576 Y-458.531
X-211.238 Y-458.514
X-212.901 Y-458.527
X-214.563 Y-458.571
X-216.224 Y-458.646
X-217.884 Y-458.751
X-219.541 Y-458.887
X-221.195 Y-459.053
X-222.846 Y-459.25
X-224.494 Y-459.476
X-226.136 Y-459.733
X-227.774 Y-460.019
X-229.407 Y-460.336
X-231.033 Y-460.682
X-232.653 Y-461.057
X-234.266 Y-461.462
X-235.87 Y-461.897
X-237.467 Y-462.361
X-239.055 Y-462.855
X-240.633 Y-463.378
X-242.202 Y-463.93
X-243.76 Y-464.51
X-245.307 Y-465.119
X-246.843 Y-465.756
X-248.367 Y-466.42
X-249.879 Y-467.113
X-251.378 Y-467.832
X-252.863 Y-468.579
X-254.335 Y-469.353
X-255.793 Y-470.153
X-257.235 Y-470.98
X-258.663 Y-471.833
X-260.075 Y-472.711
X-261.47 Y-473.616
X-262.848 Y-474.546
X-264.209 Y-475.501
X-265.553 Y-476.48
X-266.878 Y-477.485
X-268.185 Y-478.513
X-269.473 Y-479.565
X-270.741 Y-480.64
X-271.99 Y-481.737
X-273.219 Y-482.858
X-274.427 Y-484
X-275.615 Y-485.164
X-276.781 Y-486.349
X-277.925 Y-487.555
X-279.048 Y-488.782
X-280.148 Y-490.028
X-281.225 Y-491.295
X-282.279 Y-492.581
X-283.309 Y-493.887
X-284.315 Y-495.21
X-285.297 Y-496.552
X-286.254 Y-497.912
X-287.186 Y-499.289
X-288.094 Y-500.682
X-288.976 Y-502.092
X-289.832 Y-503.517
X-290.663 Y-504.957
X-291.467 Y-506.413
X-292.245 Y-507.882
X-292.996 Y-509.365
X-293.721 Y-510.862
X-294.418 Y-512.371
X-295.088 Y-513.893
X-295.73 Y-515.427
X-296.344 Y-516.973
X-296.929 Y-518.529
X-297.487 Y-520.095
X-298.015 Y-521.672
X-298.515 Y-523.258
X-298.986 Y-524.852
X-299.429 Y-526.455
X-299.842 Y-528.066
X-300.226 Y-529.683
X-300.582 Y-531.308
X-300.907 Y-532.938
X-301.204 Y-534.574
X-301.471 Y-536.216
X-301.708 Y-537.861
X-301.916 Y-539.511
X-302.094 Y-541.164
X-302.241 Y-542.82
X-302.358 Y-544.479
X-302.445 Y-546.14
X-302.502 Y-547.801
X-302.529 Y-549.464
X-302.526 Y-551.127
X-302.492 Y-552.789
X-302.429 Y-554.451
X-302.336 Y-556.111
X-302.214 Y-557.769
X-302.061 Y-559.425
X-301.879 Y-561.077
X-301.667 Y-562.727
X-301.425 Y-564.372
X-301.154 Y-566.012
X-300.853 Y-567.648
X-300.523 Y-569.277
X-300.163 Y-570.9
X-299.773 Y-572.517
X-299.354 Y-574.126
X-298.906 Y-575.727
X-298.43 Y-577.32
X-297.924 Y-578.904
X-297.391 Y-580.479
X-296.829 Y-582.044
X-296.239 Y-583.599
X-295.621 Y-585.142
X-294.976 Y-586.675
X-294.303 Y-588.195
X-293.603 Y-589.704
X-292.876 Y-591.199
X-292.123 Y-592.681
X-291.342 Y-594.149
X-290.535 Y-595.603
X-289.702 Y-597.042
X-288.842 Y-598.465
X-287.957 Y-599.873
X-287.047 Y-601.265
X-286.112 Y-602.639
X-285.152 Y-603.997
X-284.168 Y-605.338
X-283.16 Y-606.66
X-282.129 Y-607.964
X-281.074 Y-609.25
X-279.997 Y-610.516
X-278.897 Y-611.763
X-277.775 Y-612.99
X-276.631 Y-614.197
X-275.465 Y-615.382
X-274.278 Y-616.547
X-273.07 Y-617.689
X-271.841 Y-618.81
X-270.593 Y-619.908
X-269.324 Y-620.983
X-268.037 Y-622.035
X-266.731 Y-623.064
X-265.406 Y-624.069
X-264.064 Y-625.051
X-262.704 Y-626.008
X-261.328 Y-626.941
X-259.935 Y-627.848
X-258.526 Y-628.731
X-257.101 Y-629.589
X-255.661 Y-630.42
X-254.207 Y-631.226
X-252.738 Y-632.005
X-251.255 Y-632.757
X-249.759 Y-633.482
X-248.249 Y-634.18
X-246.728 Y-634.851
X-245.195 Y-635.494
X-243.65 Y-636.11
X-242.095 Y-636.697
X-240.529 Y-637.257
X-238.953 Y-637.789
X-237.369 Y-638.292
X-235.775 Y-638.767
X-234.173 Y-639.213
X-232.564 Y-639.631
X-230.947 Y-640.019
X-229.324 Y-640.379
X-227.694 Y-640.709
X-226.059 Y-641.01
X-224.418 Y-641.281
X-222.773 Y-641.522
X-221.124 Y-641.734
X-219.471 Y-641.916
X-217.815 Y-642.068
X-216.157 Y-642.191
X-214.497 Y-642.284
X-212.836 Y-642.347
X-211.173 Y-642.381
X-209.51 Y-642.385
X-207.848 Y-642.359
X-206.186 Y-642.304
X-204.525 Y-642.22
X-202.867 Y-642.105
X-201.21 Y-641.961
X-199.556 Y-641.788
X-197.906 Y-641.584
X-196.26 Y-641.351
X-194.618 Y-641.088
X-192.981 Y-640.796
X-191.35 Y-640.475
X-189.724 Y-640.125
X-188.105 Y-639.746
X-186.493 Y-639.338
X-184.889 Y-638.902
X-183.292 Y-638.437
X-181.704 Y-637.945
X-180.125 Y-637.424
X-178.555 Y-636.875
X-176.996 Y-636.299
X-175.446 Y-635.696
X-173.908 Y-635.065
X-172.381 Y-634.406
X-170.866 Y-633.72
X-169.364 Y-633.008
X-167.875 Y-632.268
X-166.399 Y-631.503
X-164.936 Y-630.711
X-163.488 Y-629.894
X-162.055 Y-629.052
X-160.637 Y-628.184
X-159.234 Y-627.291
X-157.847 Y-626.374
X-156.476 Y-625.433
X-155.122 Y-624.468
X-153.785 Y-623.479
X-152.466 Y-622.467
X-151.164 Y-621.432
X-149.882 Y-620.374
X-148.618 Y-619.294
X-147.373 Y-618.191
X-146.149 Y-617.066
X-144.944 Y-615.92
X-143.76 Y-614.753
X-142.596 Y-613.565
X-141.454 Y-612.357
X-140.332 Y-611.129
X-139.233 Y-609.882
X-138.155 Y-608.616
X-137.1 Y-607.331
X-136.067 Y-606.028
X-135.057 Y-604.707
X-134.071 Y-603.368
X-133.108 Y-602.013
X-132.168 Y-600.641
X-131.254 Y-599.252
X-130.363 Y-597.848
X-129.498 Y-596.428
X-128.658 Y-594.993
X-127.844 Y-593.543
X-127.054 Y-592.08
X-126.291 Y-590.603
X-125.554 Y-589.112
X-124.843 Y-587.609
X-124.158 Y-586.094
X-123.5 Y-584.567
X-122.869 Y-583.029
X-122.264 Y-581.48
X-121.687 Y-579.921
X-121.136 Y-578.352
X-120.614 Y-576.773
X-120.119 Y-575.186
X-119.652 Y-573.59
X-119.213 Y-571.986
X-118.803 Y-570.375
X-118.421 Y-568.756
X-118.068 Y-567.132
X-117.743 Y-565.501
X-117.447 Y-563.865
X-117.18 Y-562.224
X-116.941 Y-560.578
X-116.732 Y-558.928
X-116.551 Y-557.276
X-116.399 Y-555.62
X-116.276 Y-553.962
X-116.182 Y-552.301
X-116.117 Y-550.64
X-116.08 Y-548.978
X-116.073 Y-547.315
X-116.096 Y-545.652
X-116.148 Y-543.99
X-116.229 Y-542.33
X-116.34 Y-540.671
X-116.479 Y-539.014
X-116.648 Y-537.359
X-116.846 Y-535.709
X-117.073 Y-534.061
X-117.329 Y-532.418
X-117.613 Y-530.78
X-117.926 Y-529.147
X-118.268 Y-527.52
X-118.638 Y-525.899
X-119.036 Y-524.284
X-119.462 Y-522.677
X-119.916 Y-521.078
X-120.398 Y-519.486
X-120.909 Y-517.904
X-121.447 Y-516.331
X-122.013 Y-514.767
X-122.607 Y-513.214
X-123.228 Y-511.672
X-123.876 Y-510.14
X-124.551 Y-508.621
X-125.252 Y-507.113
X-125.979 Y-505.618
X-126.733 Y-504.136
X-127.512 Y-502.667
X-128.317 Y-501.212
X-129.148 Y-499.771
X-130.003 Y-498.345
X-130.883 Y-496.935
X-131.787 Y-495.539
X-132.716 Y-494.16
X-133.669 Y-492.798
X-134.646 Y-491.452
X-135.647 Y-490.124
X-136.671 Y-488.814
X-137.718 Y-487.522
X-138.787 Y-486.249
X-139.879 Y-484.995
X-140.992 Y-483.76
X-142.127 Y-482.544
X-143.282 Y-481.349
X-144.459 Y-480.174
X-145.655 Y-479.02
X-146.872 Y-477.886
X-148.108 Y-476.774
X-149.364 Y-475.684
X-150.638 Y-474.616
X-151.93 Y-473.57
X-153.241 Y-472.547
X-154.57 Y-471.547
X-155.916 Y-470.571
X-157.279 Y-469.619
X-158.659 Y-468.691
X-160.055 Y-467.787
X-161.466 Y-466.908
X-162.892 Y-466.053
X-164.333 Y-465.224
X-165.788 Y-464.419
X-167.257 Y-463.64
X-168.74 Y-462.887
X-170.235 Y-462.159
X-171.742 Y-461.458
X-173.262 Y-460.782
X-174.793 Y-460.133
X-176.335 Y-459.511
X-177.887 Y-458.916
X-179.45 Y-458.349
X-181.023 Y-457.809
X-182.605 Y-457.296
X-184.195 Y-456.812
X-185.794 Y-456.355
X-187.4 Y-455.926
X-189.014 Y-455.525
X-190.634 Y-455.152
X-192.261 Y-454.807
X-193.893 Y-454.49
X-195.531 Y-454.201
X-197.173 Y-453.941
X-198.82 Y-453.709
X-200.47 Y-453.506
X-202.123 Y-453.331
X-203.78 Y-453.185
X-205.438 Y-453.067
X-207.099 Y-452.979
X-208.76 Y-452.92
X-210.423 Y-452.89
X-212.086 Y-452.888
X-213.748 Y-452.916
X-215.41 Y-452.972
X-217.07 Y-453.057
X-218.729 Y-453.171
X-220.386 Y-453.313
X-222.04 Y-453.484
X-223.691 Y-453.683
X-225.338 Y-453.91
X-226.981 Y-454.166
X-228.619 Y-454.449
X-230.252 Y-454.761
X-231.88 Y-455.101
X-233.502 Y-455.47
X-235.116 Y-455.866
X-236.724 Y-456.291
X-238.324 Y-456.743
X-239.916 Y-457.223
X-241.5 Y-457.73
X-243.074 Y-458.265
X-244.639 Y-458.826
X-246.194 Y-459.414
X-247.739 Y-460.029
X-249.273 Y-460.671
X-250.796 Y-461.338
X-252.307 Y-462.032
X-253.807 Y-462.751
X-255.293 Y-463.496
X-256.767 Y-464.266
X-258.227 Y-465.061
X-259.674 Y-465.881
X-261.105 Y-466.726
X-262.522 Y-467.596
X-263.924 Y-468.49
X-265.31 Y-469.409
X-266.681 Y-470.351
X-268.034 Y-471.316
X-269.371 Y-472.305
X-270.691 Y-473.316
X-271.994 Y-474.349
X-273.278 Y-475.405
X-274.545 Y-476.483
X-275.793 Y-477.582
X-277.022 Y-478.702
X-278.231 Y-479.842
X-279.421 Y-481.004
X-280.592 Y-482.185
X-281.741 Y-483.386
X-282.87 Y-484.607
X-283.977 Y-485.847
X-285.063 Y-487.107
X-286.127 Y-488.384
X-287.169 Y-489.68
X-288.189 Y-490.993
X-289.186 Y-492.324
X-290.16 Y-493.671
X-291.112 Y-495.035
X-292.039 Y-496.415
X-292.943 Y-497.811
X-293.824 Y-499.221
X-294.68 Y-500.647
X-295.512 Y-502.086
X-296.319 Y-503.54
X-297.102 Y-505.007
X-297.859 Y-506.487
X-298.591 Y-507.98
X-299.296 Y-509.486
X-299.976 Y-511.003
X-300.63 Y-512.532
X-301.258 Y-514.072
X-301.859 Y-515.622
X-302.433 Y-517.183
X-302.981 Y-518.753
X-303.502 Y-520.331
X-303.996 Y-521.919
X-304.463 Y-523.515
X-304.903 Y-525.118
X-305.316 Y-526.729
X-305.701 Y-528.347
X-306.059 Y-529.97
X-306.389 Y-531.6
X-306.692 Y-533.235
X-306.966 Y-534.875
X-307.213 Y-536.519
X-307.431 Y-538.168
X-307.62 Y-539.82
X-307.782 Y-541.475
X-307.915 Y-543.132
X-308.02 Y-544.791
X-308.096 Y-546.452
X-308.145 Y-548.115
X-308.165 Y-549.777
X-308.156 Y-551.44
X-308.12 Y-553.102
X-308.056 Y-554.764
X-307.963 Y-556.424
X-307.843 Y-558.082
X-307.694 Y-559.738
X-307.518 Y-561.392
X-307.313 Y-563.042
X-307.079 Y-564.688
X-306.818 Y-566.33
X-306.529 Y-567.968
X-306.211 Y-569.6
X-305.866 Y-571.226
X-305.493 Y-572.847
X-305.093 Y-574.461
X-304.665 Y-576.067
X-304.21 Y-577.667
X-303.728 Y-579.258
X-303.219 Y-580.841
X-302.684 Y-582.415
X-302.122 Y-583.98
X-301.533 Y-585.535
X-300.919 Y-587.08
X-300.278 Y-588.615
X-299.611 Y-590.138
X-298.919 Y-591.649
X-298.2 Y-593.149
X-297.456 Y-594.636
X-296.687 Y-596.11
X-295.892 Y-597.571
X-295.073 Y-599.018
X-294.23 Y-600.451
X-293.362 Y-601.869
X-292.47 Y-603.272
X-291.555 Y-604.66
X-290.616 Y-606.033
X-289.654 Y-607.389
X-288.67 Y-608.729
X-287.662 Y-610.052
X-286.633 Y-611.358
X-285.582 Y-612.646
X-284.509 Y-613.917
X-283.415 Y-615.168
X-282.299 Y-616.401
X-281.163 Y-617.615
X-280.005 Y-618.809
X-278.828 Y-619.983
X-277.631 Y-621.137
X-276.414 Y-622.27
X-275.178 Y-623.383
X-273.924 Y-624.474
X-272.651 Y-625.544
X-271.361 Y-626.593
X-270.053 Y-627.619
X-268.727 Y-628.623
X-267.385 Y-629.605
X-266.027 Y-630.564
X-264.652 Y-631.5
X-263.262 Y-632.412
X-261.857 Y-633.301
X-260.437 Y-634.165
X-259.002 Y-635.005
X-257.553 Y-635.821
X-256.09 Y-636.611
X-254.614 Y-637.377
X-253.125 Y-638.117
X-251.624 Y-638.832
X-250.111 Y-639.522
X-248.586 Y-640.185
X-247.051 Y-640.823
X-245.505 Y-641.435
X-243.948 Y-642.021
X-242.382 Y-642.58
X-240.807 Y-643.113
X-239.224 Y-643.619
X-237.632 Y-644.099
X-236.032 Y-644.551
X-234.424 Y-644.976
X-232.81 Y-645.374
X-231.188 Y-645.744
X-229.561 Y-646.086
X-227.929 Y-646.401
X-226.291 Y-646.688
X-224.648 Y-646.947
X-223.002 Y-647.178
X-221.352 Y-647.382
X-219.698 Y-647.557
X-218.042 Y-647.705
X-216.383 Y-647.825
X-214.723 Y-647.917
X-213.062 Y-647.981
X-211.399 Y-648.017
X-209.737 Y-648.025
X-208.074 Y-648.005
X-206.412 Y-647.958
X-204.751 Y-647.881
X-203.091 Y-647.777
X-201.434 Y-647.645
X-199.779 Y-647.484
X-198.127 Y-647.296
X-196.478 Y-647.08
X-194.834 Y-646.836
X-193.193 Y-646.564
X-191.558 Y-646.265
X-189.927 Y-645.938
X-188.303 Y-645.584
X-186.684 Y-645.203
X-185.072 Y-644.796
X-183.467 Y-644.361
X-181.87 Y-643.9
X-180.28 Y-643.412
X-178.699 Y-642.897
X-177.127 Y-642.356
X-175.564 Y-641.789
X-174.011 Y-641.195
X-172.468 Y-640.575
X-170.935 Y-639.93
X-169.414 Y-639.258
X-167.904 Y-638.562
X-166.406 Y-637.84
X-164.921 Y-637.093
X-163.448 Y-636.322
X-161.988 Y-635.526
X-160.541 Y-634.706
X-159.108 Y-633.863
X-157.69 Y-632.995
X-156.286 Y-632.105
X-154.896 Y-631.191
X-153.523 Y-630.254
X-152.165 Y-629.295
X-150.823 Y-628.313
X-149.498 Y-627.308
X-148.19 Y-626.282
X-146.899 Y-625.234
X-145.626 Y-624.164
X-144.37 Y-623.074
X-143.134 Y-621.963
X-141.915 Y-620.831
X-140.716 Y-619.679
X-139.536 Y-618.508
X-138.375 Y-617.317
X-137.235 Y-616.107
X-136.114 Y-614.879
X-135.014 Y-613.632
X-133.934 Y-612.367
X-132.876 Y-611.085
X-131.839 Y-609.786
X-130.823 Y-608.469
X-129.83 Y-607.136
X-128.858 Y-605.786
X-127.91 Y-604.42
X-126.984 Y-603.039
X-126.082 Y-601.643
X-125.203 Y-600.231
X-124.347 Y-598.806
X-123.515 Y-597.366
X-122.707 Y-595.913
X-121.923 Y-594.447
X-121.163 Y-592.968
X-120.428 Y-591.476
X-119.717 Y-589.973
X-119.031 Y-588.458
X-118.371 Y-586.932
X-117.735 Y-585.396
X-117.125 Y-583.849
X-116.54 Y-582.293
X-115.982 Y-580.726
X-115.45 Y-579.151
X-114.944 Y-577.567
X-114.464 Y-575.975
X-114.011 Y-574.375
X-113.584 Y-572.768
X-113.185 Y-571.154
X-112.812 Y-569.534
X-112.465 Y-567.907
X-112.146 Y-566.276
X-111.854 Y-564.639
X-111.588 Y-562.997
X-111.35 Y-561.352
X-111.139 Y-559.703
X-110.955 Y-558.05
X-110.798 Y-556.395
X-110.669 Y-554.737
X-110.567 Y-553.077
X-110.493 Y-551.416
X-110.447 Y-549.754
X-110.428 Y-548.091
X-110.437 Y-546.429
X-110.473 Y-544.766
X-110.537 Y-543.105
X-110.629 Y-541.445
X-110.748 Y-539.786
X-110.895 Y-538.13
X-111.069 Y-536.476
X-111.27 Y-534.826
X-111.499 Y-533.179
X-111.754 Y-531.536
X-112.037 Y-529.897
X-112.346 Y-528.263
X-112.683 Y-526.635
X-113.046 Y-525.013
X-113.436 Y-523.396
X-113.853 Y-521.787
X-114.297 Y-520.184
X-114.768 Y-518.59
X-115.265 Y-517.003
X-115.789 Y-515.425
X-116.338 Y-513.855
X-116.914 Y-512.295
X-117.515 Y-510.745
X-118.142 Y-509.205
X-118.794 Y-507.676
X-119.471 Y-506.157
X-120.174 Y-504.65
X-120.901 Y-503.154
X-121.652 Y-501.671
X-122.428 Y-500.201
X-123.228 Y-498.743
X-124.052 Y-497.299
X-124.9 Y-495.869
X-125.772 Y-494.453
X-126.667 Y-493.052
X-127.586 Y-491.665
X-128.527 Y-490.295
X-129.491 Y-488.94
X-130.477 Y-487.601
X-131.486 Y-486.279
X-132.516 Y-484.974
X-133.567 Y-483.686
X-134.64 Y-482.415
X-135.733 Y-481.163
X-136.847 Y-479.928
X-137.981 Y-478.712
X-139.135 Y-477.515
X-140.309 Y-476.337
X-141.501 Y-475.178
X-142.713 Y-474.039
X-143.943 Y-472.921
X-145.192 Y-471.823
X-146.459 Y-470.746
X-147.743 Y-469.69
X-149.045 Y-468.656
X-150.364 Y-467.643
X-151.699 Y-466.653
X-153.051 Y-465.684
X-154.418 Y-464.738
X-155.801 Y-463.815
X-157.199 Y-462.914
X-158.611 Y-462.037
X-160.038 Y-461.183
X-161.478 Y-460.352
X-162.932 Y-459.545
X-164.399 Y-458.762
X-165.878 Y-458.003
X-167.37 Y-457.268
X-168.874 Y-456.559
X-170.389 Y-455.874
X-171.915 Y-455.215
X-173.452 Y-454.581
X-175 Y-453.972
X-176.557 Y-453.389
X-178.124 Y-452.832
X-179.699 Y-452.3
X-181.283 Y-451.795
X-182.875 Y-451.315
X-184.475 Y-450.862
X-186.082 Y-450.435
X-187.696 Y-450.034
X-189.316 Y-449.659
X-190.942 Y-449.311
X-192.573 Y-448.99
X-194.209 Y-448.695
X-195.85 Y-448.427
X-197.496 Y-448.187
X-199.145 Y-447.973
X-200.797 Y-447.787
X-202.452 Y-447.628
X-204.11 Y-447.496
X-205.769 Y-447.391
X-207.43 Y-447.313
X-209.092 Y-447.263
X-210.755 Y-447.24
X-212.417 Y-447.244
X-214.08 Y-447.275
X-215.742 Y-447.333
X-217.402 Y-447.418
X-219.061 Y-447.531
X-220.718 Y-447.67
X-222.372 Y-447.836
X-224.024 Y-448.029
X-225.672 Y-448.248
X-227.316 Y-448.495
X-228.957 Y-448.769
X-230.592 Y-449.07
X-232.222 Y-449.397
X-233.847 Y-449.751
X-235.465 Y-450.131
X-237.078 Y-450.538
X-238.683 Y-450.971
X-240.281 Y-451.431
X-241.871 Y-451.916
X-243.454 Y-452.426
X-245.028 Y-452.963
X-246.593 Y-453.525
X-248.148 Y-454.112
X-249.694 Y-454.724
X-251.23 Y-455.361
X-252.755 Y-456.023
X-254.27 Y-456.71
X-255.773 Y-457.421
X-257.264 Y-458.157
X-258.743 Y-458.917
X-260.209 Y-459.701
X-261.662 Y-460.508
X-263.102 Y-461.34
X-264.529 Y-462.194
X-265.941 Y-463.072
X-267.339 Y-463.972
X-268.722 Y-464.895
X-270.09 Y-465.84
X-271.442 Y-466.808
X-272.779 Y-467.797
X-274.1 Y-468.807
X-275.404 Y-469.839
X-276.691 Y-470.891
X-277.961 Y-471.964
X-279.214 Y-473.057
X-280.449 Y-474.171
X-281.665 Y-475.305
X-282.863 Y-476.458
X-284.042 Y-477.63
X-285.202 Y-478.822
X-286.342 Y-480.032
X-287.462 Y-481.261
X-288.563 Y-482.507
X-289.643 Y-483.771
X-290.703 Y-485.053
X-291.741 Y-486.351
X-292.759 Y-487.666
X-293.755 Y-488.997
X-294.73 Y-490.344
X-295.683 Y-491.707
X-296.614 Y-493.084
X-297.523 Y-494.477
X-298.409 Y-495.884
X-299.273 Y-497.305
X-300.113 Y-498.739
X-300.93 Y-500.188
X-301.723 Y-501.649
X-302.492 Y-503.123
X-303.238 Y-504.609
X-303.959 Y-506.108
X-304.656 Y-507.617
X-305.329 Y-509.138
X-305.977 Y-510.669
X-306.6 Y-512.211
X-307.198 Y-513.762
X-307.771 Y-515.323
X-308.319 Y-516.893
X-308.842 Y-518.471
X-309.34 Y-520.058
X-309.812 Y-521.652
X-310.258 Y-523.254
X-310.679 Y-524.862
X-311.073 Y-526.478
X-311.441 Y-528.099
X-311.783 Y-529.726
X-312.099 Y-531.359
X-312.388 Y-532.996
X-312.651 Y-534.638
X-312.887 Y-536.284
X-313.096 Y-537.934
X-313.279 Y-539.586
X-313.435 Y-541.242
X-313.565 Y-542.899
X-313.668 Y-544.559
X-313.745 Y-546.22
X-313.795 Y-547.882
X-313.818 Y-549.545
X-313.815 Y-551.207
X-313.785 Y-552.87
X-313.728 Y-554.532
X-313.644 Y-556.192
X-313.534 Y-557.851
X-313.397 Y-559.508
X-313.233 Y-561.163
X-313.042 Y-562.815
X-312.825 Y-564.463
X-312.581 Y-566.108
X-312.311 Y-567.749
X-312.014 Y-569.385
X-311.691 Y-571.016
X-311.342 Y-572.642
X-310.967 Y-574.262
X-310.566 Y-575.875
X-310.14 Y-577.482
X-309.687 Y-579.082
X-309.21 Y-580.675
X-308.706 Y-582.26
X-308.178 Y-583.836
X-307.624 Y-585.404
X-307.045 Y-586.963
X-306.44 Y-588.512
X-305.811 Y-590.051
X-305.157 Y-591.579
X-304.479 Y-593.097
X-303.776 Y-594.604
X-303.049 Y-596.1
X-302.298 Y-597.583
X-301.523 Y-599.055
X-300.725 Y-600.513
X-299.903 Y-601.959
X-299.059 Y-603.391
X-298.191 Y-604.81
X-297.302 Y-606.214
X-296.389 Y-607.604
X-295.455 Y-608.98
X-294.499 Y-610.34
X-293.521 Y-611.685
X-292.521 Y-613.014
X-291.5 Y-614.326
X-290.459 Y-615.622
X-289.396 Y-616.901
X-288.313 Y-618.163
X-287.21 Y-619.407
X-286.087 Y-620.633
X-284.944 Y-621.841
X-283.782 Y-623.03
X-282.601 Y-624.201
X-281.402 Y-625.352
X-280.184 Y-626.484
X-278.948 Y-627.597
X-277.695 Y-628.69
X-276.424 Y-629.762
X-275.137 Y-630.814
X-273.833 Y-631.846
X-272.512 Y-632.856
X-271.175 Y-633.845
X-269.823 Y-634.812
X-268.455 Y-635.758
X-267.072 Y-636.681
X-265.675 Y-637.582
X-264.263 Y-638.46
X-262.837 Y-639.315
X-261.397 Y-640.148
X-259.945 Y-640.957
X-258.479 Y-641.743
X-257.002 Y-642.505
X-255.512 Y-643.244
X-254.011 Y-643.958
X-252.498 Y-644.649
X-250.975 Y-645.315
X-249.441 Y-645.957
X-247.897 Y-646.574
X-246.343 Y-647.167
X-244.78 Y-647.734
X-243.208 Y-648.276
X-241.628 Y-648.793
X-240.04 Y-649.285
X-238.443 Y-649.751
X-236.84 Y-650.191
X-235.23 Y-650.605
X-233.613 Y-650.994
X-231.99 Y-651.356
X-230.362 Y-651.693
X-228.728 Y-652.003
X-227.09 Y-652.287
X-225.448 Y-652.545
X-223.801 Y-652.777
X-222.151 Y-652.983
X-220.498 Y-653.162
X-218.842 Y-653.315
X-217.184 Y-653.442
X-215.525 Y-653.542
X-213.864 Y-653.616
X-212.201 Y-653.663
X-210.539 Y-653.683
X-208.876 Y-653.676
X-207.214 Y-653.643
X-205.552 Y-653.584
X-203.891 Y-653.498
X-202.232 Y-653.385
X-200.576 Y-653.246
X-198.921 Y-653.081
X-197.269 Y-652.889
X-195.621 Y-652.671
X-193.976 Y-652.427
X-192.336 Y-652.157
X-190.699 Y-651.861
X-189.068 Y-651.539
X-187.442 Y-651.191
X-185.822 Y-650.818
X-184.208 Y-650.419
X-182.6 Y-649.994
X-181 Y-649.543
X-179.406 Y-649.068
X-177.821 Y-648.567
X-176.244 Y-648.04
X-174.675 Y-647.489
X-173.115 Y-646.913
X-171.565 Y-646.312
X-170.024 Y-645.687
X-168.493 Y-645.038
X-166.973 Y-644.364
X-165.464 Y-643.667
X-163.965 Y-642.946
X-162.479 Y-642.201
X-161.004 Y-641.433
X-159.541 Y-640.642
X-158.091 Y-639.829
X-156.654 Y-638.992
X-155.231 Y-638.133
X-153.821 Y-637.251
X-152.425 Y-636.347
X-151.044 Y-635.421
X-149.678 Y-634.474
X-148.327 Y-633.505
X-146.991 Y-632.515
X-145.671 Y-631.504
X-144.367 Y-630.472
X-143.079 Y-629.42
X-141.808 Y-628.347
X-140.554 Y-627.255
X-139.318 Y-626.144
X-138.099 Y-625.013
X-136.898 Y-623.863
X-135.714 Y-622.695
X-134.55 Y-621.508
X-133.404 Y-620.304
X-132.277 Y-619.081
X-131.169 Y-617.841
X-130.082 Y-616.583
X-129.014 Y-615.309
X-127.966 Y-614.018
X-126.939 Y-612.71
X-125.932 Y-611.387
X-124.946 Y-610.048
X-123.982 Y-608.693
X-123.038 Y-607.324
X-122.117 Y-605.94
X-121.217 Y-604.542
X-120.339 Y-603.13
X-119.483 Y-601.704
X-118.65 Y-600.265
X-117.839 Y-598.814
X-117.051 Y-597.35
X-116.285 Y-595.873
X-115.543 Y-594.385
X-114.825 Y-592.886
X-114.13 Y-591.375
X-113.459 Y-589.854
X-112.812 Y-588.322
X-112.189 Y-586.781
X-111.59 Y-585.23
X-111.016 Y-583.669
X-110.466 Y-582.1
X-109.941 Y-580.522
X-109.441 Y-578.936
X-108.966 Y-577.343
X-108.515 Y-575.742
X-108.09 Y-574.135
X-107.69 Y-572.521
X-107.315 Y-570.901
X-106.965 Y-569.276
X-106.641 Y-567.645
X-106.342 Y-566.009
X-106.069 Y-564.369
X-105.822 Y-562.725
X-105.601 Y-561.077
X-105.405 Y-559.426
X-105.236 Y-557.771
X-105.092 Y-556.115
X-104.975 Y-554.456
X-104.884 Y-552.796
X-104.818 Y-551.135
X-104.779 Y-549.472
X-104.766 Y-547.81
X-104.779 Y-546.147
X-104.818 Y-544.485
X-104.883 Y-542.823
X-104.974 Y-541.163
X-105.091 Y-539.504
X-105.233 Y-537.848
X-105.402 Y-536.193
X-105.596 Y-534.542
X-105.817 Y-532.894
X-106.063 Y-531.25
X-106.335 Y-529.609
X-106.633 Y-527.973
X-106.956 Y-526.342
X-107.305 Y-524.717
X-107.68 Y-523.097
X-108.08 Y-521.483
X-108.505 Y-519.875
X-108.956 Y-518.275
X-109.432 Y-516.681
X-109.932 Y-515.096
X-110.457 Y-513.518
X-111.007 Y-511.949
X-111.582 Y-510.389
X-112.18 Y-508.837
X-112.803 Y-507.296
X-113.45 Y-505.764
X-114.121 Y-504.242
X-114.815 Y-502.732
X-115.533 Y-501.232
X-116.275 Y-499.744
X-117.04 Y-498.268
X-117.828 Y-496.804
X-118.639 Y-495.352
X-119.473 Y-493.913
X-120.329 Y-492.488
X-121.208 Y-491.076
X-122.108 Y-489.679
X-123.031 Y-488.295
X-123.975 Y-486.926
X-124.94 Y-485.572
X-125.926 Y-484.234
X-126.933 Y-482.91
X-127.961 Y-481.603
X-129.008 Y-480.312
X-130.076 Y-479.038
X-131.164 Y-477.78
X-132.271 Y-476.539
X-133.398 Y-475.316
X-134.543 Y-474.111
X-135.708 Y-472.924
X-136.891 Y-471.756
X-138.092 Y-470.606
X-139.31 Y-469.475
X-140.547 Y-468.363
X-141.801 Y-467.271
X-143.071 Y-466.199
X-144.359 Y-465.146
X-145.662 Y-464.114
X-146.982 Y-463.102
X-148.317 Y-462.111
X-149.667 Y-461.141
X-151.033 Y-460.192
X-152.412 Y-459.264
X-153.807 Y-458.358
X-155.215 Y-457.474
X-156.637 Y-456.612
X-158.072 Y-455.772
X-159.52 Y-454.955
X-160.981 Y-454.161
X-162.453 Y-453.389
X-163.938 Y-452.641
X-165.435 Y-451.915
X-166.942 Y-451.214
X-168.46 Y-450.536
X-169.989 Y-449.881
X-171.527 Y-449.251
X-173.076 Y-448.644
X-174.633 Y-448.062
X-176.199 Y-447.504
X-177.774 Y-446.97
X-179.357 Y-446.461
X-180.948 Y-445.977
X-182.545 Y-445.517
X-184.15 Y-445.082
X-185.762 Y-444.672
X-187.379 Y-444.287
X-189.003 Y-443.927
X-190.632 Y-443.593
X-192.265 Y-443.284
X-193.904 Y-443.001
X-195.546 Y-442.743
X-197.193 Y-442.511
X-198.843 Y-442.304
X-200.496 Y-442.123
X-202.151 Y-441.968
X-203.809 Y-441.838
X-205.468 Y-441.734
X-207.129 Y-441.655
X-208.791 Y-441.603
X-210.454 Y-441.576
X-212.116 Y-441.574
X-213.779 Y-441.598
X-215.441 Y-441.648
X-217.102 Y-441.724
X-218.762 Y-441.826
X-220.419 Y-441.953
X-222.075 Y-442.106
X-223.728 Y-442.284
X-225.378 Y-442.489
X-227.025 Y-442.718
X-228.668 Y-442.973
X-230.307 Y-443.254
X-231.942 Y-443.56
X-233.571 Y-443.891
X-235.195 Y-444.247
X-236.814 Y-444.628
X-238.426 Y-445.034
X-240.032 Y-445.465
X-241.631 Y-445.92
X-243.223 Y-446.4
X-244.808 Y-446.904
X-246.384 Y-447.433
X-247.952 Y-447.986
X-249.512 Y-448.563
X-251.062 Y-449.164
X-252.603 Y-449.789
X-254.134 Y-450.438
X-255.655 Y-451.11
X-257.165 Y-451.806
X-258.664 Y-452.525
X-260.152 Y-453.266
X-261.629 Y-454.031
X-263.093 Y-454.818
X-264.546 Y-455.628
X-265.985 Y-456.46
X-267.412 Y-457.314
X-268.826 Y-458.19
X-270.226 Y-459.087
X-271.612 Y-460.005
X-272.983 Y-460.945
X-274.34 Y-461.906
X-275.683 Y-462.887
X-277.01 Y-463.889
X-278.321 Y-464.911
X-279.616 Y-465.954
X-280.896 Y-467.016
X-282.159 Y-468.098
X-283.405 Y-469.198
X-284.634 Y-470.318
X-285.845 Y-471.457
X-287.039 Y-472.614
X-288.216 Y-473.79
X-289.374 Y-474.983
X-290.513 Y-476.194
X-291.634 Y-477.422
X-292.736 Y-478.667
X-293.819 Y-479.929
X-294.883 Y-481.207
X-295.926 Y-482.501
X-296.95 Y-483.811
X-297.954 Y-485.137
X-298.937 Y-486.478
X-299.9 Y-487.833
X-300.841 Y-489.204
X-301.762 Y-490.589
X-302.661 Y-491.987
X-303.538 Y-493.4
X-304.394 Y-494.825
X-305.228 Y-496.264
X-306.04 Y-497.715
X-306.83 Y-499.178
X-307.597 Y-500.653
X-308.341 Y-502.14
X-309.063 Y-503.638
X-309.762 Y-505.147
X-310.437 Y-506.666
X-311.09 Y-508.196
X-311.719 Y-509.735
X-312.324 Y-511.284
X-312.906 Y-512.841
X-313.463 Y-514.408
X-313.997 Y-515.982
X-314.506 Y-517.565
X-314.992 Y-519.156
X-315.453 Y-520.753
X-315.889 Y-522.358
X-316.301 Y-523.969
X-316.688 Y-525.586
X-317.05 Y-527.208
X-317.388 Y-528.837
X-317.7 Y-530.47
X-317.988 Y-532.107
X-318.251 Y-533.749
X-318.488 Y-535.395
X-318.701 Y-537.044
X-318.888 Y-538.696
X-319.051 Y-540.351
X-319.188 Y-542.008
X-319.299 Y-543.667
X-319.386 Y-545.328
X-319.447 Y-546.989
X-319.482 Y-548.652
X-319.492 Y-550.314
X-319.477 Y-551.977
X-319.436 Y-553.639
X-319.37 Y-555.301
X-319.279 Y-556.961
X-319.162 Y-558.62
X-319.02 Y-560.276
X-318.853 Y-561.931
X-318.661 Y-563.582
X-318.443 Y-565.231
X-318.201 Y-566.876
X-317.933 Y-568.517
X-317.641 Y-570.154
X-317.323 Y-571.786
X-316.981 Y-573.413
X-316.614 Y-575.035
X-316.223 Y-576.651
X-315.806 Y-578.26
X-315.366 Y-579.864
X-314.9 Y-581.46
X-314.411 Y-583.049
X-313.897 Y-584.631
X-313.359 Y-586.204
X-312.798 Y-587.769
X-312.212 Y-589.325
X-311.603 Y-590.872
X-310.971 Y-592.41
X-310.315 Y-593.938
X-309.636 Y-595.456
X-308.934 Y-596.963
X-308.209 Y-598.459
X-307.461 Y-599.945
X-306.691 Y-601.418
X-305.899 Y-602.88
X-305.084 Y-604.33
X-304.248 Y-605.767
X-303.389 Y-607.191
X-302.509 Y-608.602
X-301.608 Y-609.999
X-300.685 Y-611.382
X-299.742 Y-612.751
X-298.777 Y-614.106
X-297.792 Y-615.446
X-296.787 Y-616.77
X-295.762 Y-618.079
X-294.717 Y-619.372
X-293.653 Y-620.65
X-292.569 Y-621.911
X-291.466 Y-623.155
X-290.344 Y-624.383
X-289.204 Y-625.593
X-288.046 Y-626.786
X-286.869 Y-627.961
X-285.675 Y-629.118
X-284.463 Y-630.257
X-283.235 Y-631.377
X-281.989 Y-632.478
X-280.726 Y-633.56
X-279.448 Y-634.623
X-278.153 Y-635.666
X-276.842 Y-636.689
X-275.516 Y-637.693
X-274.175 Y-638.676
X-272.819 Y-639.638
X-271.449 Y-640.58
X-270.064 Y-641.5
X-268.666 Y-642.4
X-267.254 Y-643.278
X-265.829 Y-644.135
X-264.391 Y-644.97
X-262.941 Y-645.783
X-261.478 Y-646.574
X-260.004 Y-647.343
X-258.518 Y-648.089
X-257.021 Y-648.813
X-255.513 Y-649.513
X-253.994 Y-650.19
X-252.466 Y-650.845
X-250.927 Y-651.476
X-249.38 Y-652.083
X-247.823 Y-652.667
X-246.257 Y-653.227
X-244.683 Y-653.764
X-243.101 Y-654.276
X-241.512 Y-654.764
X-239.915 Y-655.228
X-238.312 Y-655.668
X-236.702 Y-656.084
X-235.086 Y-656.475
X-233.464 Y-656.841
X-231.837 Y-657.183
X-230.204 Y-657.5
X-228.568 Y-657.793
X-226.926 Y-658.06
X-225.281 Y-658.303
X-223.633 Y-658.52
X-221.981 Y-658.712
X-220.327 Y-658.88
X-218.67 Y-659.022
X-217.012 Y-659.139
X-215.352 Y-659.231
X-213.69 Y-659.298
X-212.028 Y-659.339
X-210.365 Y-659.356
X-208.703 Y-659.347
X-207.04 Y-659.313
X-205.378 Y-659.255
X-203.718 Y-659.171
X-202.059 Y-659.062
X-200.401 Y-658.928
X-198.746 Y-658.769
X-197.094 Y-658.585
X-195.444 Y-658.376
X-193.798 Y-658.142
X-192.155 Y-657.883
X-190.517 Y-657.599
X-188.883 Y-657.291
X-187.254 Y-656.958
X-185.63 Y-656.601
X-184.012 Y-656.219
X-182.399 Y-655.813
X-180.793 Y-655.382
X-179.194 Y-654.928
X-177.601 Y-654.449
X-176.016 Y-653.947
X-174.439 Y-653.421
X-172.87 Y-652.871
X-171.309 Y-652.297
X-169.757 Y-651.701
X-168.214 Y-651.081
X-166.681 Y-650.438
X-165.157 Y-649.772
X-163.644 Y-649.084
X-162.141 Y-648.372
X-160.649 Y-647.639
X-159.168 Y-646.882
X-157.698 Y-646.104
X-156.241 Y-645.304
X-154.795 Y-644.482
X-153.362 Y-643.639
X-151.942 Y-642.774
X-150.535 Y-641.888
X-149.142 Y-640.981
X-147.762 Y-640.053
X-146.396 Y-639.105
X-145.044 Y-638.137
X-143.707 Y-637.148
X-142.385 Y-636.14
X-141.078 Y-635.112
X-139.786 Y-634.065
X-138.51 Y-632.999
X-137.251 Y-631.913
X-136.008 Y-630.809
X-134.781 Y-629.687
X-133.571 Y-628.546
X-132.379 Y-627.387
X-131.203 Y-626.211
X-130.046 Y-625.017
X-128.906 Y-623.807
X-127.785 Y-622.579
X-126.682 Y-621.335
X-125.597 Y-620.074
X-124.532 Y-618.798
X-123.485 Y-617.506
X-122.458 Y-616.198
X-121.451 Y-614.875
X-120.463 Y-613.538
X-119.495 Y-612.186
X-118.547 Y-610.82
X-117.62 Y-609.439
X-116.713 Y-608.046
X-115.828 Y-606.638
X-114.963 Y-605.218
X-114.12 Y-603.785
X-113.298 Y-602.34
X-112.498 Y-600.882
X-111.719 Y-599.413
X-110.962 Y-597.932
X-110.228 Y-596.441
X-109.516 Y-594.938
X-108.826 Y-593.425
X-108.158 Y-591.902
X-107.514 Y-590.37
X-106.892 Y-588.827
X-106.293 Y-587.276
X-105.718 Y-585.716
X-105.165 Y-584.148
X-104.636 Y-582.572
X-104.13 Y-580.988
X-103.648 Y-579.396
X-103.19 Y-577.798
X-102.755 Y-576.193
X-102.345 Y-574.582
X-101.958 Y-572.965
X-101.596 Y-571.342
X-101.258 Y-569.714
X-100.944 Y-568.081
X-100.654 Y-566.444
X-100.389 Y-564.802
X-100.148 Y-563.157
X-99.932 Y-561.508
X-99.74 Y-559.857
X-99.573 Y-558.202
X-99.43 Y-556.546
X-99.312 Y-554.887
X-99.219 Y-553.227
X-99.15 Y-551.566
X-99.107 Y-549.904
X-99.087 Y-548.241
X-99.093 Y-546.578
X-99.123 Y-544.916
X-99.178 Y-543.254
X-99.258 Y-541.593
X-99.363 Y-539.933
X-99.492 Y-538.276
X-99.646 Y-536.62
X-99.825 Y-534.967
X-100.028 Y-533.317
X-100.256 Y-531.67
X-100.508 Y-530.026
X-100.784 Y-528.387
X-101.085 Y-526.751
X-101.411 Y-525.121
X-101.76 Y-523.495
X-102.134 Y-521.875
X-102.532 Y-520.26
X-102.953 Y-518.652
X-103.399 Y-517.05
X-103.868 Y-515.455
X-104.361 Y-513.867
X-104.878 Y-512.286
X-105.418 Y-510.714
X-105.981 Y-509.15
X-106.568 Y-507.594
X-107.178 Y-506.047
X-107.811 Y-504.509
X-108.467 Y-502.981
X-109.145 Y-501.463
X-109.846 Y-499.955
X-110.569 Y-498.458
X-111.315 Y-496.972
X-112.082 Y-495.497
X-112.872 Y-494.033
X-113.683 Y-492.582
X-114.515 Y-491.143
X-115.369 Y-489.716
X-116.244 Y-488.302
X-117.139 Y-486.901
X-118.056 Y-485.513
X-118.993 Y-484.14
X-119.95 Y-482.78
X-120.928 Y-481.435
X-121.925 Y-480.105
X-122.943 Y-478.79
X-123.979 Y-477.49
X-125.035 Y-476.205
X-126.11 Y-474.937
X-127.204 Y-473.684
X-128.316 Y-472.448
X-129.446 Y-471.229
X-130.594 Y-470.026
X-131.76 Y-468.841
X-132.944 Y-467.673
X-134.145 Y-466.522
X-135.362 Y-465.39
X-136.596 Y-464.276
X-137.847 Y-463.18
X-139.114 Y-462.103
X-140.396 Y-461.045
X-141.694 Y-460.006
X-143.008 Y-458.986
X-144.336 Y-457.986
X-145.68 Y-457.006
X-147.037 Y-456.046
X-148.409 Y-455.107
X-149.794 Y-454.187
X-151.193 Y-453.289
X-152.606 Y-452.411
X-154.031 Y-451.554
X-155.468 Y-450.718
X-156.918 Y-449.904
X-158.379 Y-449.111
X-159.852 Y-448.34
X-161.337 Y-447.591
X-162.832 Y-446.864
X-164.338 Y-446.158
X-165.854 Y-445.476
X-167.38 Y-444.815
X-168.916 Y-444.178
X-170.461 Y-443.563
X-172.015 Y-442.971
X-173.577 Y-442.403
X-175.148 Y-441.857
X-176.727 Y-441.335
X-178.313 Y-440.836
X-179.906 Y-440.361
X-181.506 Y-439.909
X-183.113 Y-439.481
X-184.726 Y-439.077
X-186.344 Y-438.696
X-187.969 Y-438.34
X-189.598 Y-438.007
X-191.232 Y-437.698
X-192.87 Y-437.414
X-194.512 Y-437.154
X-196.158 Y-436.917
X-197.807 Y-436.705
X-199.459 Y-436.518
X-201.114 Y-436.354
X-202.771 Y-436.216
X-204.43 Y-436.101
X-206.09 Y-436.012
X-207.751 Y-435.946
X-209.414 Y-435.905
X-211.076 Y-435.889
X-212.739 Y-435.897
X-214.402 Y-435.929
X-216.063 Y-435.986
X-217.724 Y-436.068
X-219.383 Y-436.173
X-221.041 Y-436.303
X-222.697 Y-436.458
X-224.35 Y-436.636
X-226 Y-436.839
X-227.647 Y-437.066
X-229.291 Y-437.317
X-230.931 Y-437.592
X-232.566 Y-437.892
X-234.198 Y-438.215
X-235.824 Y-438.562
X-237.444 Y-438.933
X-239.06 Y-439.328
X-240.669 Y-439.747
X-242.272 Y-440.189
X-243.868 Y-440.654
X-245.457 Y-441.143
X-247.039 Y-441.655
X-248.614 Y-442.19
X-250.18 Y-442.748
X-251.738 Y-443.329
X-253.287 Y-443.933
X-254.827 Y-444.559
X-256.358 Y-445.208
X-257.88 Y-445.879
X-259.391 Y-446.572
X-260.892 Y-447.287
X-262.383 Y-448.024
X-263.862 Y-448.783
X-265.331 Y-449.563
X-266.787 Y-450.365
X-268.232 Y-451.188
X-269.665 Y-452.032
X-271.085 Y-452.897
X-272.492 Y-453.783
X-273.886 Y-454.689
X-275.267 Y-455.615
X-276.634 Y-456.561
X-277.987 Y-457.527
X-279.326 Y-458.513
X-280.651 Y-459.519
X-281.961 Y-460.543
X-283.255 Y-461.586
X-284.534 Y-462.649
X-285.798 Y-463.729
X-287.046 Y-464.828
X-288.278 Y-465.945
X-289.493 Y-467.08
X-290.692 Y-468.232
X-291.873 Y-469.402
X-293.038 Y-470.589
X-294.185 Y-471.793
X-295.314 Y-473.013
X-296.425 Y-474.25
X-297.519 Y-475.503
X-298.593 Y-476.772
X-299.65 Y-478.056
X-300.687 Y-479.355
X-301.706 Y-480.669
X-302.705 Y-481.998
X-303.685 Y-483.342
X-304.645 Y-484.699
X-305.585 Y-486.071
X-306.506 Y-487.455
X-307.406 Y-488.853
X-308.285 Y-490.264
X-309.145 Y-491.688
X-309.983 Y-493.124
X-310.801 Y-494.572
X-311.597 Y-496.031
X-312.372 Y-497.503
X-313.125 Y-498.985
X-313.857 Y-500.478
X-314.567 Y-501.982
X-315.255 Y-503.495
X-315.92 Y-505.019
X-316.564 Y-506.552
X-317.185 Y-508.094
X-317.784 Y-509.646
X-318.361 Y-511.205
X-318.914 Y-512.773
X-319.445 Y-514.349
X-319.953 Y-515.932
X-320.438 Y-517.523
X-320.9 Y-519.12
X-321.338 Y-520.724
X-321.754 Y-522.334
X-322.146 Y-523.95
X-322.514 Y-525.571
X-322.859 Y-527.198
X-323.18 Y-528.829
X-323.477 Y-530.465
X-323.751 Y-532.105
X-324.001 Y-533.749
X-324.226 Y-535.397
X-324.428 Y-537.047
X-324.606 Y-538.7
X-324.76 Y-540.356
X-324.89 Y-542.014
X-324.996 Y-543.673
X-325.078 Y-545.334
X-325.135 Y-546.995
X-325.169 Y-548.658
X-325.178 Y-550.321
X-325.164 Y-551.983
X-325.125 Y-553.646
X-325.063 Y-555.307
X-324.976 Y-556.968
X-324.866 Y-558.627
X-324.731 Y-560.284
X-324.572 Y-561.939
X-324.389 Y-563.592
X-324.182 Y-565.242
X-323.952 Y-566.888
X-323.697 Y-568.531
X-323.419 Y-570.171
X-323.116 Y-571.806
X-322.791 Y-573.436
X-322.441 Y-575.062
X-322.068 Y-576.682
X-321.672 Y-578.297
X-321.253 Y-579.906
X-320.81 Y-581.509
X-320.344 Y-583.105
X-319.855 Y-584.694
X-319.343 Y-586.276
X-318.808 Y-587.851
X-318.251 Y-589.417
X-317.671 Y-590.975
X-317.068 Y-592.525
X-316.443 Y-594.066
X-315.796 Y-595.598
X-315.126 Y-597.12
X-314.435 Y-598.632
X-313.722 Y-600.134
X-312.987 Y-601.625
X-312.23 Y-603.106
X-311.452 Y-604.576
X-310.653 Y-606.034
X-309.833 Y-607.48
X-308.992 Y-608.915
X-308.131 Y-610.337
X-307.249 Y-611.746
X-306.346 Y-613.143
X-305.424 Y-614.526
X-304.482 Y-615.896
X-303.52 Y-617.253
X-302.539 Y-618.595
X-301.538 Y-619.923
X-300.518 Y-621.236
X-299.479 Y-622.534
X-298.422 Y-623.817
X-297.346 Y-625.085
X-296.251 Y-626.337
X-295.139 Y-627.573
X-294.009 Y-628.793
X-292.861 Y-629.996
X-291.696 Y-631.182
X-290.514 Y-632.352
X-289.316 Y-633.504
X-288.1 Y-634.639
X-286.869 Y-635.756
X-285.621 Y-636.855
X-284.358 Y-637.937
X-283.079 Y-638.999
X-281.785 Y-640.044
X-280.476 Y-641.069
X-279.153 Y-642.075
X-277.815 Y-643.063
X-276.463 Y-644.03
X-275.097 Y-644.978
X-273.717 Y-645.907
X-272.324 Y-646.815
X-270.918 Y-647.702
X-269.5 Y-648.57
X-268.069 Y-649.416
X-266.626 Y-650.242
X-265.171 Y-651.047
X-263.704 Y-651.831
X-262.227 Y-652.594
X-260.738 Y-653.335
X-259.239 Y-654.054
X-257.73 Y-654.752
X-256.211 Y-655.428
X-254.682 Y-656.082
X-253.144 Y-656.714
X-251.597 Y-657.324
X-250.042 Y-657.911
X-248.478 Y-658.476
X-246.906 Y-659.019
X-245.327 Y-659.538
X-243.74 Y-660.035
X-242.146 Y-660.508
X-240.545 Y-660.958
X-238.938 Y-661.385
X-237.325 Y-661.789
X-235.707 Y-662.17
X-234.083 Y-662.527
X-232.454 Y-662.861
X-230.82 Y-663.171
X-229.182 Y-663.458
X-227.54 Y-663.72
X-225.895 Y-663.96
X-224.246 Y-664.175
X-222.595 Y-664.367
X-220.94 Y-664.535
X-219.284 Y-664.68
X-217.626 Y-664.8
X-215.966 Y-664.897
X-214.304 Y-664.969
X-212.642 Y-665.018
X-210.98 Y-665.043
X-209.317 Y-665.044
X-207.655 Y-665.02
X-205.992 Y-664.973
X-204.331 Y-664.902
X-202.671 Y-664.807
X-201.013 Y-664.688
X-199.356 Y-664.546
X-197.702 Y-664.379
X-196.05 Y-664.189
X-194.401 Y-663.975
X-192.755 Y-663.738
X-191.113 Y-663.477
X-189.475 Y-663.192
X-187.841 Y-662.884
X-186.211 Y-662.553
X-184.587 Y-662.198
X-182.968 Y-661.821
X-181.354 Y-661.42
X-179.746 Y-660.996
X-178.145 Y-660.549
X-176.55 Y-660.079
X-174.961 Y-659.586
X-173.381 Y-659.071
X-171.807 Y-658.533
X-170.242 Y-657.972
X-168.685 Y-657.39
X-167.136 Y-656.784
X-165.596 Y-656.157
X-164.065 Y-655.508
X-162.544 Y-654.838
X-161.032 Y-654.145
X-159.53 Y-653.431
X-158.039 Y-652.696
X-156.558 Y-651.94
X-155.088 Y-651.163
X-153.629 Y-650.365
X-152.182 Y-649.546
X-150.747 Y-648.706
X-149.323 Y-647.847
X-147.913 Y-646.967
X-146.514 Y-646.067
X-145.129 Y-645.148
X-143.757 Y-644.208
X-142.399 Y-643.249
X-141.054 Y-642.271
X-139.723 Y-641.274
X-138.407 Y-640.258
X-137.105 Y-639.224
X-135.818 Y-638.171
X-134.546 Y-637.1
X-133.29 Y-636.011
X-132.049 Y-634.904
X-130.824 Y-633.78
X-129.615 Y-632.639
X-128.422 Y-631.481
X-127.245 Y-630.305
X-126.086 Y-629.114
X-124.943 Y-627.906
X-123.818 Y-626.682
X-122.71 Y-625.442
X-121.619 Y-624.187
X-120.547 Y-622.916
X-119.493 Y-621.63
X-118.457 Y-620.329
X-117.44 Y-619.014
X-116.442 Y-617.684
X-115.462 Y-616.34
X-114.502 Y-614.983
X-113.561 Y-613.612
X-112.639 Y-612.228
X-111.737 Y-610.831
X-110.855 Y-609.422
X-109.993 Y-608
X-109.151 Y-606.566
X-108.33 Y-605.121
X-107.529 Y-603.663
X-106.748 Y-602.195
X-105.989 Y-600.716
X-105.25 Y-599.226
X-104.533 Y-597.726
X-103.837 Y-596.216
X-103.162 Y-594.697
X-102.509 Y-593.168
X-101.878 Y-591.629
X-101.268 Y-590.082
X-100.681 Y-588.527
X-100.115 Y-586.963
X-99.572 Y-585.391
X-99.051 Y-583.812
X-98.553 Y-582.226
X-98.077 Y-580.633
X-97.624 Y-579.033
X-97.193 Y-577.427
X-96.785 Y-575.815
X-96.4 Y-574.198
X-96.037 Y-572.575
X-95.698 Y-570.947
X-95.382 Y-569.315
X-95.088 Y-567.678
X-94.818 Y-566.037
X-94.571 Y-564.393
X-94.348 Y-562.745
X-94.148 Y-561.095
X-93.971 Y-559.441
X-93.818 Y-557.786
X-93.688 Y-556.128
X-93.582 Y-554.469
X-93.499 Y-552.808
X-93.44 Y-551.146
X-93.404 Y-549.484
X-93.392 Y-547.821
X-93.404 Y-546.159
X-93.439 Y-544.496
X-93.497 Y-542.834
X-93.579 Y-541.174
X-93.685 Y-539.514
X-93.814 Y-537.857
X-93.966 Y-536.201
X-94.142 Y-534.547
X-94.341 Y-532.897
X-94.563 Y-531.249
X-94.809 Y-529.604
X-95.078 Y-527.963
X-95.37 Y-526.327
X-95.686 Y-524.694
X-96.024 Y-523.066
X-96.386 Y-521.443
X-96.771 Y-519.826
X-97.178 Y-518.214
X-97.609 Y-516.607
X-98.062 Y-515.008
X-98.538 Y-513.414
X-99.036 Y-511.828
X-99.556 Y-510.249
X-100.099 Y-508.677
X-100.664 Y-507.113
X-101.251 Y-505.558
X-101.861 Y-504.011
X-102.491 Y-502.472
X-103.144 Y-500.943
X-103.818 Y-499.423
X-104.514 Y-497.913
X-105.23 Y-496.412
X-105.969 Y-494.922
X-106.728 Y-493.443
X-107.508 Y-491.975
X-108.309 Y-490.518
X-109.13 Y-489.072
X-109.972 Y-487.638
X-110.834 Y-486.216
X-111.716 Y-484.807
X-112.618 Y-483.41
X-113.54 Y-482.026
X-114.481 Y-480.655
X-115.442 Y-479.298
X-116.421 Y-477.954
X-117.42 Y-476.625
X-118.437 Y-475.309
X-119.472 Y-474.008
X-120.526 Y-472.722
X-121.598 Y-471.451
X-122.688 Y-470.195
X-123.795 Y-468.955
X-124.92 Y-467.73
X-126.062 Y-466.522
X-127.221 Y-465.329
X-128.397 Y-464.154
X-129.589 Y-462.995
X-130.798 Y-461.853
X-132.022 Y-460.728
X-133.263 Y-459.621
X-134.519 Y-458.532
X-135.79 Y-457.46
X-137.076 Y-456.406
X-138.377 Y-455.371
X-139.693 Y-454.354
X-141.023 Y-453.355
X-142.366 Y-452.376
X-143.723 Y-451.415
X-145.094 Y-450.474
X-146.478 Y-449.552
X-147.874 Y-448.65
X-149.284 Y-447.767
X-150.705 Y-446.904
X-152.139 Y-446.062
X-153.584 Y-445.24
X-155.041 Y-444.438
X-156.509 Y-443.657
X-157.987 Y-442.897
X-159.477 Y-442.158
X-160.976 Y-441.44
X-162.486 Y-440.743
X-164.005 Y-440.067
X-165.534 Y-439.413
X-167.072 Y-438.78
X-168.618 Y-438.169
X-170.173 Y-437.58
X-171.736 Y-437.013
X-173.307 Y-436.468
X-174.885 Y-435.945
X-176.471 Y-435.444
X-178.063 Y-434.965
X-179.662 Y-434.509
X-181.267 Y-434.075
X-182.878 Y-433.664
X-184.495 Y-433.276
X-186.117 Y-432.91
X-187.744 Y-432.567
X-189.376 Y-432.248
X-191.012 Y-431.951
X-192.652 Y-431.677
X-194.296 Y-431.426
X-195.943 Y-431.199
X-197.593 Y-430.994
X-199.246 Y-430.813
X-200.901 Y-430.654
X-202.558 Y-430.519
X-202.736 Y-430.507
X-202.81 Y-430.503
X-202.884 Y-430.501
X-202.958 Y-430.5
X-214.648
X-216.309 Y-430.583
X-217.971 Y-430.611
X-219.633 Y-430.672
X-221.293 Y-430.765
X-222.951 Y-430.886
X-224.607 Y-431.036
X-226.261 Y-431.214
X-227.911 Y-431.418
X-229.557 Y-431.648
X-231.2 Y-431.904
X-232.839 Y-432.185
X-234.474 Y-432.49
X-236.104 Y-432.819
X-237.729 Y-433.172
X-239.348 Y-433.548
X-240.962 Y-433.948
X-242.57 Y-434.37
X-244.172 Y-434.816
X-245.768 Y-435.284
X-247.357 Y-435.774
X-248.938 Y-436.287
X-250.512 Y-436.822
X-252.079 Y-437.38
X-253.638 Y-437.959
X-255.188 Y-438.559
X-256.73 Y-439.181
X-258.263 Y-439.825
X-259.787 Y-440.49
X-261.302 Y-441.176
X-262.807 Y-441.884
X-264.301 Y-442.612
X-265.786 Y-443.361
X-267.26 Y-444.131
X-268.722 Y-444.922
X-270.174 Y-445.732
X-271.614 Y-446.563
X-273.043 Y-447.414
X-274.459 Y-448.285
X-275.864 Y-449.175
X-277.255 Y-450.085
X-278.635 Y-451.014
X-280.001 Y-451.962
X-281.353 Y-452.929
X-282.693 Y-453.914
X-284.018 Y-454.918
X-285.329 Y-455.941
X-286.626 Y-456.981
X-287.909 Y-458.039
X-289.177 Y-459.115
X-290.43 Y-460.208
X-291.667 Y-461.319
X-292.889 Y-462.447
X-294.094 Y-463.592
X-295.284 Y-464.754
X-296.458 Y-465.932
X-297.615 Y-467.126
X-298.755 Y-468.336
X-299.878 Y-469.562
X-300.985 Y-470.803
X-302.074 Y-472.06
X-303.145 Y-473.331
X-304.199 Y-474.617
X-305.235 Y-475.918
X-306.253 Y-477.233
X-307.252 Y-478.561
X-308.233 Y-479.904
X-309.196 Y-481.26
X-310.139 Y-482.629
X-311.064 Y-484.011
X-311.969 Y-485.406
X-312.855 Y-486.813
X-313.721 Y-488.232
X-314.568 Y-489.663
X-315.394 Y-491.106
X-316.201 Y-492.56
X-316.987 Y-494.025
X-317.752 Y-495.501
X-318.497 Y-496.988
X-319.222 Y-498.484
X-319.926 Y-499.991
X-320.608 Y-501.507
X-321.27 Y-503.032
X-321.911 Y-504.567
X-322.53 Y-506.11
X-323.128 Y-507.661
X-323.705 Y-509.221
X-324.26 Y-510.788
X-324.793 Y-512.363
X-325.304 Y-513.945
X-325.794 Y-515.534
X-326.262 Y-517.13
X-326.708 Y-518.732
X-327.131 Y-520.34
X-327.532 Y-521.954
X-327.91 Y-523.573
X-328.266 Y-525.197
X-328.599 Y-526.826
X-328.91 Y-528.459
X-329.198 Y-530.097
X-329.464 Y-531.738
X-329.707 Y-533.383
X-329.927 Y-535.031
X-330.124 Y-536.682
X-330.298 Y-538.336
X-330.45 Y-539.992
X-330.579 Y-541.65
X-330.685 Y-543.309
X-330.768 Y-544.97
X-330.828 Y-546.631
X-330.866 Y-548.294
