%
(1001)
(origin stock top)
(T1  D=21 CR=0 - ZMIN=-12 - flat end mill)
G90 G94
G17
G21

(top_left)
M9
T1 M6
S6500 M3
G54
G0 X-207.684 Y-219.642
Z15
Z5
Z2.55
G3 X-212.794 Y-200.358 Z-0.744 I-2.555 J9.642 F333.3
X-207.684 Y-219.642 Z-4.037 I2.555 J-9.642
X-212.794 Y-200.358 Z-7.331 I-2.555 J9.642
X-207.684 Y-219.642 Z-10.625 I2.555 J-9.642
X-200.264 Y-210 Z-12 I-2.555 J9.642
X-220.214 I-9.975
X-200.264 I9.975
G1 X-200.262 Y-209.584 F850
X-200.234 Y-209.17
X-200.179 Y-208.758
X-199.855 Y-207.127
X-199.781 Y-206.895
X-199.716 Y-206.635
X-199.662 Y-206.347
X-199.624 Y-206.033
X-199.603 Y-205.692
Y-205.325
X-199.628 Y-204.935
X-199.68 Y-204.523
X-199.761 Y-204.091
X-199.875 Y-203.642
X-200.024 Y-203.179
X-200.209 Y-202.704
X-200.433 Y-202.221
X-200.696 Y-201.733
X-201 Y-201.245
X-201.346 Y-200.76
X-201.733 Y-200.282
X-202.162 Y-199.815
X-202.632 Y-199.364
X-203.141 Y-198.931
X-203.689 Y-198.521
X-204.273 Y-198.137
X-204.892 Y-197.784
X-205.543 Y-197.464
X-206.224 Y-197.18
X-206.931 Y-196.935
X-207.663 Y-196.731
X-208.414 Y-196.571
X-209.183 Y-196.456
X-209.965 Y-196.389
X-210.757 Y-196.369
X-211.555 Y-196.399
X-212.355 Y-196.479
X-213.155 Y-196.609
X-213.949 Y-196.789
X-214.735 Y-197.019
X-215.51 Y-197.298
X-216.268 Y-197.626
X-217.008 Y-198.002
X-217.726 Y-198.425
X-218.418 Y-198.892
X-219.082 Y-199.402
X-219.715 Y-199.954
X-220.314 Y-200.546
X-220.876 Y-201.174
X-221.4 Y-201.837
X-221.882 Y-202.533
X-222.321 Y-203.257
X-222.714 Y-204.009
X-223.061 Y-204.784
X-223.36 Y-205.58
X-223.609 Y-206.394
X-223.808 Y-207.222
X-223.955 Y-208.061
X-224.05 Y-208.908
X-224.093 Y-209.761
X-224.083 Y-210.614
X-224.02 Y-211.466
X-223.904 Y-212.312
X-223.737 Y-213.15
X-223.518 Y-213.977
X-223.248 Y-214.788
X-222.929 Y-215.582
X-222.561 Y-216.354
X-222.146 Y-217.103
X-221.685 Y-217.824
X-221.181 Y-218.516
X-220.635 Y-219.175
X-220.049 Y-219.799
X-219.426 Y-220.387
X-218.767 Y-220.934
X-218.076 Y-221.44
X-217.355 Y-221.902
X-216.607 Y-222.319
X-215.834 Y-222.689
X-215.04 Y-223.01
X-214.227 Y-223.282
X-213.399 Y-223.503
X-212.559 Y-223.672
X-211.711 Y-223.79
X-210.856 Y-223.854
X-209.999 Y-223.866
X-209.143 Y-223.825
X-208.292 Y-223.731
X-207.447 Y-223.585
X-206.614 Y-223.386
X-205.794 Y-223.137
X-204.991 Y-222.837
X-204.208 Y-222.489
X-203.448 Y-222.092
X-202.714 Y-221.65
X-202.009 Y-221.163
X-201.335 Y-220.633
X-200.695 Y-220.063
X-200.092 Y-219.454
X-199.527 Y-218.809
X-199.004 Y-218.131
X-198.523 Y-217.421
X-198.087 Y-216.683
X-197.331 Y-215.202
X-196.661 Y-213.699
X-196.192 Y-212.445
X-195.848 Y-211.316
X-195.598 Y-210.264
X-195.425 Y-209.27
X-195.318 Y-208.306
X-195.273 Y-207.365
X-195.285 Y-206.445
X-195.353 Y-205.545
X-195.475 Y-204.661
X-195.65 Y-203.793
X-195.877 Y-202.939
X-196.157 Y-202.101
X-196.489 Y-201.28
X-196.873 Y-200.477
X-197.308 Y-199.695
X-197.794 Y-198.936
X-198.33 Y-198.203
X-198.916 Y-197.499
X-199.55 Y-196.825
X-200.231 Y-196.185
X-200.958 Y-195.583
X-201.729 Y-195.02
X-202.541 Y-194.501
X-203.393 Y-194.029
X-204.28 Y-193.605
X-205.201 Y-193.235
X-206.151 Y-192.918
X-207.127 Y-192.659
X-208.125 Y-192.459
X-209.142 Y-192.321
X-210.172 Y-192.244
X-211.211 Y-192.231
X-212.255 Y-192.283
X-213.3 Y-192.4
X-214.341 Y-192.583
X-215.375 Y-192.83
X-216.396 Y-193.142
X-217.4 Y-193.519
X-218.383 Y-193.958
X-219.34 Y-194.46
X-220.268 Y-195.021
X-221.163 Y-195.641
X-222.02 Y-196.317
X-222.836 Y-197.046
X-223.607 Y-197.827
X-224.33 Y-198.655
X-225.002 Y-199.528
X-225.62 Y-200.443
X-226.182 Y-201.396
X-226.684 Y-202.384
X-227.125 Y-203.402
X-227.502 Y-204.447
X-227.815 Y-205.514
X-228.061 Y-206.599
X-228.24 Y-207.699
X-228.351 Y-208.809
X-228.393 Y-209.924
X-228.366 Y-211.041
X-228.27 Y-212.154
X-228.106 Y-213.26
X-227.873 Y-214.355
X-227.573 Y-215.433
X-227.207 Y-216.491
X-226.776 Y-217.525
X-226.282 Y-218.531
X-225.726 Y-219.504
X-225.112 Y-220.442
X-224.44 Y-221.34
X-223.714 Y-222.195
X-222.937 Y-223.004
X-222.11 Y-223.763
X-221.239 Y-224.47
X-220.325 Y-225.121
X-219.373 Y-225.715
X-218.385 Y-226.25
X-217.367 Y-226.722
X-216.321 Y-227.13
X-215.252 Y-227.474
X-214.163 Y-227.75
X-213.06 Y-227.959
X-211.946 Y-228.099
X-210.825 Y-228.17
X-209.702 Y-228.171
X-208.581 Y-228.104
X-207.466 Y-227.967
X-206.361 Y-227.761
X-205.272 Y-227.488
X-204.201 Y-227.148
X-203.153 Y-226.742
X-202.133 Y-226.273
X-201.143 Y-225.741
X-200.188 Y-225.149
X-199.272 Y-224.5
X-198.397 Y-223.795
X-197.475 Y-222.952
X-196.53 Y-221.976
X-195.63 Y-220.921
X-194.777 Y-219.789
X-193.993 Y-218.6
X-193.29 Y-217.377
X-192.675 Y-216.135
X-192.15 Y-214.885
X-191.712 Y-213.63
X-191.359 Y-212.376
X-191.088 Y-211.123
X-190.899 Y-209.873
X-190.788 Y-208.63
X-190.754 Y-207.396
X-190.797 Y-206.174
X-190.914 Y-204.966
X-191.104 Y-203.775
X-191.367 Y-202.602
X-191.7 Y-201.451
X-192.104 Y-200.324
X-192.576 Y-199.225
X-193.116 Y-198.155
X-193.722 Y-197.118
X-194.394 Y-196.118
X-195.129 Y-195.157
X-195.925 Y-194.239
X-196.782 Y-193.367
X-197.695 Y-192.545
X-198.664 Y-191.777
X-199.684 Y-191.066
X-200.752 Y-190.415
X-201.866 Y-189.828
X-203.021 Y-189.307
X-204.213 Y-188.856
X-205.437 Y-188.478
X-206.69 Y-188.174
X-207.967 Y-187.946
X-209.262 Y-187.798
X-210.57 Y-187.729
X-211.887 Y-187.741
X-213.206 Y-187.835
X-214.523 Y-188.011
X-215.831 Y-188.269
X-217.127 Y-188.609
X-218.404 Y-189.029
X-219.657 Y-189.53
X-220.881 Y-190.109
X-222.071 Y-190.765
X-223.221 Y-191.495
X-224.327 Y-192.297
X-225.384 Y-193.168
X-226.388 Y-194.105
X-227.335 Y-195.105
X-228.219 Y-196.163
X-229.039 Y-197.276
X-229.789 Y-198.44
X-230.467 Y-199.65
X-231.07 Y-200.901
X-231.595 Y-202.189
X-232.04 Y-203.509
X-232.404 Y-204.855
X-232.683 Y-206.223
X-232.878 Y-207.607
X-232.987 Y-209.001
X-233.01 Y-210.4
X-232.946 Y-211.799
X-232.796 Y-213.193
X-232.56 Y-214.575
X-232.239 Y-215.941
X-231.834 Y-217.285
X-231.347 Y-218.602
X-230.778 Y-219.887
X-230.132 Y-221.135
X-229.409 Y-222.341
X-228.613 Y-223.5
X-227.746 Y-224.609
X-226.813 Y-225.661
X-225.816 Y-226.655
X-224.759 Y-227.585
X-223.647 Y-228.448
X-222.483 Y-229.241
X-221.273 Y-229.96
X-220.02 Y-230.604
X-218.73 Y-231.169
X-217.407 Y-231.653
X-216.057 Y-232.055
X-214.684 Y-232.372
X-213.294 Y-232.604
X-211.893 Y-232.75
X-210.485 Y-232.809
X-209.076 Y-232.781
X-207.671 Y-232.666
X-206.277 Y-232.464
X-204.897 Y-232.177
X-203.537 Y-231.805
X-202.203 Y-231.349
X-200.898 Y-230.812
X-199.611 Y-230.185
X-198.33 Y-229.462
X-197.066 Y-228.64
X-195.826 Y-227.721
X-194.621 Y-226.706
X-193.464 Y-225.603
X-192.368 Y-224.42
X-191.342 Y-223.165
X-190.395 Y-221.849
X-189.533 Y-220.48
X-188.76 Y-219.067
X-188.081 Y-217.617
X-187.496 Y-216.137
X-187.007 Y-214.634
X-186.614 Y-213.116
X-186.319 Y-211.586
X-186.119 Y-210.052
X-186.016 Y-208.517
X-186.007 Y-206.988
X-186.093 Y-205.468
X-186.271 Y-203.963
X-186.541 Y-202.476
X-186.902 Y-201.011
X-187.352 Y-199.574
X-187.89 Y-198.169
X-188.513 Y-196.799
X-189.221 Y-195.468
X-190.01 Y-194.183
X-190.88 Y-192.945
X-191.827 Y-191.761
X-192.848 Y-190.633
X-193.941 Y-189.568
X-195.102 Y-188.567
X-196.327 Y-187.637
X-197.613 Y-186.781
X-198.956 Y-186.002
X-200.35 Y-185.305
X-201.79 Y-184.692
X-203.273 Y-184.168
X-204.791 Y-183.734
X-206.341 Y-183.393
X-207.915 Y-183.147
X-209.507 Y-182.999
X-211.113 Y-182.949
X-212.724 Y-182.998
X-214.335 Y-183.147
X-215.94 Y-183.397
X-217.532 Y-183.746
X-219.105 Y-184.195
X-220.651 Y-184.742
X-222.166 Y-185.385
X-223.642 Y-186.122
X-225.073 Y-186.951
X-226.454 Y-187.87
X-227.779 Y-188.875
X-229.04 Y-189.959
X-230.231 Y-191.119
X-231.348 Y-192.35
X-232.388 Y-193.648
X-233.347 Y-195.006
X-234.221 Y-196.421
X-235.007 Y-197.886
X-235.702 Y-199.397
X-236.304 Y-200.947
X-236.81 Y-202.53
X-237.22 Y-204.142
X-237.531 Y-205.775
X-237.742 Y-207.425
X-237.853 Y-209.084
X-237.863 Y-210.746
X-237.773 Y-212.407
X-237.582 Y-214.059
X-237.292 Y-215.696
X-236.904 Y-217.313
X-236.419 Y-218.903
X-235.838 Y-220.461
X-235.165 Y-221.981
X-234.401 Y-223.458
X-233.55 Y-224.887
X-232.614 Y-226.261
X-231.597 Y-227.577
X-230.503 Y-228.829
X-229.335 Y-230.013
X-228.099 Y-231.124
X-226.798 Y-232.16
X-225.437 Y-233.115
X-224.021 Y-233.987
X-222.555 Y-234.772
X-221.045 Y-235.467
X-219.496 Y-236.071
X-217.913 Y-236.58
X-216.302 Y-236.994
X-214.67 Y-237.31
X-213.021 Y-237.527
X-211.363 Y-237.646
X-209.7 Y-237.664
X-208.039 Y-237.582
X-206.387 Y-237.401
X-204.748 Y-237.122
X-203.128 Y-236.744
X-201.534 Y-236.271
X-199.971 Y-235.704
X-198.444 Y-235.046
X-196.958 Y-234.301
X-195.517 Y-233.47
X-194.126 Y-232.56
X-192.787 Y-231.573
X-191.505 Y-230.515
X-190.282 Y-229.388
X-189.122 Y-228.197
X-188.029 Y-226.944
X-187.007 Y-225.632
X-186.057 Y-224.267
X-185.184 Y-222.853
X-184.387 Y-221.393
X-183.671 Y-219.893
X-183.037 Y-218.355
X-182.487 Y-216.786
X-182.024 Y-215.189
X-181.65 Y-213.569
X-181.368 Y-211.93
X-181.177 Y-210.279
X-181.079 Y-208.619
X-181.073 Y-206.956
X-181.161 Y-205.296
X-181.341 Y-203.643
X-181.614 Y-202.002
X-181.978 Y-200.38
X-182.432 Y-198.781
X-182.976 Y-197.209
X-183.608 Y-195.672
X-184.327 Y-194.172
X-185.13 Y-192.716
X-186.014 Y-191.308
X-186.977 Y-189.952
X-188.014 Y-188.653
X-189.122 Y-187.413
X-190.298 Y-186.237
X-191.537 Y-185.128
X-192.836 Y-184.09
X-194.19 Y-183.125
X-195.596 Y-182.237
X-197.049 Y-181.43
X-198.545 Y-180.704
X-200.079 Y-180.061
X-201.645 Y-179.504
X-203.24 Y-179.031
X-204.857 Y-178.646
X-206.493 Y-178.348
X-208.142 Y-178.14
X-209.801 Y-178.022
X-211.464 Y-177.994
X-213.125 Y-178.056
X-214.781 Y-178.206
X-216.427 Y-178.442
X-218.058 Y-178.765
X-219.67 Y-179.175
X-221.257 Y-179.671
X-222.815 Y-180.25
X-224.341 Y-180.911
X-225.83 Y-181.65
X-227.28 Y-182.465
X-228.684 Y-183.355
X-230.039 Y-184.319
X-231.342 Y-185.352
X-232.589 Y-186.452
X-233.777 Y-187.615
X-234.904 Y-188.837
X-235.968 Y-190.116
X-236.962 Y-191.448
X-237.886 Y-192.831
X-238.736 Y-194.26
X-239.511 Y-195.731
X-240.211 Y-197.239
X-240.833 Y-198.781
X-241.375 Y-200.353
X-241.834 Y-201.951
X-242.21 Y-203.571
X-242.501 Y-205.208
X-242.709 Y-206.858
X-242.833 Y-208.516
X-242.873 Y-210.178
X-242.827 Y-211.84
X-242.695 Y-213.498
X-242.477 Y-215.146
X-242.175 Y-216.781
X-241.792 Y-218.399
X-241.327 Y-219.996
X-240.781 Y-221.566
X-240.155 Y-223.107
X-239.45 Y-224.613
X-238.669 Y-226.08
X-237.814 Y-227.507
X-236.889 Y-228.888
X-235.895 Y-230.222
X-234.835 Y-231.502
X-233.709 Y-232.726
X-232.522 Y-233.89
X-231.277 Y-234.993
X-229.979 Y-236.031
X-228.63 Y-237.003
X-227.233 Y-237.906
X-225.792 Y-238.735
X-224.31 Y-239.488
X-222.791 Y-240.165
X-221.24 Y-240.765
X-219.661 Y-241.286
X-218.058 Y-241.727
X-216.434 Y-242.085
X-214.794 Y-242.358
X-213.142 Y-242.547
X-211.482 Y-242.653
X-209.82 Y-242.674
X-208.158 Y-242.613
X-206.502 Y-242.467
X-204.855 Y-242.237
X-203.222 Y-241.922
X-201.608 Y-241.526
X-200.015 Y-241.049
X-198.447 Y-240.495
X-196.909 Y-239.864
X-195.403 Y-239.158
X-193.934 Y-238.379
X-192.505 Y-237.529
X-191.118 Y-236.612
X-189.777 Y-235.629
X-188.483 Y-234.584
X-187.24 Y-233.48
X-186.05 Y-232.319
X-184.918 Y-231.102
X-183.844 Y-229.832
X-182.831 Y-228.513
X-181.881 Y-227.148
X-180.995 Y-225.741
X-180.175 Y-224.295
X-179.423 Y-222.812
X-178.743 Y-221.295
X-178.135 Y-219.747
X-177.602 Y-218.172
X-177.143 Y-216.574
X-176.76 Y-214.956
X-176.453 Y-213.322
X-176.224 Y-211.675
X-176.074 Y-210.019
X-176.005 Y-208.357
X-176.014 Y-206.695
X-176.103 Y-205.034
X-176.27 Y-203.38
X-176.516 Y-201.735
X-176.839 Y-200.105
X-177.243 Y-198.491
X-177.724 Y-196.9
X-178.281 Y-195.333
X-178.913 Y-193.795
X-179.617 Y-192.289
X-180.393 Y-190.818
X-181.238 Y-189.386
X-182.153 Y-187.998
X-183.133 Y-186.655
X-184.177 Y-185.36
X-185.28 Y-184.117
X-186.441 Y-182.926
X-187.657 Y-181.792
X-188.927 Y-180.718
X-190.246 Y-179.706
X-191.613 Y-178.759
X-193.023 Y-177.878
X-194.473 Y-177.064
X-195.959 Y-176.318
X-197.478 Y-175.642
X-199.027 Y-175.038
X-200.603 Y-174.509
X-202.203 Y-174.055
X-203.822 Y-173.676
X-205.457 Y-173.372
X-207.104 Y-173.144
X-208.759 Y-172.992
X-210.42 Y-172.916
X-212.083 Y-172.918
X-213.744 Y-172.998
X-215.4 Y-173.153
X-217.046 Y-173.385
X-218.68 Y-173.69
X-220.299 Y-174.07
X-221.899 Y-174.523
X-223.477 Y-175.049
X-225.028 Y-175.646
X-226.551 Y-176.314
X-228.042 Y-177.05
X-229.499 Y-177.852
X-230.918 Y-178.719
X-232.296 Y-179.648
X-233.632 Y-180.639
X-234.92 Y-181.69
X-236.16 Y-182.798
X-237.349 Y-183.96
X-238.486 Y-185.174
X-239.567 Y-186.437
X-240.591 Y-187.747
X-241.555 Y-189.102
X-242.457 Y-190.499
X-243.295 Y-191.935
X-244.069 Y-193.406
X-244.776 Y-194.911
X-245.417 Y-196.446
X-245.989 Y-198.007
X-246.491 Y-199.592
X-246.922 Y-201.198
X-247.28 Y-202.822
X-247.566 Y-204.46
X-247.779 Y-206.109
X-247.919 Y-207.766
X-247.987 Y-209.427
X-247.981 Y-211.09
X-247.901 Y-212.75
X-247.746 Y-214.406
X-247.519 Y-216.053
X-247.219 Y-217.689
X-246.847 Y-219.309
X-246.405 Y-220.912
X-245.893 Y-222.494
X-245.311 Y-224.052
X-244.661 Y-225.582
X-243.943 Y-227.082
X-243.159 Y-228.548
X-242.312 Y-229.979
X-241.404 Y-231.372
X-240.435 Y-232.723
X-239.408 Y-234.031
X-238.323 Y-235.291
X-237.184 Y-236.502
X-235.992 Y-237.662
X-234.751 Y-238.768
X-233.462 Y-239.819
X-232.129 Y-240.812
X-230.754 Y-241.747
X-229.338 Y-242.619
X-227.885 Y-243.427
X-226.398 Y-244.171
X-224.879 Y-244.848
X-223.333 Y-245.459
X-221.761 Y-246.001
X-220.167 Y-246.475
X-218.554 Y-246.877
X-216.924 Y-247.207
X-215.281 Y-247.465
X-213.629 Y-247.65
X-211.97 Y-247.763
X-210.308 Y-247.804
X-208.645 Y-247.773
X-206.986 Y-247.668
X-205.333 Y-247.491
X-203.689 Y-247.24
X-202.057 Y-246.918
X-200.442 Y-246.526
X-198.844 Y-246.065
X-197.267 Y-245.537
X-195.715 Y-244.942
X-194.189 Y-244.281
X-192.693 Y-243.555
X-191.23 Y-242.765
X-189.801 Y-241.915
X-188.408 Y-241.006
X-187.055 Y-240.04
X-185.743 Y-239.02
X-184.473 Y-237.946
X-183.25 Y-236.819
X-182.075 Y-235.643
X-180.949 Y-234.419
X-179.876 Y-233.15
X-178.854 Y-231.837
X-177.887 Y-230.485
X-176.976 Y-229.094
X-176.122 Y-227.667
X-175.328 Y-226.206
X-174.595 Y-224.714
X-173.925 Y-223.192
X-173.318 Y-221.644
X-172.775 Y-220.072
X-172.297 Y-218.48
X-171.884 Y-216.869
X-171.537 Y-215.243
X-171.259 Y-213.604
X-171.05 Y-211.954
X-170.91 Y-210.297
X-170.839 Y-208.636
X-170.836 Y-206.973
X-170.902 Y-205.312
X-171.035 Y-203.654
X-171.238 Y-202.004
X-171.511 Y-200.364
X-171.853 Y-198.737
X-172.262 Y-197.125
X-172.739 Y-195.532
X-173.281 Y-193.96
X-173.888 Y-192.412
X-174.558 Y-190.89
X-175.292 Y-189.398
X-176.088 Y-187.939
X-176.945 Y-186.514
X-177.861 Y-185.126
X-178.834 Y-183.778
X-179.861 Y-182.47
X-180.941 Y-181.206
X-182.073 Y-179.988
X-183.255 Y-178.818
X-184.485 Y-177.7
X-185.761 Y-176.633
X-187.08 Y-175.621
X-188.439 Y-174.663
X-189.836 Y-173.762
X-191.269 Y-172.918
X-192.735 Y-172.134
X-194.233 Y-171.411
X-195.759 Y-170.751
X-197.311 Y-170.155
X-198.886 Y-169.623
X-200.482 Y-169.155
X-202.095 Y-168.751
X-203.723 Y-168.413
X-205.363 Y-168.141
X-207.013 Y-167.937
X-208.671 Y-167.8
X-210.332 Y-167.731
X-211.995 Y-167.729
X-213.656 Y-167.794
X-215.314 Y-167.925
X-216.965 Y-168.121
X-218.607 Y-168.383
X-220.237 Y-168.712
X-221.852 Y-169.106
X-223.45 Y-169.565
X-225.029 Y-170.087
X-226.586 Y-170.672
X-228.118 Y-171.317
X-229.624 Y-172.022
X-231.101 Y-172.786
X-232.546 Y-173.608
X-233.957 Y-174.487
X-235.332 Y-175.423
X-236.669 Y-176.411
X-237.966 Y-177.452
X-239.221 Y-178.543
X-240.433 Y-179.681
X-241.599 Y-180.866
X-242.718 Y-182.096
X-243.787 Y-183.37
X-244.804 Y-184.685
X-245.77 Y-186.039
X-246.681 Y-187.429
X-247.538 Y-188.855
X-248.339 Y-190.312
X-249.083 Y-191.799
X-249.768 Y-193.314
X-250.392 Y-194.855
X-250.956 Y-196.419
X-251.457 Y-198.004
X-251.897 Y-199.608
X-252.274 Y-201.228
X-252.588 Y-202.86
X-252.839 Y-204.504
X-253.026 Y-206.156
X-253.148 Y-207.814
X-253.205 Y-209.476
X-253.196 Y-211.139
X-253.123 Y-212.8
X-252.986 Y-214.457
X-252.785 Y-216.108
X-252.521 Y-217.749
X-252.194 Y-219.38
X-251.803 Y-220.996
X-251.349 Y-222.595
X-250.832 Y-224.176
X-250.255 Y-225.735
X-249.618 Y-227.271
X-248.922 Y-228.781
X-248.169 Y-230.264
X-247.36 Y-231.716
X-246.495 Y-233.136
X-245.574 Y-234.521
X-244.6 Y-235.869
X-243.575 Y-237.177
X-242.5 Y-238.446
X-241.377 Y-239.672
X-240.207 Y-240.854
X-238.994 Y-241.991
X-237.737 Y-243.08
X-236.439 Y-244.118
X-235.101 Y-245.105
X-233.725 Y-246.04
X-232.315 Y-246.92
X-230.872 Y-247.746
X-229.398 Y-248.516
X-227.896 Y-249.229
X-226.367 Y-249.884
X-224.814 Y-250.478
X-223.239 Y-251.011
X-221.645 Y-251.482
X-220.033 Y-251.892
X-218.407 Y-252.239
X-216.769 Y-252.524
X-215.121 Y-252.746
X-213.466 Y-252.905
X-211.806 Y-252.999
X-210.143 Y-253.028
X-208.481 Y-252.993
X-206.821 Y-252.894
X-205.166 Y-252.731
X-203.519 Y-252.506
X-201.881 Y-252.218
X-200.256 Y-251.869
X-198.644 Y-251.459
X-197.05 Y-250.987
X-195.475 Y-250.454
X-193.921 Y-249.862
X-192.391 Y-249.212
X-190.885 Y-248.505
X-189.407 Y-247.744
X-187.958 Y-246.928
X-186.54 Y-246.06
X-185.156 Y-245.139
X-183.807 Y-244.167
X-182.494 Y-243.146
X-181.221 Y-242.077
X-179.987 Y-240.962
X-178.795 Y-239.803
X-177.646 Y-238.601
X-176.541 Y-237.359
X-175.481 Y-236.078
X-174.47 Y-234.758
X-173.507 Y-233.402
X-172.595 Y-232.012
X-171.735 Y-230.589
X-170.927 Y-229.136
X-170.172 Y-227.654
X-169.47 Y-226.147
X-168.824 Y-224.615
X-168.234 Y-223.06
X-167.701 Y-221.485
X-167.227 Y-219.891
X-166.812 Y-218.281
X-166.457 Y-216.657
X-166.16 Y-215.021
X-165.924 Y-213.375
X-165.747 Y-211.722
X-165.63 Y-210.063
X-165.574 Y-208.401
X-165.581 Y-206.738
X-165.649 Y-205.077
X-165.778 Y-203.419
X-165.968 Y-201.767
X-166.219 Y-200.124
X-166.529 Y-198.49
X-166.899 Y-196.869
X-167.328 Y-195.263
X-167.817 Y-193.673
X-168.365 Y-192.103
X-168.971 Y-190.555
X-169.633 Y-189.03
X-170.352 Y-187.53
X-171.124 Y-186.058
X-171.95 Y-184.615
X-172.828 Y-183.203
X-173.757 Y-181.824
X-174.737 Y-180.481
X-175.767 Y-179.175
X-176.844 Y-177.908
X-177.966 Y-176.682
X-179.133 Y-175.497
X-180.343 Y-174.356
X-181.592 Y-173.259
X-182.881 Y-172.209
X-184.208 Y-171.206
X-185.571 Y-170.253
X-186.967 Y-169.351
X-188.396 Y-168.501
X-189.855 Y-167.703
X-191.342 Y-166.959
X-192.855 Y-166.268
X-194.391 Y-165.633
X-195.949 Y-165.053
X-197.528 Y-164.531
X-199.124 Y-164.066
X-200.737 Y-163.66
X-202.363 Y-163.312
X-204 Y-163.023
X-205.647 Y-162.792
X-207.301 Y-162.621
X-208.96 Y-162.508
X-210.622 Y-162.454
X-212.284 Y-162.461
X-213.946 Y-162.528
X-215.604 Y-162.654
X-217.256 Y-162.839
X-218.901 Y-163.083
X-220.536 Y-163.385
X-222.159 Y-163.744
X-223.769 Y-164.16
X-225.363 Y-164.633
X-226.939 Y-165.163
X-228.496 Y-165.748
X-230.03 Y-166.388
X-231.541 Y-167.082
X-233.027 Y-167.829
X-234.485 Y-168.628
X-235.915 Y-169.477
X-237.314 Y-170.375
X-238.681 Y-171.322
X-240.013 Y-172.317
X-241.31 Y-173.358
X-242.569 Y-174.444
X-243.789 Y-175.573
X-244.969 Y-176.745
X-246.108 Y-177.957
X-247.204 Y-179.207
X-248.255 Y-180.495
X-249.262 Y-181.819
X-250.221 Y-183.177
X-251.131 Y-184.568
X-251.993 Y-185.99
X-252.805 Y-187.442
X-253.565 Y-188.92
X-254.274 Y-190.424
X-254.931 Y-191.952
X-255.534 Y-193.501
X-256.084 Y-195.07
X-256.578 Y-196.658
X-257.016 Y-198.262
X-257.399 Y-199.88
X-257.724 Y-201.511
X-257.994 Y-203.152
X-258.206 Y-204.801
X-258.362 Y-206.456
X-258.46 Y-208.116
X-258.502 Y-209.778
X-258.485 Y-211.441
X-258.41 Y-213.102
X-258.278 Y-214.759
X-258.088 Y-216.411
X-257.842 Y-218.056
X-257.539 Y-219.691
X-257.18 Y-221.314
X-256.765 Y-222.924
X-256.296 Y-224.519
X-255.771 Y-226.097
X-255.191 Y-227.656
X-254.558 Y-229.193
X-253.872 Y-230.708
X-253.135 Y-232.198
X-252.347 Y-233.662
X-251.508 Y-235.098
X-250.622 Y-236.505
X-249.687 Y-237.88
X-248.705 Y-239.222
X-247.677 Y-240.529
X-246.605 Y-241.8
X-245.49 Y-243.033
X-244.332 Y-244.227
X-243.135 Y-245.38
X-241.898 Y-246.492
X-240.625 Y-247.561
X-239.315 Y-248.585
X-237.97 Y-249.564
X-236.593 Y-250.495
X-235.184 Y-251.378
X-233.745 Y-252.212
X-232.279 Y-252.996
X-230.787 Y-253.729
X-229.27 Y-254.411
X-227.731 Y-255.04
X-226.172 Y-255.617
X-224.593 Y-256.138
X-222.997 Y-256.605
X-221.386 Y-257.017
X-219.762 Y-257.373
X-218.126 Y-257.673
X-216.481 Y-257.916
X-214.829 Y-258.104
X-213.172 Y-258.235
X-211.511 Y-258.309
X-209.848 Y-258.326
X-208.186 Y-258.285
X-206.526 Y-258.188
X-204.87 Y-258.034
X-203.221 Y-257.823
X-201.579 Y-257.557
X-199.948 Y-257.236
X-198.328 Y-256.86
X-196.722 Y-256.429
X-195.132 Y-255.944
X-193.559 Y-255.406
X-192.005 Y-254.815
X-190.471 Y-254.171
X-188.96 Y-253.478
X-187.473 Y-252.734
X-186.012 Y-251.941
X-184.577 Y-251.1
X-183.171 Y-250.213
X-181.795 Y-249.279
X-180.451 Y-248.3
X-179.14 Y-247.277
X-177.864 Y-246.212
X-176.623 Y-245.105
X-175.419 Y-243.957
X-174.254 Y-242.772
X-173.128 Y-241.548
X-172.042 Y-240.289
X-170.997 Y-238.995
X-169.996 Y-237.668
X-169.039 Y-236.308
X-168.127 Y-234.918
X-167.262 Y-233.498
X-166.443 Y-232.051
X-165.671 Y-230.578
X-164.948 Y-229.081
X-164.274 Y-227.561
X-163.649 Y-226.02
X-163.075 Y-224.459
X-162.553 Y-222.881
X-162.083 Y-221.286
X-161.667 Y-219.676
X-161.302 Y-218.054
X-160.991 Y-216.42
X-160.734 Y-214.777
X-160.53 Y-213.127
X-160.381 Y-211.471
X-160.285 Y-209.811
X-160.244 Y-208.149
X-160.258 Y-206.486
X-160.328 Y-204.825
X-160.452 Y-203.167
X-160.631 Y-201.514
X-160.864 Y-199.867
X-161.15 Y-198.23
X-161.49 Y-196.602
X-161.884 Y-194.986
X-162.33 Y-193.385
X-162.829 Y-191.799
X-163.381 Y-190.23
X-163.985 Y-188.681
X-164.639 Y-187.152
X-165.343 Y-185.646
X-166.097 Y-184.164
X-166.898 Y-182.707
X-167.747 Y-181.277
X-168.642 Y-179.876
X-169.583 Y-178.505
X-170.569 Y-177.166
X-171.599 Y-175.86
X-172.671 Y-174.59
X-173.784 Y-173.355
X-174.938 Y-172.157
X-176.129 Y-170.997
X-177.358 Y-169.877
X-178.623 Y-168.798
X-179.922 Y-167.76
X-181.255 Y-166.766
X-182.62 Y-165.816
X-184.015 Y-164.912
X-185.439 Y-164.054
X-186.891 Y-163.242
X-188.368 Y-162.478
X-189.868 Y-161.763
X-191.391 Y-161.096
X-192.935 Y-160.478
X-194.498 Y-159.911
X-196.079 Y-159.396
X-197.676 Y-158.932
X-199.287 Y-158.521
X-200.911 Y-158.161
X-202.545 Y-157.855
X-204.188 Y-157.6
X-205.838 Y-157.399
X-207.495 Y-157.25
X-209.155 Y-157.155
X-210.817 Y-157.112
X-212.479 Y-157.124
X-214.141 Y-157.19
X-215.799 Y-157.309
X-217.453 Y-157.481
X-219.101 Y-157.706
X-220.74 Y-157.982
X-222.37 Y-158.311
X-223.989 Y-158.691
X-225.595 Y-159.122
X-227.186 Y-159.604
X-228.761 Y-160.137
X-230.318 Y-160.721
X-231.856 Y-161.353
X-233.373 Y-162.034
X-234.868 Y-162.762
X-236.339 Y-163.538
X-237.785 Y-164.359
X-239.204 Y-165.224
X-240.596 Y-166.135
X-241.958 Y-167.089
X-243.288 Y-168.086
X-244.587 Y-169.124
X-245.852 Y-170.203
X-247.082 Y-171.322
X-248.277 Y-172.478
X-249.435 Y-173.671
X-250.555 Y-174.9
X-251.637 Y-176.163
X-252.678 Y-177.459
X-253.678 Y-178.788
X-254.635 Y-180.147
X-255.549 Y-181.537
X-256.419 Y-182.954
X-257.244 Y-184.397
X-258.023 Y-185.866
X-258.757 Y-187.358
X-259.444 Y-188.872
X-260.083 Y-190.407
X-260.675 Y-191.961
X-261.217 Y-193.533
X-261.71 Y-195.121
X-262.152 Y-196.724
X-262.543 Y-198.34
X-262.885 Y-199.967
X-263.175 Y-201.605
X-263.415 Y-203.25
X-263.604 Y-204.902
X-263.741 Y-206.559
X-263.827 Y-208.22
X-263.861 Y-209.882
X-263.842 Y-211.545
X-263.772 Y-213.206
X-263.649 Y-214.864
X-263.475 Y-216.518
X-263.25 Y-218.165
X-262.975 Y-219.805
X-262.648 Y-221.435
X-262.272 Y-223.055
X-261.845 Y-224.662
X-261.369 Y-226.255
X-260.842 Y-227.832
X-260.267 Y-229.392
X-259.643 Y-230.933
X-258.971 Y-232.455
X-258.253 Y-233.954
X-257.49 Y-235.431
X-256.68 Y-236.884
X-255.827 Y-238.311
X-254.93 Y-239.711
X-253.989 Y-241.082
X-253.006 Y-242.423
X-251.981 Y-243.732
X-250.917 Y-245.01
X-249.813 Y-246.253
X-248.671 Y-247.462
X-247.493 Y-248.635
X-246.279 Y-249.771
X-245.031 Y-250.87
X-243.749 Y-251.929
X-242.435 Y-252.948
X-241.089 Y-253.925
X-239.714 Y-254.859
X-238.31 Y-255.751
X-236.88 Y-256.598
X-235.424 Y-257.401
X-233.944 Y-258.159
X-232.441 Y-258.871
X-230.917 Y-259.536
X-229.374 Y-260.154
X-227.811 Y-260.724
X-226.232 Y-261.244
X-224.638 Y-261.715
X-223.029 Y-262.136
X-221.408 Y-262.507
X-219.777 Y-262.828
X-218.136 Y-263.099
X-216.488 Y-263.319
X-214.834 Y-263.489
X-213.175 Y-263.608
X-211.514 Y-263.675
X-209.851 Y-263.69
X-208.189 Y-263.654
X-206.529 Y-263.566
X-204.872 Y-263.428
X-203.22 Y-263.239
X-201.574 Y-263
X-199.937 Y-262.711
X-198.309 Y-262.372
X-196.692 Y-261.984
X-195.088 Y-261.547
X-193.498 Y-261.061
X-191.923 Y-260.526
X-190.366 Y-259.943
X-188.827 Y-259.314
X-187.307 Y-258.639
X-185.809 Y-257.918
X-184.332 Y-257.154
X-182.88 Y-256.345
X-181.451 Y-255.493
X-180.049 Y-254.599
X-178.675 Y-253.663
X-177.33 Y-252.686
X-176.014 Y-251.669
X-174.73 Y-250.613
X-173.477 Y-249.52
X-172.257 Y-248.39
X-171.071 Y-247.224
X-169.92 Y-246.025
X-168.805 Y-244.791
X-167.727 Y-243.526
X-166.687 Y-242.228
X-165.686 Y-240.901
X-164.725 Y-239.544
X-163.805 Y-238.159
X-162.926 Y-236.747
X-162.089 Y-235.31
X-161.295 Y-233.85
X-160.544 Y-232.366
X-159.836 Y-230.861
X-159.174 Y-229.336
X-158.557 Y-227.792
X-157.986 Y-226.231
X-157.462 Y-224.652
X-156.985 Y-223.059
X-156.556 Y-221.453
X-156.174 Y-219.835
X-155.841 Y-218.206
X-155.555 Y-216.568
X-155.318 Y-214.922
X-155.129 Y-213.27
X-154.989 Y-211.613
X-154.899 Y-209.953
X-154.859 Y-208.291
X-154.868 Y-206.628
X-154.927 Y-204.966
X-155.036 Y-203.307
X-155.193 Y-201.652
X-155.399 Y-200.002
X-155.654 Y-198.359
X-155.958 Y-196.724
X-156.31 Y-195.099
X-156.71 Y-193.485
X-157.159 Y-191.884
X-157.655 Y-190.297
X-158.199 Y-188.726
X-158.789 Y-187.171
X-159.426 Y-185.635
X-160.107 Y-184.118
X-160.833 Y-182.623
X-161.603 Y-181.149
X-162.416 Y-179.698
X-163.272 Y-178.273
X-164.171 Y-176.874
X-165.111 Y-175.502
X-166.091 Y-174.16
X-167.112 Y-172.847
X-168.171 Y-171.565
X-169.267 Y-170.314
X-170.399 Y-169.097
X-171.567 Y-167.913
X-172.769 Y-166.765
X-174.005 Y-165.652
X-175.273 Y-164.577
X-176.573 Y-163.54
X-177.903 Y-162.542
X-179.262 Y-161.584
X-180.649 Y-160.667
X-182.063 Y-159.791
X-183.501 Y-158.957
X-184.963 Y-158.165
X-186.448 Y-157.416
X-187.953 Y-156.711
X-189.479 Y-156.051
X-191.024 Y-155.436
X-192.587 Y-154.867
X-194.165 Y-154.345
X-195.759 Y-153.869
X-197.365 Y-153.44
X-198.983 Y-153.058
X-200.612 Y-152.724
X-202.25 Y-152.436
X-203.895 Y-152.196
X-205.547 Y-152.004
X-207.203 Y-151.86
X-208.863 Y-151.765
X-210.525 Y-151.719
X-212.188 Y-151.722
X-213.85 Y-151.773
X-215.51 Y-151.872
X-217.166 Y-152.018
X-218.818 Y-152.213
X-220.463 Y-152.454
X-222.1 Y-152.743
X-223.729 Y-153.079
X-225.347 Y-153.462
X-226.953 Y-153.892
X-228.546 Y-154.369
X-230.124 Y-154.892
X-231.687 Y-155.46
X-233.233 Y-156.072
X-234.76 Y-156.729
X-236.269 Y-157.428
X-237.757 Y-158.171
X-239.223 Y-158.955
X-240.666 Y-159.781
X-242.084 Y-160.649
X-243.477 Y-161.558
X-244.842 Y-162.506
X-246.181 Y-163.493
X-247.49 Y-164.518
X-248.77 Y-165.58
X-250.018 Y-166.677
X-251.236 Y-167.81
X-252.421 Y-168.976
X-253.572 Y-170.176
X-254.689 Y-171.408
X-255.769 Y-172.672
X-256.813 Y-173.966
X-257.819 Y-175.29
X-258.787 Y-176.642
X-259.716 Y-178.021
X-260.606 Y-179.425
X-261.456 Y-180.855
X-262.265 Y-182.307
X-263.033 Y-183.782
X-263.759 Y-185.278
X-264.442 Y-186.794
X-265.081 Y-188.329
X-265.676 Y-189.882
X-266.227 Y-191.451
X-266.732 Y-193.035
X-267.193 Y-194.632
X-267.608 Y-196.242
X-267.978 Y-197.863
X-268.302 Y-199.494
X-268.581 Y-201.133
X-268.813 Y-202.78
X-268.998 Y-204.432
X-269.136 Y-206.089
X-269.226 Y-207.75
X-269.269 Y-209.412
X-269.265 Y-211.075
X-269.214 Y-212.737
X-269.117 Y-214.396
X-268.972 Y-216.053
X-268.782 Y-217.705
X-268.545 Y-219.351
X-268.262 Y-220.989
X-267.933 Y-222.619
X-267.557 Y-224.239
X-267.135 Y-225.847
X-266.668 Y-227.443
X-266.156 Y-229.025
X-265.6 Y-230.592
X-264.999 Y-232.142
X-264.356 Y-233.675
X-263.67 Y-235.19
X-262.942 Y-236.685
X-262.172 Y-238.159
X-261.361 Y-239.61
X-260.508 Y-241.038
X-259.616 Y-242.441
X-258.684 Y-243.818
X-257.713 Y-245.168
X-256.705 Y-246.49
X-255.66 Y-247.783
X-254.579 Y-249.047
X-253.464 Y-250.28
X-252.315 Y-251.482
X-251.132 Y-252.651
X-249.917 Y-253.785
X-248.669 Y-254.885
X-247.391 Y-255.949
X-246.084 Y-256.976
X-244.748 Y-257.966
X-243.385 Y-258.918
X-241.995 Y-259.831
X-240.581 Y-260.705
X-239.143 Y-261.54
X-237.682 Y-262.334
X-236.199 Y-263.087
X-234.696 Y-263.797
X-233.173 Y-264.464
X-231.631 Y-265.088
X-230.073 Y-265.668
X-228.499 Y-266.204
X-226.911 Y-266.695
X-225.309 Y-267.142
X-223.696 Y-267.544
X-222.072 Y-267.901
X-220.438 Y-268.213
X-218.797 Y-268.478
X-217.149 Y-268.697
X-215.495 Y-268.87
X-213.837 Y-268.995
X-212.176 Y-269.074
X-210.513 Y-269.106
X-208.851 Y-269.092
X-207.189 Y-269.031
X-205.53 Y-268.925
X-203.874 Y-268.773
X-202.223 Y-268.575
X-200.578 Y-268.331
X-198.941 Y-268.041
X-197.312 Y-267.706
X-195.694 Y-267.325
X-194.087 Y-266.899
X-192.492 Y-266.429
X-190.91 Y-265.915
X-189.344 Y-265.357
X-187.793 Y-264.758
X-186.259 Y-264.116
X-184.744 Y-263.432
X-183.247 Y-262.707
X-181.771 Y-261.942
X-180.317 Y-261.136
X-178.885 Y-260.29
X-177.478 Y-259.405
X-176.095 Y-258.482
X-174.737 Y-257.521
X-173.406 Y-256.524
X-172.103 Y-255.492
X-170.828 Y-254.425
X-169.582 Y-253.324
X-168.366 Y-252.19
X-167.181 Y-251.023
X-166.029 Y-249.824
X-164.91 Y-248.595
X-163.824 Y-247.335
X-162.774 Y-246.046
X-161.758 Y-244.73
X-160.779 Y-243.386
X-159.835 Y-242.017
X-158.929 Y-240.623
X-158.06 Y-239.205
X-157.23 Y-237.764
X-156.439 Y-236.302
X-155.687 Y-234.819
X-154.977 Y-233.315
X-154.307 Y-231.793
X-153.679 Y-230.254
X-153.093 Y-228.698
X-152.549 Y-227.126
X-152.048 Y-225.541
X-151.589 Y-223.943
X-151.173 Y-222.333
X-150.8 Y-220.713
X-150.471 Y-219.083
X-150.186 Y-217.445
X-149.947 Y-215.799
X-149.752 Y-214.148
X-149.602 Y-212.492
X-149.497 Y-210.832
X-149.438 Y-209.171
X-149.423 Y-207.508
X-149.452 Y-205.846
X-149.527 Y-204.185
X-149.646 Y-202.526
X-149.809 Y-200.871
X-150.018 Y-199.222
X-150.272 Y-197.578
X-150.57 Y-195.943
X-150.913 Y-194.316
X-151.3 Y-192.699
X-151.731 Y-191.093
X-152.206 Y-189.499
X-152.723 Y-187.919
X-153.282 Y-186.353
X-153.884 Y-184.803
X-154.527 Y-183.269
X-155.211 Y-181.754
X-155.936 Y-180.258
X-156.702 Y-178.782
X-157.509 Y-177.328
X-158.354 Y-175.896
X-159.238 Y-174.488
X-160.16 Y-173.104
X-161.119 Y-171.746
X-162.114 Y-170.414
X-163.145 Y-169.109
X-164.21 Y-167.832
X-165.309 Y-166.584
X-166.441 Y-165.367
X-167.607 Y-164.181
X-168.804 Y-163.027
X-170.032 Y-161.906
X-171.291 Y-160.819
X-172.577 Y-159.766
X-173.892 Y-158.748
X-175.234 Y-157.766
X-176.601 Y-156.82
X-177.994 Y-155.911
X-179.41 Y-155.039
X-180.848 Y-154.206
X-182.309 Y-153.412
X-183.791 Y-152.658
X-185.293 Y-151.944
X-186.814 Y-151.271
X-188.352 Y-150.64
X-189.906 Y-150.049
X-191.475 Y-149.5
X-193.059 Y-148.993
X-194.656 Y-148.528
X-196.264 Y-148.106
X-197.883 Y-147.726
X-199.511 Y-147.39
X-201.148 Y-147.098
X-202.792 Y-146.85
X-204.442 Y-146.646
X-206.097 Y-146.486
X-207.756 Y-146.371
X-209.417 Y-146.299
X-211.08 Y-146.271
X-212.742 Y-146.287
X-214.404 Y-146.347
X-216.064 Y-146.45
X-217.72 Y-146.598
X-219.372 Y-146.789
X-221.018 Y-147.025
X-222.657 Y-147.304
X-224.288 Y-147.626
X-225.91 Y-147.992
X-227.522 Y-148.4
X-229.122 Y-148.85
X-230.711 Y-149.342
X-232.286 Y-149.876
X-233.846 Y-150.45
X-235.391 Y-151.065
X-236.919 Y-151.721
X-238.429 Y-152.417
X-239.92 Y-153.152
X-241.392 Y-153.927
X-242.842 Y-154.74
X-244.271 Y-155.59
X-245.676 Y-156.478
X-247.059 Y-157.403
X-248.416 Y-158.363
X-249.748 Y-159.358
X-251.055 Y-160.387
X-252.333 Y-161.449
X-253.584 Y-162.545
X-254.805 Y-163.674
X-255.996 Y-164.834
X-257.156 Y-166.025
X-258.285 Y-167.246
X-259.381 Y-168.496
X-260.445 Y-169.774
X-261.475 Y-171.08
X-262.471 Y-172.411
X-263.432 Y-173.768
X-264.358 Y-175.149
X-265.247 Y-176.554
X-266.1 Y-177.981
X-266.915 Y-179.431
X-267.691 Y-180.901
X-268.429 Y-182.391
X-269.128 Y-183.9
X-269.788 Y-185.426
X-270.408 Y-186.969
X-270.987 Y-188.527
X-271.527 Y-190.1
X-272.026 Y-191.686
X-272.483 Y-193.285
X-272.899 Y-194.895
X-273.273 Y-196.515
X-273.605 Y-198.144
X-273.894 Y-199.782
X-274.14 Y-201.426
X-274.343 Y-203.077
X-274.504 Y-204.732
X-274.622 Y-206.39
X-274.697 Y-208.051
X-274.729 Y-209.714
X-274.719 Y-211.376
X-274.666 Y-213.038
X-274.57 Y-214.698
X-274.431 Y-216.355
X-274.248 Y-218.008
X-274.023 Y-219.655
X-273.755 Y-221.296
X-273.445 Y-222.93
X-273.092 Y-224.555
X-272.698 Y-226.17
X-272.263 Y-227.775
X-271.786 Y-229.368
X-271.269 Y-230.948
X-270.711 Y-232.514
X-270.113 Y-234.066
X-269.475 Y-235.601
X-268.797 Y-237.12
X-268.08 Y-238.62
X-267.324 Y-240.101
X-266.53 Y-241.562
X-265.699 Y-243.002
X-264.831 Y-244.42
X-263.927 Y-245.816
X-262.988 Y-247.188
X-262.014 Y-248.535
X-261.005 Y-249.857
X-259.963 Y-251.153
X-258.887 Y-252.421
X-257.779 Y-253.66
X-256.639 Y-254.87
X-255.468 Y-256.051
X-254.267 Y-257.201
X-253.037 Y-258.32
X-251.778 Y-259.406
X-250.492 Y-260.46
X-249.179 Y-261.481
X-247.841 Y-262.468
X-246.478 Y-263.42
X-245.091 Y-264.336
X-243.68 Y-265.217
X-242.247 Y-266.06
X-240.793 Y-266.866
X-239.318 Y-267.634
X-237.824 Y-268.364
X-236.312 Y-269.055
X-234.782 Y-269.707
X-233.236 Y-270.32
X-231.676 Y-270.893
X-230.101 Y-271.426
X-228.512 Y-271.918
X-226.912 Y-272.369
X-225.3 Y-272.779
X-223.679 Y-273.147
X-222.048 Y-273.472
X-220.41 Y-273.756
X-218.765 Y-273.997
X-217.114 Y-274.196
X-215.459 Y-274.353
X-213.8 Y-274.468
X-212.139 Y-274.54
X-210.476 Y-274.57
X-208.813 Y-274.557
X-207.152 Y-274.502
X-205.492 Y-274.404
X-203.835 Y-274.263
X-202.182 Y-274.08
X-200.535 Y-273.855
X-198.894 Y-273.588
X-197.26 Y-273.28
X-195.634 Y-272.93
X-194.018 Y-272.539
X-192.412 Y-272.107
X-190.818 Y-271.635
X-189.236 Y-271.123
X-187.668 Y-270.571
X-186.114 Y-269.979
X-184.575 Y-269.348
X-183.053 Y-268.678
X-181.549 Y-267.971
X-180.063 Y-267.225
X-178.596 Y-266.443
X-177.148 Y-265.624
X-175.722 Y-264.769
X-174.318 Y-263.878
X-172.936 Y-262.954
X-171.578 Y-261.995
X-170.244 Y-261.002
X-168.935 Y-259.976
X-167.653 Y-258.917
X-166.398 Y-257.827
X-165.17 Y-256.706
X-163.97 Y-255.555
X-162.799 Y-254.374
X-161.658 Y-253.165
X-160.547 Y-251.927
X-159.468 Y-250.663
X-158.419 Y-249.372
X-157.403 Y-248.056
X-156.42 Y-246.715
X-155.471 Y-245.35
X-154.556 Y-243.961
X-153.676 Y-242.551
X-152.831 Y-241.119
X-152.022 Y-239.666
X-151.249 Y-238.194
X-150.513 Y-236.703
X-149.814 Y-235.194
X-149.152 Y-233.669
X-148.528 Y-232.128
X-147.943 Y-230.571
X-147.396 Y-229.001
X-146.888 Y-227.418
X-146.42 Y-225.822
X-145.992 Y-224.215
X-145.604 Y-222.599
X-145.256 Y-220.973
X-144.949 Y-219.339
X-144.682 Y-217.697
X-144.456 Y-216.05
X-144.271 Y-214.398
X-144.127 Y-212.741
X-144.023 Y-211.082
X-143.962 Y-209.42
X-143.941 Y-207.757
X-143.962 Y-206.095
X-144.025 Y-204.433
X-144.129 Y-202.774
X-144.274 Y-201.117
X-144.46 Y-199.465
X-144.688 Y-197.818
X-144.956 Y-196.177
X-145.265 Y-194.543
X-145.614 Y-192.917
X-146.003 Y-191.301
X-146.433 Y-189.695
X-146.903 Y-188.1
X-147.412 Y-186.517
X-147.961 Y-184.947
X-148.548 Y-183.392
X-149.175 Y-181.851
X-149.839 Y-180.327
X-150.541 Y-178.82
X-151.281 Y-177.331
X-152.057 Y-175.86
X-152.869 Y-174.409
X-153.717 Y-172.979
X-154.6 Y-171.57
X-155.519 Y-170.184
X-156.471 Y-168.821
X-157.457 Y-167.483
X-158.477 Y-166.169
X-159.528 Y-164.881
X-160.612 Y-163.619
X-161.726 Y-162.385
X-162.87 Y-161.179
X-164.044 Y-160.002
X-165.247 Y-158.854
X-166.478 Y-157.735
X-167.736 Y-156.648
X-169.02 Y-155.592
X-170.331 Y-154.569
X-171.666 Y-153.579
X-173.026 Y-152.621
X-174.409 Y-151.698
X-175.814 Y-150.809
X-177.241 Y-149.956
X-178.689 Y-149.137
X-180.156 Y-148.355
X-181.642 Y-147.609
X-183.146 Y-146.899
X-184.666 Y-146.227
X-186.203 Y-145.593
X-187.755 Y-144.996
X-189.322 Y-144.438
X-190.901 Y-143.919
X-192.493 Y-143.439
X-194.097 Y-142.998
X-195.71 Y-142.597
X-197.333 Y-142.235
X-198.964 Y-141.913
X-200.603 Y-141.631
X-202.248 Y-141.39
X-203.899 Y-141.188
X-205.553 Y-141.026
X-207.212 Y-140.906
X-208.873 Y-140.826
X-210.535 Y-140.787
X-212.198 Y-140.788
X-213.86 Y-140.83
X-215.521 Y-140.913
X-217.179 Y-141.035
X-218.834 Y-141.199
X-220.484 Y-141.402
X-222.129 Y-141.645
X-223.767 Y-141.928
X-225.398 Y-142.25
X-227.021 Y-142.613
X-228.635 Y-143.014
X-230.238 Y-143.455
X-231.83 Y-143.935
X-233.41 Y-144.453
X-234.977 Y-145.009
X-236.53 Y-145.603
X-238.068 Y-146.234
X-239.591 Y-146.902
X-241.097 Y-147.607
X-242.586 Y-148.348
X-244.056 Y-149.124
X-245.507 Y-149.936
X-246.938 Y-150.783
X-248.348 Y-151.664
X-249.737 Y-152.579
X-251.103 Y-153.527
X-252.445 Y-154.507
X-253.764 Y-155.52
X-255.058 Y-156.564
X-256.327 Y-157.639
X-257.569 Y-158.744
X-258.785 Y-159.879
X-259.973 Y-161.042
X-261.133 Y-162.233
X-262.264 Y-163.453
X-263.365 Y-164.699
X-264.435 Y-165.971
X-265.475 Y-167.268
X-266.483 Y-168.59
X-267.46 Y-169.936
X-268.404 Y-171.305
X-269.315 Y-172.696
X-270.192 Y-174.108
X-271.036 Y-175.541
X-271.845 Y-176.994
X-272.619 Y-178.466
X-273.357 Y-179.955
X-274.06 Y-181.462
X-274.726 Y-182.986
X-275.356 Y-184.525
X-275.948 Y-186.078
X-276.503 Y-187.646
X-277.021 Y-189.226
X-277.501 Y-190.818
X-277.942 Y-192.421
X-278.346 Y-194.034
X-278.711 Y-195.656
X-279.037 Y-197.287
X-279.324 Y-198.924
X-279.572 Y-200.569
X-279.78 Y-202.218
X-279.949 Y-203.872
X-280.079 Y-205.53
X-280.168 Y-207.19
X-280.218 Y-208.852
X-280.229 Y-210.515
X-280.2 Y-212.178
X-280.131 Y-213.839
X-280.023 Y-215.498
X-279.876 Y-217.154
X-279.689 Y-218.807
X-279.464 Y-220.454
X-279.198 Y-222.095
X-278.894 Y-223.73
X-278.55 Y-225.357
X-278.168 Y-226.975
X-277.748 Y-228.584
X-277.289 Y-230.182
X-276.793 Y-231.769
X-276.258 Y-233.344
X-275.687 Y-234.905
X-275.079 Y-236.453
X-274.434 Y-237.985
X-273.753 Y-239.502
X-273.037 Y-241.003
X-272.284 Y-242.485
X-271.497 Y-243.95
X-270.674 Y-245.395
X-269.818 Y-246.82
X-268.928 Y-248.225
X-268.004 Y-249.607
X-267.049 Y-250.968
X-266.061 Y-252.306
X-265.042 Y-253.619
X-263.992 Y-254.909
X-262.911 Y-256.173
X-261.801 Y-257.411
X-260.662 Y-258.622
X-259.495 Y-259.806
X-258.299 Y-260.961
X-257.076 Y-262.088
X-255.827 Y-263.185
X-254.552 Y-264.253
X-253.252 Y-265.289
X-251.928 Y-266.295
X-250.58 Y-267.269
X-249.21 Y-268.211
X-247.818 Y-269.12
X-246.404 Y-269.996
X-244.971 Y-270.838
X-243.517 Y-271.646
X-242.045 Y-272.419
X-240.555 Y-273.157
X-239.048 Y-273.859
X-237.524 Y-274.524
X-235.985 Y-275.154
X-234.432 Y-275.747
X-232.865 Y-276.303
X-231.285 Y-276.822
X-229.694 Y-277.303
X-228.091 Y-277.747
X-226.479 Y-278.153
X-224.857 Y-278.52
X-223.227 Y-278.849
X-221.59 Y-279.139
X-219.946 Y-279.389
X-218.297 Y-279.601
X-216.643 Y-279.774
X-214.986 Y-279.907
X-213.325 Y-280.002
X-211.664 Y-280.057
X-210.001 Y-280.073
X-208.338 Y-280.05
X-206.677 Y-279.988
X-205.017 Y-279.887
X-203.36 Y-279.747
X-201.707 Y-279.568
X-200.059 Y-279.35
X-198.416 Y-279.093
X-196.78 Y-278.797
X-195.151 Y-278.463
X-193.53 Y-278.091
X-191.919 Y-277.682
X-190.317 Y-277.234
X-188.727 Y-276.75
X-187.148 Y-276.229
X-185.581 Y-275.671
X-184.028 Y-275.077
X-182.489 Y-274.447
X-180.966 Y-273.781
X-179.458 Y-273.08
X-177.967 Y-272.344
X-176.494 Y-271.573
X-175.039 Y-270.768
X-173.603 Y-269.93
X-172.186 Y-269.059
X-170.791 Y-268.156
X-169.416 Y-267.22
X-168.063 Y-266.254
X-166.733 Y-265.256
X-165.426 Y-264.228
X-164.143 Y-263.17
X-162.885 Y-262.083
X-161.652 Y-260.967
X-160.446 Y-259.823
X-159.266 Y-258.651
X-158.114 Y-257.453
X-156.989 Y-256.228
X-155.892 Y-254.978
X-154.825 Y-253.703
X-153.787 Y-252.404
X-152.779 Y-251.082
X-151.801 Y-249.737
X-150.854 Y-248.37
X-149.939 Y-246.982
X-149.056 Y-245.573
X-148.206 Y-244.144
X-147.389 Y-242.696
X-146.606 Y-241.229
X-145.856 Y-239.745
X-145.14 Y-238.244
X-144.459 Y-236.727
X-143.813 Y-235.195
X-143.202 Y-233.649
X-142.626 Y-232.089
X-142.086 Y-230.516
X-141.583 Y-228.932
X-141.115 Y-227.336
X-140.684 Y-225.73
X-140.291 Y-224.114
X-139.935 Y-222.49
X-139.616 Y-220.858
X-139.335 Y-219.219
X-139.092 Y-217.575
X-138.886 Y-215.925
X-138.718 Y-214.27
X-138.588 Y-212.613
X-138.496 Y-210.952
X-138.442 Y-209.291
X-138.426 Y-207.628
X-138.448 Y-205.965
X-138.508 Y-204.304
X-138.607 Y-202.644
X-138.744 Y-200.987
X-138.919 Y-199.333
X-139.133 Y-197.684
X-139.384 Y-196.041
X-139.673 Y-194.403
X-139.999 Y-192.773
X-140.362 Y-191.15
X-140.763 Y-189.536
X-141.201 Y-187.932
X-141.675 Y-186.339
X-142.185 Y-184.756
X-142.732 Y-183.186
X-143.315 Y-181.629
X-143.934 Y-180.085
X-144.589 Y-178.557
X-145.278 Y-177.044
X-146.002 Y-175.547
X-146.761 Y-174.067
X-147.553 Y-172.605
X-148.378 Y-171.162
X-149.236 Y-169.738
X-150.127 Y-168.333
X-151.049 Y-166.95
X-152.003 Y-165.588
X-152.988 Y-164.248
X-154.003 Y-162.932
X-155.049 Y-161.639
X-156.124 Y-160.371
X-157.228 Y-159.127
X-158.361 Y-157.91
X-159.521 Y-156.718
X-160.707 Y-155.554
X-161.921 Y-154.417
X-163.159 Y-153.308
X-164.423 Y-152.227
X-165.711 Y-151.176
X-167.023 Y-150.154
X-168.358 Y-149.162
X-169.715 Y-148.201
X-171.094 Y-147.272
X-172.494 Y-146.375
X-173.914 Y-145.51
X-175.353 Y-144.678
X-176.811 Y-143.878
X-178.287 Y-143.112
X-179.78 Y-142.38
X-181.289 Y-141.682
X-182.813 Y-141.019
X-184.353 Y-140.39
X-185.906 Y-139.796
X-187.472 Y-139.237
X-189.05 Y-138.715
X-190.64 Y-138.228
X-192.241 Y-137.778
X-193.852 Y-137.365
X-195.471 Y-136.988
X-197.099 Y-136.648
X-198.734 Y-136.345
X-200.375 Y-136.079
X-202.022 Y-135.851
X-203.674 Y-135.659
X-205.329 Y-135.505
X-206.988 Y-135.387
X-208.649 Y-135.308
X-210.311 Y-135.266
X-211.974 Y-135.261
X-213.636 Y-135.295
X-215.297 Y-135.366
X-216.957 Y-135.475
X-218.613 Y-135.621
X-220.266 Y-135.804
X-221.914 Y-136.024
X-223.556 Y-136.281
X-225.193 Y-136.575
X-226.823 Y-136.905
X-228.444 Y-137.272
X-230.057 Y-137.675
X-231.661 Y-138.115
X-233.255 Y-138.59
X-234.837 Y-139.101
X-236.407 Y-139.648
X-237.965 Y-140.229
X-239.509 Y-140.846
X-241.039 Y-141.497
X-242.554 Y-142.182
X-244.054 Y-142.9
X-245.537 Y-143.652
X-247.003 Y-144.437
X-248.451 Y-145.254
X-249.88 Y-146.103
X-251.291 Y-146.984
X-252.681 Y-147.896
X-254.05 Y-148.839
X-255.398 Y-149.812
X-256.724 Y-150.816
X-258.027 Y-151.849
X-259.307 Y-152.91
X-260.563 Y-154
X-261.794 Y-155.118
X-263 Y-156.262
X-264.181 Y-157.433
X-265.335 Y-158.63
X-266.462 Y-159.852
X-267.562 Y-161.099
X-268.635 Y-162.37
X-269.678 Y-163.665
X-270.692 Y-164.982
X-271.677 Y-166.322
X-272.631 Y-167.684
X-273.555 Y-169.066
X-274.448 Y-170.468
X-275.31 Y-171.89
X-276.141 Y-173.331
X-276.939 Y-174.79
X-277.704 Y-176.266
X-278.437 Y-177.758
X-279.137 Y-179.266
X-279.803 Y-180.79
X-280.436 Y-182.328
X-281.034 Y-183.879
X-281.597 Y-185.444
X-282.125 Y-187.02
X-282.618 Y-188.608
X-283.076 Y-190.207
X-283.499 Y-191.815
X-283.886 Y-193.432
X-284.237 Y-195.057
X-284.552 Y-196.69
X-284.831 Y-198.329
X-285.074 Y-199.974
X-285.281 Y-201.624
X-285.451 Y-203.278
X-285.585 Y-204.935
X-285.681 Y-206.595
X-285.741 Y-208.257
X-285.764 Y-209.919
X-285.75 Y-211.582
X-285.699 Y-213.244
X-285.612 Y-214.904
X-285.488 Y-216.563
X-285.328 Y-218.218
X-285.132 Y-219.869
X-284.899 Y-221.515
X-284.63 Y-223.156
X-284.325 Y-224.79
X-283.984 Y-226.418
X-283.607 Y-228.037
X-283.194 Y-229.648
X-282.745 Y-231.249
X-282.261 Y-232.84
X-281.743 Y-234.42
X-281.189 Y-235.988
X-280.602 Y-237.543
X-279.98 Y-239.085
X-279.324 Y-240.613
X-278.635 Y-242.127
X-277.913 Y-243.624
X-277.158 Y-245.106
X-276.371 Y-246.571
X-275.552 Y-248.017
X-274.701 Y-249.446
X-273.818 Y-250.855
X-272.905 Y-252.244
X-271.96 Y-253.613
X-270.987 Y-254.961
X-269.983 Y-256.287
X-268.951 Y-257.59
X-267.891 Y-258.871
X-266.802 Y-260.128
X-265.686 Y-261.361
X-264.544 Y-262.569
X-263.375 Y-263.751
X-262.181 Y-264.908
X-260.961 Y-266.038
X-259.716 Y-267.141
X-258.448 Y-268.215
X-257.155 Y-269.262
X-255.841 Y-270.28
X-254.504 Y-271.269
X-253.146 Y-272.228
X-251.767 Y-273.157
X-250.368 Y-274.056
X-248.949 Y-274.923
X-247.512 Y-275.76
X-246.057 Y-276.564
X-244.585 Y-277.337
X-243.096 Y-278.077
X-241.591 Y-278.784
X-240.07 Y-279.457
X-238.535 Y-280.096
X-236.987 Y-280.702
X-235.425 Y-281.274
X-233.852 Y-281.811
X-232.267 Y-282.313
X-230.671 Y-282.781
X-229.066 Y-283.213
X-227.451 Y-283.61
X-225.828 Y-283.972
X-224.198 Y-284.298
X-222.561 Y-284.589
X-220.917 Y-284.843
X-219.269 Y-285.061
X-217.616 Y-285.243
X-215.96 Y-285.388
X-214.301 Y-285.497
X-212.639 Y-285.569
X-210.977 Y-285.606
X-209.314
X-207.652 Y-285.57
X-205.991 Y-285.497
X-204.332 Y-285.388
X-202.675 Y-285.244
X-201.022 Y-285.063
X-199.374 Y-284.847
X-197.73 Y-284.594
X-196.093 Y-284.305
X-194.462 Y-283.981
X-192.838 Y-283.621
X-191.223 Y-283.226
X-189.617 Y-282.796
X-188.021 Y-282.332
X-186.434 Y-281.833
X-184.859 Y-281.3
X-183.296 Y-280.733
X-181.746 Y-280.133
X-180.208 Y-279.499
X-178.685 Y-278.832
X-177.177 Y-278.133
X-175.684 Y-277.401
X-174.207 Y-276.637
X-172.747 Y-275.841
X-171.305 Y-275.014
X-169.88 Y-274.156
X-168.475 Y-273.268
X-167.088 Y-272.349
X-165.722 Y-271.402
X-164.376 Y-270.425
X-163.052 Y-269.42
X-161.749 Y-268.387
X-160.469 Y-267.326
X-159.211 Y-266.238
X-157.977 Y-265.124
X-156.768 Y-263.983
X-155.583 Y-262.816
X-154.423 Y-261.625
X-153.289 Y-260.409
X-152.181 Y-259.168
X-151.1 Y-257.905
X-150.047 Y-256.619
X-149.02 Y-255.311
X-148.022 Y-253.981
X-147.052 Y-252.63
X-146.111 Y-251.259
X-145.2 Y-249.869
X-144.318 Y-248.459
X-143.466 Y-247.031
X-142.645 Y-245.585
X-141.856 Y-244.122
X-141.097 Y-242.642
X-140.371 Y-241.146
X-139.677 Y-239.635
X-139.014 Y-238.11
X-138.385 Y-236.571
X-137.788 Y-235.019
X-137.224 Y-233.455
X-136.694 Y-231.879
X-136.197 Y-230.292
X-135.734 Y-228.695
X-135.305 Y-227.089
X-134.91 Y-225.474
X-134.55 Y-223.851
X-134.225 Y-222.22
X-133.935 Y-220.583
X-133.679 Y-218.94
X-133.459 Y-217.291
X-133.274 Y-215.639
X-133.125 Y-213.983
X-133.01 Y-212.324
X-132.931 Y-210.663
X-132.887 Y-209.001
X-132.879 Y-207.338
X-132.906 Y-205.676
X-132.968 Y-204.014
X-133.065 Y-202.354
X-133.199 Y-200.697
X-133.367 Y-199.043
X-133.572 Y-197.393
X-133.811 Y-195.747
X-134.086 Y-194.107
X-134.396 Y-192.474
X-134.74 Y-190.847
X-135.119 Y-189.228
X-135.532 Y-187.617
X-135.979 Y-186.016
X-136.461 Y-184.424
X-136.976 Y-182.844
X-137.525 Y-181.274
X-138.107 Y-179.716
X-138.722 Y-178.172
X-139.371 Y-176.641
X-140.052 Y-175.124
X-140.765 Y-173.622
X-141.511 Y-172.136
X-142.288 Y-170.666
X-143.096 Y-169.213
X-143.935 Y-167.777
X-144.804 Y-166.359
X-145.703 Y-164.961
X-146.632 Y-163.582
X-147.59 Y-162.222
X-148.576 Y-160.884
X-149.591 Y-159.567
X-150.634 Y-158.272
X-151.704 Y-156.999
X-152.802 Y-155.75
X-153.925 Y-154.524
X-155.075 Y-153.323
X-156.25 Y-152.147
X-157.45 Y-150.995
X-158.673 Y-149.87
X-159.921 Y-148.77
X-161.191 Y-147.698
X-162.484 Y-146.652
X-163.799 Y-145.634
X-165.135 Y-144.644
X-166.492 Y-143.683
X-167.869 Y-142.751
X-169.265 Y-141.848
X-170.681 Y-140.976
X-172.114 Y-140.134
X-173.566 Y-139.322
X-175.034 Y-138.542
X-176.518 Y-137.792
X-178.018 Y-137.074
X-179.532 Y-136.388
X-181.061 Y-135.734
X-182.603 Y-135.112
X-184.158 Y-134.523
X-185.725 Y-133.967
X-187.304 Y-133.444
X-188.893 Y-132.955
X-190.492 Y-132.499
X-192.1 Y-132.078
X-193.717 Y-131.691
X-195.342 Y-131.338
X-196.974 Y-131.019
X-198.612 Y-130.735
X-200.256 Y-130.485
X-201.905 Y-130.269
X-203.558 Y-130.088
X-205.214 Y-129.942
X-206.873 Y-129.831
X-208.534 Y-129.754
X-210.196 Y-129.713
X-211.859 Y-129.706
X-213.522 Y-129.734
X-215.183 Y-129.797
X-216.843 Y-129.896
X-218.5 Y-130.029
X-220.155 Y-130.197
X-221.805 Y-130.399
X-223.451 Y-130.636
X-225.091 Y-130.908
X-226.726 Y-131.213
X-228.354 Y-131.552
X-229.974 Y-131.925
X-231.586 Y-132.332
X-233.189 Y-132.772
X-234.783 Y-133.246
X-236.367 Y-133.753
X-237.94 Y-134.293
X-239.5 Y-134.866
X-241.049 Y-135.471
X-242.585 Y-136.109
X-244.107 Y-136.779
X-245.614 Y-137.479
X-247.107 Y-138.212
X-248.585 Y-138.974
X-250.046 Y-139.768
X-251.491 Y-140.591
X-252.918 Y-141.444
X-254.327 Y-142.327
X-255.717 Y-143.239
X-257.089 Y-144.179
X-258.44 Y-145.148
X-259.771 Y-146.145
X-261.081 Y-147.169
X-262.369 Y-148.22
X-263.635 Y-149.298
X-264.878 Y-150.402
X-266.099 Y-151.531
X-267.296 Y-152.686
X-268.469 Y-153.864
X-269.617 Y-155.067
X-270.74 Y-156.293
X-271.837 Y-157.542
X-272.909 Y-158.813
X-273.954 Y-160.107
X-274.972 Y-161.421
X-275.963 Y-162.757
X-276.925 Y-164.113
X-277.859 Y-165.489
X-278.764 Y-166.883
X-279.641 Y-168.296
X-280.488 Y-169.727
X-281.305 Y-171.175
X-282.093 Y-172.639
X-282.85 Y-174.12
X-283.577 Y-175.615
X-284.273 Y-177.125
X-284.937 Y-178.65
X-285.57 Y-180.187
X-286.171 Y-181.737
X-286.74 Y-183.3
X-287.276 Y-184.874
X-287.78 Y-186.458
X-288.251 Y-188.053
X-288.688 Y-189.657
X-289.093 Y-191.27
X-289.464 Y-192.891
X-289.802 Y-194.519
X-290.107 Y-196.153
X-290.378 Y-197.794
X-290.615 Y-199.44
X-290.819 Y-201.09
X-290.988 Y-202.744
X-291.124 Y-204.401
X-291.225 Y-206.061
X-291.292 Y-207.722
X-291.324 Y-209.385
X-291.322 Y-211.047
X-291.286 Y-212.71
X-291.216 Y-214.371
X-291.112 Y-216.031
X-290.973 Y-217.688
X-290.801 Y-219.341
X-290.595 Y-220.991
X-290.355 Y-222.637
X-290.082 Y-224.277
X-289.774 Y-225.911
X-289.434 Y-227.538
X-289.06 Y-229.159
X-288.653 Y-230.771
X-288.212 Y-232.374
X-287.739 Y-233.968
X-287.232 Y-235.552
X-286.694 Y-237.125
X-286.123 Y-238.686
X-285.52 Y-240.236
X-284.886 Y-241.773
X-284.22 Y-243.297
X-283.523 Y-244.807
X-282.796 Y-246.302
X-282.038 Y-247.782
X-281.25 Y-249.246
X-280.432 Y-250.694
X-279.585 Y-252.124
X-278.708 Y-253.537
X-277.802 Y-254.931
X-276.868 Y-256.307
X-275.905 Y-257.663
X-274.915 Y-258.999
X-273.898 Y-260.314
X-272.854 Y-261.608
X-271.784 Y-262.881
X-270.688 Y-264.131
X-269.567 Y-265.359
X-268.421 Y-266.564
X-267.251 Y-267.745
X-266.056 Y-268.902
X-264.838 Y-270.034
X-263.597 Y-271.14
X-262.334 Y-272.221
X-261.048 Y-273.276
X-259.741 Y-274.304
X-258.413 Y-275.305
X-257.065 Y-276.278
X-255.698 Y-277.224
X-254.311 Y-278.141
X-252.906 Y-279.03
X-251.483 Y-279.891
X-250.043 Y-280.722
X-248.586 Y-281.523
X-247.113 Y-282.294
X-245.625 Y-283.035
X-244.121 Y-283.746
X-242.604 Y-284.425
X-241.072 Y-285.073
X-239.528 Y-285.689
X-237.971 Y-286.273
X-236.403 Y-286.826
X-234.823 Y-287.346
X-233.234 Y-287.834
X-231.635 Y-288.289
X-230.027 Y-288.712
X-228.41 Y-289.101
X-226.786 Y-289.458
X-225.155 Y-289.782
X-223.518 Y-290.072
X-221.875 Y-290.329
X-220.227 Y-290.552
X-218.575 Y-290.741
X-216.92 Y-290.896
X-215.262 Y-291.017
X-213.601 Y-291.104
X-211.939 Y-291.158
X-210.277 Y-291.177
X-208.614 Y-291.163
X-206.952 Y-291.115
X-205.291 Y-291.034
X-203.632 Y-290.918
X-201.976 Y-290.77
X-200.323 Y-290.587
X-198.675 Y-290.371
X-197.031 Y-290.122
X-195.392 Y-289.839
X-193.76 Y-289.523
X-192.134 Y-289.174
X-190.516 Y-288.792
X-188.906 Y-288.377
X-187.304 Y-287.929
X-185.712 Y-287.45
X-184.13 Y-286.938
X-182.559 Y-286.395
X-180.998 Y-285.82
X-179.45 Y-285.214
X-177.914 Y-284.577
X-176.391 Y-283.91
X-174.882 Y-283.212
X-173.387 Y-282.483
X-171.908 Y-281.725
X-170.444 Y-280.937
X-168.996 Y-280.119
X-167.565 Y-279.273
X-166.151 Y-278.398
X-164.755 Y-277.495
X-163.377 Y-276.564
X-162.018 Y-275.605
X-160.678 Y-274.62
X-159.359 Y-273.609
X-158.059 Y-272.571
X-156.781 Y-271.508
X-155.524 Y-270.42
X-154.289 Y-269.306
X-153.076 Y-268.169
X-151.887 Y-267.007
X-150.721 Y-265.821
X-149.579 Y-264.613
X-148.462 Y-263.381
X-147.369 Y-262.128
X-146.301 Y-260.853
X-145.259 Y-259.558
X-144.243 Y-258.242
X-143.253 Y-256.906
X-142.289 Y-255.551
X-141.353 Y-254.177
X-140.444 Y-252.784
X-139.563 Y-251.374
X-138.71 Y-249.947
X-137.886 Y-248.503
X-137.091 Y-247.042
X-136.325 Y-245.567
X-135.589 Y-244.076
X-134.882 Y-242.57
X-134.206 Y-241.051
X-133.56 Y-239.519
X-132.944 Y-237.975
X-132.359 Y-236.418
X-131.806 Y-234.85
X-131.283 Y-233.272
X-130.791 Y-231.684
X-130.331 Y-230.086
X-129.903 Y-228.479
X-129.507 Y-226.864
X-129.143 Y-225.242
X-128.812 Y-223.612
X-128.514 Y-221.976
X-128.248 Y-220.335
X-128.015 Y-218.689
X-127.814 Y-217.038
X-127.647 Y-215.384
X-127.512 Y-213.727
X-127.411 Y-212.067
X-127.342 Y-210.406
X-127.306 Y-208.743
X-127.304 Y-207.08
X-127.334 Y-205.418
X-127.397 Y-203.756
X-127.493 Y-202.096
X-127.623 Y-200.439
X-127.785 Y-198.784
X-127.981 Y-197.133
X-128.21 Y-195.486
X-128.471 Y-193.844
X-128.766 Y-192.207
X-129.092 Y-190.577
X-129.452 Y-188.953
X-129.843 Y-187.337
X-130.266 Y-185.729
X-130.721 Y-184.13
X-131.208 Y-182.54
X-131.726 Y-180.96
X-132.276 Y-179.391
X-132.856 Y-177.833
X-133.468 Y-176.287
X-134.111 Y-174.753
X-134.784 Y-173.233
X-135.488 Y-171.726
X-136.221 Y-170.234
X-136.984 Y-168.757
X-137.777 Y-167.295
X-138.598 Y-165.849
X-139.448 Y-164.42
X-140.325 Y-163.008
X-141.231 Y-161.613
X-142.164 Y-160.237
X-143.125 Y-158.88
X-144.112 Y-157.542
X-145.125 Y-156.224
X-146.165 Y-154.926
X-147.23 Y-153.649
X-148.321 Y-152.394
X-149.437 Y-151.161
X-150.576 Y-149.951
X-151.74 Y-148.763
X-152.927 Y-147.599
X-154.137 Y-146.458
X-155.369 Y-145.342
X-156.624 Y-144.25
X-157.899 Y-143.183
X-159.195 Y-142.142
X-160.512 Y-141.127
X-161.848 Y-140.137
X-163.204 Y-139.175
X-164.579 Y-138.239
X-165.972 Y-137.331
X-167.382 Y-136.451
X-168.811 Y-135.6
X-170.255 Y-134.776
X-171.716 Y-133.982
X-173.192 Y-133.217
X-174.683 Y-132.48
X-176.188 Y-131.774
X-177.707 Y-131.097
X-179.239 Y-130.45
X-180.783 Y-129.834
X-182.339 Y-129.247
X-183.906 Y-128.692
X-185.484 Y-128.168
X-187.072 Y-127.675
X-188.669 Y-127.213
X-190.276 Y-126.783
X-191.89 Y-126.386
X-193.512 Y-126.02
X-195.141 Y-125.686
X-196.776 Y-125.384
X-198.417 Y-125.115
X-200.063 Y-124.877
X-201.713 Y-124.672
X-203.366 Y-124.499
X-205.023 Y-124.359
X-206.683 Y-124.251
X-208.344 Y-124.175
X-210.006 Y-124.132
X-211.668 Y-124.122
X-213.331 Y-124.144
X-214.993 Y-124.2
X-216.653 Y-124.288
X-218.312 Y-124.409
X-219.967 Y-124.562
X-221.62 Y-124.747
X-223.268 Y-124.965
X-224.912 Y-125.215
X-226.551 Y-125.496
X-228.184 Y-125.81
X-229.81 Y-126.155
X-231.43 Y-126.532
X-233.042 Y-126.941
X-234.645 Y-127.38
X-236.24 Y-127.851
X-237.825 Y-128.353
X-239.4 Y-128.886
X-240.964 Y-129.45
X-242.517 Y-130.044
X-244.058 Y-130.669
X-245.587 Y-131.323
X-247.102 Y-132.007
X-248.604 Y-132.72
X-250.092 Y-133.463
X-251.565 Y-134.233
X-253.023 Y-135.033
X-254.466 Y-135.86
X-255.892 Y-136.715
X-257.301 Y-137.598
X-258.693 Y-138.508
X-260.067 Y-139.444
X-261.422 Y-140.408
X-262.758 Y-141.397
X-264.075 Y-142.413
X-265.371 Y-143.454
X-266.647 Y-144.52
X-267.903 Y-145.61
X-269.137 Y-146.725
X-270.349 Y-147.863
X-271.539 Y-149.024
X-272.706 Y-150.208
X-273.851 Y-151.414
X-274.972 Y-152.642
X-276.069 Y-153.892
X-277.141 Y-155.162
X-278.189 Y-156.453
X-279.212 Y-157.764
X-280.209 Y-159.095
X-281.179 Y-160.445
X-282.124 Y-161.814
X-283.041 Y-163.2
X-283.932 Y-164.604
X-284.796 Y-166.025
X-285.632 Y-167.463
X-286.44 Y-168.916
X-287.22 Y-170.384
X-287.972 Y-171.867
X-288.695 Y-173.365
X-289.389 Y-174.875
X-290.054 Y-176.399
X-290.69 Y-177.936
X-291.295 Y-179.484
X-291.871 Y-181.044
X-292.416 Y-182.615
X-292.93 Y-184.197
X-293.414 Y-185.787
X-293.867 Y-187.387
X-294.289 Y-188.995
X-294.68 Y-190.612
X-295.04 Y-192.235
X-295.369 Y-193.865
X-295.667 Y-195.501
X-295.933 Y-197.142
X-296.168 Y-198.788
X-296.371 Y-200.438
X-296.542 Y-202.092
X-296.682 Y-203.749
X-296.789 Y-205.408
X-296.864 Y-207.069
X-296.907 Y-208.732
X-296.917 Y-210.394
X-296.896 Y-212.057
X-296.843 Y-213.719
X-296.758 Y-215.379
X-296.641 Y-217.038
X-296.492 Y-218.694
X-296.312 Y-220.347
X-296.1 Y-221.996
X-295.856 Y-223.641
X-295.581 Y-225.281
X-295.275 Y-226.915
X-294.937 Y-228.543
X-294.568 Y-230.165
X-294.168 Y-231.779
X-293.736 Y-233.384
X-293.274 Y-234.981
X-292.781 Y-236.569
X-292.257 Y-238.148
X-291.703 Y-239.715
X-291.12 Y-241.272
X-290.506 Y-242.818
X-289.863 Y-244.351
X-289.191 Y-245.872
X-288.49 Y-247.38
X-287.761 Y-248.874
X-287.003 Y-250.354
X-286.216 Y-251.819
X-285.402 Y-253.269
X-284.56 Y-254.702
X-283.69 Y-256.119
X-282.793 Y-257.519
X-281.869 Y-258.902
X-280.919 Y-260.266
X-279.942 Y-261.612
X-278.941 Y-262.939
X-277.914 Y-264.247
X-276.862 Y-265.535
X-275.785 Y-266.802
X-274.685 Y-268.049
X-273.561 Y-269.274
X-272.414 Y-270.478
X-271.244 Y-271.659
X-270.052 Y-272.818
X-268.837 Y-273.954
X-267.601 Y-275.066
X-266.344 Y-276.154
X-265.066 Y-277.217
X-263.767 Y-278.256
X-262.449 Y-279.27
X-261.112 Y-280.258
X-259.756 Y-281.22
X-258.382 Y-282.156
X-256.99 Y-283.066
X-255.581 Y-283.95
X-254.156 Y-284.806
X-252.714 Y-285.634
X-251.257 Y-286.436
X-249.785 Y-287.209
X-248.298 Y-287.953
X-246.798 Y-288.669
X-245.283 Y-289.356
X-243.756 Y-290.013
X-242.216 Y-290.641
X-240.665 Y-291.239
X-239.102 Y-291.808
X-237.529 Y-292.346
X-235.946 Y-292.854
X-234.354 Y-293.332
X-232.752 Y-293.78
X-231.143 Y-294.197
X-229.525 Y-294.583
X-227.901 Y-294.938
X-226.27 Y-295.263
X-224.633 Y-295.556
X-222.991 Y-295.818
X-221.345 Y-296.048
X-219.694 Y-296.246
X-218.039 Y-296.412
X-216.382 Y-296.547
X-214.722 Y-296.65
X-213.061 Y-296.721
X-211.399 Y-296.761
X-209.736 Y-296.769
X-208.074 Y-296.746
X-206.412 Y-296.691
X-204.751 Y-296.605
X-203.093 Y-296.487
X-201.437 Y-296.338
X-199.784 Y-296.157
X-198.135 Y-295.945
X-196.49 Y-295.702
X-194.85 Y-295.427
X-193.216 Y-295.121
X-191.587 Y-294.783
X-189.966 Y-294.415
X-188.352 Y-294.016
X-186.745 Y-293.587
X-185.147 Y-293.128
X-183.558 Y-292.638
X-181.979 Y-292.119
X-180.409 Y-291.57
X-178.85 Y-290.991
X-177.303 Y-290.384
X-175.767 Y-289.747
X-174.243 Y-289.082
X-172.732 Y-288.388
X-171.234 Y-287.665
X-169.751 Y-286.914
X-168.282 Y-286.135
X-166.827 Y-285.329
X-165.389 Y-284.495
X-163.966 Y-283.635
X-162.56 Y-282.748
X-161.17 Y-281.834
X-159.798 Y-280.895
X-158.443 Y-279.931
X-157.107 Y-278.941
X-155.79 Y-277.927
X-154.491 Y-276.888
X-153.212 Y-275.826
X-151.954 Y-274.739
X-150.715 Y-273.629
X-149.498 Y-272.496
X-148.303 Y-271.341
X-147.129 Y-270.163
X-145.978 Y-268.963
X-144.85 Y-267.742
X-143.744 Y-266.5
X-142.662 Y-265.238
X-141.603 Y-263.956
X-140.568 Y-262.654
X-139.558 Y-261.333
X-138.573 Y-259.994
X-137.612 Y-258.637
X-136.677 Y-257.262
X-135.767 Y-255.87
X-134.884 Y-254.461
X-134.027 Y-253.037
X-133.197 Y-251.596
X-132.394 Y-250.14
X-131.618 Y-248.669
X-130.871 Y-247.184
X-130.151 Y-245.685
X-129.459 Y-244.173
X-128.795 Y-242.648
X-128.16 Y-241.112
X-127.553 Y-239.564
X-126.975 Y-238.005
X-126.427 Y-236.435
X-125.907 Y-234.856
X-125.417 Y-233.267
X-124.956 Y-231.669
X-124.525 Y-230.063
X-124.124 Y-228.449
X-123.754 Y-226.828
X-123.414 Y-225.201
X-123.105 Y-223.567
X-122.826 Y-221.928
X-122.578 Y-220.284
X-122.361 Y-218.635
X-122.174 Y-216.983
X-122.019 Y-215.327
X-121.893 Y-213.669
X-121.799 Y-212.009
X-121.736 Y-210.348
X-121.703 Y-208.685
X-121.701 Y-207.023
X-121.731 Y-205.36
X-121.791 Y-203.698
X-121.882 Y-202.038
X-122.005 Y-200.38
X-122.158 Y-198.724
X-122.343 Y-197.072
X-122.559 Y-195.423
X-122.805 Y-193.779
X-123.082 Y-192.139
X-123.39 Y-190.505
X-123.728 Y-188.877
X-124.096 Y-187.256
X-124.494 Y-185.641
X-124.923 Y-184.035
X-125.381 Y-182.436
X-125.868 Y-180.847
X-126.385 Y-179.266
X-126.932 Y-177.696
X-127.507 Y-176.136
X-128.113 Y-174.587
X-128.747 Y-173.05
X-129.41 Y-171.525
X-130.101 Y-170.013
X-130.821 Y-168.514
X-131.568 Y-167.029
X-132.343 Y-165.558
X-133.145 Y-164.101
X-133.974 Y-162.66
X-134.829 Y-161.234
X-135.711 Y-159.824
X-136.619 Y-158.432
X-137.553 Y-157.056
X-138.512 Y-155.697
X-139.496 Y-154.357
X-140.506 Y-153.036
X-141.54 Y-151.734
X-142.598 Y-150.451
X-143.68 Y-149.188
X-144.785 Y-147.946
X-145.914 Y-146.725
X-147.064 Y-145.525
X-148.237 Y-144.347
X-149.432 Y-143.19
X-150.648 Y-142.056
X-151.885 Y-140.945
X-153.142 Y-139.856
X-154.419 Y-138.791
X-155.715 Y-137.75
X-157.031 Y-136.733
X-158.365 Y-135.741
X-159.718 Y-134.774
X-161.088 Y-133.832
X-162.476 Y-132.916
X-163.881 Y-132.027
X-165.302 Y-131.163
X-166.738 Y-130.326
X-168.19 Y-129.516
X-169.657 Y-128.733
X-171.138 Y-127.977
X-172.633 Y-127.249
X-174.141 Y-126.548
X-175.662 Y-125.876
X-177.194 Y-125.231
X-178.739 Y-124.615
X-180.294 Y-124.027
X-181.86 Y-123.468
X-183.436 Y-122.938
X-185.022 Y-122.438
X-186.617 Y-121.968
X-188.22 Y-121.527
X-189.831 Y-121.116
X-191.45 Y-120.735
X-193.075 Y-120.384
X-194.706 Y-120.062
X-196.343 Y-119.771
X-197.985 Y-119.51
X-199.632 Y-119.279
X-201.283 Y-119.079
X-202.937 Y-118.908
X-204.594 Y-118.768
X-206.253 Y-118.659
X-207.914 Y-118.58
X-209.576 Y-118.531
X-211.238 Y-118.514
X-212.901 Y-118.527
X-214.563 Y-118.571
X-216.224 Y-118.646
X-217.884 Y-118.751
X-219.541 Y-118.887
X-221.195 Y-119.053
X-222.846 Y-119.25
X-224.494 Y-119.476
X-226.136 Y-119.733
X-227.774 Y-120.019
X-229.407 Y-120.336
X-231.033 Y-120.682
X-232.653 Y-121.057
X-234.266 Y-121.462
X-235.87 Y-121.897
X-237.467 Y-122.361
X-239.055 Y-122.855
X-240.633 Y-123.378
X-242.202 Y-123.929
X-243.76 Y-124.51
X-245.307 Y-125.119
X-246.843 Y-125.756
X-248.367 Y-126.42
X-249.879 Y-127.113
X-251.378 Y-127.832
X-252.863 Y-128.579
X-254.335 Y-129.353
X-255.793 Y-130.153
X-257.235 Y-130.98
X-258.663 Y-131.833
X-260.075 Y-132.711
X-261.47 Y-133.616
X-262.848 Y-134.546
X-264.209 Y-135.501
X-265.553 Y-136.48
X-266.878 Y-137.485
X-268.185 Y-138.513
X-269.473 Y-139.565
X-270.741 Y-140.64
X-271.99 Y-141.737
X-273.219 Y-142.857
X-274.427 Y-144
X-275.615 Y-145.164
X-276.781 Y-146.349
X-277.925 Y-147.555
X-279.048 Y-148.782
X-280.148 Y-150.028
X-281.225 Y-151.295
X-282.279 Y-152.581
X-283.309 Y-153.887
X-284.315 Y-155.21
X-285.297 Y-156.552
X-286.254 Y-157.912
X-287.186 Y-159.289
X-288.094 Y-160.682
X-288.976 Y-162.092
X-289.832 Y-163.517
X-290.663 Y-164.957
X-291.467 Y-166.413
X-292.245 Y-167.882
X-292.996 Y-169.365
X-293.721 Y-170.862
X-294.418 Y-172.371
X-295.088 Y-173.893
X-295.73 Y-175.427
X-296.344 Y-176.973
X-296.929 Y-178.529
X-297.487 Y-180.095
X-298.015 Y-181.672
X-298.515 Y-183.258
X-298.986 Y-184.852
X-299.429 Y-186.455
X-299.842 Y-188.066
X-300.226 Y-189.683
X-300.582 Y-191.308
X-300.907 Y-192.938
X-301.204 Y-194.574
X-301.471 Y-196.216
X-301.708 Y-197.861
X-301.916 Y-199.511
X-302.094 Y-201.164
X-302.241 Y-202.82
X-302.358 Y-204.479
X-302.445 Y-206.14
X-302.502 Y-207.801
X-302.529 Y-209.464
X-302.526 Y-211.127
X-302.492 Y-212.789
X-302.429 Y-214.451
X-302.336 Y-216.111
X-302.214 Y-217.769
X-302.061 Y-219.425
X-301.879 Y-221.077
X-301.667 Y-222.727
X-301.425 Y-224.372
X-301.154 Y-226.012
X-300.853 Y-227.648
X-300.523 Y-229.277
X-300.163 Y-230.9
X-299.773 Y-232.517
X-299.354 Y-234.126
X-298.906 Y-235.727
X-298.43 Y-237.32
X-297.924 Y-238.904
X-297.391 Y-240.479
X-296.829 Y-242.044
X-296.239 Y-243.599
X-295.621 Y-245.142
X-294.976 Y-246.675
X-294.303 Y-248.195
X-293.603 Y-249.704
X-292.876 Y-251.199
X-292.123 Y-252.681
X-291.342 Y-254.149
X-290.535 Y-255.603
X-289.702 Y-257.042
X-288.842 Y-258.465
X-287.957 Y-259.873
X-287.047 Y-261.265
X-286.112 Y-262.639
X-285.152 Y-263.997
X-284.168 Y-265.338
X-283.16 Y-266.66
X-282.129 Y-267.964
X-281.074 Y-269.25
X-279.997 Y-270.516
X-278.897 Y-271.763
X-277.775 Y-272.99
X-276.631 Y-274.197
X-275.465 Y-275.382
X-274.278 Y-276.547
X-273.07 Y-277.689
X-271.841 Y-278.81
X-270.593 Y-279.908
X-269.324 Y-280.983
X-268.037 Y-282.035
X-266.731 Y-283.064
X-265.406 Y-284.069
X-264.064 Y-285.051
X-262.704 Y-286.008
X-261.328 Y-286.941
X-259.935 Y-287.848
X-258.526 Y-288.731
X-257.101 Y-289.589
X-255.661 Y-290.42
X-254.207 Y-291.226
X-252.738 Y-292.005
X-251.255 Y-292.757
X-249.759 Y-293.482
X-248.249 Y-294.18
X-246.728 Y-294.851
X-245.195 Y-295.494
X-243.65 Y-296.11
X-242.095 Y-296.697
X-240.529 Y-297.257
X-238.953 Y-297.789
X-237.369 Y-298.292
X-235.775 Y-298.767
X-234.173 Y-299.213
X-232.564 Y-299.631
X-230.947 Y-300.019
X-229.324 Y-300.379
X-227.694 Y-300.709
X-226.059 Y-301.01
X-224.418 Y-301.281
X-222.773 Y-301.522
X-221.124 Y-301.734
X-219.471 Y-301.916
X-217.815 Y-302.068
X-216.157 Y-302.191
X-214.497 Y-302.284
X-212.836 Y-302.347
X-211.173 Y-302.381
X-209.51 Y-302.385
X-207.848 Y-302.359
X-206.186 Y-302.304
X-204.525 Y-302.22
X-202.867 Y-302.105
X-201.21 Y-301.961
X-199.556 Y-301.788
X-197.906 Y-301.584
X-196.26 Y-301.351
X-194.618 Y-301.088
X-192.981 Y-300.796
X-191.35 Y-300.475
X-189.724 Y-300.125
X-188.105 Y-299.746
X-186.493 Y-299.338
X-184.889 Y-298.902
X-183.292 Y-298.437
X-181.704 Y-297.945
X-180.125 Y-297.424
X-178.555 Y-296.875
X-176.996 Y-296.299
X-175.446 Y-295.696
X-173.908 Y-295.065
X-172.381 Y-294.406
X-170.866 Y-293.72
X-169.364 Y-293.008
X-167.875 Y-292.268
X-166.399 Y-291.503
X-164.936 Y-290.711
X-163.488 Y-289.894
X-162.055 Y-289.051
X-160.637 Y-288.184
X-159.234 Y-287.291
X-157.847 Y-286.374
X-156.476 Y-285.433
X-155.122 Y-284.468
X-153.785 Y-283.479
X-152.466 Y-282.467
X-151.164 Y-281.432
X-149.882 Y-280.374
X-148.618 Y-279.294
X-147.373 Y-278.191
X-146.149 Y-277.066
X-144.944 Y-275.92
X-143.76 Y-274.753
X-142.596 Y-273.565
X-141.454 Y-272.357
X-140.332 Y-271.129
X-139.233 Y-269.882
X-138.155 Y-268.616
X-137.1 Y-267.331
X-136.067 Y-266.028
X-135.057 Y-264.707
X-134.071 Y-263.368
X-133.108 Y-262.013
X-132.168 Y-260.641
X-131.254 Y-259.252
X-130.363 Y-257.848
X-129.498 Y-256.428
X-128.658 Y-254.993
X-127.844 Y-253.543
X-127.054 Y-252.08
X-126.291 Y-250.603
X-125.554 Y-249.112
X-124.843 Y-247.609
X-124.158 Y-246.094
X-123.5 Y-244.567
X-122.869 Y-243.029
X-122.264 Y-241.48
X-121.687 Y-239.921
X-121.136 Y-238.352
X-120.614 Y-236.773
X-120.119 Y-235.186
X-119.652 Y-233.59
X-119.213 Y-231.986
X-118.803 Y-230.375
X-118.421 Y-228.756
X-118.068 Y-227.132
X-117.743 Y-225.501
X-117.447 Y-223.865
X-117.18 Y-222.223
X-116.941 Y-220.578
X-116.732 Y-218.928
X-116.551 Y-217.276
X-116.399 Y-215.62
X-116.276 Y-213.962
X-116.182 Y-212.301
X-116.117 Y-210.64
X-116.08 Y-208.978
X-116.073 Y-207.315
X-116.096 Y-205.652
X-116.148 Y-203.99
X-116.229 Y-202.33
X-116.34 Y-200.671
X-116.479 Y-199.014
X-116.648 Y-197.36
X-116.846 Y-195.709
X-117.073 Y-194.061
X-117.329 Y-192.418
X-117.613 Y-190.78
X-117.926 Y-189.147
X-118.268 Y-187.52
X-118.638 Y-185.899
X-119.036 Y-184.284
X-119.462 Y-182.677
X-119.916 Y-181.078
X-120.398 Y-179.486
X-120.909 Y-177.904
X-121.447 Y-176.331
X-122.013 Y-174.767
X-122.607 Y-173.214
X-123.228 Y-171.672
X-123.876 Y-170.14
X-124.551 Y-168.621
X-125.252 Y-167.113
X-125.979 Y-165.618
X-126.733 Y-164.136
X-127.512 Y-162.667
X-128.317 Y-161.212
X-129.148 Y-159.771
X-130.003 Y-158.345
X-130.883 Y-156.935
X-131.787 Y-155.539
X-132.716 Y-154.16
X-133.669 Y-152.798
X-134.646 Y-151.452
X-135.647 Y-150.124
X-136.671 Y-148.814
X-137.718 Y-147.522
X-138.787 Y-146.249
X-139.879 Y-144.995
X-140.992 Y-143.76
X-142.127 Y-142.544
X-143.282 Y-141.349
X-144.459 Y-140.174
X-145.655 Y-139.02
X-146.872 Y-137.886
X-148.108 Y-136.774
X-149.364 Y-135.684
X-150.638 Y-134.616
X-151.93 Y-133.57
X-153.241 Y-132.547
X-154.57 Y-131.547
X-155.916 Y-130.571
X-157.279 Y-129.619
X-158.659 Y-128.691
X-160.055 Y-127.787
X-161.466 Y-126.908
X-162.892 Y-126.053
X-164.333 Y-125.224
X-165.788 Y-124.419
X-167.257 Y-123.64
X-168.74 Y-122.887
X-170.235 Y-122.159
X-171.742 Y-121.458
X-173.262 Y-120.782
X-174.793 Y-120.133
X-176.335 Y-119.511
X-177.887 Y-118.916
X-179.45 Y-118.349
X-181.023 Y-117.809
X-182.605 Y-117.296
X-184.195 Y-116.812
X-185.794 Y-116.355
X-187.4 Y-115.926
X-189.014 Y-115.525
X-190.634 Y-115.152
X-192.261 Y-114.807
X-193.893 Y-114.49
X-195.531 Y-114.201
X-197.173 Y-113.941
X-198.82 Y-113.709
X-200.47 Y-113.506
X-202.123 Y-113.331
X-203.78 Y-113.184
X-205.438 Y-113.067
X-207.099 Y-112.979
X-208.76 Y-112.92
X-210.423 Y-112.89
X-212.086 Y-112.888
X-213.748 Y-112.916
X-215.41 Y-112.972
X-217.07 Y-113.057
X-218.729 Y-113.171
X-220.386 Y-113.313
X-222.04 Y-113.484
X-223.691 Y-113.683
X-225.338 Y-113.91
X-226.981 Y-114.166
X-228.619 Y-114.449
X-230.252 Y-114.761
X-231.88 Y-115.101
X-233.502 Y-115.47
X-235.116 Y-115.866
X-236.724 Y-116.291
X-238.324 Y-116.743
X-239.916 Y-117.223
X-241.5 Y-117.73
X-243.074 Y-118.265
X-244.639 Y-118.826
X-246.194 Y-119.414
X-247.739 Y-120.029
X-249.273 Y-120.671
X-250.796 Y-121.338
X-252.307 Y-122.032
X-253.807 Y-122.751
X-255.293 Y-123.496
X-256.767 Y-124.266
X-258.227 Y-125.061
X-259.674 Y-125.881
X-261.105 Y-126.726
X-262.522 Y-127.596
X-263.924 Y-128.49
X-265.31 Y-129.409
X-266.681 Y-130.351
X-268.034 Y-131.316
X-269.371 Y-132.305
X-270.691 Y-133.316
X-271.994 Y-134.349
X-273.278 Y-135.405
X-274.545 Y-136.483
X-275.793 Y-137.582
X-277.022 Y-138.702
X-278.231 Y-139.842
X-279.421 Y-141.004
X-280.592 Y-142.185
X-281.741 Y-143.386
X-282.87 Y-144.607
X-283.977 Y-145.847
X-285.063 Y-147.107
X-286.127 Y-148.384
X-287.169 Y-149.68
X-288.189 Y-150.993
X-289.186 Y-152.324
X-290.16 Y-153.671
X-291.112 Y-155.035
X-292.039 Y-156.415
X-292.943 Y-157.811
X-293.824 Y-159.221
X-294.68 Y-160.647
X-295.512 Y-162.086
X-296.319 Y-163.54
X-297.102 Y-165.007
X-297.859 Y-166.487
X-298.591 Y-167.98
X-299.296 Y-169.486
X-299.976 Y-171.003
X-300.63 Y-172.532
X-301.258 Y-174.072
X-301.859 Y-175.622
X-302.433 Y-177.183
X-302.981 Y-178.752
X-303.502 Y-180.331
X-303.996 Y-181.919
X-304.463 Y-183.515
X-304.903 Y-185.118
X-305.316 Y-186.729
X-305.701 Y-188.347
X-306.059 Y-189.97
X-306.389 Y-191.6
X-306.692 Y-193.235
X-306.966 Y-194.875
X-307.213 Y-196.519
X-307.431 Y-198.168
X-307.62 Y-199.82
X-307.782 Y-201.475
X-307.915 Y-203.132
X-308.02 Y-204.791
X-308.096 Y-206.452
X-308.145 Y-208.114
X-308.165 Y-209.777
X-308.156 Y-211.44
X-308.12 Y-213.102
X-308.056 Y-214.764
X-307.963 Y-216.424
X-307.843 Y-218.082
X-307.694 Y-219.738
X-307.518 Y-221.392
X-307.313 Y-223.042
X-307.079 Y-224.688
X-306.818 Y-226.33
X-306.529 Y-227.968
X-306.211 Y-229.6
X-305.866 Y-231.226
X-305.493 Y-232.847
X-305.093 Y-234.46
X-304.665 Y-236.067
X-304.21 Y-237.667
X-303.728 Y-239.258
X-303.219 Y-240.841
X-302.684 Y-242.415
X-302.122 Y-243.98
X-301.533 Y-245.535
X-300.919 Y-247.08
X-300.278 Y-248.615
X-299.611 Y-250.138
X-298.919 Y-251.649
X-298.2 Y-253.149
X-297.456 Y-254.636
X-296.687 Y-256.11
X-295.892 Y-257.571
X-295.073 Y-259.018
X-294.23 Y-260.451
X-293.362 Y-261.869
X-292.47 Y-263.272
X-291.555 Y-264.66
X-290.616 Y-266.033
X-289.654 Y-267.389
X-288.67 Y-268.729
X-287.662 Y-270.052
X-286.633 Y-271.358
X-285.582 Y-272.646
X-284.509 Y-273.917
X-283.415 Y-275.168
X-282.299 Y-276.401
X-281.163 Y-277.615
X-280.005 Y-278.809
X-278.828 Y-279.983
X-277.631 Y-281.137
X-276.414 Y-282.27
X-275.178 Y-283.383
X-273.924 Y-284.474
X-272.651 Y-285.544
X-271.361 Y-286.593
X-270.053 Y-287.619
X-268.727 Y-288.623
X-267.385 Y-289.605
X-266.027 Y-290.564
X-264.652 Y-291.499
X-263.262 Y-292.412
X-261.857 Y-293.301
X-260.437 Y-294.165
X-259.002 Y-295.005
X-257.553 Y-295.821
X-256.09 Y-296.611
X-254.614 Y-297.377
X-253.125 Y-298.117
X-251.624 Y-298.832
X-250.111 Y-299.522
X-248.586 Y-300.185
X-247.051 Y-300.823
X-245.505 Y-301.435
X-243.948 Y-302.021
X-242.382 Y-302.58
X-240.807 Y-303.113
X-239.224 Y-303.619
X-237.632 Y-304.099
X-236.032 Y-304.551
X-234.424 Y-304.976
X-232.81 Y-305.374
X-231.188 Y-305.744
X-229.561 Y-306.086
X-227.929 Y-306.401
X-226.291 Y-306.688
X-224.648 Y-306.947
X-223.002 Y-307.178
X-221.352 Y-307.382
X-219.698 Y-307.557
X-218.042 Y-307.705
X-216.383 Y-307.825
X-214.723 Y-307.917
X-213.062 Y-307.981
X-211.399 Y-308.017
X-209.737 Y-308.025
X-208.074 Y-308.005
X-206.412 Y-307.958
X-204.751 Y-307.881
X-203.091 Y-307.777
X-201.434 Y-307.645
X-199.779 Y-307.484
X-198.127 Y-307.296
X-196.478 Y-307.079
X-194.834 Y-306.835
X-193.193 Y-306.564
X-191.558 Y-306.265
X-189.927 Y-305.938
X-188.303 Y-305.584
X-186.684 Y-305.204
X-185.072 Y-304.796
X-183.467 Y-304.361
X-181.87 Y-303.9
X-180.28 Y-303.412
X-178.699 Y-302.897
X-177.127 Y-302.356
X-175.564 Y-301.789
X-174.011 Y-301.195
X-172.468 Y-300.575
X-170.935 Y-299.93
X-169.414 Y-299.258
X-167.904 Y-298.562
X-166.406 Y-297.84
X-164.921 Y-297.093
X-163.448 Y-296.322
X-161.988 Y-295.526
X-160.541 Y-294.706
X-159.108 Y-293.863
X-157.69 Y-292.995
X-156.286 Y-292.105
X-154.896 Y-291.191
X-153.523 Y-290.254
X-152.165 Y-289.295
X-150.823 Y-288.313
X-149.498 Y-287.308
X-148.19 Y-286.282
X-146.899 Y-285.234
X-145.626 Y-284.164
X-144.37 Y-283.074
X-143.134 Y-281.963
X-141.915 Y-280.831
X-140.716 Y-279.679
X-139.536 Y-278.508
X-138.375 Y-277.317
X-137.235 Y-276.107
X-136.114 Y-274.879
X-135.014 Y-273.632
X-133.934 Y-272.367
X-132.876 Y-271.085
X-131.839 Y-269.786
X-130.823 Y-268.469
X-129.83 Y-267.136
X-128.858 Y-265.786
X-127.91 Y-264.42
X-126.984 Y-263.039
X-126.082 Y-261.643
X-125.203 Y-260.231
X-124.347 Y-258.806
X-123.515 Y-257.366
X-122.707 Y-255.913
X-121.923 Y-254.447
X-121.163 Y-252.968
X-120.428 Y-251.476
X-119.717 Y-249.973
X-119.031 Y-248.458
X-118.371 Y-246.932
X-117.735 Y-245.396
X-117.125 Y-243.849
X-116.54 Y-242.293
X-115.982 Y-240.726
X-115.45 Y-239.151
X-114.944 Y-237.567
X-114.464 Y-235.975
X-114.011 Y-234.375
X-113.584 Y-232.768
X-113.185 Y-231.154
X-112.812 Y-229.534
X-112.465 Y-227.907
X-112.146 Y-226.276
X-111.854 Y-224.639
X-111.588 Y-222.997
X-111.35 Y-221.352
X-111.139 Y-219.702
X-110.955 Y-218.05
X-110.798 Y-216.395
X-110.669 Y-214.737
X-110.567 Y-213.077
X-110.493 Y-211.416
X-110.447 Y-209.754
X-110.428 Y-208.091
X-110.437 Y-206.429
X-110.473 Y-204.766
X-110.537 Y-203.105
X-110.629 Y-201.445
X-110.748 Y-199.786
X-110.895 Y-198.13
X-111.069 Y-196.476
X-111.27 Y-194.826
X-111.499 Y-193.179
X-111.754 Y-191.536
X-112.037 Y-189.897
X-112.346 Y-188.263
X-112.683 Y-186.635
X-113.046 Y-185.012
X-113.436 Y-183.396
X-113.853 Y-181.787
X-114.297 Y-180.184
X-114.768 Y-178.59
X-115.265 Y-177.003
X-115.789 Y-175.425
X-116.338 Y-173.855
X-116.914 Y-172.295
X-117.515 Y-170.745
X-118.142 Y-169.205
X-118.794 Y-167.676
X-119.471 Y-166.157
X-120.174 Y-164.65
X-120.901 Y-163.154
X-121.652 Y-161.671
X-122.428 Y-160.201
X-123.228 Y-158.743
X-124.052 Y-157.299
X-124.9 Y-155.869
X-125.772 Y-154.453
X-126.667 Y-153.052
X-127.586 Y-151.665
X-128.527 Y-150.295
X-129.491 Y-148.94
X-130.477 Y-147.601
X-131.486 Y-146.279
X-132.516 Y-144.974
X-133.567 Y-143.686
X-134.64 Y-142.415
X-135.733 Y-141.163
X-136.847 Y-139.928
X-137.981 Y-138.712
X-139.135 Y-137.515
X-140.309 Y-136.337
X-141.501 Y-135.178
X-142.713 Y-134.039
X-143.943 Y-132.921
X-145.192 Y-131.823
X-146.459 Y-130.746
X-147.743 Y-129.69
X-149.045 Y-128.656
X-150.364 Y-127.644
X-151.699 Y-126.653
X-153.051 Y-125.684
X-154.418 Y-124.738
X-155.801 Y-123.815
X-157.199 Y-122.914
X-158.611 Y-122.037
X-160.038 Y-121.183
X-161.478 Y-120.352
X-162.932 Y-119.545
X-164.399 Y-118.762
X-165.878 Y-118.003
X-167.37 Y-117.268
X-168.874 Y-116.559
X-170.389 Y-115.874
X-171.915 Y-115.215
X-173.452 Y-114.581
X-175 Y-113.972
X-176.557 Y-113.389
X-178.124 Y-112.832
X-179.699 Y-112.3
X-181.283 Y-111.795
X-182.875 Y-111.315
X-184.475 Y-110.862
X-186.082 Y-110.435
X-187.696 Y-110.034
X-189.316 Y-109.659
X-190.942 Y-109.311
X-192.573 Y-108.99
X-194.209 Y-108.695
X-195.85 Y-108.427
X-197.496 Y-108.187
X-199.145 Y-107.973
X-200.797 Y-107.787
X-202.452 Y-107.628
X-204.11 Y-107.496
X-205.769 Y-107.391
X-207.43 Y-107.313
X-209.092 Y-107.263
X-210.755 Y-107.24
X-212.417 Y-107.244
X-214.08 Y-107.275
X-215.742 Y-107.333
X-217.402 Y-107.418
X-219.061 Y-107.531
X-220.718 Y-107.67
X-222.372 Y-107.836
X-224.024 Y-108.029
X-225.672 Y-108.248
X-227.316 Y-108.495
X-228.957 Y-108.769
X-230.592 Y-109.07
X-232.222 Y-109.397
X-233.847 Y-109.751
X-235.465 Y-110.131
X-237.078 Y-110.538
X-238.683 Y-110.971
X-240.281 Y-111.431
X-241.871 Y-111.916
X-243.454 Y-112.426
X-245.028 Y-112.963
X-246.593 Y-113.525
X-248.148 Y-114.112
X-249.694 Y-114.724
X-251.23 Y-115.361
X-252.755 Y-116.023
X-254.27 Y-116.71
X-255.773 Y-117.421
X-257.264 Y-118.157
X-258.743 Y-118.917
X-260.209 Y-119.701
X-261.662 Y-120.508
X-263.102 Y-121.34
X-264.529 Y-122.194
X-265.941 Y-123.072
X-267.339 Y-123.972
X-268.722 Y-124.895
X-270.09 Y-125.84
X-271.442 Y-126.808
X-272.779 Y-127.797
X-274.1 Y-128.807
X-275.404 Y-129.839
X-276.691 Y-130.891
X-277.961 Y-131.964
X-279.214 Y-133.057
X-280.449 Y-134.171
X-281.665 Y-135.305
X-282.863 Y-136.458
X-284.042 Y-137.63
X-285.202 Y-138.822
X-286.342 Y-140.032
X-287.462 Y-141.261
X-288.563 Y-142.507
X-289.643 Y-143.771
X-290.703 Y-145.053
X-291.741 Y-146.351
X-292.759 Y-147.666
X-293.755 Y-148.997
X-294.73 Y-150.344
X-295.683 Y-151.707
X-296.614 Y-153.084
X-297.523 Y-154.477
X-298.409 Y-155.883
X-299.273 Y-157.305
X-300.113 Y-158.739
X-300.93 Y-160.188
X-301.723 Y-161.649
X-302.492 Y-163.123
X-303.238 Y-164.609
X-303.959 Y-166.108
X-304.656 Y-167.617
X-305.329 Y-169.138
X-305.977 Y-170.669
X-306.6 Y-172.211
X-307.198 Y-173.762
X-307.771 Y-175.323
X-308.319 Y-176.893
X-308.842 Y-178.471
X-309.34 Y-180.058
X-309.812 Y-181.652
X-310.258 Y-183.254
X-310.679 Y-184.862
X-311.073 Y-186.478
X-311.441 Y-188.099
X-311.783 Y-189.726
X-312.099 Y-191.359
X-312.388 Y-192.996
X-312.651 Y-194.638
X-312.887 Y-196.284
X-313.096 Y-197.934
X-313.279 Y-199.586
X-313.435 Y-201.242
X-313.565 Y-202.899
X-313.668 Y-204.559
X-313.745 Y-206.22
X-313.795 Y-207.882
X-313.818 Y-209.545
X-313.815 Y-211.207
X-313.785 Y-212.87
X-313.728 Y-214.532
X-313.644 Y-216.192
X-313.534 Y-217.851
X-313.397 Y-219.508
X-313.233 Y-221.163
X-313.042 Y-222.815
X-312.825 Y-224.463
X-312.581 Y-226.108
X-312.311 Y-227.749
X-312.014 Y-229.385
X-311.691 Y-231.016
X-311.342 Y-232.642
X-310.967 Y-234.262
X-310.566 Y-235.875
X-310.14 Y-237.482
X-309.687 Y-239.082
X-309.21 Y-240.675
X-308.706 Y-242.26
X-308.178 Y-243.836
X-307.624 Y-245.404
X-307.045 Y-246.963
X-306.44 Y-248.512
X-305.811 Y-250.051
X-305.157 Y-251.579
X-304.479 Y-253.097
X-303.776 Y-254.604
X-303.049 Y-256.1
X-302.298 Y-257.583
X-301.523 Y-259.055
X-300.725 Y-260.513
X-299.903 Y-261.959
X-299.059 Y-263.391
X-298.191 Y-264.81
X-297.302 Y-266.214
X-296.389 Y-267.604
X-295.455 Y-268.98
X-294.499 Y-270.34
X-293.521 Y-271.685
X-292.521 Y-273.014
X-291.5 Y-274.326
X-290.459 Y-275.622
X-289.396 Y-276.901
X-288.313 Y-278.163
X-287.21 Y-279.407
X-286.087 Y-280.633
X-284.944 Y-281.841
X-283.782 Y-283.03
X-282.601 Y-284.201
X-281.402 Y-285.352
X-280.184 Y-286.485
X-278.948 Y-287.597
X-277.695 Y-288.69
X-276.424 Y-289.762
X-275.137 Y-290.814
X-273.833 Y-291.846
X-272.512 Y-292.856
X-271.175 Y-293.845
X-269.823 Y-294.812
X-268.455 Y-295.758
X-267.072 Y-296.681
X-265.675 Y-297.582
X-264.263 Y-298.46
X-262.837 Y-299.315
X-261.397 Y-300.148
X-259.945 Y-300.957
X-258.479 Y-301.743
X-257.002 Y-302.505
X-255.512 Y-303.243
X-254.011 Y-303.958
X-252.498 Y-304.649
X-250.975 Y-305.315
X-249.441 Y-305.957
X-247.897 Y-306.574
X-246.343 Y-307.167
X-244.78 Y-307.734
X-243.208 Y-308.276
X-241.628 Y-308.793
X-240.04 Y-309.285
X-238.443 Y-309.751
X-236.84 Y-310.191
X-235.23 Y-310.605
X-233.613 Y-310.994
X-231.99 Y-311.356
X-230.362 Y-311.693
X-228.728 Y-312.003
X-227.09 Y-312.287
X-225.448 Y-312.545
X-223.801 Y-312.777
X-222.151 Y-312.983
X-220.498 Y-313.162
X-218.842 Y-313.315
X-217.184 Y-313.442
X-215.525 Y-313.542
X-213.864 Y-313.616
X-212.201 Y-313.663
X-210.539 Y-313.683
X-208.876 Y-313.676
X-207.214 Y-313.643
X-205.552 Y-313.584
X-203.891 Y-313.498
X-202.232 Y-313.385
X-200.576 Y-313.246
X-198.921 Y-313.081
X-197.269 Y-312.889
X-195.621 Y-312.671
X-193.976 Y-312.427
X-192.336 Y-312.157
X-190.699 Y-311.861
X-189.068 Y-311.539
X-187.442 Y-311.191
X-185.822 Y-310.818
X-184.208 Y-310.419
X-182.6 Y-309.994
X-181 Y-309.543
X-179.406 Y-309.068
X-177.821 Y-308.567
X-176.244 Y-308.04
X-174.675 Y-307.489
X-173.115 Y-306.913
X-171.565 Y-306.312
X-170.024 Y-305.687
X-168.493 Y-305.038
X-166.973 Y-304.364
X-165.464 Y-303.667
X-163.965 Y-302.946
X-162.479 Y-302.201
X-161.004 Y-301.433
X-159.541 Y-300.642
X-158.091 Y-299.829
X-156.654 Y-298.992
X-155.231 Y-298.133
X-153.821 Y-297.251
X-152.425 Y-296.347
X-151.044 Y-295.421
X-149.678 Y-294.474
X-148.327 Y-293.505
X-146.991 Y-292.515
X-145.671 Y-291.504
X-144.367 Y-290.472
X-143.079 Y-289.42
X-141.808 Y-288.347
X-140.554 Y-287.255
X-139.318 Y-286.144
X-138.099 Y-285.013
X-136.898 Y-283.863
X-135.714 Y-282.695
X-134.55 Y-281.508
X-133.404 Y-280.304
X-132.277 Y-279.081
X-131.169 Y-277.841
X-130.082 Y-276.583
X-129.014 Y-275.309
X-127.966 Y-274.018
X-126.939 Y-272.71
X-125.932 Y-271.387
X-124.946 Y-270.048
X-123.982 Y-268.693
X-123.038 Y-267.324
X-122.117 Y-265.94
X-121.217 Y-264.542
X-120.339 Y-263.13
X-119.483 Y-261.704
X-118.65 Y-260.265
X-117.839 Y-258.814
X-117.051 Y-257.35
X-116.285 Y-255.873
X-115.543 Y-254.385
X-114.825 Y-252.886
X-114.13 Y-251.375
X-113.459 Y-249.854
X-112.812 Y-248.322
X-112.189 Y-246.781
X-111.59 Y-245.23
X-111.016 Y-243.669
X-110.466 Y-242.1
X-109.941 Y-240.522
X-109.441 Y-238.936
X-108.966 Y-237.343
X-108.515 Y-235.743
X-108.09 Y-234.135
X-107.69 Y-232.521
X-107.315 Y-230.901
X-106.965 Y-229.276
X-106.641 Y-227.645
X-106.342 Y-226.009
X-106.069 Y-224.369
X-105.822 Y-222.725
X-105.601 Y-221.077
X-105.405 Y-219.426
X-105.236 Y-217.771
X-105.092 Y-216.115
X-104.975 Y-214.456
X-104.884 Y-212.796
X-104.818 Y-211.135
X-104.779 Y-209.472
X-104.766 Y-207.81
X-104.779 Y-206.147
X-104.818 Y-204.485
X-104.883 Y-202.823
X-104.974 Y-201.163
X-105.091 Y-199.504
X-105.233 Y-197.848
X-105.402 Y-196.193
X-105.596 Y-194.542
X-105.817 Y-192.894
X-106.063 Y-191.25
X-106.335 Y-189.609
X-106.633 Y-187.973
X-106.956 Y-186.342
X-107.305 Y-184.717
X-107.68 Y-183.097
X-108.08 Y-181.483
X-108.505 Y-179.875
X-108.956 Y-178.275
X-109.432 Y-176.681
X-109.932 Y-175.096
X-110.457 Y-173.518
X-111.007 Y-171.949
X-111.582 Y-170.389
X-112.18 Y-168.837
X-112.803 Y-167.296
X-113.45 Y-165.764
X-114.121 Y-164.242
X-114.815 Y-162.732
X-115.533 Y-161.232
X-116.275 Y-159.744
X-117.04 Y-158.268
X-117.828 Y-156.804
X-118.639 Y-155.352
X-119.473 Y-153.913
X-120.329 Y-152.488
X-121.208 Y-151.076
X-122.108 Y-149.679
X-123.031 Y-148.295
X-123.975 Y-146.926
X-124.94 Y-145.572
X-125.926 Y-144.234
X-126.933 Y-142.91
X-127.961 Y-141.603
X-129.008 Y-140.312
X-130.076 Y-139.038
X-131.164 Y-137.78
X-132.271 Y-136.539
X-133.398 Y-135.316
X-134.543 Y-134.111
X-135.708 Y-132.924
X-136.891 Y-131.756
X-138.092 Y-130.606
X-139.31 Y-129.475
X-140.547 Y-128.363
X-141.801 Y-127.271
X-143.071 Y-126.199
X-144.359 Y-125.146
X-145.662 Y-124.114
X-146.982 Y-123.102
X-148.317 Y-122.111
X-149.667 Y-121.141
X-151.033 Y-120.192
X-152.412 Y-119.264
X-153.807 Y-118.358
X-155.215 Y-117.474
X-156.637 Y-116.612
X-158.072 Y-115.772
X-159.52 Y-114.955
X-160.981 Y-114.161
X-162.453 Y-113.389
X-163.938 Y-112.641
X-165.435 Y-111.915
X-166.942 Y-111.214
X-168.46 Y-110.536
X-169.989 Y-109.881
X-171.527 Y-109.251
X-173.076 Y-108.644
X-174.633 Y-108.062
X-176.199 Y-107.504
X-177.774 Y-106.97
X-179.357 Y-106.461
X-180.948 Y-105.977
X-182.545 Y-105.517
X-184.15 Y-105.082
X-185.762 Y-104.672
X-187.379 Y-104.287
X-189.003 Y-103.927
X-190.632 Y-103.593
X-192.265 Y-103.284
X-193.904 Y-103.001
X-195.546 Y-102.743
X-197.193 Y-102.511
X-198.843 Y-102.304
X-200.496 Y-102.123
X-202.151 Y-101.968
X-203.809 Y-101.838
X-205.468 Y-101.734
X-207.129 Y-101.655
X-208.791 Y-101.603
X-210.454 Y-101.576
X-212.116 Y-101.574
X-213.779 Y-101.598
X-215.441 Y-101.648
X-217.102 Y-101.724
X-218.762 Y-101.826
X-220.419 Y-101.953
X-222.075 Y-102.106
X-223.728 Y-102.284
X-225.378 Y-102.489
X-227.025 Y-102.718
X-228.668 Y-102.973
X-230.307 Y-103.254
X-231.942 Y-103.56
X-233.571 Y-103.891
X-235.195 Y-104.247
X-236.814 Y-104.628
X-238.426 Y-105.034
X-240.032 Y-105.465
X-241.631 Y-105.92
X-243.223 Y-106.4
X-244.808 Y-106.904
X-246.384 Y-107.433
X-247.952 Y-107.986
X-249.512 Y-108.563
X-251.062 Y-109.164
X-252.603 Y-109.789
X-254.134 Y-110.438
X-255.655 Y-111.11
X-257.165 Y-111.806
X-258.664 Y-112.525
X-260.152 Y-113.266
X-261.629 Y-114.031
X-263.093 Y-114.818
X-264.546 Y-115.628
X-265.985 Y-116.46
X-267.412 Y-117.314
X-268.826 Y-118.19
X-270.226 Y-119.087
X-271.612 Y-120.005
X-272.983 Y-120.945
X-274.34 Y-121.906
X-275.683 Y-122.887
X-277.01 Y-123.889
X-278.321 Y-124.911
X-279.616 Y-125.954
X-280.896 Y-127.016
X-282.159 Y-128.098
X-283.405 Y-129.198
X-284.634 Y-130.318
X-285.845 Y-131.457
X-287.039 Y-132.614
X-288.216 Y-133.79
X-289.374 Y-134.983
X-290.513 Y-136.194
X-291.634 Y-137.422
X-292.736 Y-138.667
X-293.819 Y-139.929
X-294.883 Y-141.207
X-295.926 Y-142.501
X-296.95 Y-143.811
X-297.954 Y-145.137
X-298.937 Y-146.478
X-299.9 Y-147.834
X-300.841 Y-149.204
X-301.762 Y-150.589
X-302.661 Y-151.987
X-303.538 Y-153.4
X-304.394 Y-154.825
X-305.228 Y-156.264
X-306.04 Y-157.715
X-306.83 Y-159.178
X-307.597 Y-160.653
X-308.341 Y-162.14
X-309.063 Y-163.638
X-309.762 Y-165.147
X-310.437 Y-166.666
X-311.09 Y-168.196
X-311.719 Y-169.735
X-312.324 Y-171.284
X-312.906 Y-172.841
X-313.463 Y-174.408
X-313.997 Y-175.982
X-314.506 Y-177.565
X-314.992 Y-179.156
X-315.453 Y-180.753
X-315.889 Y-182.358
X-316.301 Y-183.969
X-316.688 Y-185.586
X-317.05 Y-187.209
X-317.388 Y-188.837
X-317.7 Y-190.47
X-317.988 Y-192.107
X-318.251 Y-193.749
X-318.488 Y-195.395
X-318.701 Y-197.044
X-318.888 Y-198.696
X-319.051 Y-200.351
X-319.188 Y-202.008
X-319.299 Y-203.667
X-319.386 Y-205.328
X-319.447 Y-206.989
X-319.482 Y-208.652
X-319.492 Y-210.314
X-319.477 Y-211.977
X-319.436 Y-213.639
X-319.37 Y-215.301
X-319.279 Y-216.961
X-319.162 Y-218.62
X-319.02 Y-220.276
X-318.853 Y-221.931
X-318.661 Y-223.582
X-318.443 Y-225.231
X-318.201 Y-226.876
X-317.933 Y-228.517
X-317.641 Y-230.154
X-317.323 Y-231.786
X-316.981 Y-233.413
X-316.614 Y-235.035
X-316.223 Y-236.651
X-315.806 Y-238.26
X-315.366 Y-239.864
X-314.9 Y-241.46
X-314.411 Y-243.049
X-313.897 Y-244.631
X-313.359 Y-246.204
X-312.798 Y-247.769
X-312.212 Y-249.325
X-311.603 Y-250.872
X-310.971 Y-252.41
X-310.315 Y-253.938
X-309.636 Y-255.456
X-308.934 Y-256.963
X-308.209 Y-258.459
X-307.461 Y-259.945
X-306.691 Y-261.418
X-305.899 Y-262.88
X-305.084 Y-264.33
X-304.248 Y-265.767
X-303.389 Y-267.191
X-302.509 Y-268.602
X-301.608 Y-269.999
X-300.685 Y-271.382
X-299.742 Y-272.751
X-298.777 Y-274.106
X-297.792 Y-275.446
X-296.787 Y-276.77
X-295.762 Y-278.079
X-294.717 Y-279.373
X-293.653 Y-280.65
X-292.569 Y-281.911
X-291.466 Y-283.155
X-290.344 Y-284.383
X-289.204 Y-285.593
X-288.046 Y-286.786
X-286.869 Y-287.961
X-285.675 Y-289.118
X-284.463 Y-290.257
X-283.235 Y-291.377
X-281.989 Y-292.478
X-280.726 Y-293.56
X-279.448 Y-294.623
X-278.153 Y-295.666
X-276.842 Y-296.689
X-275.516 Y-297.693
X-274.175 Y-298.676
X-272.819 Y-299.638
X-271.449 Y-300.58
X-270.064 Y-301.5
X-268.666 Y-302.4
X-267.254 Y-303.278
X-265.829 Y-304.135
X-264.391 Y-304.97
X-262.941 Y-305.783
X-261.478 Y-306.574
X-260.004 Y-307.343
X-258.518 Y-308.089
X-257.021 Y-308.813
X-255.513 Y-309.513
X-253.994 Y-310.191
X-252.466 Y-310.845
X-250.927 Y-311.476
X-249.38 Y-312.083
X-247.823 Y-312.667
X-246.257 Y-313.227
X-244.683 Y-313.764
X-243.101 Y-314.276
X-241.512 Y-314.764
X-239.915 Y-315.228
X-238.312 Y-315.668
X-236.702 Y-316.084
X-235.086 Y-316.475
X-233.464 Y-316.841
X-231.837 Y-317.183
X-230.204 Y-317.5
X-228.568 Y-317.793
X-226.926 Y-318.06
X-225.281 Y-318.303
X-223.633 Y-318.52
X-221.981 Y-318.712
X-220.327 Y-318.88
X-218.67 Y-319.022
X-217.012 Y-319.139
X-215.352 Y-319.231
X-213.69 Y-319.298
X-212.028 Y-319.34
X-210.365 Y-319.356
X-208.703 Y-319.347
X-207.04 Y-319.313
X-205.378 Y-319.255
X-203.718 Y-319.171
X-202.059 Y-319.062
X-200.401 Y-318.928
X-198.746 Y-318.769
X-197.094 Y-318.585
X-195.444 Y-318.376
X-193.798 Y-318.142
X-192.155 Y-317.883
X-190.517 Y-317.599
X-188.883 Y-317.291
X-187.254 Y-316.958
X-185.63 Y-316.601
X-184.012 Y-316.219
X-182.399 Y-315.813
X-180.793 Y-315.382
X-179.194 Y-314.928
X-177.601 Y-314.449
X-176.016 Y-313.947
X-174.439 Y-313.421
X-172.87 Y-312.871
X-171.309 Y-312.297
X-169.757 Y-311.701
X-168.214 Y-311.081
X-166.681 Y-310.438
X-165.157 Y-309.772
X-163.644 Y-309.084
X-162.141 Y-308.372
X-160.649 Y-307.639
X-159.168 Y-306.882
X-157.698 Y-306.104
X-156.241 Y-305.304
X-154.795 Y-304.482
X-153.362 Y-303.639
X-151.942 Y-302.774
X-150.535 Y-301.888
X-149.142 Y-300.981
X-147.762 Y-300.053
X-146.396 Y-299.105
X-145.044 Y-298.137
X-143.707 Y-297.148
X-142.385 Y-296.14
X-141.078 Y-295.112
X-139.786 Y-294.065
X-138.51 Y-292.999
X-137.251 Y-291.913
X-136.008 Y-290.809
X-134.781 Y-289.687
X-133.571 Y-288.546
X-132.379 Y-287.387
X-131.203 Y-286.211
X-130.046 Y-285.017
X-128.906 Y-283.807
X-127.785 Y-282.579
X-126.682 Y-281.335
X-125.597 Y-280.074
X-124.532 Y-278.798
X-123.485 Y-277.506
X-122.458 Y-276.198
X-121.451 Y-274.875
X-120.463 Y-273.538
X-119.495 Y-272.186
X-118.547 Y-270.82
X-117.62 Y-269.439
X-116.713 Y-268.046
X-115.828 Y-266.638
X-114.963 Y-265.218
X-114.12 Y-263.785
X-113.298 Y-262.34
X-112.498 Y-260.882
X-111.719 Y-259.413
X-110.962 Y-257.932
X-110.228 Y-256.441
X-109.516 Y-254.938
X-108.826 Y-253.425
X-108.158 Y-251.902
X-107.514 Y-250.37
X-106.892 Y-248.827
X-106.293 Y-247.276
X-105.718 Y-245.716
X-105.165 Y-244.148
X-104.636 Y-242.572
X-104.13 Y-240.988
X-103.648 Y-239.396
X-103.19 Y-237.798
X-102.755 Y-236.193
X-102.345 Y-234.582
X-101.958 Y-232.965
X-101.596 Y-231.342
X-101.258 Y-229.714
X-100.944 Y-228.081
X-100.654 Y-226.444
X-100.389 Y-224.802
X-100.148 Y-223.157
X-99.932 Y-221.508
X-99.74 Y-219.857
X-99.573 Y-218.202
X-99.43 Y-216.546
X-99.312 Y-214.887
X-99.219 Y-213.227
X-99.15 Y-211.566
X-99.107 Y-209.903
X-99.087 Y-208.241
X-99.093 Y-206.578
X-99.123 Y-204.916
X-99.178 Y-203.254
X-99.258 Y-201.593
X-99.363 Y-199.933
X-99.492 Y-198.276
X-99.646 Y-196.62
X-99.825 Y-194.967
X-100.028 Y-193.317
X-100.256 Y-191.67
X-100.508 Y-190.026
X-100.784 Y-188.387
X-101.085 Y-186.751
X-101.411 Y-185.121
X-101.76 Y-183.495
X-102.134 Y-181.875
X-102.532 Y-180.26
X-102.953 Y-178.652
X-103.399 Y-177.05
X-103.868 Y-175.455
X-104.361 Y-173.867
X-104.878 Y-172.286
X-105.418 Y-170.714
X-105.981 Y-169.15
X-106.568 Y-167.594
X-107.178 Y-166.047
X-107.811 Y-164.509
X-108.467 Y-162.981
X-109.145 Y-161.463
X-109.846 Y-159.955
X-110.569 Y-158.458
X-111.315 Y-156.972
X-112.082 Y-155.497
X-112.872 Y-154.033
X-113.683 Y-152.582
X-114.515 Y-151.143
X-115.369 Y-149.716
X-116.244 Y-148.302
X-117.139 Y-146.901
X-118.056 Y-145.513
X-118.993 Y-144.14
X-119.95 Y-142.78
X-120.928 Y-141.435
X-121.925 Y-140.105
X-122.943 Y-138.79
X-123.979 Y-137.49
X-125.035 Y-136.205
X-126.11 Y-134.937
X-127.204 Y-133.684
X-128.316 Y-132.448
X-129.446 Y-131.229
X-130.594 Y-130.026
X-131.76 Y-128.841
X-132.944 Y-127.673
X-134.145 Y-126.522
X-135.362 Y-125.39
X-136.596 Y-124.276
X-137.847 Y-123.18
X-139.114 Y-122.103
X-140.396 Y-121.045
X-141.694 Y-120.006
X-143.008 Y-118.986
X-144.336 Y-117.986
X-145.68 Y-117.006
X-147.037 Y-116.046
X-148.409 Y-115.107
X-149.794 Y-114.187
X-151.193 Y-113.289
X-152.606 Y-112.411
X-154.031 Y-111.554
X-155.468 Y-110.718
X-156.918 Y-109.904
X-158.379 Y-109.111
X-159.852 Y-108.34
X-161.337 Y-107.591
X-162.832 Y-106.864
X-164.338 Y-106.158
X-165.854 Y-105.476
X-167.38 Y-104.815
X-168.916 Y-104.178
X-170.461 Y-103.563
X-172.015 Y-102.972
X-173.577 Y-102.403
X-175.148 Y-101.857
X-176.727 Y-101.335
X-178.313 Y-100.836
X-179.906 Y-100.361
X-181.506 Y-99.909
X-183.113 Y-99.481
X-184.726 Y-99.077
X-186.344 Y-98.696
X-187.969 Y-98.34
X-189.598 Y-98.007
X-191.232 Y-97.698
X-192.87 Y-97.414
X-194.512 Y-97.154
X-196.158 Y-96.917
X-197.807 Y-96.705
X-199.459 Y-96.518
X-201.114 Y-96.354
X-202.771 Y-96.216
X-204.43 Y-96.101
X-206.09 Y-96.012
X-207.751 Y-95.946
X-209.414 Y-95.905
X-211.076 Y-95.889
X-212.739 Y-95.897
X-214.402 Y-95.929
X-216.063 Y-95.986
X-217.724 Y-96.068
X-219.383 Y-96.173
X-221.041 Y-96.303
X-222.697 Y-96.458
X-224.35 Y-96.636
X-226 Y-96.839
X-227.647 Y-97.066
X-229.291 Y-97.317
X-230.931 Y-97.592
X-232.566 Y-97.892
X-234.198 Y-98.215
X-235.824 Y-98.562
X-237.444 Y-98.933
X-239.06 Y-99.328
X-240.669 Y-99.747
X-242.272 Y-100.189
X-243.868 Y-100.654
X-245.457 Y-101.143
X-247.039 Y-101.655
X-248.614 Y-102.19
X-250.18 Y-102.748
X-251.738 Y-103.329
X-253.287 Y-103.933
X-254.827 Y-104.559
X-256.358 Y-105.208
X-257.88 Y-105.879
X-259.391 Y-106.572
X-260.892 Y-107.287
X-262.383 Y-108.024
X-263.862 Y-108.783
X-265.331 Y-109.563
X-266.787 Y-110.365
X-268.232 Y-111.188
X-269.665 Y-112.032
X-271.085 Y-112.897
X-272.492 Y-113.783
X-273.886 Y-114.689
X-275.267 Y-115.615
X-276.634 Y-116.561
X-277.987 Y-117.527
X-279.326 Y-118.513
X-280.651 Y-119.519
X-281.961 Y-120.543
X-283.255 Y-121.586
X-284.534 Y-122.649
X-285.798 Y-123.729
X-287.046 Y-124.828
X-288.278 Y-125.945
X-289.493 Y-127.08
X-290.692 Y-128.232
X-291.873 Y-129.402
X-293.038 Y-130.589
X-294.185 Y-131.793
X-295.314 Y-133.013
X-296.425 Y-134.25
X-297.519 Y-135.503
X-298.593 Y-136.772
X-299.65 Y-138.056
X-300.687 Y-139.355
X-301.706 Y-140.669
X-302.705 Y-141.998
X-303.685 Y-143.342
X-304.645 Y-144.699
X-305.585 Y-146.071
X-306.506 Y-147.455
X-307.406 Y-148.853
X-308.285 Y-150.264
X-309.145 Y-151.688
X-309.983 Y-153.124
X-310.801 Y-154.572
X-311.597 Y-156.032
X-312.372 Y-157.503
X-313.125 Y-158.985
X-313.857 Y-160.478
X-314.567 Y-161.982
X-315.255 Y-163.495
X-315.92 Y-165.019
X-316.564 Y-166.552
X-317.185 Y-168.094
X-317.784 Y-169.646
X-318.361 Y-171.205
X-318.914 Y-172.773
X-319.445 Y-174.349
X-319.953 Y-175.932
X-320.438 Y-177.523
X-320.9 Y-179.12
X-321.338 Y-180.724
X-321.754 Y-182.334
X-322.146 Y-183.95
X-322.514 Y-185.571
X-322.859 Y-187.198
X-323.18 Y-188.829
X-323.477 Y-190.465
X-323.751 Y-192.105
X-324.001 Y-193.749
X-324.226 Y-195.397
X-324.428 Y-197.047
X-324.606 Y-198.7
X-324.76 Y-200.356
X-324.89 Y-202.014
X-324.996 Y-203.673
X-325.078 Y-205.334
X-325.135 Y-206.995
X-325.169 Y-208.658
X-325.178 Y-210.321
X-325.164 Y-211.983
X-325.125 Y-213.646
X-325.063 Y-215.307
X-324.976 Y-216.968
X-324.866 Y-218.627
X-324.731 Y-220.284
X-324.572 Y-221.939
X-324.389 Y-223.592
X-324.182 Y-225.242
X-323.952 Y-226.888
X-323.697 Y-228.531
X-323.419 Y-230.171
X-323.116 Y-231.806
X-322.791 Y-233.436
X-322.441 Y-235.062
X-322.068 Y-236.682
X-321.672 Y-238.297
X-321.253 Y-239.906
X-320.81 Y-241.509
X-320.344 Y-243.105
X-319.855 Y-244.694
X-319.343 Y-246.276
X-318.808 Y-247.851
X-318.251 Y-249.417
X-317.671 Y-250.975
X-317.068 Y-252.525
X-316.443 Y-254.066
X-315.796 Y-255.598
X-315.126 Y-257.12
X-314.435 Y-258.632
X-313.722 Y-260.134
X-312.987 Y-261.625
X-312.23 Y-263.106
X-311.452 Y-264.575
X-310.653 Y-266.034
X-309.833 Y-267.48
X-308.992 Y-268.915
X-308.131 Y-270.337
X-307.249 Y-271.746
X-306.346 Y-273.143
X-305.424 Y-274.526
X-304.482 Y-275.896
X-303.52 Y-277.253
X-302.539 Y-278.595
X-301.538 Y-279.923
X-300.518 Y-281.236
X-299.479 Y-282.534
X-298.422 Y-283.817
X-297.346 Y-285.085
X-296.251 Y-286.337
X-295.139 Y-287.573
X-294.009 Y-288.793
X-292.861 Y-289.996
X-291.696 Y-291.182
X-290.514 Y-292.352
X-289.316 Y-293.504
X-288.1 Y-294.639
X-286.869 Y-295.756
X-285.621 Y-296.855
X-284.358 Y-297.936
X-283.079 Y-298.999
X-281.785 Y-300.043
X-280.476 Y-301.069
X-279.153 Y-302.075
X-277.815 Y-303.063
X-276.463 Y-304.03
X-275.097 Y-304.978
X-273.717 Y-305.907
X-272.324 Y-306.815
X-270.918 Y-307.702
X-269.5 Y-308.57
X-268.069 Y-309.416
X-266.626 Y-310.242
X-265.171 Y-311.047
X-263.704 Y-311.831
X-262.227 Y-312.594
X-260.738 Y-313.335
X-259.239 Y-314.054
X-257.73 Y-314.752
X-256.211 Y-315.428
X-254.682 Y-316.082
X-253.144 Y-316.714
X-251.597 Y-317.324
X-250.042 Y-317.911
X-248.478 Y-318.476
X-246.906 Y-319.019
X-245.327 Y-319.538
X-243.74 Y-320.035
X-242.146 Y-320.508
X-240.545 Y-320.958
X-238.938 Y-321.385
X-237.325 Y-321.789
X-235.707 Y-322.17
X-234.083 Y-322.527
X-232.454 Y-322.861
X-230.82 Y-323.171
X-229.182 Y-323.457
X-227.54 Y-323.72
X-225.895 Y-323.96
X-224.246 Y-324.175
X-222.595 Y-324.367
X-220.94 Y-324.535
X-219.284 Y-324.68
X-217.626 Y-324.8
X-215.966 Y-324.897
X-214.304 Y-324.969
X-212.642 Y-325.018
X-210.98 Y-325.043
X-209.317 Y-325.044
X-207.655 Y-325.02
X-205.992 Y-324.973
X-204.331 Y-324.902
X-202.671 Y-324.807
X-201.013 Y-324.688
X-199.356 Y-324.546
X-197.702 Y-324.379
X-196.05 Y-324.189
X-194.401 Y-323.975
X-192.755 Y-323.738
X-191.113 Y-323.477
X-189.475 Y-323.192
X-187.841 Y-322.884
X-186.211 Y-322.553
X-184.587 Y-322.199
X-182.968 Y-321.821
X-181.354 Y-321.42
X-179.746 Y-320.996
X-178.145 Y-320.549
X-176.55 Y-320.079
X-174.961 Y-319.586
X-173.381 Y-319.071
X-171.807 Y-318.533
X-170.242 Y-317.972
X-168.685 Y-317.389
X-167.136 Y-316.784
X-165.596 Y-316.157
X-164.065 Y-315.508
X-162.544 Y-314.838
X-161.032 Y-314.145
X-159.53 Y-313.431
X-158.039 Y-312.696
X-156.558 Y-311.94
X-155.088 Y-311.163
X-153.629 Y-310.365
X-152.182 Y-309.546
X-150.747 Y-308.706
X-149.323 Y-307.847
X-147.913 Y-306.967
X-146.514 Y-306.067
X-145.129 Y-305.148
X-143.757 Y-304.208
X-142.399 Y-303.249
X-141.054 Y-302.271
X-139.723 Y-301.274
X-138.407 Y-300.258
X-137.105 Y-299.224
X-135.818 Y-298.171
X-134.546 Y-297.1
X-133.29 Y-296.011
X-132.049 Y-294.904
X-130.824 Y-293.78
X-129.615 Y-292.639
X-128.422 Y-291.481
X-127.245 Y-290.305
X-126.086 Y-289.114
X-124.943 Y-287.906
X-123.818 Y-286.682
X-122.71 Y-285.442
X-121.619 Y-284.187
X-120.547 Y-282.916
X-119.493 Y-281.63
X-118.457 Y-280.329
X-117.44 Y-279.014
X-116.442 Y-277.684
X-115.462 Y-276.34
X-114.502 Y-274.983
X-113.561 Y-273.612
X-112.639 Y-272.228
X-111.737 Y-270.831
X-110.855 Y-269.422
X-109.993 Y-268
X-109.151 Y-266.566
X-108.33 Y-265.121
X-107.529 Y-263.663
X-106.748 Y-262.195
X-105.989 Y-260.716
X-105.25 Y-259.226
X-104.533 Y-257.726
X-103.837 Y-256.216
X-103.162 Y-254.697
X-102.509 Y-253.168
X-101.878 Y-251.629
X-101.268 Y-250.082
X-100.681 Y-248.527
X-100.115 Y-246.963
X-99.572 Y-245.391
X-99.051 Y-243.812
X-98.553 Y-242.226
X-98.077 Y-240.633
X-97.624 Y-239.033
X-97.193 Y-237.427
X-96.785 Y-235.815
X-96.4 Y-234.198
X-96.037 Y-232.575
X-95.698 Y-230.947
X-95.382 Y-229.315
X-95.088 Y-227.678
X-94.818 Y-226.037
X-94.571 Y-224.393
X-94.348 Y-222.745
X-94.148 Y-221.095
X-93.971 Y-219.441
X-93.818 Y-217.786
X-93.688 Y-216.128
X-93.582 Y-214.469
X-93.499 Y-212.808
X-93.44 Y-211.146
X-93.404 Y-209.484
X-93.392 Y-207.821
X-93.404 Y-206.159
X-93.439 Y-204.496
X-93.497 Y-202.834
X-93.579 Y-201.174
X-93.685 Y-199.514
X-93.814 Y-197.857
X-93.966 Y-196.201
X-94.142 Y-194.547
X-94.341 Y-192.897
X-94.563 Y-191.249
X-94.809 Y-189.604
X-95.078 Y-187.963
X-95.37 Y-186.327
X-95.686 Y-184.694
X-96.024 Y-183.066
X-96.386 Y-181.443
X-96.771 Y-179.826
X-97.178 Y-178.214
X-97.609 Y-176.607
X-98.062 Y-175.008
X-98.538 Y-173.414
X-99.036 Y-171.828
X-99.556 Y-170.249
X-100.099 Y-168.677
X-100.664 Y-167.113
X-101.251 Y-165.558
X-101.861 Y-164.011
X-102.491 Y-162.472
X-103.144 Y-160.943
X-103.818 Y-159.423
X-104.514 Y-157.913
X-105.23 Y-156.412
X-105.969 Y-154.922
X-106.728 Y-153.443
X-107.508 Y-151.975
X-108.309 Y-150.518
X-109.13 Y-149.072
X-109.972 Y-147.638
X-110.834 Y-146.216
X-111.716 Y-144.807
X-112.618 Y-143.41
X-113.54 Y-142.026
X-114.481 Y-140.655
X-115.442 Y-139.298
X-116.421 Y-137.954
X-117.42 Y-136.625
X-118.437 Y-135.309
X-119.472 Y-134.008
X-120.526 Y-132.722
X-121.598 Y-131.451
X-122.688 Y-130.195
X-123.795 Y-128.955
X-124.92 Y-127.73
X-126.062 Y-126.522
X-127.221 Y-125.329
X-128.397 Y-124.154
X-129.589 Y-122.995
X-130.798 Y-121.853
X-132.022 Y-120.728
X-133.263 Y-119.621
X-134.519 Y-118.532
X-135.79 Y-117.46
X-137.076 Y-116.406
X-138.377 Y-115.371
X-139.693 Y-114.354
X-141.023 Y-113.355
X-142.366 Y-112.376
X-143.723 Y-111.415
X-145.094 Y-110.474
X-146.478 Y-109.552
X-147.874 Y-108.65
X-149.284 Y-107.767
X-150.705 Y-106.904
X-152.139 Y-106.062
X-153.584 Y-105.24
X-155.041 Y-104.438
X-156.509 Y-103.657
X-157.987 Y-102.897
X-159.477 Y-102.158
X-160.976 Y-101.44
X-162.486 Y-100.743
X-164.005 Y-100.067
X-165.534 Y-99.413
X-167.072 Y-98.78
X-168.618 Y-98.17
X-170.173 Y-97.58
X-171.736 Y-97.013
X-173.307 Y-96.468
X-174.885 Y-95.945
X-176.471 Y-95.444
X-178.063 Y-94.965
X-179.662 Y-94.509
X-181.267 Y-94.075
X-182.878 Y-93.664
X-184.495 Y-93.276
X-186.117 Y-92.91
X-187.744 Y-92.567
X-189.376 Y-92.248
X-191.012 Y-91.951
X-192.652 Y-91.677
X-194.296 Y-91.426
X-195.943 Y-91.199
X-197.593 Y-90.994
X-199.246 Y-90.813
X-200.901 Y-90.654
X-202.558 Y-90.519
X-202.736 Y-90.507
X-202.81 Y-90.503
X-202.884 Y-90.501
X-202.958 Y-90.5
X-214.648
X-216.309 Y-90.583
X-217.971 Y-90.611
X-219.633 Y-90.672
X-221.293 Y-90.765
X-222.951 Y-90.886
X-224.607 Y-91.036
X-226.261 Y-91.214
X-227.911 Y-91.418
X-229.557 Y-91.648
X-231.2 Y-91.904
X-232.839 Y-92.185
X-234.474 Y-92.49
X-236.104 Y-92.819
X-237.729 Y-93.172
X-239.348 Y-93.548
X-240.962 Y-93.948
X-242.57 Y-94.37
X-244.172 Y-94.816
X-245.768 Y-95.284
X-247.357 Y-95.774
X-248.938 Y-96.287
X-250.512 Y-96.822
X-252.079 Y-97.38
X-253.638 Y-97.959
X-255.188 Y-98.559
X-256.73 Y-99.181
X-258.263 Y-99.825
X-259.787 Y-100.49
X-261.302 Y-101.176
X-262.807 Y-101.884
X-264.301 Y-102.612
X-265.786 Y-103.361
X-267.26 Y-104.131
X-268.722 Y-104.922
X-270.174 Y-105.732
X-271.614 Y-106.563
X-273.043 Y-107.414
X-274.459 Y-108.285
X-275.864 Y-109.175
X-277.255 Y-110.085
X-278.635 Y-111.014
X-280.001 Y-111.962
X-281.353 Y-112.929
X-282.693 Y-113.914
X-284.018 Y-114.918
X-285.329 Y-115.941
X-286.626 Y-116.981
X-287.909 Y-118.039
X-289.177 Y-119.115
X-290.43 Y-120.208
X-291.667 Y-121.319
X-292.889 Y-122.447
X-294.094 Y-123.592
X-295.284 Y-124.754
X-296.458 Y-125.932
X-297.615 Y-127.126
X-298.755 Y-128.336
X-299.878 Y-129.562
X-300.985 Y-130.803
X-302.074 Y-132.06
X-303.145 Y-133.331
X-304.199 Y-134.617
X-305.235 Y-135.918
X-306.253 Y-137.233
X-307.252 Y-138.561
X-308.233 Y-139.904
X-309.196 Y-141.26
X-310.139 Y-142.629
X-311.064 Y-144.011
X-311.969 Y-145.406
X-312.855 Y-146.813
X-313.721 Y-148.232
X-314.568 Y-149.663
X-315.394 Y-151.106
X-316.201 Y-152.56
X-316.987 Y-154.025
X-317.752 Y-155.501
X-318.497 Y-156.988
X-319.222 Y-158.484
X-319.926 Y-159.991
X-320.608 Y-161.507
X-321.27 Y-163.032
X-321.911 Y-164.567
X-322.53 Y-166.11
X-323.128 Y-167.661
X-323.705 Y-169.221
X-324.26 Y-170.788
X-324.793 Y-172.363
X-325.304 Y-173.945
X-325.794 Y-175.534
X-326.262 Y-177.13
X-326.708 Y-178.732
X-327.131 Y-180.34
X-327.532 Y-181.954
X-327.91 Y-183.573
X-328.266 Y-185.197
X-328.599 Y-186.826
X-328.91 Y-188.459
X-329.198 Y-190.097
X-329.464 Y-191.738
X-329.707 Y-193.383
X-329.927 Y-195.031
X-330.124 Y-196.682
X-330.298 Y-198.336
X-330.45 Y-199.992
X-330.579 Y-201.65
X-330.685 Y-203.309
X-330.768 Y-204.97
X-330.828 Y-206.631
X-330.866 Y-208.294
X-330.88 Y-209.956
X-330.872 Y-211.619
X-330.84 Y-213.281
X-330.786 Y-214.943
