%
(1001)
(origin stock top)
(T1  D=12.7 CR=0 - ZMIN=-12 - flat end mill)
G90 G94
G17
G21

(top_right)
M9
T1 M6
S6500 M3
G54
G0 X-213.483 Y-545.069
Z15
Z5
Z2.55
G3 X-206.533 Y-554.931 Z0.558 I3.475 J-4.931 F283.3
X-213.483 Y-545.069 Z-1.434 I-3.475 J4.931
X-206.533 Y-554.931 Z-3.426 I3.475 J-4.931
X-213.483 Y-545.069 Z-5.418 I-3.475 J4.931
X-206.533 Y-554.931 Z-7.409 I3.475 J-4.931
X-213.483 Y-545.069 Z-9.401 I-3.475 J4.931
X-206.533 Y-554.931 Z-11.393 I3.475 J-4.931
X-203.976 Y-550 Z-12 I-3.475 J4.931
X-216.041 I-6.033
X-203.976 I6.033
G1 X-203.972 Y-549.677 F849.6
X-203.94 Y-549.356
X-203.699 Y-548.086
X-203.65 Y-547.929
X-203.606 Y-547.753
X-203.572 Y-547.558
X-203.549 Y-547.345
X-203.54 Y-547.114
X-203.546 Y-546.866
X-203.57 Y-546.602
X-203.615 Y-546.325
X-203.681 Y-546.034
X-203.771 Y-545.734
X-203.887 Y-545.424
X-204.029 Y-545.109
X-204.199 Y-544.79
X-204.397 Y-544.471
X-204.625 Y-544.154
X-204.882 Y-543.842
X-205.168 Y-543.538
X-205.483 Y-543.245
X-205.827 Y-542.966
X-206.197 Y-542.704
X-206.593 Y-542.461
X-207.013 Y-542.241
X-207.455 Y-542.045
X-207.917 Y-541.875
X-208.398 Y-541.735
X-208.893 Y-541.625
X-209.402 Y-541.548
X-209.921 Y-541.503
X-210.447 Y-541.493
X-210.978 Y-541.518
X-211.511 Y-541.579
X-212.043 Y-541.676
X-212.57 Y-541.809
X-213.092 Y-541.978
X-213.603 Y-542.182
X-214.103 Y-542.42
X-214.588 Y-542.693
X-215.055 Y-542.998
X-215.503 Y-543.335
X-215.929 Y-543.702
X-216.331 Y-544.098
X-216.707 Y-544.52
X-217.054 Y-544.967
X-217.372 Y-545.438
X-217.659 Y-545.929
X-217.912 Y-546.439
X-218.132 Y-546.966
X-218.316 Y-547.506
X-218.465 Y-548.059
X-218.576 Y-548.62
X-218.65 Y-549.188
X-218.686 Y-549.76
X-218.685 Y-550.334
X-218.645 Y-550.907
X-218.567 Y-551.476
X-218.451 Y-552.039
X-218.299 Y-552.593
X-218.11 Y-553.136
X-217.885 Y-553.666
X-217.626 Y-554.179
X-217.333 Y-554.675
X-217.007 Y-555.15
X-216.651 Y-555.603
X-216.266 Y-556.031
X-215.853 Y-556.432
X-215.414 Y-556.805
X-214.951 Y-557.149
X-214.466 Y-557.461
X-213.962 Y-557.74
X-213.441 Y-557.985
X-212.904 Y-558.195
X-212.354 Y-558.37
X-211.794 Y-558.507
X-211.226 Y-558.607
X-210.653 Y-558.669
X-210.077 Y-558.692
X-209.5 Y-558.678
X-208.926 Y-558.625
X-208.356 Y-558.534
X-207.794 Y-558.406
X-207.242 Y-558.241
X-206.701 Y-558.039
X-206.175 Y-557.802
X-205.666 Y-557.531
X-205.177 Y-557.227
X-204.708 Y-556.89
X-204.263 Y-556.524
X-203.843 Y-556.128
X-203.45 Y-555.706
X-203.086 Y-555.258
X-202.752 Y-554.788
X-202.451 Y-554.296
X-201.876 Y-553.202
X-201.434 Y-552.206
X-201.128 Y-551.369
X-200.909 Y-550.62
X-200.751 Y-549.911
X-200.649 Y-549.241
X-200.593 Y-548.594
X-200.581 Y-547.962
X-200.61 Y-547.343
X-200.68 Y-546.735
X-200.788 Y-546.139
X-200.935 Y-545.554
X-201.12 Y-544.981
X-201.344 Y-544.421
X-201.605 Y-543.874
X-201.903 Y-543.343
X-202.239 Y-542.828
X-202.611 Y-542.333
X-203.02 Y-541.858
X-203.463 Y-541.407
X-203.941 Y-540.982
X-204.452 Y-540.585
X-204.993 Y-540.219
X-205.564 Y-539.886
X-206.161 Y-539.589
X-206.783 Y-539.33
X-207.426 Y-539.11
X-208.089 Y-538.932
X-208.767 Y-538.797
X-209.459 Y-538.707
X-210.16 Y-538.662
X-210.869 Y-538.664
X-211.58 Y-538.713
X-212.292 Y-538.81
X-213 Y-538.955
X-213.701 Y-539.148
X-214.392 Y-539.389
X-215.069 Y-539.676
X-215.729 Y-540.009
X-216.368 Y-540.386
X-216.983 Y-540.807
X-217.571 Y-541.269
X-218.128 Y-541.771
X-218.653 Y-542.311
X-219.142 Y-542.885
X-219.593 Y-543.492
X-220.004 Y-544.13
X-220.372 Y-544.794
X-220.696 Y-545.482
X-220.974 Y-546.192
X-221.204 Y-546.92
X-221.386 Y-547.662
X-221.519 Y-548.415
X-221.601 Y-549.177
X-221.633 Y-549.943
X-221.614 Y-550.71
X-221.544 Y-551.475
X-221.423 Y-552.233
X-221.253 Y-552.983
X-221.032 Y-553.72
X-220.764 Y-554.441
X-220.447 Y-555.144
X-220.085 Y-555.823
X-219.679 Y-556.478
X-219.229 Y-557.105
X-218.739 Y-557.7
X-218.211 Y-558.262
X-217.646 Y-558.787
X-217.048 Y-559.274
X-216.418 Y-559.721
X-215.76 Y-560.124
X-215.077 Y-560.484
X-214.371 Y-560.797
X-213.646 Y-561.063
X-212.905 Y-561.28
X-212.151 Y-561.447
X-211.388 Y-561.564
X-210.618 Y-561.63
X-209.846 Y-561.645
X-209.074 Y-561.609
X-208.306 Y-561.522
X-207.546 Y-561.384
X-206.797 Y-561.196
X-206.062 Y-560.958
X-205.344 Y-560.672
X-204.646 Y-560.34
X-203.972 Y-559.962
X-203.325 Y-559.539
X-202.707 Y-559.075
X-202.057 Y-558.516
X-201.43 Y-557.899
X-200.796 Y-557.188
X-200.195 Y-556.415
X-199.646 Y-555.602
X-199.155 Y-554.762
X-198.728 Y-553.905
X-198.366 Y-553.038
X-198.068 Y-552.166
X-197.833 Y-551.293
X-197.66 Y-550.424
X-197.547 Y-549.56
X-197.492 Y-548.703
X-197.495 Y-547.854
X-197.553 Y-547.014
X-197.665 Y-546.186
X-197.832 Y-545.37
X-198.052 Y-544.569
X-198.325 Y-543.785
X-198.648 Y-543.021
X-199.023 Y-542.278
X-199.447 Y-541.56
X-199.92 Y-540.869
X-200.439 Y-540.208
X-201.004 Y-539.58
X-201.613 Y-538.988
X-202.263 Y-538.434
X-202.952 Y-537.922
X-203.678 Y-537.454
X-204.438 Y-537.032
X-205.23 Y-536.66
X-206.049 Y-536.339
X-206.893 Y-536.071
X-207.758 Y-535.858
X-208.64 Y-535.703
X-209.537 Y-535.605
X-210.444 Y-535.568
X-211.357 Y-535.59
X-212.271 Y-535.673
X-213.183 Y-535.818
X-214.088 Y-536.024
X-214.981 Y-536.291
X-215.858 Y-536.617
X-216.716 Y-537.003
X-217.549 Y-537.447
X-218.354 Y-537.946
X-219.126 Y-538.5
X-219.862 Y-539.105
X-220.559 Y-539.76
X-221.212 Y-540.462
X-221.819 Y-541.207
X-222.376 Y-541.992
X-222.881 Y-542.814
X-223.331 Y-543.669
X-223.723 Y-544.554
X-224.057 Y-545.464
X-224.33 Y-546.396
X-224.541 Y-547.345
X-224.689 Y-548.307
X-224.773 Y-549.277
X-224.792 Y-550.252
X-224.747 Y-551.227
X-224.637 Y-552.197
X-224.462 Y-553.159
X-224.224 Y-554.107
X-223.924 Y-555.038
X-223.562 Y-555.948
X-223.141 Y-556.832
X-222.662 Y-557.686
X-222.126 Y-558.508
X-221.538 Y-559.292
X-220.898 Y-560.035
X-220.211 Y-560.735
X-219.478 Y-561.388
X-218.703 Y-561.99
X-217.891 Y-562.541
X-217.043 Y-563.036
X-216.164 Y-563.474
X-215.258 Y-563.853
X-214.328 Y-564.17
X-213.38 Y-564.426
X-212.416 Y-564.618
X-211.442 Y-564.746
X-210.462 Y-564.809
X-209.479 Y-564.807
X-208.498 Y-564.739
X-207.525 Y-564.607
X-206.562 Y-564.41
X-205.614 Y-564.15
X-204.685 Y-563.828
X-203.766 Y-563.439
X-202.86 Y-562.982
X-201.962 Y-562.452
X-201.081 Y-561.85
X-200.228 Y-561.179
X-199.409 Y-560.443
X-198.63 Y-559.643
X-197.899 Y-558.786
X-197.223 Y-557.876
X-196.609 Y-556.924
X-196.06 Y-555.935
X-195.581 Y-554.917
X-195.173 Y-553.879
X-194.838 Y-552.825
X-194.576 Y-551.759
X-194.387 Y-550.688
X-194.27 Y-549.614
X-194.225 Y-548.541
X-194.251 Y-547.474
X-194.348 Y-546.414
X-194.513 Y-545.367
X-194.748 Y-544.335
X-195.05 Y-543.323
X-195.418 Y-542.332
X-195.852 Y-541.368
X-196.349 Y-540.434
X-196.907 Y-539.534
X-197.526 Y-538.67
X-198.202 Y-537.847
X-198.934 Y-537.069
X-199.718 Y-536.338
X-200.553 Y-535.658
X-201.433 Y-535.033
X-202.358 Y-534.465
X-203.322 Y-533.958
X-204.322 Y-533.513
X-205.354 Y-533.134
X-206.413 Y-532.823
X-207.497 Y-532.582
X-208.599 Y-532.413
X-209.715 Y-532.316
X-210.84 Y-532.293
X-211.969 Y-532.346
X-213.097 Y-532.473
X-214.219 Y-532.677
X-215.33 Y-532.955
X-216.424 Y-533.308
X-217.496 Y-533.734
X-218.542 Y-534.232
X-219.555 Y-534.8
X-220.531 Y-535.435
X-221.466 Y-536.137
X-222.354 Y-536.9
X-223.192 Y-537.723
X-223.975 Y-538.602
X-224.7 Y-539.532
X-225.362 Y-540.51
X-225.959 Y-541.532
X-226.488 Y-542.593
X-226.946 Y-543.688
X-227.331 Y-544.813
X-227.641 Y-545.962
X-227.875 Y-547.13
X-228.03 Y-548.313
X-228.107 Y-549.504
X-228.104 Y-550.699
X-228.023 Y-551.892
X-227.862 Y-553.077
X-227.623 Y-554.25
X-227.306 Y-555.406
X-226.913 Y-556.538
X-226.446 Y-557.642
X-225.906 Y-558.714
X-225.297 Y-559.747
X-224.62 Y-560.739
X-223.878 Y-561.683
X-223.075 Y-562.577
X-222.214 Y-563.415
X-221.3 Y-564.195
X-220.335 Y-564.912
X-219.325 Y-565.564
X-218.274 Y-566.148
X-217.186 Y-566.661
X-216.067 Y-567.101
X-214.92 Y-567.465
X-213.752 Y-567.753
X-212.567 Y-567.962
X-211.371 Y-568.093
X-210.169 Y-568.144
X-208.966 Y-568.115
X-207.767 Y-568.006
X-206.575 Y-567.818
X-205.392 Y-567.549
X-204.219 Y-567.2
X-203.058 Y-566.768
X-201.915 Y-566.255
X-200.795 Y-565.659
X-199.704 Y-564.982
X-198.653 Y-564.23
X-197.654 Y-563.41
X-196.711 Y-562.527
X-195.827 Y-561.585
X-195.005 Y-560.588
X-194.249 Y-559.54
X-193.561 Y-558.446
X-192.945 Y-557.311
X-192.403 Y-556.138
X-191.938 Y-554.932
X-191.552 Y-553.7
X-191.247 Y-552.444
X-191.024 Y-551.171
X-190.886 Y-549.887
X-190.832 Y-548.596
X-190.864 Y-547.304
X-190.981 Y-546.019
X-191.183 Y-544.747
X-191.469 Y-543.491
X-191.837 Y-542.259
X-192.285 Y-541.053
X-192.813 Y-539.88
X-193.419 Y-538.743
X-194.099 Y-537.647
X-194.851 Y-536.597
X-195.672 Y-535.599
X-196.557 Y-534.658
X-197.502 Y-533.777
X-198.503 Y-532.96
X-199.556 Y-532.211
X-200.655 Y-531.532
X-201.797 Y-530.926
X-202.975 Y-530.396
X-204.185 Y-529.944
X-205.422 Y-529.571
X-206.681 Y-529.278
X-207.956 Y-529.067
X-209.241 Y-528.938
X-210.532 Y-528.891
X-211.824 Y-528.925
X-213.111 Y-529.041
X-214.388 Y-529.238
X-215.65 Y-529.514
X-216.892 Y-529.869
X-218.111 Y-530.299
X-219.3 Y-530.805
X-220.455 Y-531.382
X-221.573 Y-532.03
X-222.649 Y-532.746
X-223.679 Y-533.526
X-224.658 Y-534.37
X-225.583 Y-535.271
X-226.451 Y-536.229
X-227.259 Y-537.237
X-228.004 Y-538.293
X-228.683 Y-539.391
X-229.295 Y-540.529
X-229.838 Y-541.702
X-230.308 Y-542.905
X-230.706 Y-544.135
X-231.028 Y-545.386
X-231.273 Y-546.655
X-231.44 Y-547.936
X-231.529 Y-549.225
X-231.54 Y-550.517
X-231.473 Y-551.807
X-231.329 Y-553.091
X-231.109 Y-554.364
X-230.813 Y-555.622
X-230.442 Y-556.86
X-229.998 Y-558.073
X-229.481 Y-559.257
X-228.894 Y-560.408
X-228.238 Y-561.521
X-227.516 Y-562.592
X-226.73 Y-563.618
X-225.885 Y-564.596
X-224.983 Y-565.521
X-224.028 Y-566.391
X-223.022 Y-567.202
X-221.97 Y-567.952
X-220.875 Y-568.638
X-219.741 Y-569.256
X-218.571 Y-569.805
X-217.37 Y-570.281
X-216.143 Y-570.685
X-214.893 Y-571.015
X-213.627 Y-571.269
X-212.347 Y-571.448
X-211.059 Y-571.551
X-209.767 Y-571.577
X-208.476 Y-571.525
X-207.19 Y-571.396
X-205.915 Y-571.19
X-204.654 Y-570.908
X-203.412 Y-570.552
X-202.193 Y-570.125
X-201 Y-569.629
X-199.837 Y-569.066
X-198.708 Y-568.437
X-197.618 Y-567.743
X-196.569 Y-566.989
X-195.564 Y-566.177
X-194.605 Y-565.311
X-193.696 Y-564.393
X-192.837 Y-563.428
X-192.033 Y-562.416
X-191.288 Y-561.361
X-190.602 Y-560.266
X-189.977 Y-559.135
X-189.415 Y-557.971
X-188.917 Y-556.779
X-188.485 Y-555.562
X-188.122 Y-554.322
X-187.83 Y-553.063
X-187.608 Y-551.79
X-187.458 Y-550.507
X-187.379 Y-549.217
X-187.371 Y-547.925
X-187.435 Y-546.635
X-187.573 Y-545.35
X-187.785 Y-544.075
X-188.068 Y-542.815
X-188.421 Y-541.572
X-188.843 Y-540.351
X-189.332 Y-539.155
X-189.887 Y-537.988
X-190.51 Y-536.856
X-191.195 Y-535.761
X-191.941 Y-534.706
X-192.745 Y-533.694
X-193.604 Y-532.729
X-194.514 Y-531.812
X-195.475 Y-530.948
X-196.484 Y-530.141
X-197.536 Y-529.392
X-198.629 Y-528.702
X-199.758 Y-528.073
X-200.919 Y-527.507
X-202.11 Y-527.005
X-203.327 Y-526.571
X-204.566 Y-526.205
X-205.823 Y-525.909
X-207.095 Y-525.681
X-208.378 Y-525.523
X-209.667 Y-525.433
X-210.958 Y-525.413
X-212.249 Y-525.464
X-213.536 Y-525.585
X-214.814 Y-525.776
X-216.08 Y-526.035
X-217.33 Y-526.36
X-218.562 Y-526.751
X-219.771 Y-527.205
X-220.954 Y-527.725
X-222.107 Y-528.307
X-223.228 Y-528.951
X-224.313 Y-529.652
X-225.36 Y-530.41
X-226.365 Y-531.221
X-227.327 Y-532.084
X-228.242 Y-532.997
X-229.106 Y-533.957
X-229.918 Y-534.962
X-230.677 Y-536.007
X-231.381 Y-537.09
X-232.029 Y-538.209
X-232.618 Y-539.358
X-233.146 Y-540.538
X-233.61 Y-541.744
X-234.011 Y-542.972
X-234.347 Y-544.22
X-234.618 Y-545.483
X-234.823 Y-546.758
X-234.963 Y-548.043
X-235.036 Y-549.333
X-235.04 Y-550.625
X-234.977 Y-551.916
X-234.847 Y-553.201
X-234.652 Y-554.478
X-234.392 Y-555.744
X-234.068 Y-556.995
X-233.679 Y-558.227
X-233.225 Y-559.437
X-232.709 Y-560.621
X-232.132 Y-561.777
X-231.497 Y-562.902
X-230.804 Y-563.993
X-230.058 Y-565.048
X-229.258 Y-566.062
X-228.405 Y-567.033
X-227.503 Y-567.958
X-226.555 Y-568.836
X-225.564 Y-569.664
X-224.531 Y-570.441
X-223.46 Y-571.164
X-222.353 Y-571.83
X-221.213 Y-572.437
X-220.042 Y-572.984
X-218.845 Y-573.469
X-217.624 Y-573.893
X-216.383 Y-574.254
X-215.126 Y-574.551
X-213.855 Y-574.784
X-212.574 Y-574.951
X-211.285 Y-575.05
X-209.994 Y-575.082
X-208.702 Y-575.048
X-207.414 Y-574.949
X-206.132 Y-574.784
X-204.861 Y-574.555
X-203.603 Y-574.261
X-202.361 Y-573.903
X-201.139 Y-573.483
X-199.94 Y-573.002
X-198.766 Y-572.463
X-197.62 Y-571.866
X-196.504 Y-571.214
X-195.422 Y-570.508
X-194.376 Y-569.75
X-193.369 Y-568.94
X-192.402 Y-568.084
X-191.477 Y-567.181
X-190.597 Y-566.235
X-189.763 Y-565.248
X-188.977 Y-564.223
X-188.241 Y-563.161
X-187.558 Y-562.064
X-186.929 Y-560.936
X-186.355 Y-559.778
X-185.836 Y-558.595
X-185.374 Y-557.388
X-184.971 Y-556.161
X-184.627 Y-554.915
X-184.345 Y-553.654
X-184.124 Y-552.381
X-183.966 Y-551.099
X-183.869 Y-549.811
X-183.835 Y-548.519
X-183.863 Y-547.227
X-183.954 Y-545.938
X-184.108 Y-544.655
X-184.325 Y-543.382
X-184.604 Y-542.12
X-184.945 Y-540.874
X-185.345 Y-539.645
X-185.804 Y-538.438
X-186.322 Y-537.254
X-186.896 Y-536.096
X-187.527 Y-534.969
X-188.214 Y-533.874
X-188.952 Y-532.814
X-189.741 Y-531.791
X-190.579 Y-530.807
X-191.463 Y-529.865
X-192.391 Y-528.966
X-193.362 Y-528.114
X-194.374 Y-527.311
X-195.424 Y-526.558
X-196.509 Y-525.856
X-197.627 Y-525.208
X-198.774 Y-524.613
X-199.948 Y-524.073
X-201.146 Y-523.591
X-202.367 Y-523.167
X-203.606 Y-522.803
X-204.862 Y-522.498
X-206.131 Y-522.254
X-207.41 Y-522.069
X-208.696 Y-521.945
X-209.986 Y-521.88
X-211.278 Y-521.877
X-212.569 Y-521.936
X-213.855 Y-522.056
X-215.135 Y-522.237
X-216.404 Y-522.476
X-217.662 Y-522.774
X-218.904 Y-523.13
X-220.128 Y-523.543
X-221.332 Y-524.012
X-222.512 Y-524.538
X-223.666 Y-525.118
X-224.793 Y-525.752
X-225.888 Y-526.436
X-226.952 Y-527.17
X-227.98 Y-527.952
X-228.972 Y-528.78
X-229.924 Y-529.653
X-230.835 Y-530.57
X-231.702 Y-531.528
X-232.524 Y-532.525
X-233.3 Y-533.558
X-234.028 Y-534.625
X-234.708 Y-535.724
X-235.337 Y-536.853
X-235.914 Y-538.009
X-236.436 Y-539.191
X-236.903 Y-540.395
X-237.315 Y-541.62
X-237.671 Y-542.862
X-237.97 Y-544.119
X-238.213 Y-545.388
X-238.398 Y-546.667
X-238.525 Y-547.953
X-238.591 Y-549.243
X-238.599 Y-550.535
X-238.548 Y-551.826
X-238.439 Y-553.114
X-238.273 Y-554.395
X-238.049 Y-555.667
X-237.769 Y-556.929
X-237.431 Y-558.176
X-237.036 Y-559.406
X-236.585 Y-560.617
X-236.079 Y-561.806
X-235.521 Y-562.971
X-234.911 Y-564.11
X-234.25 Y-565.22
X-233.541 Y-566.3
X-232.783 Y-567.347
X-231.978 Y-568.357
X-231.128 Y-569.33
X-230.234 Y-570.264
X-229.3 Y-571.156
X-228.326 Y-572.005
X-227.316 Y-572.811
X-226.271 Y-573.57
X-225.192 Y-574.281
X-224.081 Y-574.942
X-222.942 Y-575.551
X-221.776 Y-576.107
X-220.586 Y-576.611
X-219.375 Y-577.062
X-218.145 Y-577.458
X-216.899 Y-577.798
X-215.639 Y-578.083
X-214.366 Y-578.309
X-213.085 Y-578.476
X-211.798 Y-578.585
X-210.507 Y-578.637
X-209.215 Y-578.631
X-207.924 Y-578.568
X-206.638 Y-578.448
X-205.358 Y-578.27
X-204.088 Y-578.035
X-202.829 Y-577.743
X-201.585 Y-577.395
X-200.357 Y-576.992
X-199.148 Y-576.536
X-197.96 Y-576.029
X-196.795 Y-575.47
X-195.655 Y-574.862
X-194.543 Y-574.204
X-193.46 Y-573.498
X-192.41 Y-572.746
X-191.393 Y-571.949
X-190.411 Y-571.109
X-189.465 Y-570.229
X-188.558 Y-569.31
X-187.689 Y-568.353
X-186.862 Y-567.36
X-186.079 Y-566.332
X-185.341 Y-565.271
X-184.649 Y-564.18
X-184.004 Y-563.061
X-183.407 Y-561.915
X-182.858 Y-560.746
X-182.359 Y-559.554
X-181.91 Y-558.342
X-181.514 Y-557.113
X-181.171 Y-555.867
X-180.883 Y-554.607
X-180.649 Y-553.337
X-180.468 Y-552.057
X-180.343 Y-550.771
X-180.271 Y-549.481
X-180.254 Y-548.189
X-180.293 Y-546.898
X-180.388 Y-545.609
X-180.539 Y-544.326
X-180.745 Y-543.051
X-181.006 Y-541.785
X-181.32 Y-540.532
X-181.688 Y-539.293
X-182.107 Y-538.071
X-182.578 Y-536.868
X-183.102 Y-535.687
X-183.677 Y-534.53
X-184.301 Y-533.398
X-184.973 Y-532.295
X-185.692 Y-531.221
X-186.455 Y-530.179
X-187.262 Y-529.17
X-188.111 Y-528.196
X-189.001 Y-527.259
X-189.932 Y-526.363
X-190.9 Y-525.507
X-191.904 Y-524.694
X-192.942 Y-523.924
X-194.011 Y-523.199
X-195.11 Y-522.519
X-196.236 Y-521.886
X-197.388 Y-521.3
X-198.564 Y-520.766
X-199.762 Y-520.282
X-200.98 Y-519.85
X-202.215 Y-519.469
X-203.464 Y-519.141
X-204.726 Y-518.865
X-205.999 Y-518.642
X-207.28 Y-518.471
X-208.566 Y-518.354
X-209.857 Y-518.292
X-211.149 Y-518.285
X-212.44 Y-518.332
X-213.728 Y-518.433
X-215.011 Y-518.586
X-216.287 Y-518.792
X-217.553 Y-519.05
X-218.807 Y-519.359
X-220.048 Y-519.72
X-221.272 Y-520.133
X-222.478 Y-520.597
X-223.664 Y-521.11
X-224.828 Y-521.672
X-225.967 Y-522.28
X-227.082 Y-522.934
X-228.169 Y-523.633
X-229.226 Y-524.375
X-230.252 Y-525.16
X-231.245 Y-525.988
X-232.202 Y-526.855
X-233.123 Y-527.761
X-234.007 Y-528.704
X-234.852 Y-529.682
X-235.657 Y-530.692
X-236.421 Y-531.734
X-237.142 Y-532.806
X-237.819 Y-533.907
X-238.45 Y-535.034
X-239.034 Y-536.187
X-239.57 Y-537.362
X-240.059 Y-538.558
X-240.499 Y-539.773
X-240.891 Y-541.004
X-241.233 Y-542.25
X-241.525 Y-543.509
X-241.765 Y-544.778
X-241.953 Y-546.057
X-242.089 Y-547.342
X-242.172 Y-548.631
X-242.204 Y-549.923
X-242.184 Y-551.214
X-242.113 Y-552.505
X-241.991 Y-553.791
X-241.817 Y-555.071
X-241.592 Y-556.343
X-241.314 Y-557.605
X-240.985 Y-558.855
X-240.606 Y-560.09
X-240.178 Y-561.309
X-239.702 Y-562.51
X-239.178 Y-563.691
X-238.608 Y-564.851
X-237.993 Y-565.987
X-237.331 Y-567.097
X-236.625 Y-568.178
X-235.875 Y-569.231
X-235.084 Y-570.252
X-234.252 Y-571.241
X-233.382 Y-572.196
X-232.475 Y-573.116
X-231.532 Y-574
X-230.554 Y-574.845
X-229.543 Y-575.649
X-228.5 Y-576.411
X-227.427 Y-577.131
X-226.326 Y-577.807
X-225.198 Y-578.438
X-224.047 Y-579.024
X-222.873 Y-579.564
X-221.679 Y-580.057
X-220.466 Y-580.502
X-219.236 Y-580.897
X-217.991 Y-581.242
X-216.732 Y-581.537
X-215.464 Y-581.78
X-214.186 Y-581.973
X-212.902 Y-582.115
X-211.613 Y-582.207
X-210.322 Y-582.247
X-209.03 Y-582.236
X-207.739 Y-582.173
X-206.452 Y-582.058
X-205.171 Y-581.892
X-203.897 Y-581.675
X-202.633 Y-581.407
X-201.38 Y-581.091
X-200.141 Y-580.726
X-198.916 Y-580.314
X-197.709 Y-579.854
X-196.521 Y-579.347
X-195.353 Y-578.793
X-194.208 Y-578.194
X-193.088 Y-577.551
X-191.993 Y-576.865
X-190.925 Y-576.138
X-189.885 Y-575.371
X-188.876 Y-574.564
X-187.897 Y-573.721
X-186.952 Y-572.84
X-186.041 Y-571.923
X-185.167 Y-570.972
X-184.329 Y-569.988
X-183.53 Y-568.973
X-182.77 Y-567.928
X-182.05 Y-566.855
X-181.37 Y-565.756
X-180.732 Y-564.633
X-180.137 Y-563.486
X-179.587 Y-562.317
X-179.082 Y-561.128
X-178.623 Y-559.92
X-178.211 Y-558.695
X-177.845 Y-557.456
X-177.527 Y-556.204
X-177.256 Y-554.94
X-177.032 Y-553.668
X-176.857 Y-552.388
X-176.731 Y-551.102
X-176.656 Y-549.812
X-176.63 Y-548.52
X-176.654 Y-547.228
X-176.727 Y-545.938
X-176.849 Y-544.652
X-177.02 Y-543.372
X-177.24 Y-542.098
X-177.507 Y-540.834
X-177.823 Y-539.581
X-178.188 Y-538.342
X-178.6 Y-537.117
X-179.059 Y-535.909
X-179.564 Y-534.72
X-180.115 Y-533.551
X-180.709 Y-532.404
X-181.347 Y-531.28
X-182.026 Y-530.181
X-182.747 Y-529.109
X-183.509 Y-528.066
X-184.311 Y-527.052
X-185.151 Y-526.071
X-186.028 Y-525.122
X-186.941 Y-524.208
X-187.888 Y-523.329
X-188.868 Y-522.487
X-189.878 Y-521.682
X-190.919 Y-520.915
X-191.987 Y-520.189
X-193.083 Y-519.505
X-194.205 Y-518.863
X-195.35 Y-518.264
X-196.517 Y-517.71
X-197.704 Y-517.199
X-198.909 Y-516.734
X-200.131 Y-516.314
X-201.368 Y-515.94
X-202.617 Y-515.612
X-203.879 Y-515.333
X-205.15 Y-515.101
X-206.429 Y-514.918
X-207.714 Y-514.783
X-209.003 Y-514.696
X-210.295 Y-514.657
X-211.587 Y-514.666
X-212.877 Y-514.722
X-214.165 Y-514.826
X-215.448 Y-514.978
X-216.725 Y-515.178
X-217.993 Y-515.426
X-219.251 Y-515.721
X-220.497 Y-516.062
X-221.73 Y-516.449
X-222.947 Y-516.881
X-224.148 Y-517.357
X-225.331 Y-517.877
X-226.494 Y-518.44
X-227.636 Y-519.046
X-228.754 Y-519.694
X-229.847 Y-520.382
X-230.914 Y-521.111
X-231.954 Y-521.878
X-232.964 Y-522.683
X-233.945 Y-523.524
X-234.895 Y-524.4
X-235.813 Y-525.309
X-236.696 Y-526.252
X-237.544 Y-527.227
X-238.356 Y-528.232
X-239.131 Y-529.266
X-239.867 Y-530.328
X-240.564 Y-531.416
X-241.221 Y-532.528
X-241.837 Y-533.664
X-242.412 Y-534.821
X-242.945 Y-535.998
X-243.435 Y-537.193
X-243.881 Y-538.406
X-244.282 Y-539.634
X-244.638 Y-540.876
X-244.948 Y-542.131
X-245.213 Y-543.395
X-245.432 Y-544.669
X-245.605 Y-545.949
X-245.732 Y-547.235
X-245.812 Y-548.524
X-245.846 Y-549.816
X-245.833 Y-551.108
X-245.772 Y-552.399
X-245.665 Y-553.686
X-245.511 Y-554.969
X-245.311 Y-556.246
X-245.065 Y-557.514
X-244.774 Y-558.773
X-244.438 Y-560.02
X-244.057 Y-561.255
X-243.632 Y-562.475
X-243.162 Y-563.679
X-242.649 Y-564.865
X-242.094 Y-566.031
X-241.496 Y-567.177
X-240.858 Y-568.3
X-240.18 Y-569.4
X-239.463 Y-570.475
X-238.708 Y-571.523
X-237.916 Y-572.544
X-237.087 Y-573.535
X-236.222 Y-574.496
X-235.324 Y-575.424
X-234.393 Y-576.32
X-233.43 Y-577.181
X-232.436 Y-578.007
X-231.413 Y-578.797
X-230.363 Y-579.549
X-229.287 Y-580.264
X-228.185 Y-580.939
X-227.06 Y-581.574
X-225.912 Y-582.168
X-224.744 Y-582.72
X-223.557 Y-583.23
X-222.352 Y-583.696
X-221.131 Y-584.119
X-219.896 Y-584.497
X-218.648 Y-584.832
X-217.388 Y-585.121
X-216.12 Y-585.365
X-214.843 Y-585.563
X-213.56 Y-585.714
X-212.272 Y-585.82
X-210.981 Y-585.879
X-209.689 Y-585.891
X-208.398 Y-585.858
X-207.108 Y-585.779
X-205.822 Y-585.654
X-204.541 Y-585.483
X-203.267 Y-585.267
X-202.002 Y-585.005
X-200.747 Y-584.699
X-199.503 Y-584.348
X-198.273 Y-583.954
X-197.057 Y-583.516
X-195.858 Y-583.036
X-194.676 Y-582.514
X-193.512 Y-581.952
X-192.37 Y-581.349
X-191.248 Y-580.707
X-190.151 Y-580.026
X-189.077 Y-579.307
X-188.029 Y-578.551
X-187.008 Y-577.759
X-186.015 Y-576.932
X-185.051 Y-576.072
X-184.118 Y-575.179
X-183.215 Y-574.254
X-182.345 Y-573.299
X-181.508 Y-572.315
X-180.706 Y-571.302
X-179.939 Y-570.262
X-179.208 Y-569.197
X-178.514 Y-568.107
X-177.858 Y-566.993
X-177.241 Y-565.858
X-176.663 Y-564.703
X-176.125 Y-563.528
X-175.627 Y-562.336
X-175.17 Y-561.127
X-174.756 Y-559.904
X-174.384 Y-558.666
X-174.054 Y-557.417
X-173.768 Y-556.157
X-173.526 Y-554.888
X-173.327 Y-553.611
X-173.172 Y-552.328
X-173.062 Y-551.041
X-172.995 Y-549.751
X-172.973 Y-548.459
X-172.996 Y-547.167
X-173.064 Y-545.877
X-173.177 Y-544.589
X-173.333 Y-543.307
X-173.534 Y-542.031
X-173.779 Y-540.762
X-174.068 Y-539.503
X-174.4 Y-538.254
X-174.774 Y-537.017
X-175.191 Y-535.794
X-175.65 Y-534.587
X-176.151 Y-533.396
X-176.693 Y-532.223
X-177.276 Y-531.069
X-177.898 Y-529.937
X-178.558 Y-528.826
X-179.256 Y-527.739
X-179.992 Y-526.677
X-180.763 Y-525.64
X-181.57 Y-524.631
X-182.411 Y-523.65
X-183.285 Y-522.699
X-184.193 Y-521.779
X-185.131 Y-520.891
X-186.099 Y-520.035
X-187.096 Y-519.214
X-188.121 Y-518.427
X-189.172 Y-517.675
X-190.248 Y-516.96
X-191.348 Y-516.282
X-192.47 Y-515.642
X-193.614 Y-515.041
X-194.778 Y-514.48
X-195.961 Y-513.96
X-197.16 Y-513.479
X-198.375 Y-513.041
X-199.605 Y-512.643
X-200.847 Y-512.288
X-202.101 Y-511.974
X-203.364 Y-511.704
X-204.636 Y-511.476
X-205.915 Y-511.292
X-207.199 Y-511.151
X-208.487 Y-511.055
X-209.778 Y-511.002
X-211.07 Y-510.992
X-212.362 Y-511.026
X-213.652 Y-511.104
X-214.938 Y-511.224
X-216.22 Y-511.388
X-217.495 Y-511.594
X-218.763 Y-511.843
X-220.022 Y-512.135
X-221.27 Y-512.469
X-222.506 Y-512.845
X-223.729 Y-513.262
X-224.937 Y-513.72
X-226.13 Y-514.217
X-227.305 Y-514.754
X-228.462 Y-515.33
X-229.599 Y-515.943
X-230.715 Y-516.594
X-231.808 Y-517.282
X-232.878 Y-518.007
X-233.923 Y-518.767
X-234.942 Y-519.561
X-235.935 Y-520.389
X-236.899 Y-521.249
X-237.834 Y-522.14
X-238.74 Y-523.061
X-239.615 Y-524.012
X-240.458 Y-524.991
X-241.268 Y-525.998
X-242.044 Y-527.031
X-242.785 Y-528.089
X-243.491 Y-529.171
X-244.161 Y-530.276
X-244.794 Y-531.403
X-245.389 Y-532.549
X-245.947 Y-533.715
X-246.466 Y-534.898
X-246.946 Y-536.098
X-247.386 Y-537.312
X-247.787 Y-538.541
X-248.146 Y-539.782
X-248.463 Y-541.034
X-248.739 Y-542.297
X-248.974 Y-543.567
X-249.167 Y-544.845
X-249.318 Y-546.128
X-249.427 Y-547.415
X-249.494 Y-548.706
X-249.518 Y-549.998
X-249.501 Y-551.29
X-249.441 Y-552.58
X-249.338 Y-553.868
X-249.193 Y-555.152
X-249.005 Y-556.43
X-248.776 Y-557.702
X-248.505 Y-558.965
X-248.193 Y-560.219
X-247.841 Y-561.462
X-247.448 Y-562.693
X-247.015 Y-563.911
X-246.543 Y-565.113
X-246.032 Y-566.3
X-245.481 Y-567.469
X-244.892 Y-568.619
X-244.266 Y-569.749
X-243.603 Y-570.858
X-242.905 Y-571.945
X-242.171 Y-573.008
X-241.403 Y-574.048
X-240.602 Y-575.061
X-239.768 Y-576.048
X-238.903 Y-577.008
X-238.006 Y-577.938
X-237.079 Y-578.838
X-236.123 Y-579.707
X-235.139 Y-580.544
X-234.128 Y-581.349
X-233.092 Y-582.12
X-232.03 Y-582.857
X-230.946 Y-583.56
X-229.839 Y-584.227
X-228.711 Y-584.857
X-227.564 Y-585.45
X-226.397 Y-586.005
X-225.212 Y-586.521
X-224.012 Y-586.998
X-222.796 Y-587.436
X-221.566 Y-587.834
X-220.325 Y-588.191
X-219.072 Y-588.508
X-217.81 Y-588.784
X-216.54 Y-589.02
X-215.262 Y-589.213
X-213.979 Y-589.365
X-212.692 Y-589.475
X-211.401 Y-589.542
X-210.11 Y-589.568
X-208.818 Y-589.551
X-207.527 Y-589.492
X-206.239 Y-589.392
X-204.955 Y-589.251
X-203.675 Y-589.068
X-202.403 Y-588.844
X-201.138 Y-588.58
X-199.883 Y-588.275
X-198.638 Y-587.929
X-197.405 Y-587.543
X-196.185 Y-587.118
X-194.979 Y-586.653
X-193.788 Y-586.151
X-192.615 Y-585.611
X-191.458 Y-585.034
X-190.321 Y-584.421
X-189.204 Y-583.773
X-188.107 Y-583.089
X-187.033 Y-582.371
X-185.982 Y-581.619
X-184.956 Y-580.834
X-183.955 Y-580.017
X-182.98 Y-579.169
X-182.033 Y-578.291
X-181.113 Y-577.383
X-180.222 Y-576.447
X-179.361 Y-575.484
X-178.531 Y-574.494
X-177.731 Y-573.479
X-176.964 Y-572.44
X-176.23 Y-571.377
X-175.53 Y-570.291
X-174.864 Y-569.183
X-174.233 Y-568.056
X-173.638 Y-566.909
X-173.079 Y-565.744
X-172.557 Y-564.562
X-172.071 Y-563.365
X-171.623 Y-562.153
X-171.213 Y-560.928
X-170.842 Y-559.69
X-170.509 Y-558.442
X-170.217 Y-557.183
X-169.964 Y-555.916
X-169.751 Y-554.642
X-169.579 Y-553.361
X-169.446 Y-552.076
X-169.354 Y-550.787
X-169.301 Y-549.496
X-169.29 Y-548.204
X-169.318 Y-546.912
X-169.387 Y-545.622
X-169.497 Y-544.335
X-169.648 Y-543.052
X-169.839 Y-541.774
X-170.071 Y-540.503
X-170.342 Y-539.239
X-170.653 Y-537.985
X-171.003 Y-536.741
X-171.391 Y-535.509
X-171.819 Y-534.29
X-172.284 Y-533.084
X-172.786 Y-531.894
X-173.326 Y-530.72
X-173.903 Y-529.564
X-174.517 Y-528.427
X-175.166 Y-527.31
X-175.85 Y-526.214
X-176.568 Y-525.139
X-177.319 Y-524.088
X-178.102 Y-523.061
X-178.918 Y-522.059
X-179.764 Y-521.082
X-180.64 Y-520.133
X-181.546 Y-519.212
X-182.481 Y-518.319
X-183.443 Y-517.457
X-184.432 Y-516.626
X-185.447 Y-515.826
X-186.486 Y-515.057
X-187.548 Y-514.322
X-188.633 Y-513.62
X-189.739 Y-512.952
X-190.865 Y-512.319
X-192.01 Y-511.721
X-193.174 Y-511.159
X-194.354 Y-510.634
X-195.551 Y-510.146
X-196.762 Y-509.696
X-197.986 Y-509.284
X-199.223 Y-508.91
X-200.471 Y-508.574
X-201.728 Y-508.277
X-202.994 Y-508.019
X-204.268 Y-507.8
X-205.547 Y-507.62
X-206.831 Y-507.48
X-208.12 Y-507.379
X-209.41 Y-507.319
X-210.702 Y-507.299
X-211.994 Y-507.319
X-213.285 Y-507.378
X-214.573 Y-507.477
X-215.858 Y-507.615
X-217.138 Y-507.793
X-218.411 Y-508.009
X-219.678 Y-508.264
X-220.936 Y-508.557
X-222.185 Y-508.889
X-223.423 Y-509.26
X-224.648 Y-509.668
X-225.861 Y-510.114
X-227.06 Y-510.597
X-228.243 Y-511.116
X-229.41 Y-511.67
X-230.56 Y-512.259
X-231.691 Y-512.884
X-232.803 Y-513.542
X-233.895 Y-514.233
X-234.965 Y-514.957
X-236.012 Y-515.714
X-237.036 Y-516.502
X-238.035 Y-517.322
X-239.008 Y-518.171
X-239.956 Y-519.049
X-240.877 Y-519.955
X-241.77 Y-520.889
X-242.635 Y-521.849
X-243.47 Y-522.835
X-244.275 Y-523.845
X-245.05 Y-524.88
X-245.793 Y-525.937
X-246.503 Y-527.016
X-247.18 Y-528.116
X-247.823 Y-529.237
X-248.433 Y-530.376
X-249.008 Y-531.533
X-249.548 Y-532.707
X-250.052 Y-533.897
X-250.521 Y-535.101
X-250.953 Y-536.318
X-251.349 Y-537.548
X-251.708 Y-538.789
X-252.029 Y-540.041
X-252.311 Y-541.302
X-252.556 Y-542.57
X-252.762 Y-543.846
X-252.93 Y-545.127
X-253.059 Y-546.413
X-253.15 Y-547.702
X-253.202 Y-548.993
X-253.216 Y-550.284
X-253.192 Y-551.576
X-253.128 Y-552.867
X-253.026 Y-554.155
X-252.885 Y-555.439
X-252.706 Y-556.719
X-252.487 Y-557.992
X-252.231 Y-559.259
X-251.937 Y-560.517
X-251.605 Y-561.765
X-251.237 Y-563.004
X-250.831 Y-564.231
X-250.39 Y-565.445
X-249.912 Y-566.645
X-249.399 Y-567.831
X-248.85 Y-569.001
X-248.266 Y-570.154
X-247.648 Y-571.288
X-246.996 Y-572.403
X-246.31 Y-573.499
X-245.593 Y-574.573
X-244.843 Y-575.626
X-244.063 Y-576.656
X-243.253 Y-577.662
X-242.412 Y-578.643
X-241.543 Y-579.599
X-240.646 Y-580.529
X-239.721 Y-581.432
X-238.77 Y-582.305
X-237.792 Y-583.15
X-236.79 Y-583.965
X-235.763 Y-584.75
X-234.714 Y-585.504
X-233.643 Y-586.227
X-232.551 Y-586.917
X-231.438 Y-587.575
X-230.307 Y-588.199
X-229.158 Y-588.789
X-227.991 Y-589.344
X-226.808 Y-589.865
X-225.611 Y-590.349
X-224.399 Y-590.797
X-223.174 Y-591.208
X-221.937 Y-591.583
X-220.69 Y-591.921
X-219.434 Y-592.222
X-218.169 Y-592.485
X-216.897 Y-592.711
X-215.618 Y-592.899
X-214.335 Y-593.049
X-213.048 Y-593.16
X-211.758 Y-593.233
X-210.466 Y-593.267
X-209.174 Y-593.262
X-207.883 Y-593.219
X-206.593 Y-593.138
X-205.307 Y-593.019
X-204.024 Y-592.862
X-202.747 Y-592.668
X-201.476 Y-592.436
X-200.212 Y-592.166
X-198.957 Y-591.86
X-197.711 Y-591.517
X-196.476 Y-591.137
X-195.253 Y-590.721
X-194.043 Y-590.268
X-192.846 Y-589.781
X-191.665 Y-589.258
X-190.498 Y-588.702
X-189.349 Y-588.112
X-188.217 Y-587.49
X-187.103 Y-586.834
X-186.009 Y-586.147
X-184.935 Y-585.428
X-183.883 Y-584.679
X-182.853 Y-583.898
X-181.846 Y-583.089
X-180.864 Y-582.25
X-179.905 Y-581.383
X-178.973 Y-580.489
X-178.066 Y-579.569
X-177.186 Y-578.623
X-176.333 Y-577.652
X-175.508 Y-576.657
X-174.713 Y-575.639
X-173.946 Y-574.599
X-173.21 Y-573.537
X-172.506 Y-572.454
X-171.833 Y-571.351
X-171.192 Y-570.229
X-170.583 Y-569.089
X-170.008 Y-567.933
X-169.466 Y-566.76
X-168.957 Y-565.572
X-168.483 Y-564.37
X-168.043 Y-563.155
X-167.638 Y-561.928
X-167.268 Y-560.69
X-166.935 Y-559.442
X-166.637 Y-558.185
X-166.377 Y-556.919
X-166.153 Y-555.647
X-165.965 Y-554.368
X-165.815 Y-553.085
X-165.701 Y-551.798
X-165.625 Y-550.508
X-165.585 Y-549.217
X-165.582 Y-547.925
X-165.617 Y-546.633
X-165.688 Y-545.343
X-165.796 Y-544.056
X-165.943 Y-542.772
X-166.126 Y-541.493
X-166.347 Y-540.22
X-166.604 Y-538.954
X-166.898 Y-537.695
X-167.227 Y-536.446
X-167.593 Y-535.207
X-167.993 Y-533.978
X-168.429 Y-532.762
X-168.9 Y-531.559
X-169.405 Y-530.369
X-169.944 Y-529.195
X-170.517 Y-528.037
X-171.123 Y-526.896
X-171.763 Y-525.774
X-172.435 Y-524.67
X-173.138 Y-523.586
X-173.872 Y-522.523
X-174.636 Y-521.481
X-175.43 Y-520.462
X-176.252 Y-519.465
X-177.103 Y-518.493
X-177.982 Y-517.545
X-178.887 Y-516.623
X-179.818 Y-515.728
X-180.776 Y-514.86
X-181.758 Y-514.021
X-182.764 Y-513.21
X-183.792 Y-512.428
X-184.843 Y-511.676
X-185.914 Y-510.954
X-187.006 Y-510.263
X-188.117 Y-509.603
X-189.246 Y-508.975
X-190.393 Y-508.38
X-191.556 Y-507.818
X-192.735 Y-507.289
X-193.929 Y-506.795
X-195.137 Y-506.335
X-196.357 Y-505.91
X-197.589 Y-505.52
X-198.831 Y-505.166
X-200.083 Y-504.846
X-201.344 Y-504.562
X-202.611 Y-504.314
X-203.886 Y-504.101
X-205.166 Y-503.925
X-206.45 Y-503.785
X-207.738 Y-503.682
X-209.029 Y-503.615
X-210.32 Y-503.586
X-211.612 Y-503.593
X-212.904 Y-503.637
X-214.193 Y-503.717
X-215.48 Y-503.833
X-216.763 Y-503.986
X-218.041 Y-504.174
X-219.314 Y-504.398
X-220.58 Y-504.657
X-221.838 Y-504.952
X-223.087 Y-505.282
X-224.326 Y-505.648
X-225.554 Y-506.049
X-226.771 Y-506.484
X-227.975 Y-506.953
X-229.165 Y-507.456
X-230.341 Y-507.991
X-231.501 Y-508.56
X-232.645 Y-509.16
X-233.772 Y-509.792
X-234.881 Y-510.455
X-235.971 Y-511.149
X-237.042 Y-511.872
X-238.091 Y-512.626
X-239.119 Y-513.409
X-240.124 Y-514.221
X-241.106 Y-515.06
X-242.065 Y-515.926
X-242.999 Y-516.819
X-243.908 Y-517.737
X-244.791 Y-518.68
X-245.648 Y-519.647
X-246.478 Y-520.638
X-247.28 Y-521.651
X-248.054 Y-522.686
X-248.798 Y-523.742
X-249.513 Y-524.818
X-250.197 Y-525.914
X-250.85 Y-527.029
X-251.472 Y-528.161
X-252.063 Y-529.31
X-252.621 Y-530.476
X-253.147 Y-531.656
X-253.641 Y-532.85
X-254.101 Y-534.057
X-254.528 Y-535.277
X-254.921 Y-536.507
X-255.28 Y-537.748
X-255.605 Y-538.999
X-255.894 Y-540.258
X-256.148 Y-541.525
X-256.366 Y-542.799
X-256.55 Y-544.078
X-256.698 Y-545.361
X-256.81 Y-546.648
X-256.888 Y-547.938
X-256.93 Y-549.229
X-256.936 Y-550.522
X-256.907 Y-551.813
X-256.842 Y-553.104
X-256.742 Y-554.392
X-256.606 Y-555.677
X-256.434 Y-556.957
X-256.226 Y-558.233
X-255.984 Y-559.502
X-255.706 Y-560.763
X-255.394 Y-562.017
X-255.047 Y-563.262
X-254.667 Y-564.497
X-254.253 Y-565.721
X-253.805 Y-566.933
X-253.325 Y-568.132
X-252.811 Y-569.318
X-252.265 Y-570.489
X-251.687 Y-571.644
X-251.076 Y-572.783
X-250.435 Y-573.904
X-249.762 Y-575.008
X-249.06 Y-576.092
X-248.328 Y-577.157
X-247.567 Y-578.201
X-246.778 Y-579.224
X-245.961 Y-580.225
X-245.117 Y-581.204
X-244.247 Y-582.158
X-243.35 Y-583.089
X-242.428 Y-583.994
X-241.482 Y-584.873
X-240.511 Y-585.726
X-239.517 Y-586.551
X-238.5 Y-587.349
X-237.462 Y-588.119
X-236.404 Y-588.859
X-235.325 Y-589.571
X-234.228 Y-590.253
X-233.112 Y-590.905
X-231.979 Y-591.526
X-230.829 Y-592.115
X-229.664 Y-592.673
X-228.483 Y-593.198
X-227.289 Y-593.689
X-226.081 Y-594.148
X-224.861 Y-594.573
X-223.629 Y-594.965
X-222.388 Y-595.322
X-221.137 Y-595.646
X-219.878 Y-595.935
X-218.611 Y-596.19
X-217.338 Y-596.411
X-216.059 Y-596.596
X-214.776 Y-596.746
X-213.489 Y-596.861
X-212.199 Y-596.94
X-210.908 Y-596.984
X-209.616 Y-596.992
X-208.324 Y-596.964
X-207.034 Y-596.902
X-205.745 Y-596.804
X-204.46 Y-596.671
X-203.179 Y-596.504
X-201.903 Y-596.302
X-200.632 Y-596.066
X-199.369 Y-595.795
X-198.113 Y-595.491
X-196.867 Y-595.152
X-195.63 Y-594.779
X-194.403 Y-594.372
X-193.188 Y-593.932
X-191.986 Y-593.459
X-190.796 Y-592.955
X-189.621 Y-592.418
X-188.46 Y-591.85
X-187.315 Y-591.252
X-186.186 Y-590.623
X-185.075 Y-589.965
X-183.981 Y-589.276
X-182.906 Y-588.559
X-181.851 Y-587.814
X-180.817 Y-587.039
X-179.804 Y-586.237
X-178.813 Y-585.409
X-177.844 Y-584.554
X-176.898 Y-583.674
X-175.976 Y-582.769
X-175.078 Y-581.84
X-174.205 Y-580.887
X-173.357 Y-579.912
X-172.536 Y-578.915
X-171.741 Y-577.896
X-170.973 Y-576.857
X-170.234 Y-575.797
X-169.523 Y-574.718
X-168.841 Y-573.621
X-168.189 Y-572.505
X-167.567 Y-571.373
X-166.975 Y-570.224
X-166.414 Y-569.061
X-165.883 Y-567.883
X-165.384 Y-566.691
X-164.916 Y-565.487
X-164.48 Y-564.27
X-164.076 Y-563.043
X-163.705 Y-561.805
X-163.367 Y-560.558
X-163.063 Y-559.302
X-162.793 Y-558.039
X-162.557 Y-556.769
X-162.354 Y-555.493
X-162.186 Y-554.212
X-162.051 Y-552.927
X-161.95 Y-551.638
X-161.884 Y-550.348
X-161.851 Y-549.056
X-161.853 Y-547.764
X-161.888 Y-546.473
X-161.958 Y-545.183
X-162.063 Y-543.895
X-162.202 Y-542.61
X-162.376 Y-541.33
X-162.584 Y-540.055
X-162.827 Y-538.786
X-163.102 Y-537.523
X-163.411 Y-536.269
X-163.753 Y-535.023
X-164.128 Y-533.786
X-164.536 Y-532.56
X-164.976 Y-531.345
X-165.447 Y-530.143
X-165.951 Y-528.953
X-166.487 Y-527.777
X-167.054 Y-526.616
X-167.652 Y-525.471
X-168.28 Y-524.342
X-168.939 Y-523.23
X-169.626 Y-522.136
X-170.343 Y-521.061
X-171.087 Y-520.005
X-171.86 Y-518.969
X-172.659 Y-517.954
X-173.485 Y-516.96
X-174.336 Y-515.989
X-175.214 Y-515.04
X-176.116 Y-514.115
X-177.043 Y-513.215
X-177.994 Y-512.34
X-178.968 Y-511.491
X-179.964 Y-510.668
X-180.981 Y-509.872
X-182.019 Y-509.103
X-183.077 Y-508.361
X-184.154 Y-507.647
X-185.25 Y-506.962
X-186.363 Y-506.306
X-187.493 Y-505.68
X-188.639 Y-505.083
X-189.801 Y-504.517
X-190.977 Y-503.983
X-192.167 Y-503.48
X-193.37 Y-503.009
X-194.585 Y-502.57
X-195.812 Y-502.163
X-197.048 Y-501.788
X-198.294 Y-501.446
X-199.548 Y-501.136
X-200.81 Y-500.859
X-202.079 Y-500.615
X-203.354 Y-500.405
X-204.634 Y-500.227
X-205.918 Y-500.084
X-207.205 Y-499.974
X-208.495 Y-499.899
X-209.787 Y-499.858
X-211.079 Y-499.851
X-212.37 Y-499.877
X-213.661 Y-499.937
X-214.95 Y-500.031
X-216.236 Y-500.158
X-217.518 Y-500.318
X-218.795 Y-500.511
X-220.067 Y-500.738
X-221.333 Y-500.997
X-222.592 Y-501.289
X-223.842 Y-501.614
X-225.084 Y-501.972
X-226.315 Y-502.362
X-227.536 Y-502.784
X-228.746 Y-503.238
X-229.944 Y-503.723
X-231.128 Y-504.239
X-232.299 Y-504.785
X-233.456 Y-505.362
X-234.597 Y-505.967
X-235.722 Y-506.602
X-236.831 Y-507.265
X-237.922 Y-507.957
X-238.995 Y-508.677
X-240.049 Y-509.425
X-241.082 Y-510.2
X-242.096 Y-511.002
X-243.088 Y-511.83
X-244.058 Y-512.683
X-245.006 Y-513.561
X-245.932 Y-514.462
X-246.834 Y-515.387
X-247.712 Y-516.335
X-248.565 Y-517.305
X-249.394 Y-518.296
X-250.197 Y-519.309
X-250.973 Y-520.341
X-251.723 Y-521.394
X-252.444 Y-522.466
X-253.138 Y-523.556
X-253.803 Y-524.663
X-254.44 Y-525.788
X-255.048 Y-526.928
X-255.626 Y-528.083
X-256.174 Y-529.253
X-256.693 Y-530.437
X-257.181 Y-531.633
X-257.639 Y-532.841
X-258.066 Y-534.061
X-258.462 Y-535.291
X-258.825 Y-536.53
X-259.156 Y-537.779
X-259.455 Y-539.036
X-259.721 Y-540.301
X-259.955 Y-541.571
X-260.156 Y-542.848
X-260.325 Y-544.129
X-260.461 Y-545.414
X-260.564 Y-546.702
X-260.634 Y-547.992
X-260.672 Y-549.283
X-260.677 Y-550.575
X-260.649 Y-551.867
X-260.588 Y-553.158
X-260.494 Y-554.446
X-260.366 Y-555.732
X-260.205 Y-557.014
X-260.011 Y-558.291
X-259.785 Y-559.563
X-259.526 Y-560.829
X-259.235 Y-562.088
X-258.912 Y-563.339
X-258.558 Y-564.582
X-258.172 Y-565.815
X-257.756 Y-567.038
X-257.308 Y-568.25
X-256.83 Y-569.45
X-256.32 Y-570.638
X-255.781 Y-571.812
X-255.211 Y-572.971
X-254.611 Y-574.116
X-253.983 Y-575.245
X-253.326 Y-576.357
X-252.641 Y-577.453
X-251.928 Y-578.53
X-251.188 Y-579.59
X-250.422 Y-580.63
X-249.629 Y-581.65
X-248.811 Y-582.65
X-247.968 Y-583.629
X-247.1 Y-584.587
X-246.208 Y-585.521
X-245.292 Y-586.432
X-244.352 Y-587.319
X-243.39 Y-588.182
X-242.407 Y-589.02
X-241.402 Y-589.833
X-240.378 Y-590.619
X-239.333 Y-591.38
X-238.27 Y-592.114
X-237.188 Y-592.821
X-236.089 Y-593.5
X-234.973 Y-594.152
X-233.841 Y-594.774
X-232.694 Y-595.368
X-231.531 Y-595.932
X-230.354 Y-596.465
X-229.164 Y-596.968
X-227.962 Y-597.441
X-226.747 Y-597.882
X-225.522 Y-598.293
X-224.287 Y-598.673
X-223.043 Y-599.021
X-221.79 Y-599.338
X-220.53 Y-599.623
X-219.263 Y-599.876
X-217.99 Y-600.097
X-216.712 Y-600.286
X-215.429 Y-600.441
X-214.143 Y-600.564
X-212.854 Y-600.654
X-211.563 Y-600.71
X-210.272 Y-600.734
X-208.98 Y-600.726
X-207.688 Y-600.684
X-206.398 Y-600.61
X-205.111 Y-600.504
X-203.826 Y-600.366
X-202.545 Y-600.195
X-201.269 Y-599.993
X-199.999 Y-599.759
X-198.734 Y-599.492
X-197.477 Y-599.193
X-196.228 Y-598.863
X-194.988 Y-598.501
X-193.757 Y-598.107
X-192.537 Y-597.683
X-191.327 Y-597.229
X-190.129 Y-596.744
X-188.944 Y-596.23
X-187.772 Y-595.687
X-186.613 Y-595.114
X-185.469 Y-594.514
X-184.341 Y-593.885
X-183.228 Y-593.229
X-182.132 Y-592.544
X-181.053 Y-591.833
X-179.993 Y-591.094
X-178.952 Y-590.329
X-177.93 Y-589.539
X-176.928 Y-588.723
X-175.946 Y-587.883
X-174.985 Y-587.019
X-174.046 Y-586.132
X-173.129 Y-585.221
X-172.235 Y-584.289
X-171.364 Y-583.335
X-170.516 Y-582.36
X-169.692 Y-581.364
X-168.894 Y-580.349
X-168.121 Y-579.313
X-167.374 Y-578.259
X-166.654 Y-577.186
X-165.96 Y-576.096
X-165.294 Y-574.989
X-164.655 Y-573.866
X-164.043 Y-572.728
X-163.46 Y-571.575
X-162.905 Y-570.408
X-162.379 Y-569.228
X-161.882 Y-568.035
X-161.414 Y-566.831
X-160.976 Y-565.616
X-160.568 Y-564.39
X-160.191 Y-563.154
X-159.844 Y-561.909
X-159.529 Y-560.656
X-159.245 Y-559.396
X-158.992 Y-558.129
X-158.771 Y-556.856
X-158.58 Y-555.578
X-158.422 Y-554.295
X-158.294 Y-553.01
X-158.198 Y-551.721
X-158.134 Y-550.431
X-158.101 Y-549.139
X-158.1 Y-547.847
X-158.131 Y-546.555
X-158.195 Y-545.265
X-158.291 Y-543.976
X-158.419 Y-542.691
X-158.578 Y-541.409
X-158.77 Y-540.131
X-158.993 Y-538.858
X-159.247 Y-537.591
X-159.532 Y-536.331
X-159.848 Y-535.078
X-160.195 Y-533.834
X-160.572 Y-532.598
X-160.979 Y-531.372
X-161.416 Y-530.156
X-161.883 Y-528.951
X-162.381 Y-527.759
X-162.908 Y-526.579
X-163.465 Y-525.413
X-164.05 Y-524.261
X-164.663 Y-523.124
X-165.305 Y-522.002
X-165.973 Y-520.897
X-166.669 Y-519.808
X-167.391 Y-518.737
X-168.14 Y-517.683
X-168.913 Y-516.649
X-169.712 Y-515.633
X-170.536 Y-514.638
X-171.384 Y-513.663
X-172.256 Y-512.71
X-173.152 Y-511.778
X-174.071 Y-510.87
X-175.011 Y-509.984
X-175.974 Y-509.122
X-176.957 Y-508.284
X-177.961 Y-507.47
X-178.984 Y-506.681
X-180.026 Y-505.918
X-181.087 Y-505.18
X-182.165 Y-504.468
X-183.26 Y-503.782
X-184.371 Y-503.123
X-185.499 Y-502.492
X-186.642 Y-501.89
X-187.799 Y-501.316
X-188.971 Y-500.771
X-190.155 Y-500.254
X-191.352 Y-499.767
X-192.56 Y-499.31
X-193.779 Y-498.882
X-195.009 Y-498.484
X-196.247 Y-498.115
X-197.494 Y-497.777
X-198.749 Y-497.47
X-200.011 Y-497.192
X-201.279 Y-496.945
X-202.553 Y-496.73
X-203.832 Y-496.546
X-205.115 Y-496.394
X-206.401 Y-496.273
X-207.69 Y-496.183
X-208.981 Y-496.126
X-210.273 Y-496.099
X-211.565 Y-496.104
X-212.857 Y-496.14
X-214.147 Y-496.207
X-215.435 Y-496.306
X-216.721 Y-496.435
X-218.003 Y-496.595
X-219.281 Y-496.786
X-220.554 Y-497.007
X-221.821 Y-497.26
X-223.081 Y-497.544
X-224.334 Y-497.859
X-225.58 Y-498.204
X-226.816 Y-498.579
X-228.043 Y-498.984
X-229.26 Y-499.418
X-230.466 Y-499.881
X-231.661 Y-500.374
X-232.843 Y-500.894
X-234.013 Y-501.443
X-235.169 Y-502.019
X-236.311 Y-502.623
X-237.439 Y-503.254
X-238.551 Y-503.913
X-239.646 Y-504.598
X-240.724 Y-505.31
X-241.785 Y-506.048
X-242.828 Y-506.811
X-243.852 Y-507.598
X-244.857 Y-508.411
X-245.842 Y-509.247
X-246.807 Y-510.106
X-247.751 Y-510.988
X-248.674 Y-511.892
X-249.575 Y-512.818
X-250.454 Y-513.765
X-251.31 Y-514.733
X-252.143 Y-515.721
X-252.951 Y-516.729
X-253.735 Y-517.756
X-254.493 Y-518.802
X-255.227 Y-519.865
X-255.934 Y-520.947
X-256.616 Y-522.044
X-257.271 Y-523.158
X-257.9 Y-524.287
X-258.501 Y-525.43
X-259.076 Y-526.588
X-259.622 Y-527.758
X-260.141 Y-528.942
X-260.632 Y-530.137
X-261.094 Y-531.343
X-261.527 Y-532.561
X-261.93 Y-533.788
X-262.304 Y-535.025
X-262.647 Y-536.271
X-262.961 Y-537.524
X-263.245 Y-538.784
X-263.499 Y-540.051
X-263.723 Y-541.324
X-263.916 Y-542.601
X-264.079 Y-543.883
X-264.212 Y-545.168
X-264.314 Y-546.456
X-264.386 Y-547.746
X-264.428 Y-549.038
X-264.439 Y-550.33
X-264.418 Y-551.622
X-264.366 Y-552.913
X-264.283 Y-554.202
X-264.17 Y-555.489
X-264.026 Y-556.773
X-263.851 Y-558.053
X-263.646 Y-559.329
X-263.411 Y-560.599
X-263.146 Y-561.864
X-262.851 Y-563.122
X-262.526 Y-564.373
X-262.173 Y-565.615
X-261.79 Y-566.849
X-261.377 Y-568.074
X-260.936 Y-569.288
X-260.465 Y-570.491
X-259.966 Y-571.683
X-259.438 Y-572.862
X-258.882 Y-574.029
X-258.299 Y-575.182
X-257.689 Y-576.32
X-257.051 Y-577.444
X-256.388 Y-578.553
X-255.698 Y-579.646
X-254.983 Y-580.722
X-254.243 Y-581.781
X-253.478 Y-582.822
X-252.688 Y-583.845
X-251.875 Y-584.849
X-251.037 Y-585.832
X-250.176 Y-586.796
X-249.293 Y-587.738
X-248.387 Y-588.66
X-247.459 Y-589.559
X-246.51 Y-590.436
X-245.541 Y-591.291
X-244.552 Y-592.122
X-243.543 Y-592.929
X-242.516 Y-593.713
X-241.471 Y-594.473
X-240.408 Y-595.207
X-239.328 Y-595.917
X-238.231 Y-596.6
X-237.119 Y-597.257
X-235.991 Y-597.887
X-234.848 Y-598.49
X-233.691 Y-599.065
X-232.521 Y-599.613
X-231.338 Y-600.133
X-230.143 Y-600.625
X-228.937 Y-601.088
X-227.72 Y-601.522
X-226.494 Y-601.928
X-225.258 Y-602.305
X-224.014 Y-602.653
X-222.761 Y-602.972
X-221.502 Y-603.261
X-220.236 Y-603.52
X-218.965 Y-603.748
X-217.688 Y-603.946
X-216.407 Y-604.114
X-215.122 Y-604.251
X-213.834 Y-604.357
X-212.544 Y-604.433
X-211.253 Y-604.479
X-209.961 Y-604.494
X-208.669 Y-604.479
X-207.378 Y-604.434
X-206.088 Y-604.358
X-204.8 Y-604.253
X-203.515 Y-604.117
X-202.234 Y-603.952
X-200.957 Y-603.756
X-199.685 Y-603.53
X-198.418 Y-603.273
X-197.158 Y-602.987
X-195.906 Y-602.672
X-194.66 Y-602.326
X-193.424 Y-601.952
X-192.196 Y-601.549
X-190.978 Y-601.118
X-189.771 Y-600.659
X-188.574 Y-600.171
X-187.389 Y-599.656
X-186.216 Y-599.115
X-185.056 Y-598.546
X-183.909 Y-597.95
X-182.777 Y-597.327
X-181.66 Y-596.678
X-180.558 Y-596.004
X-179.472 Y-595.303
X-178.403 Y-594.578
X-177.351 Y-593.827
X-176.317 Y-593.053
X-175.301 Y-592.255
X-174.303 Y-591.434
X-173.325 Y-590.59
X-172.366 Y-589.724
X-171.427 Y-588.836
X-170.509 Y-587.928
X-169.611 Y-586.998
X-168.736 Y-586.048
X-167.883 Y-585.078
X-167.052 Y-584.088
X-166.245 Y-583.079
X-165.461 Y-582.051
X-164.702 Y-581.006
X-163.967 Y-579.944
X-163.256 Y-578.865
X-162.57 Y-577.77
X-161.91 Y-576.659
X-161.275 Y-575.534
X-160.666 Y-574.394
X-160.083 Y-573.241
X-159.526 Y-572.075
X-158.996 Y-570.897
X-158.494 Y-569.707
X-158.019 Y-568.505
X-157.572 Y-567.293
X-157.154 Y-566.07
X-156.764 Y-564.838
X-156.402 Y-563.598
X-156.069 Y-562.349
X-155.765 Y-561.094
X-155.49 Y-559.831
X-155.244 Y-558.563
X-155.027 Y-557.289
X-154.839 Y-556.011
X-154.68 Y-554.729
X-154.551 Y-553.443
X-154.451 Y-552.155
X-154.381 Y-550.865
X-154.34 Y-549.573
X-154.33 Y-548.281
X-154.35 Y-546.989
X-154.4 Y-545.698
X-154.48 Y-544.409
X-154.589 Y-543.121
X-154.728 Y-541.837
X-154.897 Y-540.556
X-155.095 Y-539.279
X-155.322 Y-538.007
X-155.578 Y-536.741
X-155.864 Y-535.48
X-156.177 Y-534.227
X-156.52 Y-532.981
X-156.891 Y-531.744
X-157.291 Y-530.515
X-157.719 Y-529.296
X-158.176 Y-528.087
X-158.66 Y-526.89
X-159.172 Y-525.703
X-159.712 Y-524.529
X-160.278 Y-523.368
X-160.871 Y-522.22
X-161.49 Y-521.086
X-162.135 Y-519.966
X-162.805 Y-518.862
X-163.501 Y-517.773
X-164.221 Y-516.7
X-164.965 Y-515.644
X-165.734 Y-514.605
X-166.526 Y-513.585
X-167.342 Y-512.583
X-168.181 Y-511.601
X-169.043 Y-510.638
X-169.927 Y-509.695
X-170.832 Y-508.773
X-171.758 Y-507.872
X-172.705 Y-506.993
X-173.671 Y-506.135
X-174.657 Y-505.3
X-175.661 Y-504.488
X-176.684 Y-503.698
X-177.725 Y-502.932
X-178.782 Y-502.19
X-179.857 Y-501.472
X-180.948 Y-500.78
X-182.054 Y-500.113
X-183.176 Y-499.472
X-184.312 Y-498.856
X-185.462 Y-498.267
X-186.625 Y-497.705
X-187.801 Y-497.169
X-188.989 Y-496.661
X-190.188 Y-496.179
X-191.397 Y-495.725
X-192.617 Y-495.298
X-193.846 Y-494.899
X-195.084 Y-494.528
X-196.329 Y-494.186
X-197.583 Y-493.871
X-198.843 Y-493.586
X-200.109 Y-493.33
X-201.381 Y-493.103
X-202.658 Y-492.905
X-203.939 Y-492.736
X-205.223 Y-492.596
X-206.511 Y-492.486
X-207.8 Y-492.405
X-209.091 Y-492.353
X-210.383 Y-492.331
X-211.675 Y-492.337
X-212.967 Y-492.373
X-214.257 Y-492.437
X-215.546 Y-492.53
X-216.832 Y-492.653
X-218.115 Y-492.805
X-219.394 Y-492.987
X-220.669 Y-493.197
X-221.939 Y-493.436
X-223.203 Y-493.705
X-224.46 Y-494.001
X-225.711 Y-494.327
X-226.954 Y-494.68
X-228.188 Y-495.061
X-229.414 Y-495.47
X-230.63 Y-495.906
X-231.836 Y-496.369
X-233.032 Y-496.859
X-234.216 Y-497.375
X-235.388 Y-497.918
X-236.548 Y-498.488
X-237.695 Y-499.084
X-238.827 Y-499.705
X-239.946 Y-500.352
X-241.049 Y-501.025
X-242.137 Y-501.721
X-243.209 Y-502.443
X-244.265 Y-503.188
X-245.304 Y-503.956
X-246.325 Y-504.748
X-247.328 Y-505.562
X-248.313 Y-506.398
X-249.279 Y-507.256
X-250.226 Y-508.135
X-251.153 Y-509.035
X-252.059 Y-509.956
X-252.945 Y-510.897
X-253.809 Y-511.858
X-254.651 Y-512.838
X-255.471 Y-513.836
X-256.268 Y-514.853
X-257.042 Y-515.888
X-257.793 Y-516.939
X-258.52 Y-518.007
X-259.223 Y-519.091
X-259.902 Y-520.19
X-260.556 Y-521.305
X-261.186 Y-522.433
X-261.79 Y-523.575
X-262.369 Y-524.73
X-262.922 Y-525.898
X-263.449 Y-527.078
X-263.949 Y-528.269
X-264.421 Y-529.471
X-264.867 Y-530.684
X-265.286 Y-531.906
X-265.677 Y-533.138
X-266.04 Y-534.378
X-266.376 Y-535.625
X-266.684 Y-536.88
X-266.964 Y-538.142
X-267.216 Y-539.409
X-267.44 Y-540.681
X-267.636 Y-541.958
X-267.804 Y-543.24
X-267.943 Y-544.524
X-268.053 Y-545.811
X-268.135 Y-547.101
X-268.187 Y-548.392
X-268.21 Y-549.684
X-268.205 Y-550.976
X-268.171 Y-552.267
X-268.107 Y-553.558
X-268.016 Y-554.847
X-267.895 Y-556.133
X-267.746 Y-557.417
X-267.569 Y-558.696
X-267.364 Y-559.972
X-267.13 Y-561.243
X-266.869 Y-562.508
X-266.579 Y-563.767
X-266.262 Y-565.02
X-265.917 Y-566.265
X-265.543 Y-567.502
X-265.143 Y-568.73
X-264.714 Y-569.949
X-264.259 Y-571.158
X-263.777 Y-572.357
X-263.268 Y-573.545
X-262.734 Y-574.721
X-262.173 Y-575.885
X-261.586 Y-577.036
X-260.975 Y-578.174
X-260.338 Y-579.299
X-259.677 Y-580.409
X-258.991 Y-581.504
X-258.282 Y-582.584
X-257.548 Y-583.647
X-256.791 Y-584.694
X-256.011 Y-585.724
X-255.207 Y-586.736
X-254.382 Y-587.73
X-253.534 Y-588.705
X-252.665 Y-589.661
X-251.775 Y-590.598
X-250.864 Y-591.514
X-249.934 Y-592.411
X-248.983 Y-593.286
X-248.014 Y-594.141
X-247.026 Y-594.973
X-246.02 Y-595.784
X-244.997 Y-596.573
X-243.956 Y-597.338
X-242.898 Y-598.08
X-241.824 Y-598.798
X-240.734 Y-599.492
X-239.629 Y-600.161
X-238.509 Y-600.806
X-237.375 Y-601.426
X-236.228 Y-602.02
X-235.068 Y-602.589
X-233.896 Y-603.132
X-232.711 Y-603.649
X-231.516 Y-604.139
X-230.31 Y-604.604
X-229.095 Y-605.041
X-227.87 Y-605.452
X-226.636 Y-605.836
X-225.394 Y-606.191
X-224.144 Y-606.52
X-222.887 Y-606.82
X-221.624 Y-607.092
X-220.356 Y-607.336
X-219.082 Y-607.552
X-217.803 Y-607.739
X-216.521 Y-607.898
X-215.236 Y-608.029
X-213.948 Y-608.132
X-212.658 Y-608.206
X-211.367 Y-608.252
X-210.075 Y-608.269
X-208.783 Y-608.258
X-207.491 Y-608.219
X-206.201 Y-608.152
X-204.912 Y-608.055
X-203.626 Y-607.93
X-202.343 Y-607.777
X-201.064 Y-607.596
X-199.789 Y-607.386
X-198.519 Y-607.148
X-197.255 Y-606.883
X-195.996 Y-606.589
X-194.745 Y-606.269
X-193.501 Y-605.921
X-192.264 Y-605.546
X-191.036 Y-605.144
X-189.817 Y-604.715
X-188.608 Y-604.261
X-187.409 Y-603.78
X-186.22 Y-603.273
X-185.043 Y-602.74
X-183.878 Y-602.181
X-182.726 Y-601.597
X-181.586 Y-600.987
X-180.46 Y-600.354
X-179.349 Y-599.695
X-178.251 Y-599.013
X-177.169 Y-598.307
X-176.103 Y-597.578
X-175.052 Y-596.826
X-174.018 Y-596.051
X-173.001 Y-595.254
X-172.001 Y-594.436
X-171.019 Y-593.596
X-170.055 Y-592.736
X-169.111 Y-591.854
X-168.185 Y-590.953
X-167.28 Y-590.031
X-166.394 Y-589.09
X-165.53 Y-588.13
X-164.686 Y-587.151
X-163.863 Y-586.155
X-163.063 Y-585.141
X-162.284 Y-584.11
X-161.528 Y-583.062
X-160.794 Y-581.998
X-160.084 Y-580.919
X-159.396 Y-579.825
X-158.733 Y-578.717
X-158.093 Y-577.594
X-157.477 Y-576.458
X-156.886 Y-575.309
X-156.321 Y-574.148
X-155.78 Y-572.974
X-155.265 Y-571.789
X-154.776 Y-570.593
X-154.313 Y-569.387
X-153.876 Y-568.171
X-153.465 Y-566.946
X-153.081 Y-565.713
X-152.723 Y-564.471
X-152.392 Y-563.222
X-152.088 Y-561.966
X-151.811 Y-560.704
X-151.561 Y-559.437
X-151.338 Y-558.164
X-151.142 Y-556.887
X-150.975 Y-555.606
X-150.835 Y-554.321
X-150.723 Y-553.034
X-150.639 Y-551.745
X-150.583 Y-550.454
X-150.555 Y-549.162
Y-547.87
X-150.583 Y-546.578
X-150.638 Y-545.287
X-150.722 Y-543.998
X-150.833 Y-542.711
X-150.971 Y-541.426
X-151.138 Y-540.145
X-151.331 Y-538.867
X-151.552 Y-537.594
X-151.801 Y-536.326
X-152.077 Y-535.064
X-152.38 Y-533.808
X-152.711 Y-532.559
X-153.069 Y-531.318
X-153.453 Y-530.084
X-153.864 Y-528.859
X-154.301 Y-527.643
X-154.765 Y-526.437
X-155.255 Y-525.242
X-155.77 Y-524.057
X-156.31 Y-522.883
X-156.876 Y-521.722
X-157.466 Y-520.572
X-158.081 Y-519.436
X-158.72 Y-518.313
X-159.384 Y-517.204
X-160.071 Y-516.11
X-160.782 Y-515.031
X-161.516 Y-513.968
X-162.273 Y-512.921
X-163.053 Y-511.891
X-163.854 Y-510.877
X-164.677 Y-509.881
X-165.522 Y-508.904
X-166.387 Y-507.944
X-167.273 Y-507.003
X-168.179 Y-506.082
X-169.104 Y-505.18
X-170.049 Y-504.299
X-171.012 Y-503.437
X-171.993 Y-502.597
X-172.992 Y-501.778
X-174.009 Y-500.981
X-175.043 Y-500.206
X-176.093 Y-499.453
X-177.159 Y-498.723
X-178.241 Y-498.017
X-179.338 Y-497.334
X-180.449 Y-496.674
X-181.574 Y-496.039
X-182.713 Y-495.428
X-183.864 Y-494.841
X-185.027 Y-494.279
X-186.202 Y-493.742
X-187.389 Y-493.231
X-188.586 Y-492.744
X-189.793 Y-492.284
X-191.01 Y-491.849
X-192.236 Y-491.441
X-193.47 Y-491.059
X-194.712 Y-490.704
X-195.962 Y-490.375
X-197.218 Y-490.073
X-198.481 Y-489.799
X-199.749 Y-489.551
X-201.022 Y-489.33
X-202.299 Y-489.137
X-203.581 Y-488.971
X-204.865 Y-488.832
X-206.153 Y-488.72
X-207.442 Y-488.636
X-208.733 Y-488.579
X-210.024 Y-488.55
X-211.316 Y-488.548
X-212.608 Y-488.573
X-213.899 Y-488.627
X-215.189 Y-488.707
X-216.476 Y-488.815
X-217.761 Y-488.951
X-219.043 Y-489.114
X-220.321 Y-489.304
X-221.595 Y-489.521
X-222.863 Y-489.765
X-224.127 Y-490.036
X-225.384 Y-490.333
X-226.635 Y-490.657
X-227.878 Y-491.008
X-229.115 Y-491.384
X-230.342 Y-491.786
X-231.561 Y-492.215
X-232.771 Y-492.669
X-233.971 Y-493.149
X-235.16 Y-493.654
X-236.338 Y-494.184
X-237.505 Y-494.739
X-238.66 Y-495.318
X-239.802 Y-495.922
X-240.931 Y-496.55
X-242.047 Y-497.201
X-243.149 Y-497.876
X-244.236 Y-498.574
X-245.309 Y-499.294
X-246.366 Y-500.037
X-247.408 Y-500.802
X-248.433 Y-501.588
X-249.441 Y-502.396
X-250.432 Y-503.225
X-251.405 Y-504.075
X-252.36 Y-504.945
X-253.297 Y-505.835
X-254.214 Y-506.745
X-255.113 Y-507.674
X-255.991 Y-508.621
X-256.849 Y-509.587
X-257.687 Y-510.571
X-258.504 Y-511.571
X-259.3 Y-512.589
X-260.075 Y-513.623
X-260.827 Y-514.674
X-261.558 Y-515.739
X-262.266 Y-516.82
X-262.951 Y-517.915
X-263.614 Y-519.025
X-264.252 Y-520.148
X-264.867 Y-521.284
X-265.458 Y-522.434
X-266.024 Y-523.595
X-266.567 Y-524.768
X-267.084 Y-525.952
X-267.576 Y-527.146
X-268.044 Y-528.351
X-268.486 Y-529.565
X-268.902 Y-530.788
X-269.293 Y-532.019
X-269.658 Y-533.259
X-269.997 Y-534.505
X-270.311 Y-535.759
X-270.598 Y-537.019
X-270.858 Y-538.284
X-271.092 Y-539.555
X-271.299 Y-540.83
X-271.479 Y-542.11
X-271.633 Y-543.393
X-271.759 Y-544.679
X-271.859 Y-545.967
X-271.932 Y-547.257
X-271.977 Y-548.548
X-271.996 Y-549.84
X-271.988 Y-551.132
X-271.953 Y-552.424
X-271.891 Y-553.714
X-271.802 Y-555.003
X-271.686 Y-556.29
X-271.544 Y-557.574
X-271.375 Y-558.855
X-271.178 Y-560.132
X-270.956 Y-561.405
X-270.706 Y-562.673
X-270.43 Y-563.935
X-270.128 Y-565.191
X-269.8 Y-566.441
X-269.446 Y-567.683
X-269.065 Y-568.918
X-268.659 Y-570.145
X-268.228 Y-571.363
X-267.771 Y-572.571
X-267.29 Y-573.77
X-266.783 Y-574.959
X-266.252 Y-576.137
X-265.697 Y-577.303
X-265.117 Y-578.458
X-264.513 Y-579.6
X-263.886 Y-580.73
X-263.235 Y-581.846
X-262.56 Y-582.948
X-261.863 Y-584.036
X-261.144 Y-585.109
X-260.402 Y-586.167
X-259.638 Y-587.209
X-258.853 Y-588.235
X-258.046 Y-589.244
X-257.219 Y-590.237
X-256.371 Y-591.212
X-255.503 Y-592.169
X-254.616 Y-593.108
X-253.709 Y-594.028
X-252.783 Y-594.93
X-251.839 Y-595.811
X-250.876 Y-596.673
X-249.895 Y-597.514
X-248.897 Y-598.335
X-247.883 Y-599.135
X-246.851 Y-599.913
X-245.804 Y-600.67
X-244.741 Y-601.405
X-243.664 Y-602.117
X-242.571 Y-602.807
X-241.464 Y-603.474
X-240.344 Y-604.118
X-239.211 Y-604.738
X-238.065 Y-605.335
X-236.907 Y-605.908
X-235.737 Y-606.456
X-234.556 Y-606.98
X-233.364 Y-607.48
X-232.162 Y-607.954
X-230.951 Y-608.403
X-229.73 Y-608.827
X-228.501 Y-609.225
X-227.264 Y-609.598
X-226.019 Y-609.945
X-224.768 Y-610.266
X-223.51 Y-610.56
X-222.246 Y-610.829
X-220.977 Y-611.071
X-219.703 Y-611.287
X-218.425 Y-611.477
X-217.143 Y-611.64
X-215.858 Y-611.776
X-214.571 Y-611.886
X-213.282 Y-611.969
X-211.991 Y-612.025
X-210.699 Y-612.054
X-209.407 Y-612.056
X-208.115 Y-612.032
X-206.824 Y-611.981
X-205.534 Y-611.903
X-204.247 Y-611.798
X-202.961 Y-611.667
X-201.679 Y-611.51
X-200.4 Y-611.325
X-199.125 Y-611.115
X-197.855 Y-610.878
X-196.59 Y-610.616
X-195.33 Y-610.327
X-194.077 Y-610.013
X-192.831 Y-609.672
X-191.592 Y-609.306
X-190.36 Y-608.915
X-189.137 Y-608.498
X-187.923 Y-608.057
X-186.718 Y-607.59
X-185.523 Y-607.099
X-184.338 Y-606.583
X-183.165 Y-606.044
X-182.002 Y-605.48
X-180.851 Y-604.892
X-179.713 Y-604.282
X-178.587 Y-603.648
X-177.474 Y-602.991
X-176.375 Y-602.312
X-175.29 Y-601.611
X-174.219 Y-600.887
X-173.164 Y-600.142
X-172.124 Y-599.375
X-171.1 Y-598.587
X-170.092 Y-597.779
X-169.1 Y-596.95
X-168.126 Y-596.101
X-167.17 Y-595.233
X-166.231 Y-594.345
X-165.31 Y-593.439
X-164.408 Y-592.513
X-163.525 Y-591.57
X-162.662 Y-590.609
X-161.817 Y-589.631
X-160.993 Y-588.636
X-160.19 Y-587.624
X-159.406 Y-586.597
X-158.644 Y-585.553
X-157.904 Y-584.495
X-157.185 Y-583.421
X-156.488 Y-582.333
X-155.813 Y-581.231
X-155.16 Y-580.116
X-154.531 Y-578.988
X-153.924 Y-577.847
X-153.341 Y-576.694
X-152.781 Y-575.53
X-152.245 Y-574.354
X-151.732 Y-573.168
X-151.244 Y-571.972
X-150.78 Y-570.766
X-150.341 Y-569.551
X-149.926 Y-568.327
X-149.536 Y-567.096
X-149.171 Y-565.856
X-148.831 Y-564.609
X-148.517 Y-563.356
X-148.229 Y-562.097
X-147.966 Y-560.832
X-147.728 Y-559.562
X-147.517 Y-558.287
X-147.331 Y-557.008
X-147.172 Y-555.726
X-147.038 Y-554.441
X-146.93 Y-553.154
X-146.849 Y-551.864
X-146.794 Y-550.573
X-146.764 Y-549.281
X-146.761 Y-547.989
X-146.785 Y-546.698
X-146.834 Y-545.406
X-146.91 Y-544.117
X-147.012 Y-542.829
X-147.14 Y-541.543
X-147.294 Y-540.26
X-147.474 Y-538.981
X-147.68 Y-537.705
X-147.912 Y-536.434
X-148.17 Y-535.168
X-148.454 Y-533.907
X-148.763 Y-532.653
X-149.097 Y-531.405
X-149.457 Y-530.164
X-149.841 Y-528.93
X-150.251 Y-527.705
X-150.685 Y-526.488
X-151.144 Y-525.28
X-151.628 Y-524.082
X-152.136 Y-522.894
X-152.667 Y-521.717
X-153.223 Y-520.55
X-153.803 Y-519.395
X-154.405 Y-518.252
X-155.031 Y-517.122
X-155.679 Y-516.004
X-156.35 Y-514.9
X-157.044 Y-513.81
X-157.759 Y-512.734
X-158.496 Y-511.673
X-159.255 Y-510.627
X-160.034 Y-509.596
X-160.834 Y-508.582
X-161.654 Y-507.583
X-162.495 Y-506.602
X-163.355 Y-505.638
X-164.235 Y-504.692
X-165.134 Y-503.764
X-166.051 Y-502.854
X-166.987 Y-501.963
X-167.94 Y-501.091
X-168.911 Y-500.238
X-169.899 Y-499.406
X-170.904 Y-498.593
X-171.925 Y-497.802
X-172.962 Y-497.03
X-174.014 Y-496.28
X-175.081 Y-495.552
X-176.162 Y-494.845
X-177.258 Y-494.16
X-178.367 Y-493.497
X-179.489 Y-492.857
X-180.624 Y-492.239
X-181.771 Y-491.645
X-182.93 Y-491.074
X-184.101 Y-490.527
X-185.282 Y-490.003
X-186.474 Y-489.504
X-187.675 Y-489.028
X-188.886 Y-488.577
X-190.105 Y-488.15
X-191.333 Y-487.748
X-192.569 Y-487.37
X-193.812 Y-487.018
X-195.062 Y-486.691
X-196.318 Y-486.388
X-197.58 Y-486.111
X-198.847 Y-485.859
X-200.119 Y-485.633
X-201.396 Y-485.433
X-202.676 Y-485.258
X-203.959 Y-485.109
X-205.245 Y-484.986
X-206.534 Y-484.889
X-207.824 Y-484.817
X-209.115 Y-484.771
X-210.407 Y-484.752
X-211.699 Y-484.758
X-212.991 Y-484.79
X-214.281 Y-484.848
X-215.571 Y-484.931
X-216.858 Y-485.04
X-218.143 Y-485.175
X-219.425 Y-485.336
X-220.704 Y-485.522
X-221.978 Y-485.733
X-223.249 Y-485.97
X-224.514 Y-486.233
X-225.773 Y-486.521
X-227.027 Y-486.833
X-228.274 Y-487.171
X-229.514 Y-487.534
X-230.747 Y-487.921
X-231.972 Y-488.333
X-233.188 Y-488.769
X-234.395 Y-489.229
X-235.593 Y-489.713
X-236.781 Y-490.221
X-237.959 Y-490.752
X-239.126 Y-491.306
X-240.282 Y-491.884
X-241.426 Y-492.484
X-242.558 Y-493.107
X-243.677 Y-493.752
X-244.783 Y-494.42
X-245.876 Y-495.11
X-246.955 Y-495.821
X-248.019 Y-496.553
X-249.069 Y-497.307
X-250.104 Y-498.081
X-251.123 Y-498.875
X-252.126 Y-499.689
X-253.112 Y-500.523
X-254.082 Y-501.377
X-255.035 Y-502.249
X-255.971 Y-503.141
X-256.889 Y-504.05
X-257.788 Y-504.978
X-258.669 Y-505.923
X-259.532 Y-506.885
X-260.375 Y-507.864
X-261.198 Y-508.86
X-262.001 Y-509.872
X-262.784 Y-510.899
X-263.547 Y-511.942
X-264.289 Y-513
X-265.01 Y-514.072
X-265.71 Y-515.159
X-266.387 Y-516.258
X-267.044 Y-517.372
X-267.678 Y-518.497
X-268.289 Y-519.635
X-268.879 Y-520.785
X-269.445 Y-521.947
X-269.989 Y-523.119
X-270.509 Y-524.301
X-271.006 Y-525.494
X-271.479 Y-526.696
X-271.928 Y-527.908
X-272.353 Y-529.128
X-272.754 Y-530.356
X-273.131 Y-531.592
X-273.483 Y-532.835
X-273.811 Y-534.085
X-274.114 Y-535.341
X-274.392 Y-536.603
X-274.645 Y-537.87
X-274.873 Y-539.142
X-275.077 Y-540.418
X-275.255 Y-541.697
X-275.408 Y-542.98
X-275.535 Y-544.266
X-275.638 Y-545.554
X-275.715 Y-546.844
X-275.767 Y-548.135
X-275.793 Y-549.427
Y-550.719
X-275.768 Y-552.01
X-275.718 Y-553.301
X-275.642 Y-554.591
X-275.541 Y-555.879
X-275.414 Y-557.165
X-275.262 Y-558.448
X-275.085 Y-559.728
X-274.883 Y-561.004
X-274.656 Y-562.276
X-274.404 Y-563.544
X-274.127 Y-564.806
X-273.826 Y-566.062
X-273.499 Y-567.312
X-273.149 Y-568.556
X-272.774 Y-569.792
X-272.374 Y-571.021
X-271.951 Y-572.242
X-271.503 Y-573.454
X-271.032 Y-574.657
X-270.537 Y-575.85
X-270.019 Y-577.034
X-269.477 Y-578.207
X-268.913 Y-579.369
X-268.326 Y-580.52
X-267.716 Y-581.659
X-267.084 Y-582.786
X-266.431 Y-583.901
X-265.755 Y-585.002
X-265.058 Y-586.09
X-264.34 Y-587.164
X-263.601 Y-588.224
X-262.841 Y-589.269
X-262.061 Y-590.299
X-261.261 Y-591.313
X-260.44 Y-592.312
X-259.601 Y-593.294
X-258.742 Y-594.259
X-257.864 Y-595.207
X-256.968 Y-596.138
X-256.054 Y-597.051
X-255.122 Y-597.946
X-254.173 Y-598.822
X-253.206 Y-599.68
X-252.223 Y-600.519
X-251.224 Y-601.338
X-250.209 Y-602.137
X-249.179 Y-602.917
X-248.133 Y-603.676
X-247.073 Y-604.414
X-245.998 Y-605.132
X-244.91 Y-605.828
X-243.808 Y-606.502
X-242.692 Y-607.155
X-241.565 Y-607.785
X-240.425 Y-608.394
X-239.273 Y-608.979
X-238.11 Y-609.543
X-236.937 Y-610.083
X-235.753 Y-610.6
X-234.559 Y-611.094
X-233.355 Y-611.564
X-232.143 Y-612.011
X-230.922 Y-612.434
X-229.693 Y-612.833
X-228.457 Y-613.208
X-227.213 Y-613.558
X-225.963 Y-613.884
X-224.706 Y-614.186
X-223.444 Y-614.463
X-222.177 Y-614.714
X-220.905 Y-614.941
X-219.629 Y-615.143
X-218.349 Y-615.32
X-217.066 Y-615.472
X-215.78 Y-615.599
X-214.492 Y-615.7
X-213.202 Y-615.777
X-211.911 Y-615.828
X-210.619 Y-615.854
X-209.327 Y-615.855
X-208.036 Y-615.83
X-206.744 Y-615.781
X-205.455 Y-615.707
X-204.166 Y-615.607
X-202.88 Y-615.482
X-201.597 Y-615.332
X-200.317 Y-615.157
X-199.04 Y-614.957
X-197.768 Y-614.732
X-196.5 Y-614.483
X-195.238 Y-614.209
X-193.981 Y-613.91
X-192.73 Y-613.587
X-191.485 Y-613.24
X-190.247 Y-612.869
X-189.017 Y-612.474
X-187.795 Y-612.055
X-186.581 Y-611.612
X-185.376 Y-611.147
X-184.18 Y-610.658
X-182.993 Y-610.146
X-181.817 Y-609.612
X-180.652 Y-609.054
X-179.497 Y-608.474
X-178.354 Y-607.872
X-177.223 Y-607.248
X-176.103 Y-606.602
X-174.997 Y-605.935
X-173.904 Y-605.246
X-172.824 Y-604.536
X-171.758 Y-603.806
X-170.706 Y-603.056
X-169.669 Y-602.285
X-168.647 Y-601.495
X-167.64 Y-600.685
X-166.649 Y-599.857
X-165.674 Y-599.009
X-164.715 Y-598.143
X-163.773 Y-597.258
X-162.848 Y-596.356
X-161.941 Y-595.436
X-161.052 Y-594.499
X-160.18 Y-593.545
X-159.328 Y-592.574
X-158.494 Y-591.587
X-157.679 Y-590.584
X-156.884 Y-589.566
X-156.108 Y-588.533
X-155.352 Y-587.485
X-154.616 Y-586.423
X-153.901 Y-585.347
X-153.206 Y-584.258
X-152.532 Y-583.155
X-151.879 Y-582.04
X-151.248 Y-580.913
X-150.639 Y-579.774
X-150.051 Y-578.623
X-149.485 Y-577.461
X-148.942 Y-576.289
X-148.421 Y-575.107
X-147.924 Y-573.914
X-147.449 Y-572.713
X-146.997 Y-571.502
X-146.569 Y-570.283
X-146.164 Y-569.056
X-145.782 Y-567.822
X-145.424 Y-566.58
X-145.09 Y-565.332
X-144.78 Y-564.078
X-144.494 Y-562.818
X-144.231 Y-561.553
X-143.993 Y-560.283
X-143.78 Y-559.008
X-143.59 Y-557.73
X-143.426 Y-556.449
X-143.285 Y-555.164
X-143.17 Y-553.878
X-143.079 Y-552.589
X-143.013 Y-551.298
X-142.972 Y-550.007
X-142.956 Y-548.715
X-142.964 Y-547.423
X-142.997 Y-546.131
X-143.055 Y-544.841
X-143.138 Y-543.551
X-143.245 Y-542.264
X-143.376 Y-540.978
X-143.533 Y-539.696
X-143.713 Y-538.416
X-143.919 Y-537.141
X-144.148 Y-535.869
X-144.402 Y-534.602
X-144.68 Y-533.34
X-144.982 Y-532.084
X-145.308 Y-530.834
X-145.659 Y-529.59
X-146.033 Y-528.354
X-146.431 Y-527.124
X-146.852 Y-525.903
X-147.297 Y-524.69
X-147.765 Y-523.486
X-148.255 Y-522.29
X-148.769 Y-521.105
X-149.305 Y-519.929
X-149.864 Y-518.764
X-150.445 Y-517.61
X-151.047 Y-516.467
X-151.672 Y-515.336
X-152.317 Y-514.217
X-152.985 Y-513.11
X-153.673 Y-512.017
X-154.382 Y-510.937
X-155.112 Y-509.871
X-155.862 Y-508.819
X-156.632 Y-507.781
X-157.422 Y-506.759
X-158.232 Y-505.752
X-159.06 Y-504.76
X-159.908 Y-503.785
X-160.773 Y-502.826
X-161.658 Y-501.884
X-162.559 Y-500.959
X-163.479 Y-500.051
X-164.415 Y-499.16
X-165.368 Y-498.288
X-166.338 Y-497.434
X-167.324 Y-496.599
X-168.326 Y-495.783
X-169.342 Y-494.986
X-170.375 Y-494.209
X-171.421 Y-493.451
X-172.483 Y-492.714
X-173.558 Y-491.998
X-174.646 Y-491.302
X-175.748 Y-490.626
X-176.862 Y-489.972
X-177.989 Y-489.34
X-179.127 Y-488.729
X-180.277 Y-488.139
X-181.438 Y-487.572
X-182.609 Y-487.027
X-183.791 Y-486.504
X-184.982 Y-486.004
X-186.183 Y-485.526
X-187.392 Y-485.071
X-188.61 Y-484.639
X-189.835 Y-484.231
X-191.069 Y-483.846
X-192.309 Y-483.485
X-193.556 Y-483.147
X-194.81 Y-482.833
X-196.069 Y-482.543
X-197.333 Y-482.277
X-198.602 Y-482.035
X-199.876 Y-481.817
X-201.153 Y-481.624
X-202.434 Y-481.454
X-203.718 Y-481.309
X-205.005 Y-481.188
X-206.293 Y-481.091
X-207.583 Y-481.019
X-208.874 Y-480.971
X-210.166 Y-480.947
X-211.458 Y-480.948
X-212.75 Y-480.973
X-214.041 Y-481.023
X-215.331 Y-481.097
X-216.619 Y-481.196
X-217.905 Y-481.319
X-219.189 Y-481.467
X-220.47 Y-481.638
X-221.747 Y-481.834
X-223.02 Y-482.054
X-224.289 Y-482.297
X-225.553 Y-482.565
X-226.812 Y-482.856
X-228.065 Y-483.171
X-229.312 Y-483.51
X-230.552 Y-483.871
X-231.786 Y-484.256
X-233.011 Y-484.664
X-234.23 Y-485.095
X-235.439 Y-485.549
X-236.64 Y-486.026
X-237.832 Y-486.525
X-239.014 Y-487.047
X-240.186 Y-487.591
X-241.348 Y-488.156
X-242.498 Y-488.744
X-243.638 Y-489.353
X-244.766 Y-489.983
X-245.882 Y-490.634
X-246.985 Y-491.306
X-248.076 Y-491.999
X-249.153 Y-492.712
X-250.217 Y-493.445
X-251.268 Y-494.198
X-252.303 Y-494.97
X-253.325 Y-495.761
X-254.331 Y-496.572
X-255.322 Y-497.401
X-256.297 Y-498.249
X-257.256 Y-499.114
X-258.199 Y-499.998
X-259.125 Y-500.899
X-260.033 Y-501.818
X-260.925 Y-502.753
X-261.799 Y-503.705
X-262.655 Y-504.673
X-263.492 Y-505.656
X-264.311 Y-506.656
X-265.112 Y-507.67
X-265.893 Y-508.699
X-266.655 Y-509.743
X-267.397 Y-510.8
X-268.12 Y-511.871
X-268.822 Y-512.956
X-269.505 Y-514.053
X-270.166 Y-515.163
X-270.807 Y-516.285
X-271.426 Y-517.419
X-272.024 Y-518.564
X-272.601 Y-519.72
X-273.156 Y-520.887
X-273.689 Y-522.064
X-274.2 Y-523.251
X-274.689 Y-524.447
X-275.155 Y-525.651
X-275.599 Y-526.865
X-276.02 Y-528.086
X-276.419 Y-529.315
X-276.794 Y-530.552
X-277.147 Y-531.795
X-277.476 Y-533.044
X-277.782 Y-534.299
X-278.065 Y-535.56
X-278.324 Y-536.826
X-278.559 Y-538.096
X-278.771 Y-539.371
X-278.959 Y-540.649
X-279.123 Y-541.931
X-279.263 Y-543.215
X-279.379 Y-544.502
X-279.471 Y-545.791
X-279.539 Y-547.081
X-279.583 Y-548.373
X-279.603 Y-549.665
X-279.599 Y-550.957
X-279.571 Y-552.248
X-279.519 Y-553.539
X-279.443 Y-554.829
X-279.343 Y-556.117
X-279.219 Y-557.403
X-279.072 Y-558.687
X-278.9 Y-559.968
X-278.705 Y-561.245
X-278.486 Y-562.518
X-278.243 Y-563.787
X-277.977 Y-565.052
X-277.687 Y-566.311
X-277.374 Y-567.564
X-277.037 Y-568.812
X-276.678 Y-570.053
X-276.295 Y-571.287
X-275.89 Y-572.514
X-275.462 Y-573.733
X-275.011 Y-574.944
X-274.538 Y-576.146
X-274.042 Y-577.339
X-273.525 Y-578.523
X-272.986 Y-579.697
X-272.425 Y-580.861
X-271.843 Y-582.015
X-271.239 Y-583.157
X-270.614 Y-584.288
X-269.968 Y-585.407
X-269.302 Y-586.514
X-268.614 Y-587.608
X-267.907 Y-588.689
X-267.18 Y-589.757
X-266.433 Y-590.811
X-265.666 Y-591.852
X-264.881 Y-592.877
X-264.076 Y-593.888
X-263.253 Y-594.884
X-262.412 Y-595.865
X-261.552 Y-596.829
X-260.675 Y-597.778
X-259.78 Y-598.71
X-258.869 Y-599.626
X-257.94 Y-600.524
X-256.995 Y-601.406
X-256.034 Y-602.269
X-255.057 Y-603.114
X-254.064 Y-603.941
X-253.056 Y-604.749
X-252.033 Y-605.539
X-250.996 Y-606.309
X-249.944 Y-607.06
X-248.879 Y-607.791
X-247.8 Y-608.503
X-246.709 Y-609.194
X-245.605 Y-609.865
X-244.488 Y-610.515
X-243.36 Y-611.145
X-242.22 Y-611.753
X-241.069 Y-612.34
X-239.908 Y-612.906
X-238.736 Y-613.451
X-237.554 Y-613.974
X-236.363 Y-614.474
X-235.163 Y-614.952
X-233.954 Y-615.408
X-232.737 Y-615.841
X-231.512 Y-616.252
X-230.279 Y-616.64
X-229.04 Y-617.005
X-227.794 Y-617.346
X-226.542 Y-617.665
X-225.284 Y-617.961
X-224.021 Y-618.233
X-222.753 Y-618.482
X-221.481 Y-618.707
X-220.204 Y-618.909
X-218.925 Y-619.087
X-217.642 Y-619.241
X-216.356 Y-619.372
X-215.069 Y-619.48
X-213.779 Y-619.563
X-212.489 Y-619.622
X-211.197 Y-619.657
X-209.905 Y-619.669
X-208.613 Y-619.656
X-207.322 Y-619.62
X-206.031 Y-619.56
X-204.742 Y-619.476
X-203.454 Y-619.368
X-202.169 Y-619.237
X-200.886 Y-619.082
X-199.606 Y-618.903
X-198.33 Y-618.701
X-197.058 Y-618.476
X-195.79 Y-618.227
X-194.527 Y-617.955
X-193.269 Y-617.66
X-192.017 Y-617.342
X-190.771 Y-617.001
X-189.531 Y-616.637
X-188.298 Y-616.25
X-187.073 Y-615.841
X-185.855 Y-615.409
X-184.645 Y-614.955
X-183.444 Y-614.479
X-182.252 Y-613.981
X-181.069 Y-613.461
X-179.896 Y-612.92
X-178.732 Y-612.357
X-177.58 Y-611.773
X-176.438 Y-611.169
X-175.307 Y-610.543
X-174.188 Y-609.898
X-173.081 Y-609.232
X-171.986 Y-608.545
X-170.904 Y-607.84
X-169.835 Y-607.114
X-168.779 Y-606.369
X-167.737 Y-605.605
X-166.71 Y-604.822
X-165.696 Y-604.021
X-164.698 Y-603.201
X-163.714 Y-602.363
X-162.746 Y-601.507
X-161.793 Y-600.634
X-160.857 Y-599.744
X-159.937 Y-598.837
X-159.033 Y-597.913
X-158.147 Y-596.973
X-157.277 Y-596.018
X-156.425 Y-595.046
X-155.591 Y-594.06
X-154.775 Y-593.058
X-153.977 Y-592.042
X-153.197 Y-591.012
X-152.436 Y-589.968
X-151.694 Y-588.91
X-150.972 Y-587.838
X-150.269 Y-586.754
X-149.587 Y-585.657
X-148.924 Y-584.548
X-148.281 Y-583.427
X-147.659 Y-582.295
X-147.057 Y-581.152
X-146.476 Y-579.997
X-145.916 Y-578.833
X-145.377 Y-577.659
X-144.86 Y-576.475
X-144.364 Y-575.282
X-143.889 Y-574.08
X-143.437 Y-572.87
X-143.006 Y-571.651
X-142.598 Y-570.426
X-142.211 Y-569.193
X-141.847 Y-567.953
X-141.506 Y-566.707
X-141.187 Y-565.455
X-140.892 Y-564.197
X-140.619 Y-562.934
X-140.369 Y-561.667
X-140.142 Y-560.395
X-139.938 Y-559.119
X-139.757 Y-557.839
X-139.599 Y-556.557
X-139.465 Y-555.272
X-139.354 Y-553.985
X-139.266 Y-552.696
X-139.202 Y-551.405
X-139.161 Y-550.114
X-139.143 Y-548.822
X-139.149 Y-547.53
X-139.178 Y-546.238
X-139.23 Y-544.947
X-139.306 Y-543.657
X-139.405 Y-542.369
X-139.528 Y-541.083
X-139.674 Y-539.799
X-139.843 Y-538.518
X-140.036 Y-537.24
X-140.252 Y-535.967
X-140.491 Y-534.697
X-140.752 Y-533.431
X-141.037 Y-532.171
X-141.344 Y-530.916
X-141.675 Y-529.667
X-142.027 Y-528.424
X-142.403 Y-527.188
X-142.8 Y-525.958
X-143.22 Y-524.736
X-143.662 Y-523.522
X-144.125 Y-522.316
X-144.611 Y-521.119
X-145.118 Y-519.93
X-145.646 Y-518.751
X-146.197 Y-517.582
X-146.768 Y-516.423
X-147.36 Y-515.275
X-147.973 Y-514.138
X-148.606 Y-513.011
X-149.26 Y-511.897
X-149.934 Y-510.795
X-150.627 Y-509.704
X-151.341 Y-508.627
X-152.073 Y-507.563
X-152.825 Y-506.512
X-153.596 Y-505.475
X-154.385 Y-504.452
X-155.193 Y-503.444
X-156.019 Y-502.45
X-156.862 Y-501.471
X-157.724 Y-500.508
X-158.602 Y-499.561
X-159.498 Y-498.63
X-160.41 Y-497.715
X-161.339 Y-496.817
X-162.284 Y-495.936
X-163.245 Y-495.072
X-164.221 Y-494.225
X-165.212 Y-493.397
X-166.219 Y-492.586
X-167.239 Y-491.794
X-168.274 Y-491.02
X-169.323 Y-490.265
X-170.385 Y-489.529
X-171.46 Y-488.813
X-172.548 Y-488.116
X-173.648 Y-487.438
X-174.76 Y-486.781
X-175.884 Y-486.144
X-177.02 Y-485.527
X-178.166 Y-484.931
X-179.323 Y-484.355
X-180.49 Y-483.801
X-181.667 Y-483.268
X-182.853 Y-482.756
X-184.049 Y-482.266
X-185.253 Y-481.797
X-186.465 Y-481.35
X-187.685 Y-480.925
X-188.912 Y-480.522
X-190.147 Y-480.141
X-191.388 Y-479.782
X-192.636 Y-479.445
X-193.889 Y-479.131
X-195.148 Y-478.84
X-196.412 Y-478.571
X-197.68 Y-478.325
X-198.953 Y-478.102
X-200.229 Y-477.901
X-201.509 Y-477.724
X-202.792 Y-477.57
X-204.077 Y-477.439
X-205.365 Y-477.331
X-206.654 Y-477.246
X-207.944 Y-477.184
X-209.236 Y-477.145
X-210.528 Y-477.129
X-211.82 Y-477.137
X-213.112 Y-477.168
X-214.403 Y-477.221
X-215.692 Y-477.298
X-216.981 Y-477.398
X-218.267 Y-477.521
X-219.551 Y-477.667
X-220.832 Y-477.835
X-222.109 Y-478.027
X-223.384 Y-478.241
X-224.654 Y-478.478
X-225.919 Y-478.738
X-227.18 Y-479.02
X-228.436 Y-479.325
X-229.686 Y-479.652
X-230.929 Y-480.002
X-232.167 Y-480.374
X-233.398 Y-480.767
X-234.621 Y-481.183
X-235.837 Y-481.62
X-237.045 Y-482.079
X-238.244 Y-482.559
X-239.435 Y-483.061
X-240.616 Y-483.583
X-241.789 Y-484.127
X-242.951 Y-484.691
X-244.103 Y-485.276
X-245.245 Y-485.881
X-246.375 Y-486.507
X-247.495 Y-487.152
X-248.602 Y-487.817
X-249.698 Y-488.503
X-250.781 Y-489.207
X-251.851 Y-489.931
X-252.909 Y-490.673
X-253.953 Y-491.434
X-254.983 Y-492.214
X-256 Y-493.011
X-257.002 Y-493.827
X-257.989 Y-494.66
X-258.962 Y-495.511
X-259.919 Y-496.378
X-260.861 Y-497.263
X-261.787 Y-498.164
X-262.697 Y-499.081
X-263.59 Y-500.015
X-264.467 Y-500.963
X-265.327 Y-501.928
X-266.17 Y-502.907
X-266.995 Y-503.901
X-267.802 Y-504.91
X-268.591 Y-505.933
X-269.362 Y-506.97
X-270.115 Y-508.02
X-270.849 Y-509.084
X-271.564 Y-510.16
X-272.26 Y-511.249
X-272.936 Y-512.349
X-273.593 Y-513.462
X-274.23 Y-514.586
X-274.847 Y-515.721
X-275.444 Y-516.867
X-276.021 Y-518.023
X-276.577 Y-519.19
X-277.112 Y-520.366
X-277.627 Y-521.551
X-278.121 Y-522.745
X-278.593 Y-523.947
X-279.044 Y-525.158
X-279.474 Y-526.377
X-279.881 Y-527.603
X-280.267 Y-528.836
X-280.632 Y-530.075
X-280.974 Y-531.321
X-281.294 Y-532.573
X-281.592 Y-533.83
X-281.868 Y-535.092
X-282.122 Y-536.359
X-282.353 Y-537.631
X-282.562 Y-538.906
X-282.748 Y-540.184
X-282.912 Y-541.466
X-283.053 Y-542.75
X-283.171 Y-544.037
X-283.267 Y-545.325
X-283.34 Y-546.615
X-283.391 Y-547.906
X-283.418 Y-549.198
X-283.423 Y-550.49
X-283.404 Y-551.782
X-283.363 Y-553.073
X-283.299 Y-554.364
X-283.212 Y-555.653
X-283.103 Y-556.94
X-282.971 Y-558.226
X-282.816 Y-559.509
X-282.639 Y-560.788
X-282.44 Y-562.065
X-282.217 Y-563.338
X-281.973 Y-564.606
X-281.706 Y-565.871
X-281.417 Y-567.13
X-281.106 Y-568.384
X-280.773 Y-569.632
X-280.418 Y-570.875
X-280.041 Y-572.111
X-279.642 Y-573.34
X-279.222 Y-574.561
X-278.78 Y-575.775
X-278.317 Y-576.982
X-277.832 Y-578.179
X-277.327 Y-579.368
X-276.801 Y-580.549
X-276.254 Y-581.719
X-275.686 Y-582.88
X-275.098 Y-584.03
X-274.49 Y-585.171
X-273.862 Y-586.3
X-273.215 Y-587.418
X-272.548 Y-588.524
X-271.861 Y-589.619
X-271.155 Y-590.701
X-270.431 Y-591.771
X-269.687 Y-592.828
X-268.926 Y-593.871
X-268.145 Y-594.901
X-267.347 Y-595.917
X-266.531 Y-596.919
X-265.697 Y-597.906
X-264.847 Y-598.878
X-263.979 Y-599.836
X-263.094 Y-600.777
X-262.193 Y-601.703
X-261.276 Y-602.614
X-260.343 Y-603.508
X-259.395 Y-604.385
X-258.431 Y-605.245
X-257.452 Y-606.089
X-256.459 Y-606.915
X-255.451 Y-607.723
X-254.429 Y-608.514
X-253.393 Y-609.287
X-252.344 Y-610.041
X-251.282 Y-610.777
X-250.208 Y-611.494
X-249.12 Y-612.192
X-248.02 Y-612.87
X-246.909 Y-613.529
X-245.786 Y-614.168
X-244.652 Y-614.788
X-243.508 Y-615.387
X-242.353 Y-615.967
X-241.188 Y-616.525
X-240.013 Y-617.064
X-238.83 Y-617.581
X-237.637 Y-618.078
X-236.436 Y-618.554
X-235.226 Y-619.008
X-234.009 Y-619.442
X-232.784 Y-619.853
X-231.552 Y-620.244
X-230.314 Y-620.612
X-229.07 Y-620.959
X-227.819 Y-621.284
X-226.563 Y-621.587
X-225.302 Y-621.868
X-224.036 Y-622.126
X-222.765 Y-622.362
X-221.491 Y-622.576
X-220.213 Y-622.767
X-218.932 Y-622.936
X-217.649 Y-623.083
X-216.363 Y-623.206
X-215.075 Y-623.308
X-213.785 Y-623.387
X-212.494 Y-623.443
X-211.202 Y-623.477
X-209.91 Y-623.488
X-208.618 Y-623.476
X-207.327 Y-623.442
X-206.036 Y-623.386
X-204.746 Y-623.307
X-203.458 Y-623.205
X-202.172 Y-623.081
X-200.889 Y-622.934
X-199.608 Y-622.765
X-198.33 Y-622.573
X-197.056 Y-622.359
X-195.785 Y-622.123
X-194.519 Y-621.864
X-193.258 Y-621.584
X-192.002 Y-621.282
X-190.751 Y-620.958
X-189.506 Y-620.612
X-188.267 Y-620.245
X-187.035 Y-619.856
X-185.81 Y-619.446
X-184.592 Y-619.015
X-183.382 Y-618.563
X-182.18 Y-618.089
X-180.986 Y-617.595
X-179.8 Y-617.081
X-178.624 Y-616.545
X-177.458 Y-615.99
X-176.301 Y-615.414
X-175.155 Y-614.818
X-174.019 Y-614.202
X-172.894 Y-613.567
X-171.78 Y-612.913
X-170.677 Y-612.239
X-169.587 Y-611.546
X-168.508 Y-610.835
X-167.442 Y-610.105
X-166.389 Y-609.357
X-165.349 Y-608.59
X-164.322 Y-607.806
X-163.308 Y-607.004
X-162.309 Y-606.185
X-161.324 Y-605.349
X-160.354 Y-604.496
X-159.398 Y-603.627
X-158.457 Y-602.741
X-157.532 Y-601.839
X-156.623 Y-600.921
X-155.73 Y-599.987
X-154.853 Y-599.039
X-153.992 Y-598.075
X-153.148 Y-597.096
X-152.321 Y-596.104
X-151.511 Y-595.097
X-150.719 Y-594.076
X-149.944 Y-593.042
X-149.188 Y-591.995
X-148.449 Y-590.935
X-147.729 Y-589.862
X-147.027 Y-588.777
X-146.344 Y-587.681
X-145.679 Y-586.573
X-145.034 Y-585.453
X-144.409 Y-584.323
X-143.802 Y-583.182
X-143.216 Y-582.031
X-142.649 Y-580.869
X-142.103 Y-579.698
X-141.576 Y-578.518
X-141.071 Y-577.329
X-140.585 Y-576.132
X-140.121 Y-574.926
X-139.677 Y-573.713
X-139.254 Y-572.492
X-138.852 Y-571.264
X-138.471 Y-570.03
X-138.111 Y-568.789
X-137.773 Y-567.542
X-137.457 Y-566.289
X-137.161 Y-565.031
X-136.888 Y-563.768
X-136.636 Y-562.501
X-136.406 Y-561.23
X-136.198 Y-559.954
X-136.011 Y-558.676
X-135.847 Y-557.394
X-135.705 Y-556.11
X-135.585 Y-554.824
X-135.488 Y-553.535
X-135.412 Y-552.245
X-135.359 Y-550.954
X-135.328 Y-549.663
X-135.319 Y-548.371
X-135.332 Y-547.079
X-135.368 Y-545.787
X-135.426 Y-544.496
X-135.506 Y-543.207
X-135.608 Y-541.919
X-135.732 Y-540.633
X-135.878 Y-539.349
X-136.047 Y-538.068
X-136.237 Y-536.79
X-136.449 Y-535.515
X-136.683 Y-534.245
X-136.939 Y-532.978
X-137.217 Y-531.716
X-137.517 Y-530.46
X-137.838 Y-529.208
X-138.181 Y-527.962
X-138.545 Y-526.723
X-138.931 Y-525.49
X-139.337 Y-524.263
X-139.765 Y-523.044
X-140.213 Y-521.832
X-140.683 Y-520.628
X-141.173 Y-519.433
X-141.683 Y-518.246
X-142.214 Y-517.068
X-142.765 Y-515.899
X-143.336 Y-514.74
X-143.927 Y-513.591
X-144.537 Y-512.452
X-145.167 Y-511.324
X-145.816 Y-510.207
X-146.484 Y-509.101
X-147.172 Y-508.007
X-147.878 Y-506.925
X-148.603 Y-505.856
X-149.346 Y-504.799
X-150.107 Y-503.755
X-150.886 Y-502.724
X-151.683 Y-501.707
X-152.497 Y-500.703
X-153.328 Y-499.714
X-154.175 Y-498.739
X-155.04 Y-497.779
X-155.921 Y-496.833
X-156.818 Y-495.904
X-157.731 Y-494.989
X-158.659 Y-494.09
X-159.603 Y-493.208
X-160.561 Y-492.341
X-161.534 Y-491.492
X-162.522 Y-490.659
X-163.524 Y-489.843
X-164.54 Y-489.044
X-165.57 Y-488.264
X-166.612 Y-487.501
X-167.668 Y-486.756
X-168.736 Y-486.029
X-169.817 Y-485.321
X-170.91 Y-484.631
X-172.014 Y-483.96
X-173.129 Y-483.308
X-174.256 Y-482.676
X-175.393 Y-482.063
X-176.541 Y-481.469
X-177.698 Y-480.895
X-178.865 Y-480.341
X-180.042 Y-479.806
X-181.227 Y-479.292
X-182.421 Y-478.799
X-183.623 Y-478.325
X-184.834 Y-477.873
X-186.051 Y-477.441
X-187.276 Y-477.03
X-188.508 Y-476.64
X-189.747 Y-476.272
X-190.991 Y-475.925
X-192.241 Y-475.599
X-193.497 Y-475.294
X-194.758 Y-475.011
X-196.023 Y-474.749
X-197.292 Y-474.509
X-198.566 Y-474.29
X-199.843 Y-474.094
X-201.123 Y-473.919
X-202.406 Y-473.766
X-203.691 Y-473.634
X-204.979 Y-473.525
X-206.268 Y-473.437
X-207.558 Y-473.371
X-208.85 Y-473.328
X-210.141 Y-473.306
X-211.433
X-212.725 Y-473.329
X-214.017 Y-473.373
X-215.307 Y-473.44
X-216.596 Y-473.528
X-217.883 Y-473.639
X-219.169 Y-473.771
X-220.451 Y-473.925
X-221.732 Y-474.1
X-223.008 Y-474.297
X-224.282 Y-474.516
X-225.551 Y-474.757
X-226.816 Y-475.019
X-228.077 Y-475.302
X-229.333 Y-475.607
X-230.583 Y-475.933
X-231.828 Y-476.28
X-233.066 Y-476.648
X-234.298 Y-477.036
X-235.524 Y-477.446
X-236.742 Y-477.877
X-237.953 Y-478.328
X-239.156 Y-478.799
X-240.35 Y-479.291
X-241.537 Y-479.803
X-242.714 Y-480.335
X-243.882 Y-480.887
X-245.041 Y-481.459
X-246.19 Y-482.05
X-247.329 Y-482.66
X-248.457 Y-483.29
X-249.575 Y-483.938
X-250.681 Y-484.605
X-251.776 Y-485.291
X-252.859 Y-485.995
X-253.931 Y-486.718
X-254.99 Y-487.458
X-256.036 Y-488.216
X-257.07 Y-488.991
X-258.09 Y-489.784
X-259.097 Y-490.594
X-260.089 Y-491.421
X-261.068 Y-492.265
X-262.032 Y-493.125
X-262.982 Y-494.001
X-263.916 Y-494.893
X-264.836 Y-495.8
X-265.74 Y-496.723
X-266.629 Y-497.661
X-267.501 Y-498.614
X-268.358 Y-499.582
X-269.198 Y-500.563
X-270.021 Y-501.559
X-270.828 Y-502.569
X-271.617 Y-503.591
X-272.389 Y-504.627
X-273.144 Y-505.676
X-273.881 Y-506.737
X-274.6 Y-507.811
X-275.301 Y-508.896
X-275.984 Y-509.993
X-276.648 Y-511.102
X-277.293 Y-512.221
X-277.919 Y-513.351
X-278.526 Y-514.492
X-279.113 Y-515.643
X-279.682 Y-516.803
X-280.23 Y-517.973
X-280.76 Y-519.151
X-281.269 Y-520.339
X-281.758 Y-521.535
X-282.227 Y-522.739
X-282.676 Y-523.95
X-283.104 Y-525.169
X-283.512 Y-526.395
X-283.9 Y-527.628
X-284.266 Y-528.867
X-284.612 Y-530.112
X-284.937 Y-531.362
X-285.241 Y-532.618
X-285.524 Y-533.879
X-285.785 Y-535.144
X-286.026 Y-536.414
X-286.244 Y-537.687
X-286.442 Y-538.964
X-286.617 Y-540.244
X-286.772 Y-541.527
X-286.905 Y-542.812
X-287.016 Y-544.099
X-287.106 Y-545.388
X-287.174 Y-546.678
X-287.221 Y-547.97
X-287.245 Y-549.261
X-287.249 Y-550.553
X-287.23 Y-551.845
X-287.19 Y-553.137
X-287.129 Y-554.427
X-287.046 Y-555.717
X-286.941 Y-557.005
X-286.815 Y-558.29
X-286.667 Y-559.574
X-286.498 Y-560.855
X-286.307 Y-562.133
X-286.094 Y-563.407
X-285.861 Y-564.678
X-285.606 Y-565.945
X-285.329 Y-567.207
X-285.032 Y-568.464
X-284.714 Y-569.716
X-284.375 Y-570.963
X-284.015 Y-572.204
X-283.634 Y-573.439
X-283.233 Y-574.667
X-282.811 Y-575.888
X-282.369 Y-577.102
X-281.907 Y-578.309
X-281.425 Y-579.508
X-280.922 Y-580.698
X-280.4 Y-581.88
X-279.858 Y-583.053
X-279.297 Y-584.216
X-278.716 Y-585.371
X-278.116 Y-586.515
X-277.496 Y-587.648
X-276.858 Y-588.772
X-276.201 Y-589.884
X-275.525 Y-590.986
X-274.831 Y-592.076
X-274.119 Y-593.154
X-273.39 Y-594.22
X-272.642 Y-595.274
X-271.877 Y-596.315
X-271.094 Y-597.343
X-270.295 Y-598.358
X-269.478 Y-599.36
X-268.645 Y-600.347
X-267.796 Y-601.321
X-266.931 Y-602.28
X-266.049 Y-603.225
X-265.152 Y-604.155
X-264.24 Y-605.07
X-263.312 Y-605.969
X-262.369 Y-606.853
X-261.412 Y-607.72
X-260.44 Y-608.572
X-259.454 Y-609.407
X-258.454 Y-610.225
X-257.441 Y-611.027
X-256.414 Y-611.811
X-255.375 Y-612.579
X-254.323 Y-613.329
X-253.258 Y-614.061
X-252.182 Y-614.775
X-251.093 Y-615.471
X-249.993 Y-616.149
X-248.882 Y-616.809
X-247.76 Y-617.45
X-246.628 Y-618.072
X-245.485 Y-618.675
X-244.333 Y-619.259
X-243.17 Y-619.823
X-241.999 Y-620.368
X-240.818 Y-620.893
X-239.629 Y-621.399
X-238.432 Y-621.884
X-237.226 Y-622.349
X-236.013 Y-622.795
X-234.793 Y-623.219
X-233.566 Y-623.624
X-232.332 Y-624.008
X-231.092 Y-624.371
X-229.847 Y-624.713
X-228.595 Y-625.035
X-227.339 Y-625.336
X-226.077 Y-625.615
X-224.811 Y-625.874
X-223.541 Y-626.112
X-222.268 Y-626.328
X-220.99 Y-626.523
X-219.71 Y-626.697
X-218.427 Y-626.85
X-217.142 Y-626.981
X-215.854 Y-627.09
X-214.565 Y-627.178
X-213.275 Y-627.245
X-211.984 Y-627.289
X-210.692 Y-627.313
X-209.4 Y-627.315
X-208.108 Y-627.295
X-206.816 Y-627.254
X-205.526 Y-627.192
X-204.236 Y-627.108
X-202.949 Y-627.003
X-201.663 Y-626.876
X-200.379 Y-626.728
X-199.098 Y-626.559
X-197.82 Y-626.368
X-196.546 Y-626.157
X-195.275 Y-625.924
X-194.008 Y-625.67
X-192.745 Y-625.396
X-191.488 Y-625.1
X-190.235 Y-624.784
X-188.988 Y-624.446
X-187.746 Y-624.088
X-186.511 Y-623.71
X-185.282 Y-623.311
X-184.06 Y-622.892
X-182.845 Y-622.453
X-181.637 Y-621.994
X-180.437 Y-621.515
X-179.245 Y-621.016
X-178.061 Y-620.498
X-176.887 Y-619.96
X-175.721 Y-619.403
X-174.564 Y-618.826
X-173.418 Y-618.231
X-172.281 Y-617.617
X-171.154 Y-616.985
X-170.038 Y-616.334
X-168.933 Y-615.664
X-167.839 Y-614.977
X-166.756 Y-614.272
X-165.686 Y-613.549
X-164.627 Y-612.808
X-163.581 Y-612.05
X-162.547 Y-611.275
X-161.526 Y-610.483
X-160.518 Y-609.674
X-159.524 Y-608.849
X-158.543 Y-608.008
X-157.576 Y-607.151
X-156.624 Y-606.278
X-155.686 Y-605.389
X-154.762 Y-604.486
X-153.854 Y-603.567
X-152.96 Y-602.634
X-152.082 Y-601.686
X-151.22 Y-600.724
X-150.373 Y-599.747
X-149.543 Y-598.758
X-148.729 Y-597.754
X-147.931 Y-596.738
X-147.15 Y-595.708
X-146.387 Y-594.666
X-145.64 Y-593.612
X-144.911 Y-592.545
X-144.199 Y-591.467
X-143.506 Y-590.377
X-142.83 Y-589.276
X-142.172 Y-588.164
X-141.532 Y-587.041
X-140.911 Y-585.908
X-140.308 Y-584.765
X-139.724 Y-583.612
X-139.159 Y-582.45
X-138.614 Y-581.279
X-138.087 Y-580.1
X-137.58 Y-578.911
X-137.092 Y-577.715
X-136.623 Y-576.511
X-136.175 Y-575.299
X-135.746 Y-574.08
X-135.337 Y-572.854
X-134.949 Y-571.622
X-134.581 Y-570.384
X-134.233 Y-569.139
X-133.906 Y-567.889
X-133.599 Y-566.634
X-133.313 Y-565.374
X-133.047 Y-564.11
X-132.802 Y-562.841
X-132.577 Y-561.569
X-132.374 Y-560.293
X-132.191 Y-559.014
X-132.03 Y-557.732
X-131.889 Y-556.448
X-131.77 Y-555.161
X-131.671 Y-553.873
X-131.593 Y-552.583
X-131.537 Y-551.292
X-131.502 Y-550.001
X-131.487 Y-548.709
X-131.494 Y-547.417
X-131.522 Y-546.125
X-131.572 Y-544.834
X-131.643 Y-543.544
X-131.734 Y-542.255
X-131.847 Y-540.968
X-131.981 Y-539.683
X-132.136 Y-538.4
X-132.312 Y-537.12
X-132.509 Y-535.843
X-132.726 Y-534.569
X-132.965 Y-533.299
X-133.224 Y-532.034
X-133.504 Y-530.772
X-133.805 Y-529.516
X-134.126 Y-528.264
X-134.467 Y-527.018
X-134.829 Y-525.778
X-135.211 Y-524.543
X-135.613 Y-523.315
X-136.035 Y-522.094
X-136.477 Y-520.88
X-136.939 Y-519.674
X-137.421 Y-518.475
X-137.923 Y-517.284
X-138.444 Y-516.102
X-138.984 Y-514.928
X-139.543 Y-513.763
X-140.121 Y-512.608
X-140.719 Y-511.462
X-141.334 Y-510.326
X-141.969 Y-509.201
X-142.621 Y-508.085
X-143.292 Y-506.981
X-143.981 Y-505.888
X-144.687 Y-504.806
X-145.411 Y-503.736
X-146.153 Y-502.678
X-146.912 Y-501.632
X-147.687 Y-500.599
X-148.48 Y-499.578
X-149.289 Y-498.571
X-150.114 Y-497.577
X-150.956 Y-496.597
X-151.814 Y-495.63
X-152.687 Y-494.678
X-153.576 Y-493.741
X-154.48 Y-492.818
X-155.399 Y-491.909
X-156.333 Y-491.016
X-157.281 Y-490.139
X-158.243 Y-489.277
X-159.22 Y-488.43
X-160.21 Y-487.6
X-161.213 Y-486.786
X-162.23 Y-485.989
X-163.259 Y-485.208
X-164.301 Y-484.444
X-165.356 Y-483.697
X-166.422 Y-482.968
X-167.5 Y-482.255
X-168.59 Y-481.561
X-169.691 Y-480.884
X-170.802 Y-480.226
X-171.925 Y-479.586
X-173.057 Y-478.965
X-174.2 Y-478.361
X-175.352 Y-477.777
X-176.514 Y-477.212
X-177.685 Y-476.665
X-178.864 Y-476.138
X-180.052 Y-475.629
X-181.248 Y-475.14
X-182.452 Y-474.671
X-183.663 Y-474.221
X-184.882 Y-473.792
X-186.107 Y-473.382
X-187.339 Y-472.991
X-188.577 Y-472.621
X-189.821 Y-472.272
X-191.07 Y-471.942
X-192.324 Y-471.632
X-193.584 Y-471.343
X-194.847 Y-471.075
X-196.116 Y-470.827
X-197.388 Y-470.6
X-198.663 Y-470.394
X-199.942 Y-470.208
X-201.223 Y-470.044
X-202.507 Y-469.9
X-203.793 Y-469.776
X-205.081 Y-469.674
X-206.371 Y-469.592
X-207.661 Y-469.532
X-208.953 Y-469.492
X-210.245 Y-469.473
X-211.537 Y-469.475
X-212.829 Y-469.498
X-214.12 Y-469.542
X-215.41 Y-469.607
X-216.7 Y-469.692
X-217.987 Y-469.799
X-219.273 Y-469.926
X-220.557 Y-470.073
X-221.838 Y-470.242
X-223.116 Y-470.432
X-224.391 Y-470.642
X-225.662 Y-470.873
X-226.929 Y-471.124
X-228.192 Y-471.396
X-229.451 Y-471.688
X-230.705 Y-472
X-231.953 Y-472.333
X-233.196 Y-472.685
X-234.433 Y-473.058
X-235.664 Y-473.45
X-236.889 Y-473.863
X-238.107 Y-474.295
X-239.317 Y-474.746
X-240.521 Y-475.217
X-241.716 Y-475.707
X-242.903 Y-476.216
X-244.082 Y-476.745
X-245.253 Y-477.292
X-246.414 Y-477.858
X-247.567 Y-478.443
X-248.709 Y-479.046
X-249.842 Y-479.668
X-250.964 Y-480.308
X-252.076 Y-480.966
X-253.178 Y-481.641
X-254.268 Y-482.335
X-255.347 Y-483.045
X-256.414 Y-483.773
X-257.47 Y-484.518
X-258.514 Y-485.28
X-259.545 Y-486.058
X-260.564 Y-486.853
X-261.569 Y-487.664
X-262.562 Y-488.492
X-263.541 Y-489.335
X-264.507 Y-490.193
X-265.458 Y-491.067
X-266.396 Y-491.956
X-267.319 Y-492.86
X-268.227 Y-493.779
X-269.121 Y-494.712
X-269.999 Y-495.659
X-270.863 Y-496.621
X-271.71 Y-497.596
X-272.542 Y-498.585
X-273.358 Y-499.587
X-274.157 Y-500.602
X-274.941 Y-501.629
X-275.707 Y-502.669
X-276.457 Y-503.721
X-277.191 Y-504.785
X-277.907 Y-505.861
X-278.605 Y-506.948
X-279.286 Y-508.045
X-279.95 Y-509.154
X-280.596 Y-510.273
X-281.223 Y-511.403
X-281.833 Y-512.542
X-282.424 Y-513.691
X-282.997 Y-514.849
X-283.552 Y-516.016
X-284.087 Y-517.192
X-284.604 Y-518.376
X-285.101 Y-519.568
X-285.579 Y-520.769
X-286.038 Y-521.977
X-286.478 Y-523.192
X-286.898 Y-524.413
X-287.298 Y-525.642
X-287.679 Y-526.876
X-288.04 Y-528.117
X-288.382 Y-529.363
X-288.703 Y-530.615
X-289.004 Y-531.871
X-289.285 Y-533.132
X-289.546 Y-534.398
X-289.787 Y-535.667
X-290.008 Y-536.94
X-290.208 Y-538.217
X-290.388 Y-539.496
X-290.547 Y-540.778
X-290.686 Y-542.063
X-290.804 Y-543.349
X-290.902 Y-544.638
X-290.978 Y-545.928
X-291.035 Y-547.218
X-291.07 Y-548.51
X-291.085 Y-549.802
X-291.079 Y-551.094
X-291.053 Y-552.386
X-291.006 Y-553.677
X-290.939 Y-554.967
X-290.851 Y-556.256
X-290.743 Y-557.544
X-290.614 Y-558.829
X-290.464 Y-560.113
X-290.294 Y-561.394
X-290.104 Y-562.672
X-289.893 Y-563.946
X-289.662 Y-565.218
X-289.411 Y-566.485
X-289.139 Y-567.748
X-288.848 Y-569.007
X-288.536 Y-570.261
X-288.205 Y-571.51
X-287.853 Y-572.753
X-287.482 Y-573.99
X-287.09 Y-575.222
X-286.68 Y-576.447
X-286.249 Y-577.665
X-285.8 Y-578.876
X-285.331 Y-580.08
X-284.843 Y-581.277
X-284.336 Y-582.465
X-283.81 Y-583.646
X-283.266 Y-584.817
X-282.703 Y-585.98
X-282.121 Y-587.134
X-281.521 Y-588.278
X-280.903 Y-589.413
X-280.267 Y-590.537
X-279.613 Y-591.652
X-278.942 Y-592.756
X-278.253 Y-593.849
X-277.546 Y-594.931
X-276.823 Y-596.001
X-276.082 Y-597.06
X-275.324 Y-598.106
X-274.55 Y-599.141
X-273.76 Y-600.163
X-272.953 Y-601.172
X-272.13 Y-602.168
X-271.292 Y-603.152
X-270.438 Y-604.121
X-269.569 Y-605.077
X-268.685 Y-606.019
X-267.785 Y-606.947
X-266.871 Y-607.86
X-265.943 Y-608.759
X-265 Y-609.643
X-264.044 Y-610.511
X-263.074 Y-611.365
X-262.09 Y-612.202
X-261.093 Y-613.024
X-260.084 Y-613.83
X-259.061 Y-614.62
X-258.026 Y-615.394
X-256.979 Y-616.15
X-255.919 Y-616.89
X-254.848 Y-617.613
X-253.766 Y-618.319
X-252.673 Y-619.007
X-251.568 Y-619.678
X-250.454 Y-620.331
X-249.329 Y-620.966
X-248.194 Y-621.584
X-247.049 Y-622.183
X-245.895 Y-622.764
X-244.732 Y-623.327
X-243.56 Y-623.871
X-242.38 Y-624.396
X-241.191 Y-624.903
X-239.994 Y-625.39
X-238.79 Y-625.859
X-237.579 Y-626.308
X-236.36 Y-626.738
X-235.135 Y-627.149
X-233.904 Y-627.539
X-232.666 Y-627.911
X-231.423 Y-628.262
X-230.174 Y-628.593
X-228.92 Y-628.905
X-227.661 Y-629.196
X-226.398 Y-629.468
X-225.131 Y-629.719
X-223.86 Y-629.951
X-222.585 Y-630.162
X-221.307 Y-630.353
X-220.026 Y-630.523
X-218.743 Y-630.673
X-217.457 Y-630.803
X-216.17 Y-630.913
X-214.881 Y-631.002
X-213.591 Y-631.07
X-212.3 Y-631.118
X-211.008 Y-631.146
X-209.716 Y-631.153
X-208.424 Y-631.14
X-207.132 Y-631.106
X-205.841 Y-631.051
X-204.551 Y-630.976
X-203.263 Y-630.881
X-201.976 Y-630.765
X-200.691 Y-630.629
X-199.409 Y-630.472
X-198.129 Y-630.296
X-196.852 Y-630.099
X-195.578 Y-629.882
X-194.308 Y-629.644
X-193.042 Y-629.387
X-191.78 Y-629.11
X-190.522 Y-628.813
X-189.27 Y-628.496
X-188.022 Y-628.16
X-186.78 Y-627.804
X-185.544 Y-627.428
X-184.314 Y-627.033
X-183.09 Y-626.619
X-181.873 Y-626.185
X-180.663 Y-625.732
X-179.46 Y-625.26
X-178.265 Y-624.769
X-177.078 Y-624.26
X-175.898 Y-623.732
X-174.728 Y-623.185
X-173.566 Y-622.62
X-172.413 Y-622.036
X-171.269 Y-621.435
X-170.135 Y-620.816
X-169.011 Y-620.179
X-167.897 Y-619.525
X-166.793 Y-618.853
X-165.7 Y-618.164
X-164.618 Y-617.458
X-163.547 Y-616.735
X-162.488 Y-615.996
X-161.44 Y-615.24
X-160.404 Y-614.467
X-159.381 Y-613.679
X-158.369 Y-612.875
X-157.371 Y-612.054
X-156.386 Y-611.219
X-155.413 Y-610.368
X-154.455 Y-609.501
X-153.51 Y-608.62
X-152.579 Y-607.724
X-151.662 Y-606.814
X-150.759 Y-605.889
X-149.871 Y-604.951
X-148.998 Y-603.999
X-148.14 Y-603.033
X-147.296 Y-602.054
X-146.468 Y-601.062
X-145.656 Y-600.057
X-144.86 Y-599.04
X-144.079 Y-598.01
X-143.315 Y-596.969
X-142.567 Y-595.915
X-141.835 Y-594.85
X-141.12 Y-593.774
X-140.422 Y-592.686
X-139.741 Y-591.588
X-139.078 Y-590.48
X-138.432 Y-589.361
X-137.803 Y-588.232
X-137.192 Y-587.094
X-136.599 Y-585.946
X-136.024 Y-584.789
X-135.467 Y-583.623
X-134.929 Y-582.448
X-134.408 Y-581.266
X-133.906 Y-580.075
X-133.423 Y-578.877
X-132.958 Y-577.671
X-132.513 Y-576.458
X-132.086 Y-575.239
X-131.678 Y-574.013
X-131.29 Y-572.781
X-130.92 Y-571.542
X-130.57 Y-570.299
X-130.24 Y-569.05
X-129.929 Y-567.796
X-129.637 Y-566.537
X-129.365 Y-565.274
X-129.113 Y-564.007
X-128.881 Y-562.735
X-128.669 Y-561.461
X-128.477 Y-560.183
X-128.305 Y-558.903
X-128.153 Y-557.62
X-128.021 Y-556.334
X-127.908 Y-555.047
X-127.816 Y-553.758
X-127.744 Y-552.468
X-127.692 Y-551.177
X-127.661 Y-549.886
X-127.649 Y-548.594
X-127.658 Y-547.302
X-127.686 Y-546.01
X-127.735 Y-544.719
X-127.804 Y-543.429
X-127.893 Y-542.14
X-128.002 Y-540.852
X-128.132 Y-539.567
X-128.281 Y-538.283
X-128.45 Y-537.002
X-128.639 Y-535.724
X-128.849 Y-534.449
X-129.078 Y-533.178
X-129.328 Y-531.91
X-129.597 Y-530.646
X-129.885 Y-529.387
X-130.194 Y-528.132
X-130.522 Y-526.882
X-130.869 Y-525.638
X-131.235 Y-524.399
X-131.621 Y-523.166
X-132.026 Y-521.939
X-132.451 Y-520.718
X-132.894 Y-519.505
X-133.356 Y-518.298
X-133.837 Y-517.099
X-134.336 Y-515.907
X-134.854 Y-514.724
X-135.391 Y-513.548
X-135.945 Y-512.381
X-136.518 Y-511.223
X-137.109 Y-510.074
X-137.718 Y-508.935
X-138.345 Y-507.805
X-138.989 Y-506.685
X-139.651 Y-505.575
X-140.33 Y-504.476
X-141.026 Y-503.387
X-141.739 Y-502.31
X-142.468 Y-501.243
X-143.214 Y-500.188
X-143.977 Y-499.145
X-144.755 Y-498.114
X-145.55 Y-497.095
X-146.36 Y-496.089
X-147.186 Y-495.095
X-148.028 Y-494.115
X-148.884 Y-493.148
X-149.756 Y-492.194
X-150.642 Y-491.254
X-151.543 Y-490.327
X-152.458 Y-489.415
X-153.387 Y-488.517
X-154.33 Y-487.634
X-155.287 Y-486.766
X-156.258 Y-485.913
X-157.241 Y-485.075
X-158.238 Y-484.253
X-159.247 Y-483.446
X-160.268 Y-482.655
X-161.302 Y-481.88
X-162.348 Y-481.121
X-163.405 Y-480.378
X-164.474 Y-479.652
X-165.554 Y-478.943
X-166.645 Y-478.25
X-167.746 Y-477.575
X-168.858 Y-476.917
X-169.98 Y-476.276
X-171.112 Y-475.652
X-172.253 Y-475.047
X-173.403 Y-474.459
X-174.563 Y-473.889
X-175.731 Y-473.337
X-176.908 Y-472.803
X-178.093 Y-472.288
X-179.285 Y-471.791
X-180.486 Y-471.313
X-181.693 Y-470.854
X-182.908 Y-470.413
X-184.129 Y-469.992
X-185.357 Y-469.589
X-186.591 Y-469.205
X-187.83 Y-468.841
X-189.076 Y-468.495
X-190.326 Y-468.169
X-191.581 Y-467.863
X-192.841 Y-467.576
X-194.105 Y-467.308
X-195.373 Y-467.06
X-196.645 Y-466.832
X-197.92 Y-466.624
X-199.198 Y-466.435
X-200.479 Y-466.266
X-201.762 Y-466.116
X-203.048 Y-465.987
X-204.335 Y-465.878
X-205.624 Y-465.788
X-206.914 Y-465.719
X-208.205 Y-465.669
X-209.497 Y-465.64
X-210.789 Y-465.631
X-212.081 Y-465.641
X-213.373 Y-465.672
X-214.664 Y-465.722
X-215.954 Y-465.792
X-217.243 Y-465.882
X-218.53 Y-465.992
X-219.816 Y-466.122
X-221.099 Y-466.272
X-222.38 Y-466.441
X-223.658 Y-466.63
X-224.933 Y-466.839
X-226.205 Y-467.067
X-227.473 Y-467.315
X-228.737 Y-467.582
X-229.997 Y-467.869
X-231.252 Y-468.175
X-232.503 Y-468.501
X-233.748 Y-468.846
X-234.988 Y-469.21
X-236.221 Y-469.593
X-237.449 Y-469.995
X-238.671 Y-470.416
X-239.886 Y-470.856
X-241.094 Y-471.314
X-242.295 Y-471.791
X-243.488 Y-472.286
X-244.674 Y-472.799
X-245.852 Y-473.331
X-247.021 Y-473.88
X-248.182 Y-474.448
X-249.334 Y-475.033
X-250.476 Y-475.636
X-251.61 Y-476.256
X-252.734 Y-476.894
X-253.847 Y-477.549
X-254.951 Y-478.22
X-256.044 Y-478.909
X-257.127 Y-479.614
X-258.199 Y-480.336
X-259.259 Y-481.074
X-260.308 Y-481.829
X-261.345 Y-482.6
X-262.37 Y-483.386
X-263.383 Y-484.188
X-264.384 Y-485.006
X-265.371 Y-485.838
X-266.347 Y-486.686
X-267.309 Y-487.548
X-268.257 Y-488.426
X-269.193 Y-489.317
X-270.114 Y-490.223
X-271.021 Y-491.142
X-271.915 Y-492.076
X-272.794 Y-493.023
X-273.658 Y-493.984
X-274.507 Y-494.957
X-275.342 Y-495.943
X-276.161 Y-496.942
X-276.965 Y-497.954
X-277.754 Y-498.977
X-278.526 Y-500.013
X-279.283 Y-501.06
X-280.023 Y-502.119
X-280.748 Y-503.189
X-281.455 Y-504.27
X-282.146 Y-505.362
X-282.821 Y-506.464
X-283.478 Y-507.577
X-284.118 Y-508.699
X-284.742 Y-509.831
X-285.347 Y-510.972
X-285.936 Y-512.122
X-286.506 Y-513.281
X-287.059 Y-514.449
X-287.594 Y-515.625
X-288.111 Y-516.809
X-288.61 Y-518.001
X-289.091 Y-519.2
X-289.553 Y-520.407
X-289.997 Y-521.62
X-290.423 Y-522.84
X-290.829 Y-524.067
X-291.217 Y-525.299
X-291.586 Y-526.537
X-291.936 Y-527.781
X-292.266 Y-529.03
X-292.578 Y-530.284
X-292.871 Y-531.543
X-293.144 Y-532.806
X-293.398 Y-534.072
X-293.633 Y-535.343
X-293.848 Y-536.617
X-294.044 Y-537.894
X-294.22 Y-539.174
X-294.377 Y-540.456
X-294.514 Y-541.741
X-294.632 Y-543.028
X-294.73 Y-544.316
X-294.809 Y-545.606
X-294.867 Y-546.897
X-294.907 Y-548.188
X-294.926 Y-549.48
Y-550.772
X-294.906 Y-552.064
X-294.867 Y-553.355
X-294.807 Y-554.646
X-294.728 Y-555.936
X-294.629 Y-557.224
X-294.511 Y-558.511
X-294.372 Y-559.795
X-294.215 Y-561.078
X-294.038 Y-562.357
X-293.841 Y-563.635
X-293.625 Y-564.908
X-293.39 Y-566.179
X-293.135 Y-567.446
X-292.862 Y-568.708
X-292.569 Y-569.967
X-292.256 Y-571.22
X-291.925 Y-572.469
X-291.575 Y-573.713
X-291.206 Y-574.951
X-290.818 Y-576.184
X-290.412 Y-577.41
X-289.986 Y-578.63
X-289.543 Y-579.844
X-289.081 Y-581.05
X-288.6 Y-582.25
X-288.101 Y-583.442
X-287.584 Y-584.626
X-287.049 Y-585.802
X-286.496 Y-586.97
X-285.926 Y-588.129
X-285.338 Y-589.279
X-284.732 Y-590.421
X-284.109 Y-591.553
X-283.47 Y-592.675
X-282.813 Y-593.788
X-282.139 Y-594.89
X-281.449 Y-595.982
X-280.742 Y-597.064
X-280.018 Y-598.135
X-279.279 Y-599.194
X-278.523 Y-600.242
X-277.752 Y-601.279
X-276.965 Y-602.303
X-276.162 Y-603.316
X-275.344 Y-604.316
X-274.511 Y-605.304
X-273.663 Y-606.279
X-272.8 Y-607.24
X-271.923 Y-608.189
X-271.031 Y-609.124
X-270.125 Y-610.045
X-269.206 Y-610.953
X-268.272 Y-611.846
X-267.325 Y-612.725
X-266.365 Y-613.59
X-265.392 Y-614.439
X-264.406 Y-615.275
X-263.407 Y-616.094
X-262.397 Y-616.899
X-261.374 Y-617.688
X-260.339 Y-618.462
X-259.292 Y-619.22
X-258.234 Y-619.961
X-257.165 Y-620.687
X-256.085 Y-621.396
X-254.995 Y-622.089
X-253.894 Y-622.765
X-252.782 Y-623.424
X-251.661 Y-624.067
X-250.53 Y-624.692
X-249.39 Y-625.299
X-248.241 Y-625.889
X-247.082 Y-626.462
X-245.916 Y-627.017
X-244.741 Y-627.554
X-243.558 Y-628.074
X-242.367 Y-628.575
X-241.169 Y-629.059
X-239.963 Y-629.524
X-238.751 Y-629.97
X-237.532 Y-630.398
X-236.306 Y-630.808
X-235.075 Y-631.199
X-233.837 Y-631.571
X-232.595 Y-631.925
X-231.347 Y-632.259
X-230.094 Y-632.575
X-228.836 Y-632.871
X-227.574 Y-633.149
X-226.308 Y-633.407
X-225.039 Y-633.646
X-223.765 Y-633.865
X-222.489 Y-634.065
X-221.209 Y-634.246
X-219.927 Y-634.407
X-218.643 Y-634.549
X-217.357 Y-634.671
X-216.069 Y-634.774
X-214.78 Y-634.857
X-213.489 Y-634.921
X-212.198 Y-634.966
X-210.906 Y-634.99
X-209.614 Y-634.996
X-208.322 Y-634.981
X-207.03 Y-634.947
X-205.739 Y-634.894
X-204.449 Y-634.821
X-203.161 Y-634.729
X-201.874 Y-634.617
X-200.588 Y-634.485
X-199.305 Y-634.335
X-198.024 Y-634.165
X-196.746 Y-633.975
X-195.471 Y-633.766
X-194.199 Y-633.538
X-192.931 Y-633.29
X-191.667 Y-633.024
X-190.407 Y-632.738
X-189.151 Y-632.434
X-187.9 Y-632.111
X-186.654 Y-631.768
X-185.414 Y-631.408
X-184.178 Y-631.028
X-182.949 Y-630.63
X-181.726 Y-630.214
X-180.509 Y-629.779
X-179.299 Y-629.326
X-178.096 Y-628.855
X-176.9 Y-628.365
X-175.712 Y-627.858
X-174.531 Y-627.333
X-173.359 Y-626.791
X-172.194 Y-626.231
X-171.039 Y-625.653
X-169.892 Y-625.058
X-168.754 Y-624.446
X-167.625 Y-623.817
X-166.506 Y-623.171
X-165.397 Y-622.508
X-164.298 Y-621.829
X-163.21 Y-621.133
X-162.131 Y-620.421
X-161.064 Y-619.693
X-160.007 Y-618.949
X-158.962 Y-618.19
X-157.928 Y-617.415
X-156.906 Y-616.624
X-155.896 Y-615.819
X-154.898 Y-614.998
X-153.913 Y-614.163
X-152.94 Y-613.313
X-151.979 Y-612.448
X-151.032 Y-611.569
X-150.098 Y-610.676
X-149.178 Y-609.77
X-148.271 Y-608.849
X-147.378 Y-607.916
X-146.499 Y-606.969
X-145.634 Y-606.008
X-144.784 Y-605.035
X-143.949 Y-604.05
X-143.128 Y-603.052
X-142.322 Y-602.042
X-141.532 Y-601.02
X-140.757 Y-599.986
X-139.997 Y-598.941
X-139.253 Y-597.885
X-138.524 Y-596.818
X-137.812 Y-595.74
X-137.116 Y-594.651
X-136.436 Y-593.553
X-135.772 Y-592.444
X-135.125 Y-591.326
X-134.495 Y-590.198
X-133.882 Y-589.06
X-133.286 Y-587.914
X-132.707 Y-586.759
X-132.145 Y-585.596
X-131.6 Y-584.424
X-131.073 Y-583.244
X-130.564 Y-582.057
X-130.073 Y-580.862
X-129.599 Y-579.659
X-129.144 Y-578.45
X-128.707 Y-577.235
X-128.288 Y-576.012
X-127.887 Y-574.784
X-127.504 Y-573.55
X-127.14 Y-572.31
X-126.794 Y-571.065
X-126.467 Y-569.816
X-126.158 Y-568.561
X-125.868 Y-567.302
X-125.597 Y-566.038
X-125.345 Y-564.771
X-125.112 Y-563.5
X-124.897 Y-562.226
X-124.702 Y-560.949
X-124.526 Y-559.669
X-124.369 Y-558.387
X-124.23 Y-557.102
X-124.112 Y-555.815
X-124.012 Y-554.527
X-123.932 Y-553.238
X-123.871 Y-551.947
X-123.829 Y-550.656
X-123.807 Y-549.364
X-123.804 Y-548.072
X-123.82 Y-546.78
X-123.855 Y-545.488
X-123.91 Y-544.197
X-123.984 Y-542.907
X-124.077 Y-541.619
X-124.189 Y-540.331
X-124.32 Y-539.046
X-124.471 Y-537.763
X-124.64 Y-536.482
X-124.829 Y-535.204
X-125.037 Y-533.929
X-125.264 Y-532.657
X-125.51 Y-531.388
X-125.774 Y-530.123
X-126.057 Y-528.863
X-126.36 Y-527.607
X-126.681 Y-526.355
X-127.02 Y-525.108
X-127.379 Y-523.867
X-127.756 Y-522.631
X-128.151 Y-521.401
X-128.564 Y-520.177
X-128.996 Y-518.959
X-129.446 Y-517.748
X-129.914 Y-516.544
X-130.4 Y-515.346
X-130.903 Y-514.157
X-131.425 Y-512.974
X-131.963 Y-511.8
X-132.52 Y-510.634
X-133.093 Y-509.476
X-133.684 Y-508.327
X-134.292 Y-507.187
X-134.917 Y-506.056
X-135.558 Y-504.934
X-136.216 Y-503.822
X-136.891 Y-502.721
X-137.582 Y-501.629
X-138.289 Y-500.548
X-139.013 Y-499.477
X-139.752 Y-498.417
X-140.507 Y-497.369
X-141.278 Y-496.332
