%
(1001)
(z0 botom machine -5-5)
(T1  D=12.7 CR=0 - ZMIN=13 - flat end mill)
G90 G94
G17
G21

(2D Adaptive5)
M9
T1 M6
S6000 M3
G54
M9
G0 X-76.031 Y-57.361
Z47
Z37
Z35.82
G1 Z34.55 F850
G3 X-63.969 Y-57.639 Z33.888 I6.031 J-0.139 F283.3
X-76.031 Y-57.361 Z33.226 I-6.031 J0.139
X-63.969 Y-57.639 Z32.565 I6.031 J-0.139
X-76.031 Y-57.361 Z31.903 I-6.031 J0.139
X-63.969 Y-57.639 Z31.241 I6.031 J-0.139
X-76.031 Y-57.361 Z30.579 I-6.031 J0.139
X-63.969 Y-57.639 Z29.917 I6.031 J-0.139
X-76.031 Y-57.361 Z29.256 I-6.031 J0.139
X-63.969 Y-57.639 Z28.594 I6.031 J-0.139
X-76.031 Y-57.361 Z27.932 I-6.031 J0.139
X-63.969 Y-57.639 Z27.27 I6.031 J-0.139
X-76.031 Y-57.361 Z26.608 I-6.031 J0.139
X-63.969 Y-57.639 Z25.947 I6.031 J-0.139
X-76.031 Y-57.361 Z25.285 I-6.031 J0.139
X-63.969 Y-57.639 Z24.623 I6.031 J-0.139
X-76.031 Y-57.361 Z23.961 I-6.031 J0.139
X-63.969 Y-57.639 Z23.299 I6.031 J-0.139
X-76.031 Y-57.361 Z22.637 I-6.031 J0.139
X-63.969 Y-57.639 Z21.976 I6.031 J-0.139
X-76.031 Y-57.361 Z21.314 I-6.031 J0.139
X-63.969 Y-57.639 Z20.652 I6.031 J-0.139
X-76.031 Y-57.361 Z19.99 I-6.031 J0.139
X-63.969 Y-57.639 Z19.328 I6.031 J-0.139
X-76.031 Y-57.361 Z18.667 I-6.031 J0.139
X-70.069 Y-63.532 Z18.333 I6.031 J-0.139
X-63.967 Y-57.5 Z18 I0.069 J6.032
X-76.032 I-6.033
X-64.244 Y-59.305 I6.032
X-63.967 Y-57.5 I-5.756 J1.805
G1 X-63.964 Y-57.164 F850
X-63.835 Y-55.828
X-63.794 Y-55.684
X-63.763 Y-55.537
X-63.741 Y-55.389
X-63.726 Y-55.23
X-63.72 Y-55.059
X-63.723 Y-54.875
X-63.736 Y-54.679
X-63.762 Y-54.473
X-63.801 Y-54.256
X-63.854 Y-54.031
X-63.923 Y-53.798
X-64.008 Y-53.559
X-64.11 Y-53.314
X-64.23 Y-53.065
X-64.368 Y-52.815
X-64.525 Y-52.564
X-64.701 Y-52.314
X-64.895 Y-52.067
X-65.108 Y-51.824
X-65.34 Y-51.587
X-65.59 Y-51.358
X-65.858 Y-51.138
X-66.143 Y-50.929
X-66.444 Y-50.732
X-66.76 Y-50.549
X-67.091 Y-50.381
X-67.435 Y-50.229
X-67.791 Y-50.094
X-68.158 Y-49.977
X-68.535 Y-49.879
X-68.92 Y-49.802
X-69.312 Y-49.744
X-69.71 Y-49.708
X-70.112 Y-49.693
X-70.517 Y-49.7
X-70.923 Y-49.729
X-71.329 Y-49.781
X-71.733 Y-49.855
X-72.134 Y-49.95
X-72.532 Y-50.068
X-72.923 Y-50.208
X-73.308 Y-50.369
X-73.684 Y-50.552
X-74.051 Y-50.755
X-74.407 Y-50.978
X-74.751 Y-51.22
X-75.082 Y-51.482
X-75.399 Y-51.761
X-75.7 Y-52.057
X-75.986 Y-52.37
X-76.254 Y-52.698
X-76.505 Y-53.041
X-76.737 Y-53.397
X-76.949 Y-53.765
X-77.141 Y-54.145
X-77.313 Y-54.535
X-77.463 Y-54.933
X-77.592 Y-55.34
X-77.698 Y-55.753
X-77.782 Y-56.171
X-77.843 Y-56.594
X-77.881 Y-57.019
X-77.896 Y-57.446
X-77.887 Y-57.873
X-77.856 Y-58.299
X-77.802 Y-58.723
X-77.724 Y-59.144
X-77.624 Y-59.56
X-77.502 Y-59.97
X-77.357 Y-60.372
X-77.191 Y-60.766
X-77.004 Y-61.151
X-76.796 Y-61.525
X-76.568 Y-61.887
X-76.321 Y-62.237
X-76.055 Y-62.572
X-75.771 Y-62.893
X-75.471 Y-63.198
X-75.154 Y-63.486
X-74.822 Y-63.756
X-74.476 Y-64.009
X-74.117 Y-64.242
X-73.746 Y-64.455
X-73.363 Y-64.648
X-72.971 Y-64.819
X-72.57 Y-64.97
X-72.161 Y-65.098
X-71.746 Y-65.204
X-71.326 Y-65.287
X-70.902 Y-65.348
X-70.476 Y-65.385
X-70.048 Y-65.399
X-69.62 Y-65.39
X-69.193 Y-65.358
X-68.768 Y-65.303
X-68.347 Y-65.225
X-67.931 Y-65.124
X-67.52 Y-65
X-67.118 Y-64.855
X-66.723 Y-64.688
X-66.338 Y-64.5
X-65.964 Y-64.291
X-65.602 Y-64.062
X-65.253 Y-63.814
X-64.918 Y-63.548
X-64.597 Y-63.263
X-64.293 Y-62.962
X-64.005 Y-62.645
X-63.735 Y-62.312
X-63.484 Y-61.966
X-63.251 Y-61.606
X-63.039 Y-61.234
X-62.812 Y-60.782
X-62.451 Y-59.954
X-62.175 Y-59.214
X-61.979 Y-58.587
X-61.836 Y-58.021
X-61.732 Y-57.495
X-61.661 Y-56.992
X-61.62 Y-56.512
X-61.606 Y-56.049
X-61.616 Y-55.597
X-61.65 Y-55.154
X-61.708 Y-54.718
X-61.788 Y-54.29
X-61.891 Y-53.87
X-62.016 Y-53.456
X-62.163 Y-53.05
X-62.333 Y-52.651
X-62.525 Y-52.26
X-62.739 Y-51.879
X-62.974 Y-51.507
X-63.232 Y-51.146
X-63.51 Y-50.797
X-63.81 Y-50.46
X-64.131 Y-50.138
X-64.471 Y-49.83
X-64.831 Y-49.539
X-65.208 Y-49.266
X-65.604 Y-49.011
X-66.015 Y-48.777
X-66.443 Y-48.563
X-66.884 Y-48.372
X-67.338 Y-48.204
X-67.804 Y-48.059
X-68.281 Y-47.939
X-68.767 Y-47.844
X-69.259 Y-47.776
X-69.758 Y-47.734
X-70.262 Y-47.719
X-70.768 Y-47.731
X-71.276 Y-47.771
X-71.783 Y-47.839
X-72.288 Y-47.935
X-72.789 Y-48.058
X-73.284 Y-48.209
X-73.772 Y-48.387
X-74.252 Y-48.592
X-74.721 Y-48.824
X-75.177 Y-49.081
X-75.621 Y-49.363
X-76.049 Y-49.67
X-76.461 Y-50
X-76.856 Y-50.352
X-77.231 Y-50.726
X-77.586 Y-51.121
X-77.92 Y-51.534
X-78.231 Y-51.966
X-78.519 Y-52.415
X-78.782 Y-52.879
X-79.02 Y-53.357
X-79.231 Y-53.847
X-79.416 Y-54.349
X-79.574 Y-54.861
X-79.704 Y-55.381
X-79.806 Y-55.907
X-79.879 Y-56.438
X-79.923 Y-56.973
X-79.938 Y-57.51
X-79.923 Y-58.047
X-79.88 Y-58.582
X-79.808 Y-59.115
X-79.707 Y-59.643
X-79.577 Y-60.165
X-79.42 Y-60.679
X-79.234 Y-61.185
X-79.022 Y-61.679
X-78.783 Y-62.161
X-78.518 Y-62.63
X-78.228 Y-63.084
X-77.914 Y-63.522
X-77.576 Y-63.941
X-77.217 Y-64.342
X-76.836 Y-64.723
X-76.435 Y-65.083
X-76.014 Y-65.421
X-75.577 Y-65.735
X-75.122 Y-66.025
X-74.653 Y-66.29
X-74.17 Y-66.529
X-73.675 Y-66.742
X-73.169 Y-66.928
X-72.653 Y-67.086
X-72.13 Y-67.216
X-71.6 Y-67.317
X-71.066 Y-67.389
X-70.529 Y-67.432
X-69.99 Y-67.447
X-69.451 Y-67.431
X-68.913 Y-67.387
X-68.379 Y-67.314
X-67.85 Y-67.211
X-67.326 Y-67.081
X-66.811 Y-66.922
X-66.305 Y-66.735
X-65.81 Y-66.521
X-65.327 Y-66.281
X-64.858 Y-66.015
X-64.404 Y-65.724
X-63.967 Y-65.408
X-63.547 Y-65.07
X-63.139 Y-64.702
X-62.725 Y-64.286
X-62.316 Y-63.829
X-61.905 Y-63.316
X-61.512 Y-62.767
X-61.148 Y-62.194
X-60.816 Y-61.605
X-60.521 Y-61.005
X-60.262 Y-60.4
X-60.04 Y-59.792
X-59.855 Y-59.183
X-59.705 Y-58.577
X-59.591 Y-57.973
X-59.511 Y-57.375
X-59.465 Y-56.783
X-59.45 Y-56.196
X-59.468 Y-55.615
X-59.516 Y-55.041
X-59.595 Y-54.473
X-59.704 Y-53.914
X-59.843 Y-53.363
X-60.011 Y-52.822
X-60.208 Y-52.291
X-60.433 Y-51.771
X-60.687 Y-51.264
X-60.968 Y-50.77
X-61.276 Y-50.291
X-61.611 Y-49.828
X-61.972 Y-49.383
X-62.358 Y-48.956
X-62.768 Y-48.549
X-63.201 Y-48.163
X-63.657 Y-47.799
X-64.134 Y-47.459
X-64.632 Y-47.144
X-65.148 Y-46.855
X-65.682 Y-46.592
X-66.231 Y-46.359
X-66.796 Y-46.154
X-67.374 Y-45.979
X-67.963 Y-45.835
X-68.562 Y-45.723
X-69.169 Y-45.643
X-69.782 Y-45.595
X-70.4 Y-45.581
X-71.021 Y-45.601
X-71.642 Y-45.654
X-72.262 Y-45.742
X-72.878 Y-45.863
X-73.489 Y-46.018
X-74.093 Y-46.207
X-74.687 Y-46.428
X-75.27 Y-46.683
X-75.84 Y-46.969
X-76.395 Y-47.286
X-76.934 Y-47.634
X-77.453 Y-48.012
X-77.953 Y-48.417
X-78.43 Y-48.85
X-78.884 Y-49.309
X-79.314 Y-49.793
X-79.717 Y-50.3
X-80.092 Y-50.829
X-80.439 Y-51.378
X-80.756 Y-51.946
X-81.042 Y-52.531
X-81.296 Y-53.131
X-81.517 Y-53.744
X-81.705 Y-54.369
X-81.859 Y-55.004
X-81.978 Y-55.647
X-82.063 Y-56.295
X-82.112 Y-56.948
X-82.125 Y-57.602
X-82.103 Y-58.257
X-82.046 Y-58.91
X-81.954 Y-59.559
X-81.826 Y-60.202
X-81.663 Y-60.838
X-81.467 Y-61.464
X-81.236 Y-62.078
X-80.973 Y-62.68
X-80.677 Y-63.266
X-80.35 Y-63.836
X-79.992 Y-64.387
X-79.605 Y-64.918
X-79.19 Y-65.427
X-78.747 Y-65.914
X-78.279 Y-66.375
X-77.787 Y-66.811
X-77.271 Y-67.219
X-76.734 Y-67.599
X-76.178 Y-67.949
X-75.603 Y-68.268
X-75.011 Y-68.556
X-74.405 Y-68.811
X-73.786 Y-69.034
X-73.155 Y-69.222
X-72.516 Y-69.376
X-71.868 Y-69.495
X-71.216 Y-69.578
X-70.56 Y-69.627
X-69.902 Y-69.639
X-69.244 Y-69.616
X-68.589 Y-69.558
X-67.937 Y-69.463
X-67.292 Y-69.334
X-66.655 Y-69.17
X-66.027 Y-68.972
X-65.411 Y-68.739
X-64.807 Y-68.474
X-64.213 Y-68.172
X-63.627 Y-67.834
X-63.047 Y-67.457
X-62.477 Y-67.04
X-61.922 Y-66.585
X-61.384 Y-66.094
X-60.868 Y-65.569
X-60.375 Y-65.01
X-59.911 Y-64.421
X-59.476 Y-63.805
X-59.076 Y-63.166
X-58.711 Y-62.506
X-58.384 Y-61.831
X-58.096 Y-61.143
X-57.847 Y-60.446
X-57.638 Y-59.741
X-57.468 Y-59.032
X-57.339 Y-58.32
X-57.249 Y-57.607
X-57.197 Y-56.895
X-57.185 Y-56.185
X-57.211 Y-55.479
X-57.275 Y-54.778
X-57.377 Y-54.084
X-57.515 Y-53.399
X-57.691 Y-52.723
X-57.902 Y-52.058
X-58.149 Y-51.406
X-58.431 Y-50.769
X-58.747 Y-50.148
X-59.097 Y-49.544
X-59.479 Y-48.959
X-59.894 Y-48.395
X-60.339 Y-47.852
X-60.814 Y-47.334
X-61.318 Y-46.841
X-61.849 Y-46.374
X-62.407 Y-45.936
X-62.989 Y-45.527
X-63.595 Y-45.149
X-64.222 Y-44.803
X-64.87 Y-44.491
X-65.536 Y-44.213
X-66.219 Y-43.971
X-66.916 Y-43.765
X-67.627 Y-43.597
X-68.348 Y-43.467
X-69.077 Y-43.376
X-69.813 Y-43.324
X-70.554 Y-43.313
X-71.296 Y-43.341
X-72.039 Y-43.411
X-72.778 Y-43.52
X-73.513 Y-43.67
X-74.241 Y-43.86
X-74.96 Y-44.09
X-75.667 Y-44.36
X-76.36 Y-44.667
X-77.037 Y-45.013
X-77.696 Y-45.396
X-78.334 Y-45.815
X-78.95 Y-46.269
X-79.541 Y-46.757
X-80.106 Y-47.277
X-80.643 Y-47.827
X-81.151 Y-48.407
X-81.626 Y-49.014
X-82.069 Y-49.647
X-82.477 Y-50.303
X-82.849 Y-50.982
X-83.185 Y-51.68
X-83.482 Y-52.396
X-83.74 Y-53.128
X-83.959 Y-53.874
X-84.136 Y-54.631
X-84.273 Y-55.396
X-84.368 Y-56.169
X-84.421 Y-56.946
X-84.432 Y-57.725
X-84.4 Y-58.504
X-84.327 Y-59.281
X-84.211 Y-60.052
X-84.053 Y-60.817
X-83.855 Y-61.572
X-83.615 Y-62.315
X-83.336 Y-63.045
X-83.017 Y-63.759
X-82.66 Y-64.454
X-82.266 Y-65.129
X-81.836 Y-65.782
X-81.371 Y-66.411
X-80.872 Y-67.014
X-80.342 Y-67.589
X-79.78 Y-68.134
X-79.191 Y-68.649
X-78.574 Y-69.13
X-77.931 Y-69.578
X-77.266 Y-69.99
X-76.579 Y-70.365
X-75.872 Y-70.703
X-75.148 Y-71.002
X-74.409 Y-71.261
X-73.657 Y-71.48
X-72.895 Y-71.658
X-72.123 Y-71.794
X-71.346 Y-71.888
X-70.564 Y-71.94
X-69.781 Y-71.95
X-68.998 Y-71.917
X-68.219 Y-71.841
X-67.444 Y-71.724
X-66.675 Y-71.564
X-65.913 Y-71.362
X-65.159 Y-71.118
X-64.412 Y-70.831
X-63.676 Y-70.5
X-62.951 Y-70.126
X-62.24 Y-69.71
X-61.546 Y-69.251
X-60.872 Y-68.75
X-60.22 Y-68.209
X-59.594 Y-67.629
X-58.997 Y-67.013
X-58.431 Y-66.362
X-57.901 Y-65.68
X-57.408 Y-64.97
X-56.954 Y-64.234
X-56.541 Y-63.475
X-56.171 Y-62.697
X-55.844 Y-61.902
X-55.562 Y-61.094
X-55.325 Y-60.274
X-55.134 Y-59.446
X-54.988 Y-58.612
X-54.888 Y-57.774
X-54.834 Y-56.935
X-54.825 Y-56.097
X-54.862 Y-55.262
X-54.943 Y-54.431
X-55.07 Y-53.609
X-55.24 Y-52.795
X-55.454 Y-51.993
X-55.711 Y-51.205
X-56.01 Y-50.432
X-56.351 Y-49.676
X-56.732 Y-48.94
X-57.153 Y-48.225
X-57.612 Y-47.533
X-58.109 Y-46.866
X-58.642 Y-46.226
X-59.21 Y-45.615
X-59.812 Y-45.034
X-60.445 Y-44.486
X-61.109 Y-43.971
X-61.802 Y-43.492
X-62.521 Y-43.05
X-63.266 Y-42.647
X-64.033 Y-42.284
X-64.821 Y-41.961
X-65.628 Y-41.681
X-66.451 Y-41.445
X-67.289 Y-41.253
X-68.138 Y-41.106
X-68.996 Y-41.005
X-69.861 Y-40.951
X-70.73 Y-40.943
X-71.601 Y-40.983
X-72.471 Y-41.07
X-73.337 Y-41.205
X-74.197 Y-41.386
X-75.047 Y-41.615
X-75.886 Y-41.89
X-76.711 Y-42.211
X-77.519 Y-42.577
X-78.308 Y-42.987
X-79.074 Y-43.44
X-79.817 Y-43.935
X-80.532 Y-44.47
X-81.219 Y-45.044
X-81.875 Y-45.655
X-82.497 Y-46.302
X-83.084 Y-46.983
X-83.634 Y-47.696
X-84.146 Y-48.438
X-84.616 Y-49.207
X-85.045 Y-50.002
X-85.431 Y-50.82
X-85.772 Y-51.658
X-86.067 Y-52.514
X-86.316 Y-53.386
X-86.517 Y-54.27
X-86.67 Y-55.165
X-86.775 Y-56.067
X-86.83 Y-56.974
X-86.836 Y-57.883
X-86.793 Y-58.791
X-86.701 Y-59.697
X-86.56 Y-60.596
X-86.37 Y-61.487
X-86.132 Y-62.366
X-85.846 Y-63.231
X-85.514 Y-64.08
X-85.137 Y-64.91
X-84.715 Y-65.719
X-84.249 Y-66.503
X-83.742 Y-67.262
X-83.194 Y-67.992
X-82.607 Y-68.691
X-81.983 Y-69.357
X-81.324 Y-69.989
X-80.632 Y-70.584
X-79.908 Y-71.141
X-79.155 Y-71.658
X-78.375 Y-72.133
X-77.57 Y-72.566
X-76.743 Y-72.954
X-75.896 Y-73.297
X-75.032 Y-73.593
X-74.153 Y-73.843
X-73.261 Y-74.044
X-72.36 Y-74.196
X-71.452 Y-74.3
X-70.539 Y-74.354
X-69.624 Y-74.359
X-68.709 Y-74.314
X-67.796 Y-74.219
X-66.886 Y-74.074
X-65.982 Y-73.88
X-65.085 Y-73.635
X-64.197 Y-73.341
X-63.322 Y-72.997
X-62.461 Y-72.603
X-61.618 Y-72.161
X-60.794 Y-71.67
X-59.993 Y-71.132
X-59.217 Y-70.548
X-58.47 Y-69.919
X-57.755 Y-69.247
X-57.075 Y-68.535
X-56.433 Y-67.786
X-55.832 Y-67.001
X-55.273 Y-66.185
X-54.76 Y-65.339
X-54.294 Y-64.467
X-53.876 Y-63.573
X-53.507 Y-62.658
X-53.19 Y-61.727
X-52.924 Y-60.782
X-52.71 Y-59.826
X-52.548 Y-58.862
X-52.439 Y-57.893
X-52.383 Y-56.921
X-52.38 Y-55.95
X-52.43 Y-54.982
X-52.531 Y-54.02
X-52.685 Y-53.066
X-52.889 Y-52.122
X-53.145 Y-51.192
X-53.45 Y-50.277
X-53.804 Y-49.381
X-54.206 Y-48.505
X-54.655 Y-47.652
X-55.151 Y-46.824
X-55.69 Y-46.023
X-56.273 Y-45.253
X-56.898 Y-44.513
X-57.562 Y-43.808
X-58.265 Y-43.139
X-59.005 Y-42.508
X-59.779 Y-41.916
X-60.586 Y-41.367
X-61.424 Y-40.86
X-62.289 Y-40.399
X-63.181 Y-39.985
X-64.095 Y-39.618
X-65.031 Y-39.301
X-65.985 Y-39.034
X-66.954 Y-38.819
X-67.936 Y-38.656
X-68.928 Y-38.547
X-69.927 Y-38.491
X-70.929 Y-38.489
X-71.933 Y-38.542
X-72.935 Y-38.65
X-73.932 Y-38.812
X-74.92 Y-39.028
X-75.898 Y-39.298
X-76.861 Y-39.622
X-77.808 Y-39.997
X-78.734 Y-40.425
X-79.637 Y-40.903
X-80.515 Y-41.43
X-81.364 Y-42.004
X-82.182 Y-42.625
X-82.967 Y-43.29
X-83.715 Y-43.998
X-84.425 Y-44.746
X-85.094 Y-45.533
X-85.72 Y-46.356
X-86.301 Y-47.212
X-86.835 Y-48.099
X-87.321 Y-49.015
X-87.757 Y-49.957
X-88.142 Y-50.922
X-88.474 Y-51.907
X-88.752 Y-52.909
X-88.976 Y-53.926
X-89.144 Y-54.954
X-89.257 Y-55.99
X-89.313 Y-57.031
Y-58.074
X-89.256 Y-59.116
X-89.143 Y-60.154
X-88.974 Y-61.185
X-88.748 Y-62.205
X-88.468 Y-63.213
X-88.134 Y-64.203
X-87.746 Y-65.175
X-87.306 Y-66.124
X-86.815 Y-67.048
X-86.275 Y-67.944
X-85.687 Y-68.81
X-85.052 Y-69.643
X-84.373 Y-70.441
X-83.652 Y-71.2
X-82.891 Y-71.92
X-82.092 Y-72.597
X-81.257 Y-73.23
X-80.389 Y-73.817
X-79.49 Y-74.356
X-78.563 Y-74.846
X-77.611 Y-75.285
X-76.637 Y-75.671
X-75.643 Y-76.004
X-74.632 Y-76.283
X-73.608 Y-76.507
X-72.572 Y-76.675
X-71.528 Y-76.786
X-70.478 Y-76.841
X-69.425 Y-76.839
X-68.371 Y-76.78
X-67.319 Y-76.663
X-66.272 Y-76.489
X-65.231 Y-76.258
X-64.201 Y-75.969
X-63.182 Y-75.623
X-62.179 Y-75.221
X-61.195 Y-74.762
X-60.232 Y-74.248
X-59.293 Y-73.681
X-58.383 Y-73.06
X-57.504 Y-72.388
X-56.661 Y-71.667
X-55.854 Y-70.899
X-55.089 Y-70.087
X-54.368 Y-69.233
X-53.694 Y-68.34
X-53.068 Y-67.411
X-52.494 Y-66.45
X-51.973 Y-65.459
X-51.506 Y-64.442
X-51.096 Y-63.402
X-50.743 Y-62.343
X-50.448 Y-61.267
X-50.213 Y-60.179
X-50.037 Y-59.081
X-49.92 Y-57.977
X-49.865 Y-56.869
X-49.869 Y-55.762
X-49.933 Y-54.658
X-50.056 Y-53.56
X-50.239 Y-52.471
X-50.481 Y-51.395
X-50.78 Y-50.334
X-51.136 Y-49.291
X-51.548 Y-48.269
X-52.015 Y-47.27
X-52.536 Y-46.298
X-53.109 Y-45.356
X-53.732 Y-44.445
X-54.405 Y-43.568
X-55.125 Y-42.728
X-55.89 Y-41.928
X-56.698 Y-41.169
X-57.548 Y-40.454
X-58.437 Y-39.785
X-59.363 Y-39.164
X-60.322 Y-38.593
X-61.313 Y-38.074
X-62.333 Y-37.609
X-63.378 Y-37.198
X-64.447 Y-36.844
X-65.535 Y-36.548
X-66.64 Y-36.311
X-67.759 Y-36.134
X-68.888 Y-36.017
X-70.025 Y-35.961
X-71.165 Y-35.968
X-72.305 Y-36.036
X-73.442 Y-36.166
X-74.573 Y-36.358
X-75.694 Y-36.612
X-76.802 Y-36.926
X-77.892 Y-37.301
X-78.963 Y-37.735
X-80.011 Y-38.227
X-81.031 Y-38.776
X-82.022 Y-39.381
X-82.981 Y-40.039
X-83.903 Y-40.749
X-84.787 Y-41.509
X-85.629 Y-42.317
X-86.427 Y-43.171
X-87.179 Y-44.068
X-87.882 Y-45.004
X-88.533 Y-45.979
X-89.131 Y-46.988
X-89.674 Y-48.03
X-90.161 Y-49.1
X-90.589 Y-50.196
X-90.957 Y-51.314
X-91.264 Y-52.451
X-91.509 Y-53.604
X-91.692 Y-54.769
X-91.811 Y-55.943
X-91.866 Y-57.122
X-91.858 Y-58.303
X-91.785 Y-59.483
X-91.649 Y-60.657
X-91.449 Y-61.822
X-91.186 Y-62.976
X-90.861 Y-64.114
X-90.474 Y-65.232
X-90.027 Y-66.329
X-89.522 Y-67.4
X-88.959 Y-68.442
X-88.34 Y-69.453
X-87.667 Y-70.428
X-86.942 Y-71.366
X-86.168 Y-72.263
X-85.345 Y-73.118
X-84.478 Y-73.926
X-83.567 Y-74.686
X-82.617 Y-75.396
X-81.63 Y-76.054
X-80.608 Y-76.657
X-79.555 Y-77.204
X-78.474 Y-77.693
X-77.368 Y-78.123
X-76.24 Y-78.492
X-75.092 Y-78.8
X-73.93 Y-79.045
X-72.754 Y-79.227
X-71.569 Y-79.345
X-70.377 Y-79.399
X-69.182 Y-79.388
X-67.987 Y-79.313
X-66.794 Y-79.172
X-65.607 Y-78.966
X-64.429 Y-78.695
X-63.263 Y-78.36
X-62.113 Y-77.96
X-60.982 Y-77.497
X-59.874 Y-76.972
X-58.791 Y-76.385
X-57.739 Y-75.737
X-56.719 Y-75.032
X-55.737 Y-74.27
X-54.794 Y-73.453
X-53.895 Y-72.585
X-53.043 Y-71.667
X-52.241 Y-70.703
X-51.491 Y-69.696
X-50.797 Y-68.649
X-50.16 Y-67.566
X-49.582 Y-66.449
X-49.067 Y-65.304
X-48.614 Y-64.133
X-48.226 Y-62.94
X-47.903 Y-61.729
X-47.647 Y-60.503
X-47.458 Y-59.266
X-47.336 Y-58.023
X-47.282 Y-56.776
X-47.295 Y-55.528
X-47.376 Y-54.285
X-47.524 Y-53.049
X-47.739 Y-51.823
X-48.02 Y-50.611
X-48.365 Y-49.417
X-48.775 Y-48.244
X-49.248 Y-47.094
X-49.783 Y-45.972
X-50.378 Y-44.88
X-51.032 Y-43.821
X-51.742 Y-42.798
X-52.508 Y-41.815
X-53.326 Y-40.874
X-54.195 Y-39.977
X-55.113 Y-39.128
X-56.076 Y-38.329
X-57.083 Y-37.583
X-58.13 Y-36.89
X-59.215 Y-36.255
X-60.335 Y-35.678
X-61.486 Y-35.163
X-62.666 Y-34.709
X-63.871 Y-34.319
X-65.097 Y-33.995
X-66.342 Y-33.737
X-67.601 Y-33.546
X-68.871 Y-33.424
X-70.148 Y-33.371
X-71.429 Y-33.387
X-72.709 Y-33.473
X-73.985 Y-33.628
X-75.252 Y-33.852
X-76.508 Y-34.145
X-77.748 Y-34.507
X-78.969 Y-34.936
X-80.167 Y-35.431
X-81.337 Y-35.991
X-82.478 Y-36.615
X-83.584 Y-37.301
X-84.653 Y-38.046
X-85.681 Y-38.849
X-86.665 Y-39.708
X-87.602 Y-40.62
X-88.49 Y-41.583
X-89.325 Y-42.593
X-90.104 Y-43.648
X-90.826 Y-44.744
X-91.488 Y-45.88
X-92.088 Y-47.05
X-92.624 Y-48.252
X-93.095 Y-49.482
X-93.498 Y-50.737
X-93.833 Y-52.012
X-94.098 Y-53.305
X-94.294 Y-54.61
X-94.418 Y-55.925
X-94.471 Y-57.246
X-94.452 Y-58.568
X-94.361 Y-59.887
X-94.199 Y-61.2
X-93.966 Y-62.503
X-93.663 Y-63.792
X-93.29 Y-65.062
X-92.849 Y-66.311
X-92.34 Y-67.535
X-91.766 Y-68.73
X-91.128 Y-69.891
X-90.427 Y-71.017
X-89.667 Y-72.104
X-88.848 Y-73.147
X-87.974 Y-74.145
X-87.047 Y-75.095
X-86.07 Y-75.993
X-85.046 Y-76.836
X-83.977 Y-77.623
X-82.867 Y-78.351
X-81.719 Y-79.018
X-80.536 Y-79.621
X-79.322 Y-80.16
X-78.081 Y-80.633
X-76.815 Y-81.037
X-75.528 Y-81.373
X-74.224 Y-81.638
X-72.906 Y-81.833
X-71.577 Y-81.956
X-70.242 Y-82.007
X-68.903 Y-81.986
X-67.565 Y-81.891
X-66.233 Y-81.725
X-64.912 Y-81.486
X-63.606 Y-81.177
X-62.319 Y-80.798
X-61.053 Y-80.35
X-59.814 Y-79.836
X-58.603 Y-79.256
X-57.425 Y-78.613
X-56.283 Y-77.908
X-55.179 Y-77.145
X-54.117 Y-76.324
X-53.1 Y-75.449
X-52.129 Y-74.521
X-51.209 Y-73.544
X-50.341 Y-72.521
X-49.527 Y-71.454
X-48.769 Y-70.346
X-48.071 Y-69.2
X-47.433 Y-68.019
X-46.857 Y-66.807
X-46.345 Y-65.566
X-45.899 Y-64.3
X-45.519 Y-63.013
X-45.207 Y-61.707
X-44.964 Y-60.387
X-44.791 Y-59.056
X-44.687 Y-57.718
X-44.654 Y-56.377
X-44.691 Y-55.035
X-44.799 Y-53.697
X-44.977 Y-52.367
X-45.223 Y-51.048
X-45.539 Y-49.743
X-45.923 Y-48.457
X-46.374 Y-47.193
X-46.89 Y-45.954
X-47.471 Y-44.744
X-48.114 Y-43.566
X-48.818 Y-42.423
X-49.581 Y-41.319
X-50.401 Y-40.256
X-51.275 Y-39.238
X-52.201 Y-38.266
X-53.177 Y-37.345
X-54.199 Y-36.475
X-55.265 Y-35.66
X-56.372 Y-34.901
X-57.517 Y-34.201
X-58.697 Y-33.561
X-59.908 Y-32.983
X-61.148 Y-32.469
X-62.413 Y-32.02
X-63.699 Y-31.637
X-65.004 Y-31.322
X-66.323 Y-31.074
X-67.653 Y-30.895
X-68.991 Y-30.784
X-70.332 Y-30.742
X-71.674 Y-30.769
X-73.013 Y-30.863
X-74.345 Y-31.026
X-75.668 Y-31.256
X-76.977 Y-31.552
X-78.269 Y-31.915
X-79.541 Y-32.342
X-80.79 Y-32.832
X-82.013 Y-33.386
X-83.206 Y-34
X-84.367 Y-34.675
X-85.491 Y-35.408
X-86.577 Y-36.197
X-87.622 Y-37.04
X-88.623 Y-37.933
X-89.578 Y-38.876
X-90.485 Y-39.865
X-91.342 Y-40.899
X-92.146 Y-41.973
X-92.895 Y-43.087
X-93.589 Y-44.236
X-94.225 Y-45.418
X-94.8 Y-46.63
X-95.313 Y-47.871
X-95.763 Y-49.135
X-96.149 Y-50.42
X-96.471 Y-51.723
X-96.728 Y-53.041
X-96.919 Y-54.369
X-97.044 Y-55.706
X-97.103 Y-57.046
X-97.096 Y-58.389
X-97.023 Y-59.729
X-96.884 Y-61.064
X-96.678 Y-62.39
X-96.405 Y-63.704
X-96.067 Y-65.003
X-95.665 Y-66.283
X-95.2 Y-67.542
X-94.673 Y-68.777
X-94.085 Y-69.984
X-93.44 Y-71.16
X-92.737 Y-72.304
X-91.979 Y-73.411
X-91.167 Y-74.48
X-90.303 Y-75.507
X-89.389 Y-76.49
X-88.427 Y-77.425
X-87.419 Y-78.312
X-86.368 Y-79.147
X-85.278 Y-79.93
X-84.15 Y-80.658
X-82.988 Y-81.329
X-81.794 Y-81.943
X-80.572 Y-82.497
X-79.324 Y-82.991
X-78.053 Y-83.422
X-76.762 Y-83.79
X-75.455 Y-84.093
X-74.134 Y-84.33
X-72.803 Y-84.501
X-71.465 Y-84.607
X-70.123 Y-84.647
X-68.781 Y-84.622
X-67.442 Y-84.531
X-66.109 Y-84.376
X-64.785 Y-84.156
X-63.473 Y-83.872
X-62.177 Y-83.524
X-60.9 Y-83.112
X-59.644 Y-82.638
X-58.412 Y-82.105
X-57.208 Y-81.513
X-56.033 Y-80.864
X-54.89 Y-80.16
X-53.782 Y-79.402
X-52.711 Y-78.593
X-51.68 Y-77.735
X-50.69 Y-76.828
X-49.746 Y-75.874
X-48.848 Y-74.876
X-47.999 Y-73.837
X-47.2 Y-72.759
X-46.452 Y-71.644
X-45.758 Y-70.496
X-45.118 Y-69.316
X-44.534 Y-68.107
X-44.007 Y-66.873
X-43.539 Y-65.615
X-43.132 Y-64.336
X-42.787 Y-63.039
X-42.505 Y-61.727
X-42.285 Y-60.403
X-42.128 Y-59.07
X-42.035 Y-57.731
X-42.004 Y-56.389
X-42.037 Y-55.047
X-42.134 Y-53.709
X-42.293 Y-52.376
X-42.515 Y-51.052
X-42.8 Y-49.741
X-43.149 Y-48.445
X-43.559 Y-47.167
X-44.029 Y-45.91
X-44.559 Y-44.677
X-45.146 Y-43.47
X-45.79 Y-42.292
X-46.488 Y-41.146
X-47.239 Y-40.034
X-48.042 Y-38.958
X-48.895 Y-37.922
X-49.797 Y-36.928
X-50.746 Y-35.978
X-51.738 Y-35.075
X-52.773 Y-34.22
X-53.846 Y-33.414
X-54.956 Y-32.659
X-56.1 Y-31.957
X-57.275 Y-31.309
X-58.48 Y-30.717
X-59.71 Y-30.182
X-60.965 Y-29.706
X-62.242 Y-29.291
X-63.536 Y-28.936
X-64.846 Y-28.643
X-66.168 Y-28.412
X-67.499 Y-28.242
X-68.837 Y-28.134
X-70.178 Y-28.088
X-71.521 Y-28.103
X-72.86 Y-28.181
X-74.195 Y-28.319
X-75.522 Y-28.52
X-76.839 Y-28.783
X-78.141 Y-29.106
X-79.428 Y-29.489
X-80.695 Y-29.931
X-81.94 Y-30.431
X-83.162 Y-30.988
X-84.356 Y-31.599
X-85.522 Y-32.265
X-86.656 Y-32.983
X-87.756 Y-33.752
X-88.819 Y-34.572
X-89.843 Y-35.439
X-90.826 Y-36.353
X-91.766 Y-37.311
X-92.662 Y-38.31
X-93.512 Y-39.349
X-94.313 Y-40.425
X-95.066 Y-41.537
X-95.768 Y-42.681
X-96.417 Y-43.855
X-97.013 Y-45.058
X-97.552 Y-46.287
X-98.034 Y-47.54
X-98.458 Y-48.813
X-98.823 Y-50.105
X-99.13 Y-51.411
X-99.378 Y-52.731
X-99.566 Y-54.06
X-99.694 Y-55.396
X-99.763 Y-56.736
X-99.771 Y-58.078
X-99.72 Y-59.419
X-99.607 Y-60.757
X-99.433 Y-62.087
X-99.198 Y-63.409
X-98.903 Y-64.718
X-98.549 Y-66.013
X-98.137 Y-67.29
X-97.668 Y-68.548
X-97.143 Y-69.783
X-96.564 Y-70.994
X-95.931 Y-72.177
X-95.246 Y-73.332
X-94.51 Y-74.454
X-93.724 Y-75.542
X-92.888 Y-76.592
X-92.005 Y-77.603
X-91.078 Y-78.573
X-90.108 Y-79.5
X-89.096 Y-80.383
X-88.047 Y-81.219
X-86.961 Y-82.008
X-85.841 Y-82.748
X-84.689 Y-83.437
X-83.508 Y-84.074
X-82.299 Y-84.656
X-81.064 Y-85.183
X-79.807 Y-85.653
X-78.53 Y-86.066
X-77.235 Y-86.42
X-75.926 Y-86.716
X-74.605 Y-86.954
X-73.275 Y-87.132
X-71.938 Y-87.251
X-70.597 Y-87.31
X-69.255 Y-87.311
X-67.914 Y-87.25
X-66.578 Y-87.13
X-65.248 Y-86.949
X-63.927 Y-86.71
X-62.619 Y-86.411
X-61.325 Y-86.055
X-60.048 Y-85.642
X-58.79 Y-85.173
X-57.554 Y-84.65
X-56.342 Y-84.074
X-55.156 Y-83.445
X-53.999 Y-82.765
X-52.872 Y-82.035
X-51.779 Y-81.256
X-50.722 Y-80.43
X-49.701 Y-79.559
X-48.719 Y-78.644
X-47.778 Y-77.687
X-46.879 Y-76.69
X-46.024 Y-75.656
X-45.214 Y-74.586
X-44.45 Y-73.482
X-43.734 Y-72.347
X-43.068 Y-71.181
X-42.454 Y-69.988
X-41.892 Y-68.769
X-41.384 Y-67.527
X-40.931 Y-66.264
X-40.532 Y-64.982
X-40.19 Y-63.684
X-39.904 Y-62.373
X-39.674 Y-61.05
X-39.502 Y-59.719
X-39.387 Y-58.382
X-39.329 Y-57.041
X-39.331 Y-55.699
X-39.391 Y-54.358
X-39.509 Y-53.021
X-39.686 Y-51.691
X-39.921 Y-50.369
X-40.213 Y-49.059
X-40.561 Y-47.763
X-40.965 Y-46.483
X-41.423 Y-45.222
X-41.935 Y-43.981
X-42.501 Y-42.764
X-43.118 Y-41.572
X-43.787 Y-40.409
X-44.507 Y-39.276
X-45.275 Y-38.175
X-46.09 Y-37.109
X-46.95 Y-36.079
X-47.855 Y-35.087
X-48.801 Y-34.135
X-49.787 Y-33.225
X-50.811 Y-32.358
X-51.872 Y-31.535
X-52.967 Y-30.758
X-54.094 Y-30.03
X-55.252 Y-29.352
X-56.438 Y-28.724
X-57.651 Y-28.148
X-58.887 Y-27.625
X-60.144 Y-27.156
X-61.421 Y-26.741
X-62.714 Y-26.381
X-63.551 Y-26.186
X-63.798 Y-26.138
X-64.049 Y-26.11
X-64.3 Y-26.1
X-73.546
X-74.886 Y-26.167
X-75.556 Y-26.211
X-76.633 Y-26.318
X-77.817 Y-26.5
X-79.09 Y-26.767
X-80.386 Y-27.113
X-81.663 Y-27.527
X-82.918 Y-28.003
X-84.149 Y-28.538
X-85.355 Y-29.128
X-86.533 Y-29.771
X-87.682 Y-30.465
X-88.799 Y-31.208
X-89.883 Y-32
X-90.931 Y-32.838
X-91.943 Y-33.72
X-92.916 Y-34.644
X-93.85 Y-35.608
X-94.743 Y-36.61
X-95.593 Y-37.649
X-96.399 Y-38.722
X-97.161 Y-39.827
X-97.876 Y-40.962
X-98.544 Y-42.127
X-99.162 Y-43.318
X-99.729 Y-44.534
X-100.244 Y-45.774
X-100.707 Y-47.034
X-101.116 Y-48.312
X-101.472 Y-49.606
X-101.774 Y-50.914
X-102.022 Y-52.233
X-102.215 Y-53.561
X-102.355 Y-54.896
X-102.439 Y-56.236
X-102.469 Y-57.577
X-102.442 Y-58.919
X-102.359 Y-60.259
X-102.219 Y-61.594
X-102.024 Y-62.922
X-101.773 Y-64.24
X-101.468 Y-65.547
X-101.109 Y-66.84
X-100.697 Y-68.118
X-100.233 Y-69.377
X-99.718 Y-70.617
X-99.154 Y-71.834
X-98.539 Y-73.028
X-97.877 Y-74.195
X-97.165 Y-75.333
X-96.406 Y-76.44
X-95.602 Y-77.514
X-94.753 Y-78.554
X-93.862 Y-79.558
X-92.931 Y-80.524
X-91.96 Y-81.451
X-90.953 Y-82.338
X-89.91 Y-83.182
X-88.833 Y-83.984
X-87.725 Y-84.741
X-86.586 Y-85.451
X-85.419 Y-86.114
X-84.225 Y-86.726
X-83.006 Y-87.289
X-81.765 Y-87.8
X-80.504 Y-88.259
X-79.225 Y-88.666
X-78.796 Y-88.783
X-78.51 Y-88.848
X-78.219 Y-88.887
X-77.926 Y-88.9
X-65.172
X-63.831 Y-88.833
X-63.162 Y-88.775
X-62.131 Y-88.646
X-61.007 Y-88.443
X-59.814 Y-88.16
X-58.528 Y-87.78
X-57.264 Y-87.331
X-56.023 Y-86.819
X-54.808 Y-86.248
X-53.621 Y-85.623
X-52.462 Y-84.946
X-51.333 Y-84.22
X-50.236 Y-83.447
X-49.171 Y-82.629
X-48.141 Y-81.769
X-47.147 Y-80.867
X-46.19 Y-79.926
X-45.271 Y-78.948
X-44.392 Y-77.934
X-43.555 Y-76.885
X-42.761 Y-75.803
X-42.01 Y-74.69
X-41.305 Y-73.548
X-40.646 Y-72.379
X-40.034 Y-71.184
X-39.47 Y-69.967
X-38.954 Y-68.727
X-38.489 Y-67.469
X-38.073 Y-66.192
X-37.708 Y-64.901
X-37.395 Y-63.596
X-37.135 Y-62.279
X-36.927 Y-60.953
X-36.773 Y-59.62
X-36.673 Y-58.281
X-36.626 Y-56.94
X-36.632 Y-55.598
X-36.692 Y-54.257
X-36.805 Y-52.92
X-36.972 Y-51.588
X-37.191 Y-50.264
X-37.462 Y-48.949
X-37.785 Y-47.647
X-38.161 Y-46.358
X-38.588 Y-45.085
X-39.065 Y-43.831
X-39.592 Y-42.597
X-40.169 Y-41.385
X-40.793 Y-40.197
X-41.464 Y-39.034
X-42.18 Y-37.899
X-42.942 Y-36.794
X-43.746 Y-35.72
X-44.592 Y-34.678
X-45.479 Y-33.67
X-46.405 Y-32.699
X-47.369 Y-31.765
X-48.37 Y-30.871
X-49.406 Y-30.017
X-50.475 Y-29.206
X-51.575 Y-28.437
X-52.705 Y-27.713
X-53.863 Y-27.034
X-54.88 Y-26.49
X-55.248 Y-26.321
X-55.634 Y-26.199
X-56.032 Y-26.125
X-56.436 Y-26.1
X-64.3
G3 X-65.526 Y-27.351 I0.044 J-1.269
G1 X-66.397 Y-87.612
G3 X-65.172 Y-88.9 I1.27 J-0.018
G1 X-57.939
X-57.113 Y-88.859
X-56.546 Y-88.799
X-55.94 Y-88.703
X-55.226 Y-88.548
X-54.477 Y-88.343
X-53.62 Y-88.058
X-52.665 Y-87.682
X-51.644 Y-87.214
X-50.552 Y-86.64
X-49.399 Y-85.953
X-48.285 Y-85.204
X-47.208 Y-84.403
X-46.169 Y-83.553
X-45.168 Y-82.66
X-44.204 Y-81.726
X-43.279 Y-80.754
X-42.392 Y-79.746
X-41.546 Y-78.705
X-40.739 Y-77.632
X-39.974 Y-76.529
X-39.25 Y-75.399
X-38.569 Y-74.242
X-37.931 Y-73.061
X-37.339 Y-71.857
X-36.792 Y-70.632
X-36.29 Y-69.387
X-35.835 Y-68.124
X-35.427 Y-66.845
X-35.066 Y-65.553
X-34.753 Y-64.247
X-34.489 Y-62.932
X-34.273 Y-61.607
X-34.105 Y-60.275
X-33.987 Y-58.938
X-33.918 Y-57.598
X-33.899 Y-56.256
X-33.93 Y-54.914
X-34.01 Y-53.574
X-34.14 Y-52.239
X-34.32 Y-50.908
X-34.548 Y-49.586
X-34.825 Y-48.273
X-35.15 Y-46.97
X-35.523 Y-45.681
X-35.943 Y-44.406
X-36.409 Y-43.148
X-36.922 Y-41.908
X-37.48 Y-40.687
X-38.082 Y-39.487
X-38.728 Y-38.311
X-39.418 Y-37.16
X-40.15 Y-36.035
X-40.923 Y-34.938
X-41.736 Y-33.869
X-42.587 Y-32.832
X-43.476 Y-31.827
X-44.402 Y-30.855
X-45.362 Y-29.917
X-46.357 Y-29.015
X-47.383 Y-28.151
X-48.441 Y-27.324
X-49.265 Y-26.727
X-49.614 Y-26.506
X-49.989 Y-26.331
X-50.382 Y-26.203
X-50.788 Y-26.126
X-51.201 Y-26.1
X-56.436
G3 X-57.661 Y-27.338 I0.044 J-1.269
G1 X-59.165 Y-87.599
G3 X-58.422 Y-88.786 I1.27 J-0.032
X-57.939 Y-88.9 I0.527 J1.156
G1 X-52.782
X-52.259 Y-88.874
X-51.804 Y-88.826
X-51.338 Y-88.752
X-50.778 Y-88.631
X-50.2 Y-88.473
X-49.518 Y-88.246
X-48.813 Y-87.968
X-48.013 Y-87.602
X-47.126 Y-87.136
X-46.194 Y-86.579
X-45.19 Y-85.903
X-44.118 Y-85.095
X-43.092 Y-84.23
X-42.11 Y-83.316
X-41.169 Y-82.358
X-40.27 Y-81.362
X-39.411 Y-80.33
X-38.594 Y-79.266
X-37.816 Y-78.172
X-37.079 Y-77.05
X-36.384 Y-75.902
X-35.73 Y-74.73
X-35.117 Y-73.536
X-34.547 Y-72.321
X-34.019 Y-71.087
X-33.536 Y-69.835
X-33.096 Y-68.567
X-32.701 Y-67.284
X-32.35 Y-65.988
X-32.045 Y-64.682
X-31.784 Y-63.365
X-31.568 Y-62.04
X-31.398 Y-60.709
X-31.273 Y-59.373
X-31.194 Y-58.033
X-31.161 Y-56.691
X-31.174 Y-55.349
X-31.233 Y-54.008
X-31.338 Y-52.67
X-31.49 Y-51.337
X-31.687 Y-50.009
X-31.93 Y-48.689
X-32.219 Y-47.378
X-32.553 Y-46.078
X-32.93 Y-44.79
X-33.352 Y-43.516
X-33.817 Y-42.257
X-34.324 Y-41.014
X-34.874 Y-39.79
X-35.465 Y-38.585
X-36.097 Y-37.401
X-36.769 Y-36.239
X-37.48 Y-35.101
X-38.231 Y-33.988
X-39.019 Y-32.902
X-39.845 Y-31.844
X-40.706 Y-30.815
X-41.602 Y-29.816
X-42.532 Y-28.848
X-43.494 Y-27.912
X-44.488 Y-27.01
X-44.66 Y-26.866
X-45.032 Y-26.598
X-45.437 Y-26.383
X-45.868 Y-26.227
X-46.317 Y-26.132
X-46.774 Y-26.1
X-51.201
G3 X-52.426 Y-27.336 I0.044 J-1.269
G1 X-54.007 Y-87.597
G3 X-52.782 Y-88.9 I1.27 J-0.033
G1 X-48.423
X-48.074 Y-88.882
X-47.689 Y-88.842
X-47.262 Y-88.774
X-46.804 Y-88.675
X-46.267 Y-88.528
X-45.722 Y-88.347
X-45.082 Y-88.095
X-44.424 Y-87.793
X-43.684 Y-87.404
X-42.867 Y-86.917
X-42.019 Y-86.346
X-41.098 Y-85.651
X-40.111 Y-84.818
X-39.133 Y-83.898
X-38.203 Y-82.93
X-37.319 Y-81.921
X-36.478 Y-80.874
X-35.68 Y-79.795
X-34.924 Y-78.686
X-34.209 Y-77.551
X-33.535 Y-76.39
X-32.901 Y-75.207
X-32.308 Y-74.003
X-31.756 Y-72.78
X-31.246 Y-71.538
X-30.777 Y-70.281
X-30.35 Y-69.008
X-29.965 Y-67.722
X-29.623 Y-66.425
X-29.323 Y-65.117
X-29.064 Y-63.799
X-28.849 Y-62.475
X-28.676 Y-61.144
X-28.616 Y-60.531
X-28.607 Y-60.424
X-28.602 Y-60.317
X-28.6 Y-60.21
Y-55.218
X-28.667 Y-53.878
X-28.721 Y-52.537
X-28.831 Y-51.199
X-28.994 Y-49.867
X-29.207 Y-48.542
X-29.467 Y-47.225
X-29.773 Y-45.918
X-30.123 Y-44.622
X-30.516 Y-43.339
X-30.952 Y-42.07
X-31.429 Y-40.815
X-31.948 Y-39.577
X-32.506 Y-38.357
X-33.104 Y-37.155
X-33.74 Y-35.973
X-34.414 Y-34.812
X-35.125 Y-33.674
X-35.872 Y-32.559
X-36.654 Y-31.468
X-37.471 Y-30.404
X-38.322 Y-29.365
X-39.205 Y-28.355
X-40.12 Y-27.373
X-40.475 Y-27.029
X-40.797 Y-26.755
X-41.151 Y-26.525
X-41.532 Y-26.341
X-41.933 Y-26.208
X-42.348 Y-26.127
X-42.77 Y-26.1
X-46.774
G3 X-47.816 Y-28.028 I0.044 J-1.269
G1 X-30.955 Y-55.832
G3 X-28.6 Y-55.218 I1.086 J0.659
G1 Y-44.569
X-28.663 Y-43.311
X-28.743 Y-42.544
X-28.885 Y-41.657
X-29.097 Y-40.675
X-29.406 Y-39.545
X-29.83 Y-38.272
X-30.322 Y-37.023
X-30.872 Y-35.799
X-31.473 Y-34.599
X-32.121 Y-33.423
X-32.811 Y-32.272
X-33.541 Y-31.146
X-34.308 Y-30.044
X-35.11 Y-28.968
X-35.947 Y-27.919
X-36.554 Y-27.232
X-36.7 Y-27.084
X-37.026 Y-26.795
X-37.387 Y-26.55
X-37.777 Y-26.356
X-38.189 Y-26.215
X-38.616 Y-26.129
X-39.051 Y-26.1
X-42.77
G3 X-43.742 Y-28.131 I0.044 J-1.269
G1 X-30.886 Y-45.286
G3 X-28.6 Y-44.569 I1.016 J0.762
G1 Y-38.104
X-28.639 Y-37.328
X-28.694 Y-36.798
X-28.796 Y-36.163
X-28.944 Y-35.477
X-29.162 Y-34.681
X-29.465 Y-33.77
X-29.86 Y-32.766
X-30.377 Y-31.639
X-31.001 Y-30.451
X-31.685 Y-29.296
X-32.309 Y-28.353
X-32.801 Y-27.69
X-33.131 Y-27.292
X-33.465 Y-26.945
X-33.847 Y-26.649
X-34.268 Y-26.413
X-34.718 Y-26.24
X-35.189 Y-26.135
X-35.67 Y-26.1
X-39.051
G3 X-39.972 Y-28.194 I0.044 J-1.269
G1 X-30.835 Y-38.884
G3 X-28.6 Y-38.104 I0.965 J0.825
G1 Y-32.779
X-28.619 Y-32.404
X-28.668 Y-31.933
X-28.747 Y-31.436
X-28.871 Y-30.862
X-29.031 Y-30.28
X-29.236 Y-29.661
X-29.47 Y-29.068
X-29.724 Y-28.513
X-29.961 Y-28.063
X-30.22 Y-27.629
X-30.268 Y-27.558
X-30.551 Y-27.194
X-30.883 Y-26.874
X-31.255 Y-26.603
X-31.662 Y-26.386
X-32.095 Y-26.228
X-32.546 Y-26.132
X-33.006 Y-26.1
G3 X-34.062 Y-28.003 I0.044 J-1.269
G1 X-30.97 Y-33.369
G3 X-28.6 Y-32.779 I1.1 J0.634
G1 Y-28.976
X-28.617 Y-28.644
X-28.638 Y-28.443
X-28.673 Y-28.224
X-28.72 Y-28.006
X-28.864 Y-27.61
X-29.07 Y-27.242
X-29.333 Y-26.913
X-29.646 Y-26.631
X-30.001 Y-26.403
X-30.388 Y-26.236
X-30.797 Y-26.134
X-31.217 Y-26.1
G3 X-32.148 Y-28.183 I0.044 J-1.269
G1 X-30.844 Y-29.745
G3 X-28.6 Y-28.976 I0.975 J0.814
G1 Y-27.454
X-28.602 Y-27.359
X-28.604 Y-27.281
X-28.63 Y-27.108
X-28.638 Y-27.074
X-28.702 Y-26.884
X-28.803 Y-26.694
X-28.894 Y-26.571
X-29.011 Y-26.448
X-29.183 Y-26.314
X-29.287 Y-26.251
X-29.391 Y-26.201
X-29.582 Y-26.137
X-29.772 Y-26.105
X-30.153 Y-26.1
X-35.67
G3 X-36.153 Y-26.214 I0.044 J-1.269
G1 X-36.282 Y-26.273 Z18.008
X-36.41 Y-26.331 Z18.032
X-36.534 Y-26.388 Z18.071
X-36.654 Y-26.442 Z18.126
X-36.767 Y-26.494 Z18.195
X-36.873 Y-26.542 Z18.277
X-36.97 Y-26.586 Z18.372
X-37.056 Y-26.625 Z18.478
X-37.131 Y-26.66 Z18.594
X-37.194 Y-26.688 Z18.719
X-37.243 Y-26.711 Z18.851
X-37.279 Y-26.727 Z18.987
X-37.301 Y-26.737 Z19.128
X-37.308 Y-26.74 Z19.27
G0 Z37
X-49.994 Y-88.11
Z20.54
G1 Z19.27 F850
X-49.987 Y-88.114 Z19.128
X-49.966 Y-88.127 Z18.987
X-49.932 Y-88.147 Z18.851
X-49.885 Y-88.175 Z18.719
X-49.826 Y-88.21 Z18.594
X-49.755 Y-88.252 Z18.478
X-49.674 Y-88.301 Z18.372
X-49.583 Y-88.355 Z18.277
X-49.483 Y-88.414 Z18.195
X-49.376 Y-88.478 Z18.126
X-49.262 Y-88.545 Z18.071
X-49.145 Y-88.615 Z18.032
X-49.024 Y-88.687 Z18.008
X-48.902 Y-88.759 Z18
G3 X-48.423 Y-88.9 I0.514 J0.864
G1 X-44.617
X-44.243 Y-88.881
X-43.9 Y-88.845
X-43.518 Y-88.784
X-43.084 Y-88.691
X-42.632 Y-88.567
X-42.099 Y-88.39
X-41.564 Y-88.179
X-40.935 Y-87.891
X-40.298 Y-87.556
X-39.581 Y-87.128
X-38.797 Y-86.601
X-37.99 Y-85.991
X-37.112 Y-85.251
X-36.174 Y-84.369
X-35.248 Y-83.397
X-34.372 Y-82.38
X-33.544 Y-81.324
X-32.76 Y-80.234
X-32.021 Y-79.115
X-31.323 Y-77.968
X-30.667 Y-76.797
X-30.051 Y-75.605
X-29.476 Y-74.392
X-28.94 Y-73.161
X-28.833 Y-72.89
X-28.704 Y-72.495
X-28.626 Y-72.087
X-28.6 Y-71.673
Y-60.21
G3 X-30.988 Y-59.654 I-1.269 J-0.044
G1 X-45.692 Y-87.03
G3 X-45.099 Y-88.786 I1.119 J-0.601
X-44.617 Y-88.9 I0.527 J1.156
G1 X-41.191
X-40.652 Y-88.873
X-40.334 Y-88.84
X-39.961 Y-88.78
X-39.581 Y-88.698
X-39.131 Y-88.575
X-38.675 Y-88.423
X-38.143 Y-88.214
X-37.597 Y-87.963
X-36.971 Y-87.634
X-36.337 Y-87.257
X-35.621 Y-86.774
X-34.864 Y-86.203
X-34.07 Y-85.534
X-33.213 Y-84.727
X-32.304 Y-83.774
X-31.432 Y-82.753
X-30.611 Y-81.692
X-29.838 Y-80.594
X-29.111 Y-79.466
X-29.06 Y-79.38
X-28.861 Y-78.987
X-28.717 Y-78.571
X-28.629 Y-78.139
X-28.6 Y-77.7
Y-71.673
G3 X-30.905 Y-70.983 I-1.269 J-0.044
G1 X-42.183 Y-86.896
G3 X-41.191 Y-88.9 I1.036 J-0.734
G1 X-37.766
X-37.246 Y-88.874
X-36.928 Y-88.841
X-36.59 Y-88.787
X-36.213 Y-88.705
X-35.799 Y-88.592
X-35.355 Y-88.444
X-34.858 Y-88.248
X-34.338 Y-88.01
X-33.754 Y-87.704
X-33.147 Y-87.341
X-32.488 Y-86.898
X-31.764 Y-86.351
X-31.027 Y-85.73
X-30.232 Y-84.981
X-29.432 Y-84.142
X-29.392 Y-84.096
X-29.114 Y-83.721
X-28.893 Y-83.31
X-28.731 Y-82.873
X-28.633 Y-82.416
X-28.6 Y-81.951
Y-77.7
G3 X-30.864 Y-76.954 I-1.269 J-0.044
G1 X-38.716 Y-86.841
G3 X-37.766 Y-88.9 I0.995 J-0.79
G1 X-34.34
X-33.959 Y-88.881
X-33.647 Y-88.848
X-33.327 Y-88.797
X-32.951 Y-88.716
X-32.568 Y-88.611
X-32.123 Y-88.463
X-31.668 Y-88.284
X-31.148 Y-88.046
X-30.656 Y-87.787
X-30.206 Y-87.519
X-30.058 Y-87.419
X-29.694 Y-87.135
X-29.374 Y-86.804
X-29.103 Y-86.431
X-28.886 Y-86.025
X-28.728 Y-85.592
X-28.632 Y-85.141
X-28.6 Y-84.681
G3 X-30.566 Y-83.664 I-1.269 J-0.044
G1 X-34.992 Y-86.569
G3 X-34.822 Y-88.786 I0.697 J-1.062
X-34.34 Y-88.9 I0.527 J1.156
G1 X-31.295
X-30.946 Y-88.883
X-30.763 Y-88.863
X-30.558 Y-88.831
X-30.156 Y-88.707
X-29.78 Y-88.518
X-29.442 Y-88.267
X-29.151 Y-87.963
X-28.915 Y-87.615
X-28.742 Y-87.231
X-28.636 Y-86.824
X-28.6 Y-86.405
G3 X-30.695 Y-85.484 I-1.269 J-0.044
G1 X-32.076 Y-86.666
G3 X-31.295 Y-88.9 I0.826 J-0.965
G1 X-30.153
X-29.772 Y-88.895
X-29.582 Y-88.863
X-29.391 Y-88.799
X-29.287 Y-88.749
X-29.183 Y-88.686
X-29.011 Y-88.552
X-28.894 Y-88.429
X-28.803 Y-88.306
X-28.702 Y-88.116
X-28.638 Y-87.926
X-28.63 Y-87.892
X-28.604 Y-87.719
X-28.6 Y-87.546
Y-81.951
G3 X-28.714 Y-81.469 I-1.269 J-0.044
G1 X-28.773 Y-81.339 Z18.008
X-28.831 Y-81.212 Z18.032
X-28.888 Y-81.087 Z18.071
X-28.942 Y-80.967 Z18.126
X-28.994 Y-80.854 Z18.195
X-29.042 Y-80.748 Z18.277
X-29.086 Y-80.652 Z18.372
X-29.125 Y-80.565 Z18.478
X-29.16 Y-80.49 Z18.594
X-29.188 Y-80.428 Z18.719
X-29.211 Y-80.378 Z18.851
X-29.227 Y-80.342 Z18.987
X-29.237 Y-80.32 Z19.128
X-29.24 Y-80.313 Z19.27
G0 Z37
X-71.975 Y-26.89
Z20.54
G1 Z19.27 F850
X-71.982 Y-26.886 Z19.128
X-72.003 Y-26.873 Z18.987
X-72.037 Y-26.853 Z18.851
X-72.084 Y-26.825 Z18.719
X-72.143 Y-26.79 Z18.594
X-72.214 Y-26.748 Z18.478
X-72.295 Y-26.699 Z18.372
X-72.386 Y-26.645 Z18.277
X-72.486 Y-26.586 Z18.195
X-72.593 Y-26.522 Z18.126
X-72.707 Y-26.455 Z18.071
X-72.824 Y-26.385 Z18.032
X-72.945 Y-26.313 Z18.008
X-73.067 Y-26.241 Z18
G3 X-73.546 Y-26.1 I-0.514 J-0.864
G1 X-81.539
X-82.319 Y-26.139
X-82.886 Y-26.198
X-83.541 Y-26.303
X-84.244 Y-26.455
X-85.059 Y-26.678
X-85.93 Y-26.967
X-86.877 Y-27.34
X-87.915 Y-27.816
X-89.027 Y-28.4
X-90.179 Y-29.088
X-91.293 Y-29.836
X-92.37 Y-30.638
X-93.408 Y-31.489
X-94.407 Y-32.385
X-95.368 Y-33.322
X-96.289 Y-34.298
X-97.169 Y-35.312
X-98.008 Y-36.359
X-98.805 Y-37.439
X-99.558 Y-38.55
X-100.268 Y-39.689
X-100.933 Y-40.855
X-101.552 Y-42.046
X-102.124 Y-43.26
X-102.649 Y-44.495
X-103.126 Y-45.75
X-103.555 Y-47.022
X-103.935 Y-48.309
X-104.265 Y-49.61
X-104.544 Y-50.923
X-104.773 Y-52.245
X-104.952 Y-53.575
X-105.079 Y-54.911
X-105.156 Y-56.251
X-105.18 Y-57.593
X-105.154 Y-58.935
X-105.076 Y-60.275
X-104.946 Y-61.611
X-104.766 Y-62.941
X-104.535 Y-64.263
X-104.254 Y-65.575
X-103.923 Y-66.876
X-103.542 Y-68.163
X-103.113 Y-69.435
X-102.635 Y-70.689
X-102.109 Y-71.924
X-101.538 Y-73.138
X-100.92 Y-74.33
X-100.257 Y-75.497
X-99.55 Y-76.637
X-98.8 Y-77.75
X-98.008 Y-78.834
X-97.175 Y-79.887
X-96.303 Y-80.907
X-95.392 Y-81.893
X-94.444 Y-82.843
X-93.461 Y-83.756
X-92.443 Y-84.632
X-91.393 Y-85.468
X-90.313 Y-86.263
X-89.202 Y-87.017
X-88.064 Y-87.728
X-86.899 Y-88.395
X-86.651 Y-88.524
X-86.289 Y-88.687
X-85.909 Y-88.805
X-85.519 Y-88.876
X-85.122 Y-88.9
X-77.926
G3 X-76.702 Y-87.555 I-0.044 J1.269
G1 X-80.316 Y-27.293
G3 X-81.539 Y-26.1 I-1.268 J-0.076
G1 X-86.868
X-87.238 Y-26.119
X-87.7 Y-26.167
X-88.171 Y-26.242
X-88.732 Y-26.363
X-89.318 Y-26.524
X-90.004 Y-26.752
X-90.71 Y-27.03
X-91.516 Y-27.399
X-92.401 Y-27.864
X-93.323 Y-28.415
X-94.32 Y-29.085
X-95.381 Y-29.886
X-96.407 Y-30.752
X-97.389 Y-31.667
X-98.327 Y-32.627
X-99.223 Y-33.626
X-100.076 Y-34.662
X-100.888 Y-35.731
X-101.657 Y-36.831
X-102.384 Y-37.959
X-103.069 Y-39.113
X-103.71 Y-40.292
X-104.308 Y-41.494
X-104.861 Y-42.717
X-105.369 Y-43.959
X-105.832 Y-45.219
X-106.249 Y-46.495
X-106.62 Y-47.784
X-106.945 Y-49.087
X-107.223 Y-50.4
X-107.454 Y-51.722
X-107.638 Y-53.051
X-107.776 Y-54.386
X-107.865 Y-55.726
X-107.908 Y-57.067
X-107.903 Y-58.409
X-107.85 Y-59.75
X-107.749 Y-61.089
X-107.601 Y-62.423
X-107.405 Y-63.75
X-107.161 Y-65.07
X-106.871 Y-66.381
X-106.535 Y-67.68
X-106.152 Y-68.967
X-105.725 Y-70.239
X-105.253 Y-71.495
X-104.737 Y-72.734
X-104.178 Y-73.954
X-103.576 Y-75.154
X-102.933 Y-76.332
X-102.248 Y-77.486
X-101.522 Y-78.615
X-100.756 Y-79.717
X-99.951 Y-80.791
X-99.109 Y-81.836
X-98.23 Y-82.851
X-97.316 Y-83.833
X-96.367 Y-84.783
X-95.386 Y-85.698
X-94.373 Y-86.579
X-93.33 Y-87.423
X-92.257 Y-88.23
X-92.151 Y-88.305
X-91.808 Y-88.515
X-91.442 Y-88.681
X-91.058 Y-88.802
X-90.662 Y-88.875
X-90.26 Y-88.9
X-85.122
G3 X-83.897 Y-87.594 I-0.044 J1.269
G1 X-85.643 Y-27.332
G3 X-86.868 Y-26.1 I-1.269 J-0.037
G1 X-91.055
X-91.457 Y-26.12
X-91.841 Y-26.16
X-92.265 Y-26.228
X-92.723 Y-26.327
X-93.257 Y-26.473
X-93.8 Y-26.654
X-94.436 Y-26.904
X-95.091 Y-27.204
X-95.824 Y-27.589
X-96.633 Y-28.072
X-97.467 Y-28.634
X-98.372 Y-29.317
X-99.34 Y-30.133
X-100.318 Y-31.053
X-101.246 Y-32.022
X-102.128 Y-33.034
X-102.965 Y-34.084
X-103.757 Y-35.167
X-104.506 Y-36.28
X-105.213 Y-37.421
X-105.878 Y-38.588
X-106.5 Y-39.777
X-107.079 Y-40.987
X-107.616 Y-42.218
X-108.11 Y-43.466
X-108.56 Y-44.73
X-108.966 Y-46.009
X-109.33 Y-47.301
X-109.649 Y-48.605
X-109.925 Y-49.918
X-110.157 Y-51.24
X-110.346 Y-52.569
X-110.49 Y-53.903
X-110.59 Y-55.242
X-110.646 Y-56.583
X-110.658 Y-57.925
X-110.625 Y-59.267
X-110.548 Y-60.607
X-110.426 Y-61.943
X-110.259 Y-63.275
X-110.048 Y-64.6
X-109.793 Y-65.918
X-109.494 Y-67.227
X-109.152 Y-68.524
X-108.768 Y-69.81
X-108.342 Y-71.083
X-107.874 Y-72.341
X-107.365 Y-73.583
X-106.815 Y-74.807
X-106.226 Y-76.013
X-105.598 Y-77.199
X-104.93 Y-78.364
X-104.225 Y-79.506
X-103.482 Y-80.623
X-102.701 Y-81.715
X-101.885 Y-82.781
X-101.034 Y-83.818
X-100.149 Y-84.827
X-99.231 Y-85.807
X-98.281 Y-86.755
X-97.301 Y-87.672
X-96.823 Y-88.089
X-96.445 Y-88.373
X-96.031 Y-88.6
X-95.588 Y-88.765
X-95.127 Y-88.866
X-94.656 Y-88.9
X-90.26
G3 X-89.778 Y-88.786 I-0.044 J1.269
X-89.035 Y-87.614 I-0.527 J1.156
G1 X-89.829 Y-27.352
G3 X-91.055 Y-26.1 I-1.27 J-0.017
G1 X-94.861
X-95.276 Y-26.121
X-95.615 Y-26.156
X-95.997 Y-26.217
X-96.425 Y-26.31
X-96.877 Y-26.433
X-97.402 Y-26.608
X-97.935 Y-26.818
X-98.557 Y-27.103
X-99.189 Y-27.435
X-99.896 Y-27.857
X-100.669 Y-28.377
X-101.46 Y-28.975
X-102.32 Y-29.7
X-103.237 Y-30.562
X-104.163 Y-31.533
X-105.037 Y-32.552
X-105.863 Y-33.61
X-106.642 Y-34.703
X-107.375 Y-35.827
X-108.066 Y-36.978
X-108.713 Y-38.153
X-109.318 Y-39.351
X-109.881 Y-40.57
X-110.403 Y-41.806
X-110.883 Y-43.06
X-111.219 Y-44.034
X-111.319 Y-44.386
X-111.38 Y-44.746
X-111.4 Y-45.111
Y-66.628
X-111.333 Y-67.968
X-111.27 Y-68.636
X-111.137 Y-69.623
X-110.922 Y-70.759
X-110.605 Y-72.044
X-110.213 Y-73.327
X-109.76 Y-74.591
X-109.253 Y-75.834
X-108.697 Y-77.055
X-108.096 Y-78.255
X-107.452 Y-79.433
X-106.768 Y-80.588
X-106.046 Y-81.719
X-105.287 Y-82.826
X-104.492 Y-83.908
X-103.664 Y-84.963
X-102.802 Y-85.992
X-101.907 Y-86.993
X-101.086 Y-87.848
X-100.91 Y-88.012
X-100.524 Y-88.322
X-100.096 Y-88.57
X-99.635 Y-88.752
X-99.152 Y-88.863
X-98.658 Y-88.9
X-94.656
G3 X-94.173 Y-88.786 I-0.044 J1.269
X-93.677 Y-86.878 I-0.527 J1.156
G1 X-109.108 Y-65.919
G3 X-111.4 Y-66.628 I-1.023 J-0.753
G1 Y-73.854
X-111.359 Y-74.674
X-111.295 Y-75.286
X-111.189 Y-75.947
X-111.021 Y-76.727
X-110.781 Y-77.605
X-110.457 Y-78.579
X-110.02 Y-79.687
X-109.461 Y-80.907
X-108.838 Y-82.096
X-108.16 Y-83.254
X-107.434 Y-84.383
X-106.665 Y-85.483
X-105.857 Y-86.554
X-105.159 Y-87.404
X-104.77 Y-87.829
X-104.44 Y-88.143
X-104.07 Y-88.408
X-103.666 Y-88.62
X-103.237 Y-88.775
X-102.791 Y-88.869
X-102.337 Y-88.9
X-98.658
G3 X-98.176 Y-88.786 I-0.044 J1.269
X-97.726 Y-86.818 I-0.527 J1.156
G1 X-109.155 Y-73.086
G3 X-111.286 Y-73.372 I-0.976 J-0.812
X-111.4 Y-73.854 I1.156 J-0.527
G1 Y-79.178
X-111.364 Y-79.904
X-111.313 Y-80.384
X-111.227 Y-80.923
X-111.097 Y-81.529
X-110.912 Y-82.204
X-110.653 Y-82.984
X-110.323 Y-83.819
X-109.895 Y-84.753
X-109.39 Y-85.715
X-108.901 Y-86.534
X-108.495 Y-87.138
X-108.102 Y-87.659
X-108.043 Y-87.728
X-107.71 Y-88.07
X-107.33 Y-88.36
X-106.912 Y-88.593
X-106.465 Y-88.762
X-105.998 Y-88.865
X-105.521 Y-88.9
X-102.337
G3 X-101.447 Y-86.77 I-0.044 J1.269
G1 X-109.197 Y-78.362
G3 X-111.4 Y-79.178 I-0.934 J-0.861
G1 Y-83.742
X-111.366 Y-84.414
X-111.326 Y-84.798
X-111.261 Y-85.203
X-111.166 Y-85.643
X-111.057 Y-86.043
X-110.923 Y-86.447
X-110.782 Y-86.804
X-110.623 Y-87.152
X-110.588 Y-87.217
X-110.328 Y-87.63
X-110.008 Y-87.998
X-109.634 Y-88.312
X-109.216 Y-88.565
X-108.765 Y-88.749
X-108.29 Y-88.862
X-107.803 Y-88.9
G3 X-107.321 Y-88.786 I-0.044 J1.269
X-106.756 Y-86.982 I-0.527 J1.156
G1 X-109.039 Y-83.138
G3 X-111.4 Y-83.742 I-1.092 J-0.649
G1 Y-86.9
X-111.391 Y-87.088
X-111.319 Y-87.451
X-111.181 Y-87.795
X-110.984 Y-88.108
X-110.733 Y-88.38
X-110.436 Y-88.602
X-110.104 Y-88.766
X-109.748 Y-88.866
X-109.379 Y-88.9
G3 X-107.578 Y-86.46 I-0.068 J1.935
X-111.4 Y-86.9 I-1.878 J-0.508
G1 Y-87.546
X-111.394 Y-87.736
X-111.362 Y-87.926
X-111.309 Y-88.09
X-111.229 Y-88.254
X-111.197 Y-88.306
X-111.133 Y-88.396
X-111.056 Y-88.487
X-110.952 Y-88.585
X-110.848 Y-88.667
X-110.82 Y-88.686
X-110.644 Y-88.785
X-110.468 Y-88.85
X-110.277 Y-88.89
X-110.087 Y-88.9
X-105.521
G3 X-105.039 Y-88.786 I-0.044 J1.269
G1 X-104.909 Y-88.727 Z18.008
X-104.782 Y-88.669 Z18.032
X-104.657 Y-88.612 Z18.071
X-104.537 Y-88.558 Z18.126
X-104.424 Y-88.506 Z18.195
X-104.318 Y-88.458 Z18.277
X-104.222 Y-88.414 Z18.372
X-104.135 Y-88.375 Z18.478
X-104.06 Y-88.34 Z18.594
X-103.998 Y-88.312 Z18.719
X-103.948 Y-88.289 Z18.851
X-103.912 Y-88.273 Z18.987
X-103.89 Y-88.263 Z19.128
X-103.883 Y-88.26 Z19.27
G0 Z37
X-93.291 Y-26.89
Z20.54
G1 Z19.27 F850
X-93.298 Y-26.886 Z19.128
X-93.319 Y-26.873 Z18.987
X-93.352 Y-26.853 Z18.851
X-93.399 Y-26.825 Z18.719
X-93.459 Y-26.79 Z18.594
X-93.529 Y-26.748 Z18.478
X-93.611 Y-26.699 Z18.372
X-93.702 Y-26.645 Z18.277
X-93.802 Y-26.586 Z18.195
X-93.909 Y-26.522 Z18.126
X-94.022 Y-26.455 Z18.071
X-94.14 Y-26.385 Z18.032
X-94.261 Y-26.313 Z18.008
X-94.383 Y-26.241 Z18
G3 X-94.861 Y-26.1 I-0.514 J-0.864
G1 X-98.287
X-98.845 Y-26.128
X-99.163 Y-26.161
X-99.531 Y-26.22
X-99.909 Y-26.302
X-100.356 Y-26.424
X-100.807 Y-26.574
X-101.338 Y-26.783
X-101.872 Y-27.028
X-102.495 Y-27.355
X-103.117 Y-27.726
X-103.822 Y-28.201
X-104.569 Y-28.764
X-105.345 Y-29.419
X-106.182 Y-30.207
X-107.069 Y-31.136
X-107.941 Y-32.157
X-108.76 Y-33.22
X-109.529 Y-34.319
X-110.252 Y-35.451
X-110.929 Y-36.609
X-111.009 Y-36.76
X-111.178 Y-37.128
X-111.301 Y-37.514
X-111.375 Y-37.913
X-111.4 Y-38.317
Y-45.111
G3 X-111.286 Y-45.594 I1.269 J0.044
X-109.074 Y-45.772 I1.156 J0.527
G1 X-97.275 Y-28.074
G3 X-98.287 Y-26.1 I-1.057 J0.705
G1 X-101.713
X-102.229 Y-26.126
X-102.547 Y-26.159
X-102.88 Y-26.212
X-103.257 Y-26.294
X-103.663 Y-26.405
X-104.107 Y-26.553
X-104.593 Y-26.744
X-105.113 Y-26.982
X-105.682 Y-27.281
X-106.29 Y-27.644
X-106.934 Y-28.077
X-107.647 Y-28.615
X-108.371 Y-29.226
X-109.148 Y-29.957
X-109.976 Y-30.825
X-110.608 Y-31.565
X-110.886 Y-31.94
X-111.107 Y-32.351
X-111.269 Y-32.788
X-111.367 Y-33.244
X-111.4 Y-33.71
Y-38.317
G3 X-109.124 Y-39.046 I1.269 J0.044
G1 X-100.75 Y-28.143
G3 X-101.713 Y-26.1 I-1.007 J0.774
G1 X-105.139
X-105.494 Y-26.118
X-105.803 Y-26.15
X-106.121 Y-26.201
X-106.495 Y-26.282
X-106.873 Y-26.385
X-107.316 Y-26.532
X-107.763 Y-26.709
X-108.282 Y-26.946
X-108.803 Y-27.22
X-109.368 Y-27.557
X-109.888 Y-27.907
X-110.088 Y-28.058
X-110.417 Y-28.343
X-110.707 Y-28.668
X-110.95 Y-29.029
X-111.144 Y-29.419
X-111.286 Y-29.831
X-111.371 Y-30.258
X-111.4 Y-30.692
G3 X-111.286 Y-31.174 I1.269 J0.044
X-109.429 Y-31.706 I1.156 J0.527
G1 X-104.481 Y-28.428
G3 X-105.139 Y-26.1 I-0.702 J1.059
G1 X-108.393
X-108.628 Y-26.112
X-108.873 Y-26.137
X-109.106 Y-26.175
X-109.335 Y-26.224
X-109.577 Y-26.29
X-109.96 Y-26.452
X-110.313 Y-26.671
X-110.628 Y-26.942
X-110.897 Y-27.26
X-111.113 Y-27.615
X-111.271 Y-27.999
X-111.368 Y-28.403
X-111.4 Y-28.818
G3 X-109.32 Y-29.751 I1.269 J0.044
G1 X-107.627 Y-28.347
G3 X-108.393 Y-26.1 I-0.811 J0.978
G1 X-110.01
X-110.087
X-110.277 Y-26.11
X-110.468 Y-26.15
X-110.644 Y-26.215
X-110.82 Y-26.314
X-110.848 Y-26.333
X-110.952 Y-26.415
X-111.056 Y-26.513
X-111.133 Y-26.604
X-111.197 Y-26.694
X-111.229 Y-26.746
X-111.309 Y-26.91
X-111.362 Y-27.074
X-111.394 Y-27.264
X-111.4 Y-27.454
Y-33.71
G3 X-111.286 Y-34.192 I1.269 J0.044
G1 X-111.227 Y-34.321 Z18.008
X-111.169 Y-34.449 Z18.032
X-111.112 Y-34.574 Z18.071
X-111.058 Y-34.693 Z18.126
X-111.006 Y-34.807 Z18.195
X-110.958 Y-34.913 Z18.277
X-110.914 Y-35.009 Z18.372
X-110.875 Y-35.096 Z18.478
X-110.84 Y-35.171 Z18.594
X-110.812 Y-35.233 Z18.719
X-110.789 Y-35.283 Z18.851
X-110.773 Y-35.319 Z18.987
X-110.763 Y-35.34 Z19.128
X-110.76 Y-35.348 Z19.27
G0 Z47

(2D Contour6)
S8000 M3
M9
X-31.91 Y-58.77
Z47
Z37
G1 Z33 F283.3
Z19.27
G18 G2 X-30.64 Z18 I1.27
G1 X-29.37 F850
G17 G3 X-28.1 Y-57.5 J1.27
G1 Y-25.6
X-111.9
Y-89.4
X-28.1
Y-57.5
Y-25.6
X-111.9
Y-89.4
X-28.1
Y-57.5
G3 X-29.37 Y-56.23 I-1.27
G1 X-30.64
G18 G3 X-31.91 Z19.27 K1.27
G0 Z47
G17

(2D Contour5)
S6000 M3
M9
G0 X-141.35 Y-44.216
Z47
Z29
G1 Z26.5 F283.3
Y-7.5 Z25.218
G2 X-130 Y3.85 Z24.595 I11.35
G1 X-70 Z22.5
X-10 F850
G2 X1.35 Y-7.5 J-11.35
G1 Y-107.5
G2 X-10 Y-118.85 I-11.35
G1 X-130
G2 X-141.35 Y-107.5 J11.35
G1 Y-7.5
G2 X-130 Y3.85 I11.35
G1 X-70
X-10
G2 X1.35 Y-7.5 J-11.35
G1 Y-107.5
G2 X-10 Y-118.85 I-11.35
G1 X-130
G2 X-141.35 Y-107.5 J11.35
G1 Y-7.5
G2 X-130 Y3.85 I11.35
G1 X-70
X-27.046 Z21 F283.3
X-10 F850
G2 X1.35 Y-7.5 J-11.35
G1 Y-107.5
G2 X-10 Y-118.85 I-11.35
G1 X-130
G2 X-141.35 Y-107.5 J11.35
G1 Y-7.5
G2 X-130 Y3.85 I11.35
G1 X-70
X-27.046
X-10
G2 X1.35 Y-7.5 J-11.35
G1 Y-107.5
G2 X-10 Y-118.85 I-11.35
G1 X-130
G2 X-141.35 Y-107.5 J11.35
G1 Y-7.5
G2 X-130 Y3.85 I11.35
G1 X-70
X-27.046
X-10 Z20.405 F283.3
G2 X1.35 Y-7.5 Z19.782 J-11.35
G1 Y-15.58 Z19.5
Y-107.5 F850
G2 X-10 Y-118.85 I-11.35
G1 X-130
G2 X-141.35 Y-107.5 J11.35
G1 Y-7.5
G2 X-130 Y3.85 I11.35
G1 X-27.046
X-10
G2 X1.35 Y-7.5 J-11.35
G1 Y-107.5
G2 X-10 Y-118.85 I-11.35
G1 X-130
G2 X-141.35 Y-107.5 J11.35
G1 Y-7.5
G2 X-130 Y3.85 I11.35
G1 X-27.046
X-10
G2 X1.35 Y-7.5 J-11.35
G1 Y-15.58
Y-58.535 Z18 F283.3
Y-107.5 F850
G2 X-10 Y-118.85 I-11.35
G1 X-130
G2 X-141.35 Y-107.5 J11.35
G1 Y-7.5
G2 X-130 Y3.85 I11.35
G1 X-10
G2 X1.35 Y-7.5 J-11.35
G1 Y-107.5
G2 X-10 Y-118.85 I-11.35
G1 X-130
G2 X-141.35 Y-107.5 J11.35
G1 Y-7.5
G2 X-130 Y3.85 I11.35
G1 X-10
G2 X1.35 Y-7.5 J-11.35
G1 Y-58.535
Y-101.489 Z16.5 F283.3
Y-107.5 F850
G2 X-10 Y-118.85 I-11.35
G1 X-130
G2 X-141.35 Y-107.5 J11.35
G1 Y-7.5
G2 X-130 Y3.85 I11.35
G1 X-10
G2 X1.35 Y-7.5 J-11.35
G1 Y-58.535
Y-101.489
Y-107.5
G2 X-10 Y-118.85 I-11.35
G1 X-130
G2 X-141.35 Y-107.5 J11.35
G1 Y-7.5
G2 X-130 Y3.85 I11.35
G1 X-10
G2 X1.35 Y-7.5 J-11.35
G1 Y-58.535
Y-101.489
Y-107.5 Z16.29 F283.3
G2 X-10 Y-118.85 Z15.668 I-11.35
G1 X-29.115 Z15
X-130 F850
G2 X-141.35 Y-107.5 J11.35
G1 Y-7.5
G2 X-130 Y3.85 I11.35
G1 X-10
G2 X1.35 Y-7.5 J-11.35
G1 Y-101.489
Y-107.5
G2 X-10 Y-118.85 I-11.35
G1 X-130
G2 X-141.35 Y-107.5 J11.35
G1 Y-7.5
G2 X-130 Y3.85 I11.35
G1 X-10
G2 X1.35 Y-7.5 J-11.35
G1 Y-101.489
Y-107.5
G2 X-10 Y-118.85 I-11.35
G1 X-29.115
X-72.069 Z13.5 F283.3
X-130 F850
G2 X-141.35 Y-107.5 J11.35
G1 Y-7.5
G2 X-130 Y3.85 I11.35
G1 X-10
G2 X1.35 Y-7.5 J-11.35
G1 Y-107.5
G2 X-10 Y-118.85 I-11.35
G1 X-130
G2 X-141.35 Y-107.5 J11.35
G1 Y-7.5
G2 X-130 Y3.85 I11.35
G1 X-10
G2 X1.35 Y-7.5 J-11.35
G1 Y-107.5
G2 X-10 Y-118.85 I-11.35
G1 X-72.069
X-86.387 Z13 F283.3
X-130 F850
G2 X-141.35 Y-107.5 J11.35
G1 Y-7.5
G2 X-130 Y3.85 I11.35
G1 X-10
G2 X1.35 Y-7.5 J-11.35
G1 Y-107.5
G2 X-10 Y-118.85 I-11.35
G1 X-72.069
X-130
G2 X-141.35 Y-107.5 J11.35
G1 Y-7.5
G2 X-130 Y3.85 I11.35
G1 X-10
G2 X1.35 Y-7.5 J-11.35
G1 Y-107.5
G2 X-10 Y-118.85 I-11.35
G1 X-72.069
X-86.387
G0 Z47

(2D Adaptive7)
M9
X-136.246 Y-125.831
Z47
Z37
Z20.54
G1 Z19.27 F850
X-136.244 Y-125.823 Z19.128
X-136.238 Y-125.8 Z18.987
X-136.228 Y-125.762 Z18.851
X-136.215 Y-125.709 Z18.719
X-136.198 Y-125.642 Z18.594
X-136.177 Y-125.562 Z18.478
X-136.154 Y-125.47 Z18.372
X-136.127 Y-125.367 Z18.277
X-136.098 Y-125.255 Z18.195
X-136.068 Y-125.134 Z18.126
X-136.035 Y-125.007 Z18.071
X-136.001 Y-124.874 Z18.032
X-135.966 Y-124.738 Z18.008
X-135.931 Y-124.6 Z18
G3 X-134.936 Y-117.687 I-31.409 J8.045
G1 Y-117.537
X-134.969 Y-117.374
X-135.02 Y-117.176
X-135.202 Y-116.599
X-135.675 Y-115.343
X-136.188 Y-114.103
X-136.647 Y-112.841
X-137.022 Y-111.553
X-137.316 Y-110.243
X-137.545 Y-108.921
X-137.723 Y-107.59
X-137.859 Y-106.255
X-137.963 Y-104.917
X-138.042 Y-103.577
X-138.102 Y-102.236
X-138.147 Y-100.895
X-138.182 Y-99.553
X-138.208 Y-98.211
X-138.227 Y-96.869
X-138.242 Y-95.527
X-138.253 Y-94.185
X-138.261 Y-92.843
X-138.268 Y-91.501
X-138.272 Y-90.159
X-138.278 Y-87.474
X-138.283 Y-83.448
X-138.286 Y-76.737
Y-67.342
Y-16.34
Y-12.314
X-138.269 Y-10.972
X-138.186 Y-9.632
X-137.99 Y-8.304
X-137.651 Y-7.006
X-137.147 Y-5.762
X-136.462 Y-4.607
X-135.601 Y-3.578
X-134.589 Y-2.697
X-133.464 Y-1.965
X-132.262 Y-1.368
X-131.009 Y-0.887
X-129.722 Y-0.505
X-128.414 Y-0.205
X-127.092 Y0.029
X-125.762 Y0.21
X-124.427 Y0.349
X-123.089 Y0.455
X-121.75 Y0.536
X-120.409 Y0.598
X-119.068 Y0.644
X-117.726 Y0.679
X-116.384 Y0.706
X-115.042 Y0.726
X-113.7 Y0.741
X-112.358 Y0.752
X-111.016 Y0.761
X-109.674 Y0.767
X-108.331 Y0.772
X-105.647 Y0.778
X-101.621 Y0.783
X-98.936 Y0.785
X-88.199 Y0.786
X-47.935
X-14.381
X-13.039 Y0.756
X-11.702 Y0.639
X-10.382 Y0.396
X-9.099 Y0.001
X-7.881 Y-0.563
X-6.76 Y-1.301
X-5.775 Y-2.213
X-4.944 Y-3.266
X-4.257 Y-4.42
X-3.7 Y-5.641
X-3.253 Y-6.906
X-2.899 Y-8.201
X-2.622 Y-9.514
X-2.407 Y-10.839
X-2.241 Y-12.171
X-2.113 Y-13.507
X-2.016 Y-14.845
X-1.942 Y-16.186
X-1.886 Y-17.527
X-1.843 Y-18.868
X-1.811 Y-20.21
X-1.787 Y-21.552
X-1.769 Y-22.894
X-1.755 Y-24.236
X-1.745 Y-25.578
X-1.737 Y-26.92
X-1.731 Y-28.262
X-1.727 Y-29.604
X-1.721 Y-32.289
X-1.717 Y-36.315
X-1.714 Y-43.026
Y-60.474
Y-103.423
X-1.754 Y-104.764
X-1.894 Y-106.099
X-2.169 Y-107.413
X-2.604 Y-108.683
X-3.21 Y-109.88
X-3.992 Y-110.971
X-4.938 Y-111.923
X-6.017 Y-112.721
X-7.188 Y-113.377
X-8.42 Y-113.909
X-9.694 Y-114.333
X-10.993 Y-114.668
X-12.309 Y-114.93
X-13.636 Y-115.134
X-14.969 Y-115.29
X-16.306 Y-115.411
X-17.645 Y-115.502
X-18.985 Y-115.572
X-20.326 Y-115.625
X-21.668 Y-115.664
X-23.01 Y-115.695
X-24.352 Y-115.717
X-25.694 Y-115.734
X-27.036 Y-115.747
X-28.378 Y-115.757
X-29.72 Y-115.764
X-31.062 Y-115.77
X-32.404 Y-115.774
X-35.089 Y-115.779
X-39.115 Y-115.784
X-47.168 Y-115.786
X-53.879
X-104.881
X-125.013
X-126.352 Y-115.692
X-127.639 Y-115.312
X-128.831 Y-114.696
X-129.904 Y-113.889
X-130.845 Y-112.933
X-131.657 Y-111.864
X-132.345 Y-110.712
X-132.921 Y-109.499
X-133.396 Y-108.244
X-133.785 Y-106.959
X-134.099 Y-105.654
X-134.352 Y-104.336
X-134.554 Y-103.009
X-134.714 Y-101.677
X-134.84 Y-100.341
X-134.939 Y-99.002
X-135.017 Y-97.662
X-135.078 Y-96.322
X-135.125 Y-94.98
X-135.162 Y-93.639
X-135.19 Y-92.297
X-135.212 Y-90.955
X-135.229 Y-89.613
X-135.243 Y-88.271
X-135.253 Y-86.928
X-135.261 Y-85.586
X-135.267 Y-84.244
X-135.271 Y-82.902
X-135.277 Y-80.218
X-135.282 Y-76.191
X-135.285 Y-69.481
X-135.286 Y-45.322
Y-38.611
Y-17.137
X-135.285 Y-15.794
X-135.269 Y-14.452
X-135.206 Y-13.112
X-135.032 Y-11.781
X-134.665 Y-10.49
X-134.092 Y-9.276
X-133.336 Y-8.167
X-132.431 Y-7.176
X-131.406 Y-6.31
X-130.289 Y-5.565
X-129.104 Y-4.934
X-127.87 Y-4.407
X-126.601 Y-3.97
X-125.307 Y-3.613
X-123.997 Y-3.323
X-122.675 Y-3.089
X-121.346 Y-2.902
X-120.012 Y-2.754
X-118.675 Y-2.636
X-117.336 Y-2.543
X-115.996 Y-2.47
X-114.655 Y-2.413
X-113.314 Y-2.368
X-111.972 Y-2.333
X-110.63 Y-2.306
X-109.288 Y-2.285
X-107.946 Y-2.269
X-106.604 Y-2.256
X-105.262 Y-2.246
X-103.92 Y-2.239
X-102.578 Y-2.233
X-101.236 Y-2.228
X-98.551 Y-2.222
X-94.525 Y-2.217
X-87.814 Y-2.215
X-63.655 Y-2.214
X-19.364
X-18.022 Y-2.216
X-16.68 Y-2.237
X-15.34 Y-2.318
X-14.015 Y-2.526
X-12.736 Y-2.935
X-11.542 Y-3.548
X-10.456 Y-4.336
X-9.491 Y-5.269
X-8.65 Y-6.315
X-7.929 Y-7.447
X-7.32 Y-8.643
X-6.812 Y-9.886
X-6.393 Y-11.16
X-6.05 Y-12.458
X-5.772 Y-13.771
X-5.548 Y-15.095
X-5.37 Y-16.425
X-5.228 Y-17.759
X-5.115 Y-19.097
X-5.027 Y-20.436
X-4.957 Y-21.776
X-4.903 Y-23.117
X-4.86 Y-24.459
X-4.827 Y-25.801
X-4.801 Y-27.143
X-4.781 Y-28.485
X-4.766 Y-29.827
X-4.754 Y-31.169
X-4.745 Y-32.511
X-4.737 Y-33.853
X-4.732 Y-35.195
X-4.724 Y-37.879
X-4.72 Y-40.564
X-4.716 Y-44.59
X-4.714 Y-51.301
Y-98.276
X-4.716 Y-99.618
X-4.739 Y-100.96
X-4.828 Y-102.3
X-5.056 Y-103.622
X-5.487 Y-104.893
X-6.12 Y-106.077
X-6.926 Y-107.15
X-7.872 Y-108.102
X-8.928 Y-108.93
X-10.068 Y-109.639
X-11.27 Y-110.237
X-12.516 Y-110.735
X-13.794 Y-111.146
X-15.093 Y-111.481
X-16.408 Y-111.753
X-17.732 Y-111.972
X-19.063 Y-112.146
X-20.398 Y-112.285
X-21.735 Y-112.395
X-23.075 Y-112.481
X-24.415 Y-112.549
X-25.756 Y-112.602
X-27.098 Y-112.644
X-28.439 Y-112.676
X-29.781 Y-112.701
X-31.123 Y-112.721
X-32.465 Y-112.736
X-33.808 Y-112.747
X-35.15 Y-112.756
X-36.492 Y-112.763
X-37.834 Y-112.769
X-40.518 Y-112.776
X-43.203 Y-112.78
X-47.229 Y-112.784
X-51.255 Y-112.785
X-70.046 Y-112.786
X-102.257
X-119.705
X-121.047 Y-112.781
X-122.38 Y-112.619
X-123.669 Y-112.246
X-124.882 Y-111.671
X-125.994 Y-110.92
X-126.993 Y-110.023
X-127.872 Y-109.01
X-128.635 Y-107.905
X-129.288 Y-106.733
X-129.84 Y-105.509
X-130.302 Y-104.249
X-130.685 Y-102.963
X-130.999 Y-101.658
X-131.257 Y-100.341
X-131.465 Y-99.015
X-131.634 Y-97.683
X-131.769 Y-96.348
X-131.877 Y-95.01
X-131.964 Y-93.671
X-132.032 Y-92.331
X-132.087 Y-90.989
X-132.129 Y-89.648
X-132.163 Y-88.306
X-132.19 Y-86.964
X-132.211 Y-85.622
X-132.228 Y-84.28
X-132.24 Y-82.938
X-132.251 Y-81.596
X-132.258 Y-80.254
X-132.265 Y-78.912
X-132.27 Y-77.57
X-132.276 Y-74.885
X-132.282 Y-70.859
X-132.285 Y-65.49
X-132.286 Y-52.069
Y-34.621
Y-21.199
Y-19.857
X-132.28 Y-18.515
X-132.251 Y-17.173
X-132.113 Y-15.838
X-131.795 Y-14.534
X-131.285 Y-13.293
X-130.6 Y-12.139
X-129.763 Y-11.089
X-128.801 Y-10.154
X-127.739 Y-9.333
X-126.6 Y-8.623
X-125.403 Y-8.016
X-124.163 Y-7.503
X-122.891 Y-7.074
X-121.597 Y-6.718
X-120.287 Y-6.425
X-118.967 Y-6.185
X-117.639 Y-5.99
X-116.306 Y-5.832
X-114.97 Y-5.705
X-113.631 Y-5.604
X-112.292 Y-5.522
X-110.951 Y-5.457
X-109.61 Y-5.406
X-108.268 Y-5.365
X-106.927 Y-5.333
X-105.585 Y-5.307
X-104.243 Y-5.287
X-102.901 Y-5.271
X-101.559 Y-5.258
X-100.216 Y-5.249
X-98.874 Y-5.241
X-97.532 Y-5.235
X-96.19 Y-5.23
X-93.506 Y-5.224
X-89.479 Y-5.218
X-84.111 Y-5.215
X-70.689 Y-5.214
X-53.241
X-23.714
X-22.372
X-21.029 Y-5.219
X-19.688 Y-5.248
X-18.352 Y-5.385
X-17.048 Y-5.702
X-15.806 Y-6.211
X-14.651 Y-6.895
X-13.601 Y-7.73
X-12.663 Y-8.69
X-11.841 Y-9.751
X-11.129 Y-10.889
X-10.521 Y-12.085
X-10.007 Y-13.325
X-9.577 Y-14.597
X-9.221 Y-15.891
X-8.927 Y-17.2
X-8.687 Y-18.521
X-8.492 Y-19.849
X-8.334 Y-21.181
X-8.207 Y-22.518
X-8.105 Y-23.856
X-8.023 Y-25.195
X-7.958 Y-26.536
X-7.906 Y-27.877
X-7.865 Y-29.219
X-7.833 Y-30.56
X-7.807 Y-31.902
X-7.787 Y-33.244
X-7.771 Y-34.586
X-7.759 Y-35.929
X-7.749 Y-37.271
X-7.741 Y-38.613
X-7.735 Y-39.955
X-7.73 Y-41.297
X-7.724 Y-43.981
X-7.718 Y-48.008
X-7.715 Y-53.376
X-7.714 Y-66.798
Y-68.14
Y-94.983
X-7.718 Y-96.325
X-7.741 Y-97.667
X-7.861 Y-99.004
X-8.158 Y-100.313
X-8.645 Y-101.563
X-9.312 Y-102.728
X-10.133 Y-103.79
X-11.081 Y-104.74
X-12.132 Y-105.575
X-13.263 Y-106.298
X-14.454 Y-106.917
X-15.69 Y-107.44
X-16.958 Y-107.878
X-18.25 Y-108.242
X-19.558 Y-108.542
X-20.878 Y-108.788
X-22.205 Y-108.988
X-23.537 Y-109.15
X-24.873 Y-109.28
X-26.211 Y-109.385
X-27.551 Y-109.469
X-28.891 Y-109.535
X-30.232 Y-109.588
X-31.574 Y-109.63
X-32.916 Y-109.664
X-34.257 Y-109.69
X-35.599 Y-109.711
X-36.941 Y-109.727
X-38.284 Y-109.74
X-39.626 Y-109.75
X-40.968 Y-109.758
X-42.31 Y-109.764
X-43.652 Y-109.769
X-46.336 Y-109.776
X-50.363 Y-109.782
X-55.731 Y-109.785
X-69.153 Y-109.786
X-74.522
X-116.128
X-117.47 Y-109.748
X-118.799 Y-109.558
X-120.087 Y-109.182
X-121.308 Y-108.625
X-122.437 Y-107.899
X-122.493 Y-107.852
X-122.749 Y-107.656
X-123.022 Y-107.486
X-123.31 Y-107.344
X-123.709 Y-107.17
X-124.013 Y-107
X-124.471 Y-106.732
X-124.65 Y-106.62
X-125.614 Y-106.008
X-125.83 Y-105.858
X-125.995 Y-105.73
X-126.376 Y-105.407
X-126.713 Y-105.096
X-127.138 Y-104.674
X-127.519 Y-104.292
X-127.846 Y-103.954
X-127.899 Y-103.895
X-128.28 Y-103.422
X-128.456 Y-103.193
X-128.661 Y-102.878
X-129.182 Y-102.05
X-129.413 Y-101.669
X-129.627 Y-101.289
X-129.804 Y-100.908
X-129.962 Y-100.527
X-130.114 Y-100.146
X-130.381 Y-99.385
X-130.502 Y-99.004
X-130.619 Y-98.623
X-130.72 Y-98.243
X-130.853 Y-97.481
X-130.947 Y-96.651
X-130.978 Y-96.339
X-131.044 Y-95.577
X-131.047 Y-95.196
X-131.05 Y-94.435
Y-20.565
X-131.047 Y-19.804
X-131.044 Y-19.423
X-130.978 Y-18.661
X-130.947 Y-18.349
X-130.853 Y-17.519
X-130.72 Y-16.757
X-130.619 Y-16.377
X-130.502 Y-15.996
X-130.381 Y-15.615
X-130.114 Y-14.854
X-129.962 Y-14.473
X-129.804 Y-14.091
X-129.627 Y-13.711
X-129.413 Y-13.331
X-129.182 Y-12.95
X-128.661 Y-12.122
X-128.456 Y-11.807
X-128.28 Y-11.578
X-127.899 Y-11.105
X-127.846 Y-11.046
X-127.519 Y-10.708
X-127.096 Y-10.284
X-126.712 Y-9.904
X-126.376 Y-9.593
X-125.995 Y-9.271
X-125.829 Y-9.142
X-125.614 Y-8.992
X-124.65 Y-8.38
X-124.471 Y-8.268
X-124.014 Y-8
X-123.709 Y-7.83
X-122.948 Y-7.498
X-122.567 Y-7.358
X-122.186 Y-7.225
X-121.805 Y-7.094
X-121.043 Y-6.85
X-120.662 Y-6.769
X-120.281 Y-6.696
X-119.9 Y-6.638
X-119.138 Y-6.552
X-118.362 Y-6.477
X-117.996 Y-6.457
X-117.234 Y-6.45
X-22.766
X-22.004 Y-6.457
X-21.638 Y-6.477
X-20.862 Y-6.552
X-20.1 Y-6.638
X-19.719 Y-6.696
X-19.338 Y-6.769
X-18.957 Y-6.85
X-18.195 Y-7.094
X-17.776 Y-7.238
X-17.433 Y-7.358
X-17.052 Y-7.498
X-16.291 Y-7.83
X-15.986 Y-8
X-15.529 Y-8.268
X-15.35 Y-8.38
X-14.386 Y-8.992
X-14.171 Y-9.142
X-14.005 Y-9.271
X-13.624 Y-9.593
X-13.287 Y-9.904
X-12.862 Y-10.326
X-12.481 Y-10.708
X-12.154 Y-11.046
X-12.101 Y-11.106
X-11.72 Y-11.578
X-11.545 Y-11.807
X-11.339 Y-12.122
X-10.818 Y-12.95
X-10.586 Y-13.331
X-10.373 Y-13.711
X-10.195 Y-14.092
X-10.037 Y-14.473
X-9.886 Y-14.854
X-9.619 Y-15.615
X-9.498 Y-15.996
X-9.381 Y-16.377
X-9.281 Y-16.757
X-9.148 Y-17.519
X-9.053 Y-18.349
X-9.022 Y-18.661
X-8.956 Y-19.423
X-8.953 Y-19.804
X-8.95 Y-20.565
Y-94.435
X-8.953 Y-95.196
X-8.956 Y-95.577
X-9.022 Y-96.339
X-9.053 Y-96.651
X-9.148 Y-97.481
X-9.281 Y-98.243
X-9.381 Y-98.623
X-9.498 Y-99.004
X-9.619 Y-99.385
X-9.886 Y-100.146
X-10.037 Y-100.527
X-10.196 Y-100.909
X-10.373 Y-101.289
X-10.586 Y-101.669
X-10.818 Y-102.05
X-11.339 Y-102.878
X-11.545 Y-103.193
X-11.72 Y-103.422
X-12.101 Y-103.894
X-12.154 Y-103.954
X-12.481 Y-104.292
X-12.904 Y-104.716
X-13.287 Y-105.096
X-13.624 Y-105.408
X-14.005 Y-105.73
X-14.17 Y-105.858
X-14.386 Y-106.008
X-15.35 Y-106.62
X-15.529 Y-106.732
X-15.986 Y-107
X-16.291 Y-107.17
X-17.052 Y-107.501
X-17.433 Y-107.642
X-17.814 Y-107.775
X-18.195 Y-107.906
X-18.957 Y-108.15
X-19.338 Y-108.231
X-19.719 Y-108.304
X-20.1 Y-108.362
X-20.862 Y-108.448
X-21.638 Y-108.523
X-22.004 Y-108.543
X-22.766 Y-108.55
X-117.234
X-117.996 Y-108.543
X-118.362 Y-108.523
X-119.138 Y-108.448
X-119.9 Y-108.362
X-120.281 Y-108.304
X-120.662 Y-108.231
X-121.043 Y-108.15
X-121.805 Y-107.906
X-122.224 Y-107.762
X-122.567 Y-107.642
X-122.948 Y-107.501
X-123.31 Y-107.344
G3 X-123.797 Y-107.256 I-0.466 J-1.182
G1 X-123.94 Y-107.258 Z18.008
X-124.08 Y-107.26 Z18.032
X-124.217 Y-107.263 Z18.071
X-124.348 Y-107.265 Z18.126
X-124.473 Y-107.267 Z18.195
X-124.589 Y-107.269 Z18.277
X-124.695 Y-107.271 Z18.372
X-124.79 Y-107.273 Z18.478
X-124.873 Y-107.274 Z18.594
X-124.942 Y-107.275 Z18.719
X-124.996 Y-107.276 Z18.851
X-125.035 Y-107.277 Z18.987
X-125.059 Z19.128
X-125.067 Y-107.278 Z19.27
G0 Z47

(2D Contour7)
S9000 M3
M9
X-134.36 Y-58.77
Z47
Z37
G1 Z33 F283.3
Z19.27
G18 G2 X-133.09 Z18 I1.27
G1 X-131.82 F850
G17 G3 X-130.55 Y-57.5 J1.27
G1 Y-19.65
G2 X-117.85 Y-6.95 I12.7
G1 X-22.15
G2 X-9.45 Y-19.65 J-12.7
G1 Y-95.35
G2 X-22.15 Y-108.05 I-12.7
G1 X-117.85
G2 X-130.55 Y-95.35 J12.7
G1 Y-19.65
G2 X-117.85 Y-6.95 I12.7
G1 X-22.15
G2 X-9.45 Y-19.65 J-12.7
G1 Y-95.35
G2 X-22.15 Y-108.05 I-12.7
G1 X-117.85
G2 X-130.55 Y-95.35 J12.7
G1 Y-57.5
G3 X-131.82 Y-56.23 I-1.27
G1 X-133.09
G18 G3 X-134.36 Z19.27 K1.27
G0 Z47
G17
M9
M30
%
