%
(box_130x110x45_48stockheight)
(z0 botom machine -5-5)
(T1  D=12.7 CR=0 - ZMIN=8 - flat end mill)
G90 G94
G17
G21

(2D Adaptive1)
M9
T1 M6
S6000 M3
G54
M9
G0 X-62.795 Y-56.039
Z63
Z53
Z51.77
G1 Z50.5 F850
G3 X-74.205 Y-59.961 Z49.838 I-5.705 J-1.961 F283.3
X-62.795 Y-56.039 Z49.176 I5.705 J1.961
X-74.205 Y-59.961 Z48.515 I-5.705 J-1.961
X-62.795 Y-56.039 Z47.853 I5.705 J1.961
X-74.205 Y-59.961 Z47.191 I-5.705 J-1.961
X-62.795 Y-56.039 Z46.529 I5.705 J1.961
X-74.205 Y-59.961 Z45.867 I-5.705 J-1.961
X-62.795 Y-56.039 Z45.206 I5.705 J1.961
X-74.205 Y-59.961 Z44.544 I-5.705 J-1.961
X-62.795 Y-56.039 Z43.882 I5.705 J1.961
X-74.205 Y-59.961 Z43.22 I-5.705 J-1.961
X-62.795 Y-56.039 Z42.558 I5.705 J1.961
X-74.205 Y-59.961 Z41.897 I-5.705 J-1.961
X-62.795 Y-56.039 Z41.235 I5.705 J1.961
X-74.205 Y-59.961 Z40.573 I-5.705 J-1.961
X-62.795 Y-56.039 Z39.911 I5.705 J1.961
X-74.205 Y-59.961 Z39.249 I-5.705 J-1.961
X-62.795 Y-56.039 Z38.587 I5.705 J1.961
X-74.205 Y-59.961 Z37.926 I-5.705 J-1.961
X-62.795 Y-56.039 Z37.264 I5.705 J1.961
X-74.205 Y-59.961 Z36.602 I-5.705 J-1.961
X-62.467 Y-58 Z36.01 I5.705 J1.961
X-74.532 I-6.033
X-62.744 Y-59.805 I6.032
X-62.467 Y-58 I-5.756 J1.805
G1 X-62.464 Y-57.664 F850
X-62.335 Y-56.328
X-62.312 Y-56.248
X-62.277 Y-56.102
X-62.251 Y-55.954
X-62.233 Y-55.801
X-62.223 Y-55.635
X-62.221 Y-55.457
X-62.23 Y-55.267
X-62.25 Y-55.065
X-62.283 Y-54.853
X-62.33 Y-54.632
X-62.391 Y-54.402
X-62.469 Y-54.165
X-62.564 Y-53.923
X-62.675 Y-53.676
X-62.805 Y-53.426
X-62.954 Y-53.175
X-63.121 Y-52.925
X-63.307 Y-52.676
X-63.512 Y-52.431
X-63.735 Y-52.192
X-63.977 Y-51.959
X-64.237 Y-51.735
X-64.514 Y-51.521
X-64.808 Y-51.318
X-65.118 Y-51.129
X-65.442 Y-50.954
X-65.78 Y-50.795
X-66.131 Y-50.652
X-66.494 Y-50.527
X-66.866 Y-50.421
X-67.248 Y-50.334
X-67.637 Y-50.267
X-68.032 Y-50.222
X-68.433 Y-50.197
X-68.836 Y-50.195
X-69.242 Y-50.214
X-69.648 Y-50.255
X-70.053 Y-50.319
X-70.456 Y-50.405
X-70.855 Y-50.513
X-71.249 Y-50.643
X-71.637 Y-50.795
X-72.017 Y-50.968
X-72.388 Y-51.162
X-72.749 Y-51.376
X-73.099 Y-51.61
X-73.436 Y-51.863
X-73.759 Y-52.134
X-74.068 Y-52.423
X-74.361 Y-52.729
X-74.637 Y-53.05
X-74.895 Y-53.386
X-75.136 Y-53.737
X-75.357 Y-54.1
X-75.558 Y-54.474
X-75.739 Y-54.86
X-75.899 Y-55.255
X-76.037 Y-55.658
X-76.153 Y-56.068
X-76.247 Y-56.484
X-76.318 Y-56.905
X-76.367 Y-57.329
X-76.392 Y-57.756
X-76.394 Y-58.183
X-76.373 Y-58.61
X-76.329 Y-59.035
X-76.261 Y-59.457
X-76.171 Y-59.875
X-76.059 Y-60.288
X-75.924 Y-60.694
X-75.768 Y-61.092
X-75.59 Y-61.481
X-75.391 Y-61.86
X-75.172 Y-62.228
X-74.933 Y-62.583
X-74.676 Y-62.925
X-74.4 Y-63.252
X-74.107 Y-63.564
X-73.797 Y-63.86
X-73.472 Y-64.138
X-73.132 Y-64.399
X-72.779 Y-64.64
X-72.412 Y-64.862
X-72.035 Y-65.064
X-71.647 Y-65.245
X-71.25 Y-65.405
X-70.844 Y-65.544
X-70.432 Y-65.66
X-70.014 Y-65.753
X-69.592 Y-65.824
X-69.166 Y-65.871
X-68.739 Y-65.896
X-68.31 Y-65.897
X-67.883 Y-65.875
X-67.457 Y-65.83
X-67.034 Y-65.762
X-66.615 Y-65.672
X-66.202 Y-65.558
X-65.796 Y-65.423
X-65.398 Y-65.265
X-65.009 Y-65.086
X-64.63 Y-64.887
X-64.262 Y-64.667
X-63.907 Y-64.427
X-63.565 Y-64.169
X-63.238 Y-63.892
X-62.927 Y-63.599
X-62.631 Y-63.288
X-62.353 Y-62.962
X-62.094 Y-62.622
X-61.852 Y-62.268
X-61.631 Y-61.901
X-61.43 Y-61.523
X-61.12 Y-60.857
X-60.787 Y-60.026
X-60.561 Y-59.359
X-60.395 Y-58.765
X-60.275 Y-58.226
X-60.19 Y-57.712
X-60.136 Y-57.223
X-60.11 Y-56.753
X-60.109 Y-56.296
X-60.133 Y-55.849
X-60.18 Y-55.411
X-60.25 Y-54.98
X-60.343 Y-54.556
X-60.458 Y-54.139
X-60.596 Y-53.729
X-60.756 Y-53.327
X-60.937 Y-52.933
X-61.141 Y-52.548
X-61.367 Y-52.171
X-61.615 Y-51.805
X-61.884 Y-51.451
X-62.175 Y-51.108
X-62.486 Y-50.779
X-62.818 Y-50.465
X-63.169 Y-50.167
X-63.538 Y-49.885
X-63.926 Y-49.622
X-64.33 Y-49.379
X-64.751 Y-49.156
X-65.186 Y-48.955
X-65.635 Y-48.776
X-66.096 Y-48.62
X-66.568 Y-48.489
X-67.049 Y-48.383
X-67.539 Y-48.303
X-68.036 Y-48.249
X-68.537 Y-48.222
X-69.042 Y-48.223
X-69.55 Y-48.25
X-70.057 Y-48.306
X-70.563 Y-48.389
X-71.066 Y-48.5
X-71.564 Y-48.639
X-72.056 Y-48.805
X-72.539 Y-48.998
X-73.013 Y-49.217
X-73.475 Y-49.463
X-73.925 Y-49.734
X-74.36 Y-50.03
X-74.78 Y-50.35
X-75.182 Y-50.692
X-75.566 Y-51.057
X-75.93 Y-51.442
X-76.274 Y-51.848
X-76.595 Y-52.272
X-76.893 Y-52.713
X-77.167 Y-53.17
X-77.417 Y-53.642
X-77.64 Y-54.127
X-77.837 Y-54.624
X-78.007 Y-55.132
X-78.15 Y-55.648
X-78.264 Y-56.172
X-78.35 Y-56.701
X-78.407 Y-57.234
X-78.434 Y-57.77
X-78.433 Y-58.307
X-78.403 Y-58.844
X-78.344 Y-59.378
X-78.256 Y-59.908
X-78.139 Y-60.433
X-77.994 Y-60.951
X-77.82 Y-61.461
X-77.62 Y-61.96
X-77.393 Y-62.448
X-77.139 Y-62.923
X-76.86 Y-63.384
X-76.557 Y-63.829
X-76.23 Y-64.256
X-75.88 Y-64.666
X-75.508 Y-65.056
X-75.116 Y-65.425
X-74.704 Y-65.773
X-74.274 Y-66.098
X-73.827 Y-66.399
X-73.364 Y-66.675
X-72.887 Y-66.926
X-72.397 Y-67.151
X-71.896 Y-67.349
X-71.384 Y-67.519
X-70.864 Y-67.661
X-70.337 Y-67.775
X-69.805 Y-67.86
X-69.269 Y-67.917
X-68.73 Y-67.944
X-68.191 Y-67.942
X-67.653 Y-67.91
X-67.117 Y-67.85
X-66.585 Y-67.761
X-66.059 Y-67.643
X-65.54 Y-67.496
X-65.03 Y-67.322
X-64.529 Y-67.12
X-64.041 Y-66.891
X-63.566 Y-66.637
X-63.105 Y-66.357
X-62.66 Y-66.052
X-62.232 Y-65.724
X-61.823 Y-65.373
X-61.406 Y-64.974
X-61.002 Y-64.543
X-60.589 Y-64.052
X-60.186 Y-63.517
X-59.808 Y-62.953
X-59.461 Y-62.37
X-59.149 Y-61.775
X-58.874 Y-61.171
X-58.635 Y-60.563
X-58.434 Y-59.955
X-58.269 Y-59.347
X-58.139 Y-58.742
X-58.044 Y-58.141
X-57.982 Y-57.546
X-57.954 Y-56.956
X-57.957 Y-56.373
X-57.991 Y-55.795
X-58.057 Y-55.225
X-58.152 Y-54.662
X-58.278 Y-54.107
X-58.433 Y-53.562
X-58.617 Y-53.026
X-58.83 Y-52.501
X-59.071 Y-51.988
X-59.34 Y-51.488
X-59.636 Y-51.003
X-59.96 Y-50.533
X-60.309 Y-50.079
X-60.684 Y-49.644
X-61.083 Y-49.228
X-61.506 Y-48.832
X-61.952 Y-48.458
X-62.42 Y-48.108
X-62.908 Y-47.781
X-63.416 Y-47.48
X-63.942 Y-47.206
X-64.485 Y-46.959
X-65.043 Y-46.742
X-65.615 Y-46.553
X-66.199 Y-46.396
X-66.794 Y-46.269
X-67.398 Y-46.175
X-68.009 Y-46.113
X-68.625 Y-46.084
X-69.244 Y-46.088
X-69.866 Y-46.127
X-70.486 Y-46.199
X-71.104 Y-46.305
X-71.718 Y-46.445
X-72.325 Y-46.619
X-72.924 Y-46.826
X-73.512 Y-47.065
X-74.088 Y-47.337
X-74.65 Y-47.641
X-75.196 Y-47.975
X-75.724 Y-48.34
X-76.233 Y-48.733
X-76.72 Y-49.154
X-77.185 Y-49.602
X-77.626 Y-50.075
X-78.041 Y-50.572
X-78.429 Y-51.091
X-78.788 Y-51.631
X-79.118 Y-52.191
X-79.418 Y-52.768
X-79.687 Y-53.362
X-79.923 Y-53.969
X-80.125 Y-54.59
X-80.294 Y-55.22
X-80.429 Y-55.859
X-80.529 Y-56.506
X-80.594 Y-57.157
X-80.624 Y-57.81
X-80.618 Y-58.465
X-80.576 Y-59.119
X-80.499 Y-59.77
X-80.387 Y-60.416
X-80.24 Y-61.055
X-80.058 Y-61.686
X-79.843 Y-62.306
X-79.594 Y-62.913
X-79.313 Y-63.507
X-78.999 Y-64.084
X-78.655 Y-64.644
X-78.281 Y-65.184
X-77.878 Y-65.703
X-77.448 Y-66.2
X-76.991 Y-66.672
X-76.509 Y-67.12
X-76.004 Y-67.54
X-75.476 Y-67.933
X-74.928 Y-68.296
X-74.361 Y-68.63
X-73.777 Y-68.932
X-73.177 Y-69.202
X-72.563 Y-69.439
X-71.938 Y-69.642
X-71.302 Y-69.812
X-70.658 Y-69.946
X-70.007 Y-70.046
X-69.352 Y-70.11
X-68.695 Y-70.138
X-68.037 Y-70.131
X-67.38 Y-70.088
X-66.727 Y-70.01
X-66.079 Y-69.896
X-65.438 Y-69.747
X-64.805 Y-69.564
X-64.184 Y-69.347
X-63.576 Y-69.096
X-62.976 Y-68.811
X-62.388 Y-68.49
X-61.805 Y-68.131
X-61.231 Y-67.731
X-60.668 Y-67.293
X-60.122 Y-66.818
X-59.596 Y-66.308
X-59.093 Y-65.764
X-58.615 Y-65.188
X-58.167 Y-64.583
X-57.751 Y-63.954
X-57.37 Y-63.303
X-57.026 Y-62.634
X-56.72 Y-61.952
X-56.454 Y-61.258
X-56.227 Y-60.556
X-56.04 Y-59.849
X-55.892 Y-59.138
X-55.785 Y-58.425
X-55.716 Y-57.712
X-55.687 Y-57.001
X-55.696 Y-56.293
X-55.743 Y-55.59
X-55.828 Y-54.892
X-55.95 Y-54.203
X-56.109 Y-53.523
X-56.304 Y-52.853
X-56.535 Y-52.195
X-56.802 Y-51.551
X-57.103 Y-50.923
X-57.438 Y-50.311
X-57.806 Y-49.717
X-58.206 Y-49.143
X-58.637 Y-48.591
X-59.099 Y-48.062
X-59.59 Y-47.557
X-60.11 Y-47.079
X-60.656 Y-46.628
X-61.227 Y-46.205
X-61.823 Y-45.814
X-62.441 Y-45.453
X-63.08 Y-45.126
X-63.738 Y-44.832
X-64.413 Y-44.574
X-65.104 Y-44.352
X-65.809 Y-44.167
X-66.525 Y-44.02
X-67.251 Y-43.912
X-67.985 Y-43.843
X-68.724 Y-43.813
X-69.466 Y-43.824
X-70.208 Y-43.875
X-70.949 Y-43.966
X-71.687 Y-44.098
X-72.418 Y-44.271
X-73.141 Y-44.483
X-73.853 Y-44.735
X-74.553 Y-45.026
X-75.237 Y-45.355
X-75.904 Y-45.721
X-76.552 Y-46.124
X-77.178 Y-46.563
X-77.781 Y-47.036
X-78.358 Y-47.541
X-78.908 Y-48.078
X-79.428 Y-48.645
X-79.918 Y-49.24
X-80.376 Y-49.862
X-80.799 Y-50.508
X-81.188 Y-51.177
X-81.54 Y-51.867
X-81.854 Y-52.575
X-82.13 Y-53.3
X-82.366 Y-54.04
X-82.562 Y-54.792
X-82.717 Y-55.554
X-82.831 Y-56.324
X-82.903 Y-57.099
X-82.932 Y-57.878
X-82.919 Y-58.657
X-82.865 Y-59.435
X-82.768 Y-60.209
X-82.629 Y-60.977
X-82.448 Y-61.737
X-82.227 Y-62.486
X-81.965 Y-63.222
X-81.664 Y-63.943
X-81.324 Y-64.647
X-80.946 Y-65.331
X-80.532 Y-65.994
X-80.082 Y-66.634
X-79.598 Y-67.249
X-79.082 Y-67.836
X-78.534 Y-68.395
X-77.957 Y-68.923
X-77.352 Y-69.42
X-76.721 Y-69.883
X-76.065 Y-70.311
X-75.387 Y-70.703
X-74.689 Y-71.057
X-73.973 Y-71.374
X-73.241 Y-71.651
X-72.494 Y-71.888
X-71.736 Y-72.084
X-70.968 Y-72.239
X-70.193 Y-72.352
X-69.413 Y-72.422
X-68.63 Y-72.451
X-67.847 Y-72.437
X-67.066 Y-72.38
X-66.289 Y-72.281
X-65.517 Y-72.141
X-64.752 Y-71.958
X-63.994 Y-71.732
X-63.244 Y-71.464
X-62.503 Y-71.153
X-61.773 Y-70.799
X-61.056 Y-70.401
X-60.354 Y-69.961
X-59.67 Y-69.479
X-59.008 Y-68.955
X-58.37 Y-68.393
X-57.76 Y-67.792
X-57.18 Y-67.157
X-56.634 Y-66.488
X-56.124 Y-65.79
X-55.652 Y-65.065
X-55.221 Y-64.316
X-54.831 Y-63.546
X-54.485 Y-62.759
X-54.183 Y-61.956
X-53.926 Y-61.141
X-53.714 Y-60.316
X-53.548 Y-59.485
X-53.428 Y-58.648
X-53.353 Y-57.809
X-53.324 Y-56.97
X-53.341 Y-56.133
X-53.402 Y-55.301
X-53.509 Y-54.474
X-53.66 Y-53.657
X-53.854 Y-52.849
X-54.092 Y-52.055
X-54.373 Y-51.274
X-54.695 Y-50.511
X-55.058 Y-49.765
X-55.461 Y-49.041
X-55.904 Y-48.338
X-56.384 Y-47.66
X-56.901 Y-47.008
X-57.454 Y-46.384
X-58.04 Y-45.789
X-58.66 Y-45.226
X-59.31 Y-44.696
X-59.99 Y-44.201
X-60.698 Y-43.743
X-61.431 Y-43.322
X-62.189 Y-42.941
X-62.968 Y-42.6
X-63.766 Y-42.301
X-64.583 Y-42.045
X-65.414 Y-41.833
X-66.258 Y-41.666
X-67.113 Y-41.545
X-67.975 Y-41.469
X-68.843 Y-41.441
X-69.713 Y-41.46
X-70.584 Y-41.526
X-71.452 Y-41.639
X-72.315 Y-41.8
X-73.17 Y-42.008
X-74.014 Y-42.262
X-74.846 Y-42.563
X-75.661 Y-42.908
X-76.459 Y-43.299
X-77.236 Y-43.733
X-77.989 Y-44.209
X-78.717 Y-44.726
X-79.417 Y-45.283
X-80.086 Y-45.878
X-80.724 Y-46.51
X-81.327 Y-47.176
X-81.894 Y-47.874
X-82.423 Y-48.603
X-82.912 Y-49.361
X-83.359 Y-50.145
X-83.764 Y-50.953
X-84.125 Y-51.782
X-84.441 Y-52.63
X-84.711 Y-53.495
X-84.933 Y-54.374
X-85.108 Y-55.265
X-85.234 Y-56.164
X-85.311 Y-57.069
X-85.34 Y-57.977
X-85.319 Y-58.887
X-85.248 Y-59.794
X-85.129 Y-60.696
X-84.96 Y-61.591
X-84.744 Y-62.476
X-84.479 Y-63.348
X-84.168 Y-64.204
X-83.811 Y-65.043
X-83.408 Y-65.861
X-82.962 Y-66.657
X-82.473 Y-67.427
X-81.943 Y-68.17
X-81.373 Y-68.883
X-80.766 Y-69.564
X-80.122 Y-70.212
X-79.444 Y-70.824
X-78.734 Y-71.398
X-77.994 Y-71.933
X-77.226 Y-72.427
X-76.432 Y-72.879
X-75.614 Y-73.287
X-74.776 Y-73.65
X-73.919 Y-73.967
X-73.046 Y-74.237
X-72.16 Y-74.46
X-71.263 Y-74.634
X-70.357 Y-74.76
X-69.447 Y-74.836
X-68.532 Y-74.863
X-67.617 Y-74.84
X-66.703 Y-74.767
X-65.791 Y-74.645
X-64.884 Y-74.473
X-63.984 Y-74.25
X-63.092 Y-73.978
X-62.211 Y-73.656
X-61.344 Y-73.285
X-60.492 Y-72.864
X-59.659 Y-72.395
X-58.848 Y-71.878
X-58.06 Y-71.314
X-57.3 Y-70.705
X-56.57 Y-70.052
X-55.875 Y-69.358
X-55.215 Y-68.625
X-54.596 Y-67.855
X-54.018 Y-67.053
X-53.484 Y-66.22
X-52.996 Y-65.359
X-52.557 Y-64.474
X-52.166 Y-63.568
X-51.826 Y-62.644
X-51.537 Y-61.705
X-51.299 Y-60.753
X-51.114 Y-59.793
X-50.982 Y-58.825
X-50.903 Y-57.855
X-50.876 Y-56.883
X-50.902 Y-55.913
X-50.98 Y-54.948
X-51.111 Y-53.99
X-51.292 Y-53.041
X-51.525 Y-52.105
X-51.808 Y-51.183
X-52.141 Y-50.278
X-52.522 Y-49.393
X-52.95 Y-48.529
X-53.425 Y-47.69
X-53.945 Y-46.877
X-54.509 Y-46.092
X-55.115 Y-45.339
X-55.762 Y-44.618
X-56.448 Y-43.933
X-57.172 Y-43.285
X-57.931 Y-42.675
X-58.723 Y-42.107
X-59.547 Y-41.581
X-60.401 Y-41.099
X-61.281 Y-40.664
X-62.185 Y-40.276
X-63.112 Y-39.936
X-64.058 Y-39.647
X-65.021 Y-39.409
X-65.997 Y-39.223
X-66.985 Y-39.089
X-67.981 Y-39.009
X-68.982 Y-38.984
X-69.986 Y-39.012
X-70.989 Y-39.095
X-71.988 Y-39.233
X-72.981 Y-39.425
X-73.964 Y-39.671
X-74.934 Y-39.971
X-75.888 Y-40.324
X-76.824 Y-40.728
X-77.738 Y-41.184
X-78.627 Y-41.689
X-79.49 Y-42.243
X-80.322 Y-42.843
X-81.121 Y-43.489
X-81.886 Y-44.178
X-82.613 Y-44.908
X-83.301 Y-45.678
X-83.946 Y-46.485
X-84.547 Y-47.326
X-85.103 Y-48.2
X-85.61 Y-49.104
X-86.069 Y-50.034
X-86.477 Y-50.989
X-86.832 Y-51.966
X-87.135 Y-52.961
X-87.383 Y-53.971
X-87.576 Y-54.994
X-87.714 Y-56.027
X-87.795 Y-57.066
X-87.82 Y-58.109
X-87.789 Y-59.152
X-87.7 Y-60.192
X-87.556 Y-61.227
X-87.356 Y-62.252
X-87.1 Y-63.265
X-86.79 Y-64.264
X-86.425 Y-65.244
X-86.009 Y-66.204
X-85.54 Y-67.139
X-85.022 Y-68.048
X-84.455 Y-68.928
X-83.841 Y-69.776
X-83.181 Y-70.59
X-82.479 Y-71.367
X-81.735 Y-72.104
X-80.953 Y-72.801
X-80.133 Y-73.454
X-79.28 Y-74.061
X-78.394 Y-74.622
X-77.48 Y-75.134
X-76.539 Y-75.595
X-75.574 Y-76.005
X-74.588 Y-76.362
X-73.585 Y-76.666
X-72.566 Y-76.914
X-71.535 Y-77.107
X-70.494 Y-77.243
X-69.447 Y-77.324
X-68.395 Y-77.347
X-67.341 Y-77.313
X-66.288 Y-77.222
X-65.238 Y-77.074
X-64.194 Y-76.868
X-63.159 Y-76.605
X-62.135 Y-76.284
X-61.125 Y-75.907
X-60.132 Y-75.474
X-59.159 Y-74.984
X-58.209 Y-74.441
X-57.286 Y-73.843
X-56.393 Y-73.194
X-55.533 Y-72.495
X-54.71 Y-71.748
X-53.926 Y-70.955
X-53.185 Y-70.119
X-52.489 Y-69.243
X-51.842 Y-68.33
X-51.244 Y-67.383
X-50.699 Y-66.404
X-50.208 Y-65.399
X-49.772 Y-64.369
X-49.394 Y-63.317
X-49.073 Y-62.249
X-48.811 Y-61.165
X-48.608 Y-60.071
X-48.466 Y-58.969
X-48.383 Y-57.863
X-48.36 Y-56.755
X-48.398 Y-55.649
X-48.495 Y-54.548
X-48.651 Y-53.455
X-48.867 Y-52.373
X-49.14 Y-51.305
X-49.471 Y-50.253
X-49.858 Y-49.221
X-50.301 Y-48.212
X-50.798 Y-47.228
X-51.348 Y-46.272
X-51.949 Y-45.347
X-52.6 Y-44.455
X-53.299 Y-43.598
X-54.044 Y-42.78
X-54.833 Y-42.002
X-55.665 Y-41.267
X-56.537 Y-40.578
X-57.446 Y-39.935
X-58.391 Y-39.342
X-59.368 Y-38.799
X-60.375 Y-38.31
X-61.41 Y-37.874
X-62.468 Y-37.495
X-63.548 Y-37.173
X-64.646 Y-36.91
X-65.759 Y-36.705
X-66.884 Y-36.562
X-68.018 Y-36.479
X-69.157 Y-36.458
X-70.297 Y-36.498
X-71.436 Y-36.601
X-72.57 Y-36.765
X-73.696 Y-36.991
X-74.81 Y-37.279
X-75.909 Y-37.626
X-76.989 Y-38.034
X-78.047 Y-38.501
X-79.08 Y-39.024
X-80.085 Y-39.604
X-81.058 Y-40.239
X-81.997 Y-40.926
X-82.898 Y-41.665
X-83.759 Y-42.452
X-84.577 Y-43.285
X-85.35 Y-44.163
X-86.074 Y-45.082
X-86.749 Y-46.04
X-87.371 Y-47.034
X-87.939 Y-48.062
X-88.451 Y-49.12
X-88.905 Y-50.204
X-89.3 Y-51.313
X-89.635 Y-52.442
X-89.908 Y-53.588
X-90.118 Y-54.748
X-90.266 Y-55.919
X-90.35 Y-57.096
X-90.37 Y-58.277
X-90.326 Y-59.457
X-90.217 Y-60.634
X-90.046 Y-61.804
X-89.811 Y-62.963
X-89.513 Y-64.108
X-89.154 Y-65.236
X-88.734 Y-66.343
X-88.254 Y-67.426
X-87.717 Y-68.481
X-87.123 Y-69.506
X-86.474 Y-70.498
X-85.772 Y-71.453
X-85.019 Y-72.369
X-84.218 Y-73.242
X-83.37 Y-74.071
X-82.478 Y-74.854
X-81.546 Y-75.586
X-80.574 Y-76.267
X-79.568 Y-76.895
X-78.528 Y-77.467
X-77.459 Y-77.982
X-76.364 Y-78.438
X-75.245 Y-78.835
X-74.106 Y-79.17
X-72.95 Y-79.443
X-71.78 Y-79.654
X-70.598 Y-79.801
X-69.409 Y-79.883
X-68.215 Y-79.901
X-67.02 Y-79.855
X-65.825 Y-79.743
X-64.635 Y-79.566
X-63.453 Y-79.324
X-62.281 Y-79.017
X-61.124 Y-78.647
X-59.984 Y-78.212
X-58.865 Y-77.714
X-57.771 Y-77.154
X-56.705 Y-76.533
X-55.67 Y-75.854
X-54.671 Y-75.116
X-53.71 Y-74.324
X-52.791 Y-73.478
X-51.918 Y-72.582
X-51.093 Y-71.638
X-50.319 Y-70.65
X-49.6 Y-69.621
X-48.937 Y-68.553
X-48.333 Y-67.451
X-47.79 Y-66.318
X-47.309 Y-65.158
X-46.892 Y-63.974
X-46.54 Y-62.771
X-46.254 Y-61.551
X-46.034 Y-60.319
X-45.882 Y-59.078
X-45.798 Y-57.832
X-45.781 Y-56.584
X-45.832 Y-55.339
X-45.95 Y-54.099
X-46.136 Y-52.868
X-46.387 Y-51.65
X-46.704 Y-50.447
X-47.086 Y-49.264
X-47.531 Y-48.103
X-48.038 Y-46.968
X-48.606 Y-45.862
X-49.234 Y-44.788
X-49.919 Y-43.749
X-50.66 Y-42.748
X-51.455 Y-41.788
X-52.302 Y-40.871
X-53.198 Y-40.001
X-54.142 Y-39.179
X-55.13 Y-38.409
X-56.159 Y-37.692
X-57.228 Y-37.031
X-58.332 Y-36.428
X-59.47 Y-35.885
X-60.637 Y-35.404
X-61.831 Y-34.985
X-63.049 Y-34.632
X-64.286 Y-34.344
X-65.539 Y-34.123
X-66.804 Y-33.97
X-68.079 Y-33.886
X-69.358 Y-33.872
X-70.639 Y-33.926
X-71.917 Y-34.05
X-73.189 Y-34.244
X-74.45 Y-34.506
X-75.698 Y-34.838
X-76.928 Y-35.237
X-78.136 Y-35.702
X-79.319 Y-36.234
X-80.473 Y-36.829
X-81.595 Y-37.488
X-82.681 Y-38.207
X-83.728 Y-38.984
X-84.732 Y-39.819
X-85.69 Y-40.707
X-86.601 Y-41.648
X-87.459 Y-42.637
X-88.264 Y-43.672
X-89.012 Y-44.751
X-89.701 Y-45.869
X-90.328 Y-47.024
X-90.893 Y-48.212
X-91.393 Y-49.43
X-91.827 Y-50.675
X-92.192 Y-51.941
X-92.489 Y-53.227
X-92.715 Y-54.527
X-92.871 Y-55.838
X-92.956 Y-57.157
X-92.969 Y-58.478
X-92.91 Y-59.799
X-92.78 Y-61.116
X-92.579 Y-62.424
X-92.307 Y-63.719
X-91.965 Y-64.998
X-91.554 Y-66.258
X-91.075 Y-67.493
X-90.53 Y-68.701
X-89.92 Y-69.878
X-89.247 Y-71.02
X-88.513 Y-72.124
X-87.72 Y-73.188
X-86.87 Y-74.206
X-85.967 Y-75.178
X-85.012 Y-76.099
X-84.008 Y-76.967
X-82.959 Y-77.779
X-81.867 Y-78.534
X-80.735 Y-79.228
X-79.568 Y-79.86
X-78.367 Y-80.428
X-77.138 Y-80.93
X-75.882 Y-81.365
X-74.604 Y-81.732
X-73.307 Y-82.029
X-71.995 Y-82.255
X-70.671 Y-82.41
X-69.338 Y-82.493
X-68 Y-82.504
X-66.661 Y-82.442
X-65.326 Y-82.308
X-64 Y-82.101
X-62.687 Y-81.824
X-61.39 Y-81.475
X-60.115 Y-81.058
X-58.863 Y-80.573
X-57.639 Y-80.023
X-56.446 Y-79.407
X-55.288 Y-78.73
X-54.166 Y-77.992
X-53.086 Y-77.197
X-52.048 Y-76.345
X-51.056 Y-75.441
X-50.113 Y-74.486
X-49.222 Y-73.483
X-48.383 Y-72.435
X-47.6 Y-71.344
X-46.876 Y-70.215
X-46.21 Y-69.049
X-45.606 Y-67.85
X-45.066 Y-66.622
X-44.59 Y-65.367
X-44.18 Y-64.089
X-43.838 Y-62.791
X-43.564 Y-61.477
X-43.36 Y-60.151
X-43.225 Y-58.815
X-43.161 Y-57.475
X-43.167 Y-56.133
X-43.243 Y-54.793
X-43.39 Y-53.458
X-43.606 Y-52.134
X-43.891 Y-50.822
X-44.244 Y-49.528
X-44.665 Y-48.253
X-45.153 Y-47.003
X-45.705 Y-45.779
X-46.32 Y-44.587
X-46.998 Y-43.428
X-47.735 Y-42.306
X-48.529 Y-41.225
X-49.379 Y-40.186
X-50.283 Y-39.193
X-51.237 Y-38.249
X-52.238 Y-37.356
X-53.285 Y-36.516
X-54.375 Y-35.732
X-55.503 Y-35.005
X-56.668 Y-34.338
X-57.865 Y-33.733
X-59.093 Y-33.19
X-60.347 Y-32.712
X-61.624 Y-32.3
X-62.921 Y-31.954
X-64.234 Y-31.676
X-65.56 Y-31.467
X-66.895 Y-31.325
X-68.235 Y-31.253
X-69.577 Y-31.249
X-70.918 Y-31.313
X-72.253 Y-31.445
X-73.581 Y-31.645
X-74.896 Y-31.912
X-76.196 Y-32.246
X-77.478 Y-32.644
X-78.738 Y-33.107
X-79.973 Y-33.632
X-81.179 Y-34.22
X-82.355 Y-34.868
X-83.495 Y-35.575
X-84.599 Y-36.339
X-85.662 Y-37.158
X-86.683 Y-38.03
X-87.659 Y-38.951
X-88.588 Y-39.92
X-89.467 Y-40.934
X-90.294 Y-41.99
X-91.069 Y-43.087
X-91.787 Y-44.22
X-92.449 Y-45.388
X-93.051 Y-46.587
X-93.592 Y-47.816
X-94.071 Y-49.07
X-94.485 Y-50.346
X-94.836 Y-51.642
X-95.122 Y-52.953
X-95.342 Y-54.277
X-95.497 Y-55.61
X-95.585 Y-56.95
X-95.607 Y-58.291
X-95.564 Y-59.633
X-95.454 Y-60.971
X-95.277 Y-62.301
X-95.034 Y-63.621
X-94.725 Y-64.927
X-94.352 Y-66.216
X-93.914 Y-67.485
X-93.415 Y-68.731
X-92.854 Y-69.95
X-92.234 Y-71.141
X-91.556 Y-72.299
X-90.823 Y-73.423
X-90.034 Y-74.509
X-89.194 Y-75.555
X-88.302 Y-76.558
X-87.36 Y-77.515
X-86.373 Y-78.424
X-85.341 Y-79.282
X-84.268 Y-80.088
X-83.156 Y-80.841
X-82.009 Y-81.537
X-80.829 Y-82.177
X-79.619 Y-82.758
X-78.382 Y-83.279
X-77.121 Y-83.738
X-75.839 Y-84.134
X-74.538 Y-84.466
X-73.223 Y-84.732
X-71.896 Y-84.933
X-70.56 Y-85.068
X-69.22 Y-85.137
X-67.878 Y-85.141
X-66.537 Y-85.079
X-65.201 Y-84.953
X-63.873 Y-84.762
X-62.555 Y-84.506
X-61.251 Y-84.186
X-59.965 Y-83.803
X-58.7 Y-83.356
X-57.457 Y-82.849
X-56.24 Y-82.283
X-55.052 Y-81.659
X-53.894 Y-80.979
X-52.771 Y-80.245
X-51.683 Y-79.459
X-50.634 Y-78.622
X-49.625 Y-77.737
X-48.661 Y-76.803
X-47.742 Y-75.825
X-46.871 Y-74.804
X-46.049 Y-73.743
X-45.278 Y-72.644
X-44.56 Y-71.51
X-43.896 Y-70.344
X-43.287 Y-69.148
X-42.735 Y-67.924
X-42.241 Y-66.677
X-41.806 Y-65.407
X-41.433 Y-64.117
X-41.123 Y-62.812
X-40.875 Y-61.492
X-40.691 Y-60.163
X-40.569 Y-58.826
X-40.511 Y-57.486
X-40.516 Y-56.143
X-40.584 Y-54.803
X-40.715 Y-53.467
X-40.909 Y-52.139
X-41.166 Y-50.822
X-41.487 Y-49.519
X-41.87 Y-48.232
X-42.314 Y-46.966
X-42.817 Y-45.722
X-43.379 Y-44.503
X-43.998 Y-43.312
X-44.672 Y-42.151
X-45.4 Y-41.023
X-46.18 Y-39.931
X-47.011 Y-38.877
X-47.891 Y-37.864
X-48.82 Y-36.895
X-49.793 Y-35.971
X-50.809 Y-35.094
X-51.865 Y-34.266
X-52.959 Y-33.488
X-54.088 Y-32.762
X-55.25 Y-32.09
X-56.442 Y-31.473
X-57.661 Y-30.913
X-58.906 Y-30.41
X-60.173 Y-29.968
X-61.46 Y-29.586
X-62.763 Y-29.266
X-64.08 Y-29.007
X-65.408 Y-28.81
X-66.743 Y-28.674
X-68.083 Y-28.601
X-69.425 Y-28.589
X-70.766 Y-28.639
X-72.104 Y-28.75
X-73.435 Y-28.924
X-74.756 Y-29.159
X-76.065 Y-29.455
X-77.359 Y-29.812
X-78.635 Y-30.228
X-79.891 Y-30.703
X-81.123 Y-31.234
X-82.33 Y-31.821
X-83.508 Y-32.463
X-84.657 Y-33.158
X-85.772 Y-33.905
X-86.852 Y-34.702
X-87.893 Y-35.549
X-88.895 Y-36.442
X-89.854 Y-37.381
X-90.77 Y-38.362
X-91.64 Y-39.384
X-92.464 Y-40.444
X-93.238 Y-41.54
X-93.963 Y-42.669
X-94.636 Y-43.831
X-95.255 Y-45.021
X-95.82 Y-46.239
X-96.327 Y-47.482
X-96.777 Y-48.746
X-97.168 Y-50.03
X-97.501 Y-51.33
X-97.775 Y-52.644
X-97.99 Y-53.969
X-98.144 Y-55.302
X-98.24 Y-56.641
X-98.275 Y-57.983
X-98.25 Y-59.325
X-98.165 Y-60.664
X-98.018 Y-61.998
X-97.81 Y-63.324
X-97.541 Y-64.639
X-97.213 Y-65.94
X-96.827 Y-67.226
X-96.383 Y-68.492
X-95.883 Y-69.738
X-95.327 Y-70.96
X-94.718 Y-72.156
X-94.057 Y-73.323
X-93.343 Y-74.46
X-92.579 Y-75.564
X-91.765 Y-76.631
X-90.903 Y-77.659
X-89.995 Y-78.648
X-89.043 Y-79.594
X-88.05 Y-80.497
X-87.017 Y-81.354
X-85.947 Y-82.164
X-84.842 Y-82.926
X-83.704 Y-83.637
X-82.535 Y-84.298
X-81.338 Y-84.904
X-80.115 Y-85.456
X-78.867 Y-85.951
X-77.599 Y-86.39
X-76.312 Y-86.77
X-75.009 Y-87.092
X-73.693 Y-87.356
X-72.366 Y-87.56
X-71.032 Y-87.705
X-69.692 Y-87.791
X-68.351 Y-87.818
X-67.009 Y-87.784
X-65.67 Y-87.691
X-64.337 Y-87.537
X-63.012 Y-87.323
X-61.697 Y-87.05
X-60.397 Y-86.72
X-59.112 Y-86.332
X-57.845 Y-85.888
X-56.599 Y-85.389
X-55.376 Y-84.836
X-54.179 Y-84.23
X-53.008 Y-83.573
X-51.868 Y-82.865
X-50.76 Y-82.108
X-49.686 Y-81.302
X-48.649 Y-80.451
X-47.65 Y-79.554
X-46.691 Y-78.616
X-45.773 Y-77.637
X-44.898 Y-76.619
X-44.068 Y-75.564
X-43.283 Y-74.475
X-42.546 Y-73.354
X-41.858 Y-72.201
X-41.221 Y-71.02
X-40.636 Y-69.812
X-40.104 Y-68.58
X-39.626 Y-67.326
X-39.203 Y-66.052
X-38.835 Y-64.761
X-38.524 Y-63.455
X-38.27 Y-62.138
X-38.072 Y-60.81
X-37.931 Y-59.475
X-37.848 Y-58.136
X-37.824 Y-56.794
X-37.858 Y-55.452
X-37.95 Y-54.113
X-38.101 Y-52.78
X-38.31 Y-51.454
X-38.577 Y-50.138
X-38.9 Y-48.836
X-39.279 Y-47.548
X-39.714 Y-46.278
X-40.203 Y-45.028
X-40.744 Y-43.8
X-41.339 Y-42.597
X-41.985 Y-41.421
X-42.683 Y-40.274
X-43.429 Y-39.159
X-44.224 Y-38.077
X-45.064 Y-37.031
X-45.949 Y-36.022
X-46.877 Y-35.052
X-47.846 Y-34.123
X-48.854 Y-33.237
X-49.898 Y-32.394
X-50.978 Y-31.597
X-52.091 Y-30.847
X-53.236 Y-30.146
X-54.41 Y-29.496
X-55.611 Y-28.897
X-56.837 Y-28.35
X-58.085 Y-27.857
X-59.354 Y-27.418
X-60.64 Y-27.034
X-61.941 Y-26.705
X-63.255 Y-26.431
X-64.579 Y-26.214
X-65.912 Y-26.053
X-67.25 Y-25.948
X-68.591 Y-25.902
X-69.933 Y-25.913
X-71.274 Y-25.98
X-72.61 Y-26.105
X-73.94 Y-26.286
X-75.261 Y-26.524
X-76.571 Y-26.816
X-77.867 Y-27.164
X-79.148 Y-27.565
X-80.411 Y-28.02
X-81.653 Y-28.527
X-82.873 Y-29.086
X-84.068 Y-29.697
X-85.236 Y-30.358
X-86.376 Y-31.068
X-87.484 Y-31.825
X-88.559 Y-32.628
X-89.6 Y-33.475
X-90.605 Y-34.365
X-91.572 Y-35.296
X-92.499 Y-36.266
X-93.386 Y-37.274
X-94.23 Y-38.317
X-95.029 Y-39.395
X-95.783 Y-40.506
X-96.489 Y-41.647
X-97.147 Y-42.817
X-97.755 Y-44.014
X-98.313 Y-45.234
X-98.82 Y-46.477
X-99.274 Y-47.74
X-99.676 Y-49.021
X-100.024 Y-50.317
X-100.319 Y-51.626
X-100.56 Y-52.947
X-100.745 Y-54.276
X-100.875 Y-55.612
X-100.949 Y-56.952
X-100.968 Y-58.294
X-100.93 Y-59.636
X-100.837 Y-60.974
X-100.688 Y-62.308
X-100.484 Y-63.635
X-100.226 Y-64.952
X-99.913 Y-66.257
X-99.547 Y-67.549
X-99.128 Y-68.824
X-98.657 Y-70.08
X-98.133 Y-71.316
X-97.559 Y-72.529
X-96.936 Y-73.718
X-96.263 Y-74.879
X-95.543 Y-76.012
X-94.777 Y-77.114
X-93.966 Y-78.183
X-93.111 Y-79.218
X-92.214 Y-80.217
X-91.278 Y-81.178
X-90.302 Y-82.1
X-89.289 Y-82.98
X-88.24 Y-83.817
X-87.157 Y-84.611
X-86.043 Y-85.358
X-84.899 Y-86.06
X-83.726 Y-86.713
X-82.528 Y-87.318
X-81.306 Y-87.872
X-80.062 Y-88.376
X-78.798 Y-88.828
X-77.517 Y-89.228
X-76.22 Y-89.575
X-74.91 Y-89.868
X-73.59 Y-90.106
X-72.26 Y-90.29
X-70.924 Y-90.418
X-69.584 Y-90.492
X-68.242 Y-90.511
X-66.9 Y-90.475
X-65.561 Y-90.384
X-64.227 Y-90.238
X-62.9 Y-90.039
X-61.582 Y-89.785
X-60.275 Y-89.478
X-58.982 Y-89.119
X-57.705 Y-88.706
X-56.446 Y-88.242
X-55.206 Y-87.727
X-53.988 Y-87.163
X-52.794 Y-86.55
X-51.626 Y-85.89
X-50.485 Y-85.183
X-49.373 Y-84.431
X-48.292 Y-83.635
X-47.244 Y-82.797
X-46.23 Y-81.918
X-45.252 Y-80.999
X-44.311 Y-80.041
X-43.41 Y-79.047
X-42.549 Y-78.017
X-41.73 Y-76.953
X-40.954 Y-75.859
X-40.222 Y-74.734
X-39.535 Y-73.581
X-38.895 Y-72.401
X-38.301 Y-71.197
X-37.756 Y-69.971
X-37.26 Y-68.724
X-36.814 Y-67.458
X-36.419 Y-66.175
X-36.076 Y-64.878
X-35.785 Y-63.567
X-35.547 Y-62.246
X-35.361 Y-60.917
X-35.229 Y-59.582
X-35.149 Y-58.242
X-35.123 Y-56.9
X-35.151 Y-55.558
X-35.232 Y-54.218
X-35.366 Y-52.883
X-35.552 Y-51.554
X-35.792 Y-50.233
X-36.085 Y-48.923
X-36.431 Y-47.627
X-36.828 Y-46.344
X-37.276 Y-45.079
X-37.773 Y-43.833
X-38.32 Y-42.607
X-38.916 Y-41.404
X-39.558 Y-40.226
X-40.247 Y-39.074
X-40.981 Y-37.951
X-41.76 Y-36.857
X-42.581 Y-35.795
X-43.443 Y-34.767
X-44.347 Y-33.775
X-45.29 Y-32.819
X-46.269 Y-31.902
X-47.284 Y-31.024
X-48.334 Y-30.187
X-49.415 Y-29.392
X-50.527 Y-28.641
X-51.668 Y-27.934
X-52.836 Y-27.273
X-54.03 Y-26.659
X-55.246 Y-26.092
X-56.484 Y-25.574
X-57.742 Y-25.105
X-59.018 Y-24.688
X-60.309 Y-24.321
X-61.613 Y-24.005
X-62.929 Y-23.74
X-64.254 Y-23.528
X-65.587 Y-23.367
X-66.924 Y-23.259
X-68.265 Y-23.203
X-69.608 Y-23.199
X-70.949 Y-23.248
X-72.287 Y-23.349
X-73.621 Y-23.502
X-74.947 Y-23.707
X-76.264 Y-23.965
X-77.57 Y-24.274
X-78.864 Y-24.633
X-80.142 Y-25.042
X-81.403 Y-25.5
X-82.646 Y-26.007
X-83.868 Y-26.562
X-85.068 Y-27.163
X-86.244 Y-27.811
X-87.393 Y-28.503
X-88.516 Y-29.239
X-89.608 Y-30.019
X-90.67 Y-30.84
X-91.698 Y-31.703
X-92.693 Y-32.604
X-93.652 Y-33.543
X-94.574 Y-34.517
X-95.459 Y-35.527
X-96.304 Y-36.57
X-97.108 Y-37.644
X-97.871 Y-38.749
X-98.59 Y-39.882
X-99.266 Y-41.041
X-99.897 Y-42.226
X-100.481 Y-43.434
X-101.018 Y-44.664
X-101.507 Y-45.914
X-101.947 Y-47.182
X-102.339 Y-48.466
X-102.681 Y-49.764
X-102.974 Y-51.073
X-103.217 Y-52.394
X-103.409 Y-53.722
X-103.55 Y-55.057
X-103.64 Y-56.396
X-103.679 Y-57.737
X-103.667 Y-59.079
X-103.603 Y-60.42
X-103.487 Y-61.757
X-103.32 Y-63.089
X-103.102 Y-64.413
X-102.833 Y-65.728
X-102.515 Y-67.032
X-102.147 Y-68.323
X-101.73 Y-69.598
X-101.265 Y-70.858
X-100.753 Y-72.098
X-100.194 Y-73.318
X-99.589 Y-74.516
X-98.938 Y-75.69
X-98.243 Y-76.838
X-97.504 Y-77.959
X-96.723 Y-79.05
X-95.9 Y-80.11
X-95.038 Y-81.139
X-94.137 Y-82.134
X-93.198 Y-83.093
X-92.224 Y-84.017
X-91.216 Y-84.903
X-90.175 Y-85.749
X-89.102 Y-86.556
X-88 Y-87.322
X-86.869 Y-88.045
X-85.711 Y-88.724
X-84.528 Y-89.357
X-83.322 Y-89.945
X-82.094 Y-90.487
X-80.846 Y-90.981
X-79.58 Y-91.428
X-78.299 Y-91.826
X-77.003 Y-92.176
X-75.694 Y-92.476
X-74.376 Y-92.726
X-73.049 Y-92.926
X-71.715 Y-93.076
X-70.376 Y-93.176
X-69.035 Y-93.224
X-67.693 Y-93.221
X-66.352 Y-93.166
X-65.014 Y-93.061
X-63.681 Y-92.906
X-62.354 Y-92.701
X-61.037 Y-92.446
X-59.73 Y-92.141
X-58.435 Y-91.788
X-57.154 Y-91.387
X-55.889 Y-90.938
X-54.642 Y-90.443
X-53.414 Y-89.901
X-52.207 Y-89.314
X-51.023 Y-88.682
X-49.863 Y-88.006
X-48.73 Y-87.287
X-47.624 Y-86.526
X-46.547 Y-85.725
X-45.5 Y-84.885
X-44.485 Y-84.007
X-43.504 Y-83.092
X-42.556 Y-82.142
X-41.644 Y-81.157
X-40.769 Y-80.14
X-39.931 Y-79.091
X-39.133 Y-78.012
X-38.376 Y-76.904
X-37.66 Y-75.768
X-36.987 Y-74.607
X-36.357 Y-73.422
X-35.771 Y-72.214
X-35.23 Y-70.986
X-34.734 Y-69.739
X-34.285 Y-68.474
X-33.882 Y-67.194
X-33.527 Y-65.9
X-33.219 Y-64.593
X-32.96 Y-63.276
X-32.749 Y-61.951
X-32.587 Y-60.618
X-32.476 Y-59.281
X-32.414 Y-57.94
X-32.401 Y-56.598
X-32.439 Y-55.256
X-32.525 Y-53.917
X-32.661 Y-52.582
X-32.846 Y-51.252
X-33.079 Y-49.931
X-33.362 Y-48.619
X-33.692 Y-47.318
X-34.069 Y-46.03
X-34.494 Y-44.757
X-34.966 Y-43.5
X-35.484 Y-42.262
X-36.048 Y-41.044
X-36.657 Y-39.848
X-37.309 Y-38.675
X-38.004 Y-37.527
X-38.741 Y-36.405
X-39.518 Y-35.311
X-40.336 Y-34.246
X-41.191 Y-33.212
X-42.084 Y-32.21
X-43.014 Y-31.242
X-43.978 Y-30.308
X-44.975 Y-29.41
X-46.005 Y-28.55
X-47.067 Y-27.729
X-48.158 Y-26.947
X-49.277 Y-26.206
X-50.423 Y-25.507
X-51.593 Y-24.85
X-52.787 Y-24.236
X-54.002 Y-23.666
X-55.237 Y-23.141
X-56.491 Y-22.662
X-57.761 Y-22.228
X-59.046 Y-21.841
X-60.344 Y-21.501
X-61.654 Y-21.209
X-62.974 Y-20.965
X-64.302 Y-20.77
X-65.636 Y-20.623
X-66.975 Y-20.525
X-68.316 Y-20.475
X-69.658 Y-20.474
X-70.999 Y-20.521
X-72.338 Y-20.617
X-73.672 Y-20.761
X-75.001 Y-20.953
X-76.321 Y-21.192
X-77.633 Y-21.479
X-78.932 Y-21.813
X-80.219 Y-22.194
X-81.492 Y-22.622
X-82.747 Y-23.095
X-83.985 Y-23.614
X-85.204 Y-24.176
X-86.402 Y-24.782
X-87.577 Y-25.43
X-88.728 Y-26.121
X-89.853 Y-26.852
X-90.952 Y-27.622
X-92.023 Y-28.432
X-93.064 Y-29.279
X-94.074 Y-30.163
X-95.052 Y-31.082
X-95.996 Y-32.036
X-96.905 Y-33.023
X-97.778 Y-34.043
X-98.614 Y-35.093
X-99.412 Y-36.172
X-100.172 Y-37.278
X-100.891 Y-38.411
X-101.57 Y-39.569
X-102.207 Y-40.751
X-102.801 Y-41.954
X-103.353 Y-43.178
X-103.86 Y-44.42
X-104.324 Y-45.68
X-104.742 Y-46.955
X-105.114 Y-48.245
X-105.439 Y-49.547
X-105.718 Y-50.86
X-105.95 Y-52.182
X-106.135 Y-53.511
X-106.273 Y-54.846
X-106.364 Y-56.185
X-106.407 Y-57.526
X-106.403 Y-58.869
X-106.351 Y-60.21
X-106.252 Y-61.548
X-106.105 Y-62.882
X-105.911 Y-64.21
X-105.67 Y-65.531
X-105.382 Y-66.841
X-105.047 Y-68.141
X-104.666 Y-69.428
X-104.24 Y-70.701
X-103.769 Y-71.958
X-103.254 Y-73.197
X-102.696 Y-74.418
X-102.095 Y-75.618
X-101.452 Y-76.796
X-100.767 Y-77.95
X-100.043 Y-79.08
X-99.279 Y-80.184
X-98.476 Y-81.259
X-97.635 Y-82.306
X-96.758 Y-83.321
X-95.845 Y-84.305
X-94.897 Y-85.255
X-93.917 Y-86.172
X-92.905 Y-87.053
X-91.862 Y-87.899
X-90.79 Y-88.707
X-89.691 Y-89.476
X-88.565 Y-90.207
X-87.414 Y-90.897
X-86.239 Y-91.546
X-85.042 Y-92.153
X-83.825 Y-92.718
X-82.588 Y-93.239
X-81.333 Y-93.715
X-80.062 Y-94.147
X-78.777 Y-94.533
X-77.478 Y-94.874
X-76.169 Y-95.169
X-74.85 Y-95.417
X-73.523 Y-95.62
X-72.19 Y-95.776
X-70.853 Y-95.884
X-69.512 Y-95.946
X-68.17 Y-95.96
X-66.828 Y-95.928
X-65.488 Y-95.849
X-64.152 Y-95.722
X-62.821 Y-95.548
X-61.497 Y-95.327
X-60.182 Y-95.06
X-58.877 Y-94.747
X-57.583 Y-94.39
X-56.303 Y-93.987
X-55.037 Y-93.541
X-53.788 Y-93.05
X-52.556 Y-92.517
X-51.343 Y-91.942
X-50.151 Y-91.325
X-48.982 Y-90.667
X-47.835 Y-89.969
X-46.713 Y-89.232
X-45.618 Y-88.457
X-44.551 Y-87.643
X-43.512 Y-86.793
X-42.503 Y-85.908
X-41.525 Y-84.989
X-40.578 Y-84.037
X-39.665 Y-83.054
X-38.786 Y-82.039
X-37.943 Y-80.996
X-37.135 Y-79.924
X-36.365 Y-78.824
X-35.632 Y-77.7
X-34.939 Y-76.551
X-34.285 Y-75.378
X-33.673 Y-74.184
X-33.102 Y-72.969
X-32.573 Y-71.736
X-32.087 Y-70.485
X-31.644 Y-69.218
X-31.245 Y-67.937
X-30.889 Y-66.642
X-30.578 Y-65.337
X-30.311 Y-64.021
X-30.09 Y-62.698
X-29.914 Y-61.367
X-29.784 Y-60.031
X-29.699 Y-58.692
X-29.661 Y-57.35
X-29.669 Y-56.008
X-29.724 Y-54.667
X-29.825 Y-53.329
X-29.972 Y-51.994
X-30.164 Y-50.666
X-30.402 Y-49.345
X-30.685 Y-48.033
X-31.012 Y-46.732
X-31.384 Y-45.442
X-31.8 Y-44.166
X-32.259 Y-42.905
X-32.761 Y-41.66
X-33.305 Y-40.433
X-33.891 Y-39.226
X-34.519 Y-38.039
X-35.187 Y-36.875
X-35.895 Y-35.735
X-36.642 Y-34.62
X-37.426 Y-33.531
X-38.248 Y-32.469
X-39.105 Y-31.436
X-39.996 Y-30.433
X-40.922 Y-29.461
X-41.879 Y-28.521
X-42.869 Y-27.614
X-43.889 Y-26.741
X-44.938 Y-25.904
X-46.015 Y-25.103
X-47.118 Y-24.34
X-48.248 Y-23.615
X-49.402 Y-22.929
X-50.578 Y-22.283
X-51.776 Y-21.678
X-52.994 Y-21.114
X-54.23 Y-20.591
X-55.484 Y-20.111
X-55.717 Y-20.03
X-56.069 Y-19.931
X-56.429 Y-19.87
X-56.793 Y-19.85
X-78.005
X-79.243 Y-19.912
X-80.071 Y-19.999
X-81.031 Y-20.152
X-82.119 Y-20.387
X-83.329 Y-20.718
X-84.603 Y-21.142
X-85.853 Y-21.631
X-87.078 Y-22.177
X-88.28 Y-22.776
X-89.456 Y-23.422
X-90.606 Y-24.114
X-91.73 Y-24.848
X-92.826 Y-25.621
X-93.895 Y-26.433
X-94.935 Y-27.282
X-95.945 Y-28.166
X-96.924 Y-29.084
X-97.872 Y-30.034
X-98.787 Y-31.016
X-99.669 Y-32.028
X-100.516 Y-33.069
X-101.329 Y-34.137
X-102.105 Y-35.232
X-102.845 Y-36.352
X-103.547 Y-37.495
X-104.21 Y-38.662
X-104.834 Y-39.851
X-105.418 Y-41.059
X-105.961 Y-42.287
X-106.463 Y-43.531
X-106.923 Y-44.792
X-107.342 Y-46.067
X-107.718 Y-47.356
X-108.051 Y-48.656
X-108.341 Y-49.966
X-108.587 Y-51.286
X-108.79 Y-52.612
X-108.95 Y-53.945
X-109.065 Y-55.282
X-109.136 Y-56.623
X-109.162 Y-57.964
X-109.143 Y-59.306
X-109.079 Y-60.647
X-108.972 Y-61.985
X-108.82 Y-63.318
X-108.624 Y-64.646
X-108.384 Y-65.967
X-108.1 Y-67.279
X-107.774 Y-68.58
X-107.405 Y-69.871
X-106.993 Y-71.148
X-106.54 Y-72.412
X-106.046 Y-73.66
X-105.511 Y-74.89
X-104.935 Y-76.103
X-104.319 Y-77.295
X-103.664 Y-78.467
X-102.97 Y-79.616
X-102.239 Y-80.741
X-101.471 Y-81.842
X-100.667 Y-82.917
X-99.828 Y-83.964
X-98.955 Y-84.984
X-98.049 Y-85.974
X-97.111 Y-86.933
X-96.141 Y-87.862
X-95.142 Y-88.758
X-94.114 Y-89.621
X-93.058 Y-90.449
X-91.976 Y-91.242
X-90.867 Y-91.999
X-89.734 Y-92.718
X-88.578 Y-93.4
X-87.4 Y-94.043
X-86.201 Y-94.647
X-84.983 Y-95.21
X-83.747 Y-95.734
X-83.239 Y-95.929
X-82.854 Y-96.051
X-82.456 Y-96.125
X-82.053 Y-96.15
X-58.235
X-56.926 Y-96.084
X-56.157 Y-96.004
X-55.276 Y-95.863
X-54.264 Y-95.645
X-53.125 Y-95.333
X-51.863 Y-94.913
X-50.614 Y-94.421
X-49.391 Y-93.87
X-48.193 Y-93.265
X-47.02 Y-92.612
X-45.873 Y-91.914
X-44.753 Y-91.175
X-43.661 Y-90.395
X-42.595 Y-89.579
X-41.559 Y-88.727
X-40.551 Y-87.84
X-39.573 Y-86.921
X-38.625 Y-85.971
X-37.709 Y-84.99
X-36.824 Y-83.98
X-35.973 Y-82.943
X-35.155 Y-81.879
X-34.372 Y-80.789
X-33.624 Y-79.674
X-32.912 Y-78.537
X-32.237 Y-77.376
X-31.6 Y-76.195
X-31.002 Y-74.994
X-30.443 Y-73.773
X-29.924 Y-72.536
X-29.444 Y-71.282
X-29.005 Y-70.014
X-28.606 Y-68.732
X-28.249 Y-67.439
X-27.933 Y-66.134
X-27.658 Y-64.82
X-27.426 Y-63.499
X-27.236 Y-62.17
X-27.088 Y-60.836
X-26.983 Y-59.498
X-26.921 Y-58.157
X-26.902 Y-56.815
X-26.927 Y-55.473
X-26.996 Y-54.133
X-27.107 Y-52.795
X-27.262 Y-51.462
X-27.459 Y-50.135
X-27.698 Y-48.814
X-27.98 Y-47.502
X-28.303 Y-46.199
X-28.668 Y-44.907
X-29.073 Y-43.628
X-29.519 Y-42.362
X-30.005 Y-41.111
X-30.531 Y-39.876
X-31.096 Y-38.659
X-31.7 Y-37.46
X-32.343 Y-36.282
X-33.024 Y-35.125
X-33.741 Y-33.991
X-34.495 Y-32.88
X-35.284 Y-31.795
X-36.107 Y-30.734
X-36.963 Y-29.701
X-37.852 Y-28.695
X-38.772 Y-27.718
X-39.723 Y-26.771
X-40.703 Y-25.854
X-41.712 Y-24.969
X-42.749 Y-24.117
X-43.812 Y-23.298
X-44.901 Y-22.513
X-46.015 Y-21.765
X-47.153 Y-21.052
X-48.313 Y-20.377
X-48.554 Y-20.247
X-48.924 Y-20.075
X-49.313 Y-19.951
X-49.715 Y-19.875
X-50.122 Y-19.85
X-56.793
G3 X-57.276 Y-19.964 I0.044 J-1.269
G1 X-57.405 Y-20.023 Z36.018
X-57.533 Y-20.081 Z36.042
X-57.657 Y-20.138 Z36.081
X-57.777 Y-20.192 Z36.136
X-57.891 Y-20.244 Z36.205
X-57.996 Y-20.292 Z36.287
X-58.093 Y-20.336 Z36.382
X-58.179 Y-20.375 Z36.488
X-58.254 Y-20.41 Z36.604
X-58.317 Y-20.438 Z36.729
X-58.367 Y-20.461 Z36.861
X-58.402 Y-20.477 Z36.997
X-58.424 Y-20.487 Z37.138
X-58.431 Y-20.49 Z37.28
G0 Z53
X-59.805 Y-95.36
Z38.55
G1 Z37.28 F850
X-59.798 Y-95.364 Z37.138
X-59.778 Y-95.377 Z36.997
X-59.744 Y-95.397 Z36.861
X-59.697 Y-95.425 Z36.729
X-59.638 Y-95.46 Z36.604
X-59.567 Y-95.502 Z36.488
X-59.485 Y-95.551 Z36.382
X-59.394 Y-95.605 Z36.287
X-59.294 Y-95.664 Z36.205
X-59.187 Y-95.728 Z36.136
X-59.074 Y-95.795 Z36.081
X-58.956 Y-95.865 Z36.042
X-58.836 Y-95.937 Z36.018
X-58.713 Y-96.009 Z36.01
G3 X-58.235 Y-96.15 I0.514 J0.864
G1 X-51.772
X-50.939 Y-96.108
X-50.415 Y-96.054
X-49.786 Y-95.953
X-49.116 Y-95.808
X-48.334 Y-95.594
X-47.45 Y-95.3
X-46.492 Y-94.923
X-45.413 Y-94.428
X-44.225 Y-93.804
X-43.072 Y-93.117
X-41.953 Y-92.376
X-40.866 Y-91.588
X-39.812 Y-90.757
X-38.789 Y-89.889
X-37.796 Y-88.985
X-36.835 Y-88.048
X-35.906 Y-87.08
X-35.007 Y-86.083
X-34.14 Y-85.058
X-33.306 Y-84.007
X-32.504 Y-82.931
X-31.735 Y-81.831
X-31.001 Y-80.708
X-30.301 Y-79.562
X-29.637 Y-78.396
X-29.009 Y-77.209
X-28.418 Y-76.005
X-27.863 Y-74.782
X-27.346 Y-73.544
X-26.865 Y-72.291
X-26.423 Y-71.024
X-26.019 Y-69.744
X-25.653 Y-68.453
X-25.325 Y-67.151
X-25.037 Y-65.84
X-24.788 Y-64.521
X-24.578 Y-63.196
X-24.408 Y-61.864
X-24.278 Y-60.528
X-24.189 Y-59.189
X-24.141 Y-57.848
X-24.134 Y-56.506
X-24.167 Y-55.164
X-24.241 Y-53.824
X-24.356 Y-52.487
X-24.51 Y-51.153
X-24.704 Y-49.825
X-24.938 Y-48.504
X-25.211 Y-47.19
X-25.524 Y-45.884
X-25.875 Y-44.589
X-26.264 Y-43.305
X-26.692 Y-42.032
X-27.157 Y-40.774
X-27.66 Y-39.529
X-28.201 Y-38.301
X-28.779 Y-37.09
X-29.394 Y-35.896
X-30.044 Y-34.722
X-30.73 Y-33.569
X-31.45 Y-32.436
X-32.204 Y-31.325
X-32.99 Y-30.238
X-33.809 Y-29.174
X-34.659 Y-28.136
X-35.54 Y-27.123
X-36.45 Y-26.137
X-37.389 Y-25.178
X-38.357 Y-24.247
X-39.351 Y-23.346
X-40.372 Y-22.475
X-41.419 Y-21.635
X-42.491 Y-20.828
X-43.019 Y-20.455
X-43.364 Y-20.242
X-43.733 Y-20.072
X-44.12 Y-19.949
X-44.518 Y-19.875
X-44.923 Y-19.85
X-50.122
G3 X-50.605 Y-19.964 I0.044 J-1.269
G1 X-50.734 Y-20.023 Z36.018
X-50.862 Y-20.081 Z36.042
X-50.986 Y-20.138 Z36.081
X-51.106 Y-20.192 Z36.136
X-51.22 Y-20.244 Z36.205
X-51.325 Y-20.292 Z36.287
X-51.422 Y-20.336 Z36.382
X-51.508 Y-20.375 Z36.488
X-51.583 Y-20.41 Z36.604
X-51.646 Y-20.438 Z36.729
X-51.695 Y-20.461 Z36.861
X-51.731 Y-20.477 Z36.997
X-51.753 Y-20.487 Z37.138
X-51.76 Y-20.49 Z37.28
G0 Z53
X-53.342 Y-95.36
Z38.55
G1 Z37.28 F850
X-53.335 Y-95.364 Z37.138
X-53.315 Y-95.377 Z36.997
X-53.281 Y-95.397 Z36.861
X-53.234 Y-95.425 Z36.729
X-53.175 Y-95.46 Z36.604
X-53.104 Y-95.502 Z36.488
X-53.022 Y-95.551 Z36.382
X-52.931 Y-95.605 Z36.287
X-52.831 Y-95.664 Z36.205
X-52.724 Y-95.728 Z36.136
X-52.611 Y-95.795 Z36.081
X-52.493 Y-95.865 Z36.042
X-52.373 Y-95.937 Z36.018
X-52.25 Y-96.009 Z36.01
G3 X-51.772 Y-96.15 I0.514 J0.864
G1 X-46.449
X-46.09 Y-96.132
X-45.624 Y-96.083
X-45.139 Y-96.006
X-44.564 Y-95.882
X-43.951 Y-95.714
X-43.233 Y-95.475
X-42.472 Y-95.175
X-41.609 Y-94.78
X-40.644 Y-94.273
X-39.581 Y-93.638
X-38.467 Y-92.889
X-37.394 Y-92.083
X-36.358 Y-91.229
X-35.359 Y-90.333
X-34.395 Y-89.399
X-33.464 Y-88.433
X-32.566 Y-87.435
X-31.702 Y-86.408
X-30.87 Y-85.355
X-30.071 Y-84.276
X-29.306 Y-83.173
X-28.574 Y-82.049
X-27.875 Y-80.903
X-27.211 Y-79.737
X-26.58 Y-78.552
X-25.984 Y-77.349
X-25.422 Y-76.13
X-24.896 Y-74.896
X-24.404 Y-73.647
X-23.949 Y-72.384
X-23.528 Y-71.11
X-23.144 Y-69.824
X-22.797 Y-68.527
X-22.485 Y-67.222
X-22.211 Y-65.908
X-21.974 Y-64.587
X-21.776 Y-63.259
X-21.615 Y-61.927
X-21.492 Y-60.59
X-21.408 Y-59.251
X-21.361 Y-57.91
X-21.353 Y-56.567
X-21.383 Y-55.226
X-21.451 Y-53.885
X-21.556 Y-52.547
X-21.7 Y-51.213
X-21.88 Y-49.883
X-22.098 Y-48.558
X-22.353 Y-47.241
X-22.645 Y-45.931
X-22.974 Y-44.629
X-23.339 Y-43.338
X-23.741 Y-42.057
X-24.179 Y-40.789
X-24.653 Y-39.533
X-25.163 Y-38.292
X-25.708 Y-37.065
X-26.288 Y-35.855
X-26.902 Y-34.661
X-27.549 Y-33.485
X-28.229 Y-32.328
X-28.942 Y-31.191
X-29.687 Y-30.074
X-30.462 Y-28.979
X-31.268 Y-27.906
X-32.104 Y-26.856
X-32.969 Y-25.829
X-33.862 Y-24.827
X-34.783 Y-23.851
X-35.731 Y-22.901
X-36.706 Y-21.979
X-37.707 Y-21.085
X-38.258 Y-20.623
X-38.63 Y-20.352
X-39.037 Y-20.135
X-39.47 Y-19.978
X-39.92 Y-19.882
X-40.38 Y-19.85
X-44.923
G3 X-45.406 Y-19.964 I0.044 J-1.269
G1 X-45.535 Y-20.023 Z36.018
X-45.663 Y-20.081 Z36.042
X-45.788 Y-20.138 Z36.081
X-45.907 Y-20.192 Z36.136
X-46.021 Y-20.244 Z36.205
X-46.126 Y-20.292 Z36.287
X-46.223 Y-20.336 Z36.382
X-46.309 Y-20.375 Z36.488
X-46.384 Y-20.41 Z36.604
X-46.447 Y-20.438 Z36.729
X-46.497 Y-20.461 Z36.861
X-46.532 Y-20.477 Z36.997
X-46.554 Y-20.487 Z37.138
X-46.561 Y-20.49 Z37.28
G0 Z53
X-48.019 Y-95.36
Z38.55
G1 Z37.28 F850
X-48.012 Y-95.364 Z37.138
X-47.992 Y-95.377 Z36.997
X-47.958 Y-95.397 Z36.861
X-47.911 Y-95.425 Z36.729
X-47.852 Y-95.46 Z36.604
X-47.781 Y-95.502 Z36.488
X-47.7 Y-95.551 Z36.382
X-47.608 Y-95.605 Z36.287
X-47.508 Y-95.664 Z36.205
X-47.401 Y-95.728 Z36.136
X-47.288 Y-95.795 Z36.081
X-47.171 Y-95.865 Z36.042
X-47.05 Y-95.937 Z36.018
X-46.928 Y-96.009 Z36.01
G3 X-46.449 Y-96.15 I0.514 J0.864
G1 X-42.267
X-41.73 Y-96.123
X-41.346 Y-96.083
X-40.884 Y-96.009
X-40.405 Y-95.906
X-39.848 Y-95.753
X-39.252 Y-95.555
X-38.564 Y-95.284
X-37.843 Y-94.954
X-37.022 Y-94.522
X-36.111 Y-93.978
X-35.116 Y-93.309
X-34.045 Y-92.5
X-33.018 Y-91.636
X-32.034 Y-90.723
X-31.089 Y-89.77
X-30.181 Y-88.781
X-29.31 Y-87.761
X-28.473 Y-86.711
X-27.671 Y-85.635
X-26.903 Y-84.535
X-26.168 Y-83.412
X-25.466 Y-82.268
X-24.797 Y-81.104
X-24.161 Y-79.922
X-23.558 Y-78.723
X-22.989 Y-77.508
X-22.452 Y-76.277
X-21.95 Y-75.033
X-21.481 Y-73.775
X-21.045 Y-72.506
X-20.644 Y-71.225
X-20.476 Y-70.632
X-20.406 Y-70.336
X-20.364 Y-70.034
X-20.35 Y-69.73
Y-47.714
X-20.417 Y-46.374
X-20.47 Y-45.705
X-20.599 Y-44.56
X-20.821 Y-43.237
X-21.114 Y-41.928
X-21.468 Y-40.633
X-21.875 Y-39.354
X-22.328 Y-38.091
X-22.825 Y-36.844
X-23.361 Y-35.614
X-23.936 Y-34.401
X-24.545 Y-33.205
X-25.189 Y-32.027
X-25.866 Y-30.868
X-26.575 Y-29.729
X-27.315 Y-28.609
X-28.085 Y-27.51
X-28.884 Y-26.431
X-29.712 Y-25.375
X-30.568 Y-24.341
X-31.451 Y-23.33
X-32.36 Y-22.343
X-33.296 Y-21.381
X-33.938 Y-20.766
X-34.259 Y-20.496
X-34.612 Y-20.269
X-34.991 Y-20.088
X-35.389 Y-19.956
X-35.802 Y-19.877
X-36.221 Y-19.85
X-40.38
G3 X-41.373 Y-21.851 I0.044 J-1.269
G1 X-22.657 Y-48.401
G3 X-20.35 Y-47.714 I1.038 J0.732
G1 Y-39.333
X-20.385 Y-38.625
X-20.455 Y-37.956
X-20.581 Y-37.168
X-20.78 Y-36.251
X-21.063 Y-35.213
X-21.461 Y-34.018
X-21.953 Y-32.769
X-22.506 Y-31.546
X-23.11 Y-30.348
X-23.759 Y-29.173
X-24.448 Y-28.021
X-25.174 Y-26.892
X-25.933 Y-25.785
X-26.724 Y-24.701
X-27.545 Y-23.639
X-28.395 Y-22.6
X-29.273 Y-21.585
X-29.958 Y-20.856
X-30.055 Y-20.763
X-30.444 Y-20.445
X-30.877 Y-20.189
X-31.343 Y-20.002
X-31.833 Y-19.888
X-32.334 Y-19.85
X-36.221
G3 X-37.167 Y-21.913 I0.044 J-1.269
G1 X-22.61 Y-40.083
G3 X-20.35 Y-39.333 I0.991 J0.794
G1 Y-33.618
X-20.387 Y-32.873
X-20.442 Y-32.347
X-20.54 Y-31.734
X-20.689 Y-31.046
X-20.902 Y-30.266
X-21.203 Y-29.363
X-21.608 Y-28.334
X-22.141 Y-27.171
X-22.765 Y-25.983
X-23.446 Y-24.826
X-24.176 Y-23.7
X-24.947 Y-22.601
X-25.668 Y-21.655
X-26.197 Y-21.035
X-26.348 Y-20.876
X-26.676 Y-20.575
X-27.042 Y-20.32
X-27.438 Y-20.117
X-27.859 Y-19.97
X-28.295 Y-19.88
X-28.74 Y-19.85
X-32.334
G3 X-33.254 Y-21.946 I0.044 J-1.269
G1 X-22.584 Y-34.4
G3 X-20.35 Y-33.618 I0.964 J0.826
G1 Y-28.666
X-20.387 Y-27.926
X-20.437 Y-27.451
X-20.518 Y-26.945
X-20.647 Y-26.346
X-20.823 Y-25.702
X-21.074 Y-24.949
X-21.394 Y-24.135
X-21.776 Y-23.301
X-22.178 Y-22.536
X-22.56 Y-21.897
X-22.902 Y-21.389
X-23.073 Y-21.162
X-23.357 Y-20.833
X-23.683 Y-20.543
X-24.044 Y-20.3
X-24.434 Y-20.106
X-24.845 Y-19.964
X-25.272 Y-19.879
X-25.707 Y-19.85
X-28.74
G3 X-29.619 Y-21.991 I0.044 J-1.269
G1 X-22.543 Y-29.493
G3 X-20.35 Y-28.666 I0.924 J0.871
G1 Y-24.094
X-20.375 Y-23.601
X-20.41 Y-23.259
X-20.465 Y-22.92
X-20.54 Y-22.569
X-20.627 Y-22.251
X-20.734 Y-21.932
X-20.851 Y-21.633
X-21.06 Y-21.251
X-21.322 Y-20.903
X-21.63 Y-20.595
X-21.979 Y-20.334
X-22.361 Y-20.126
X-22.77 Y-19.974
X-23.195 Y-19.881
X-23.63 Y-19.85
G3 X-24.64 Y-21.827 I0.044 J-1.269
G1 X-22.674 Y-24.757
G3 X-20.35 Y-24.094 I1.055 J0.708
G1 Y-21.599
X-20.359 Y-21.411
X-20.435 Y-21.054
X-20.583 Y-20.721
X-20.797 Y-20.427
X-21.068 Y-20.183
X-21.383 Y-20.001
X-21.73 Y-19.888
X-22.092 Y-19.85
G3 X-23.23 Y-20.343 I0.059 J-1.695
X-20.846 Y-22.737 I1.192 J-1.197
X-20.35 Y-21.599 I-1.192 J1.197
G1 Y-21.428
X-20.353 Y-21.047
X-20.381 Y-20.856
X-20.44 Y-20.666
X-20.507 Y-20.524
X-20.597 Y-20.383
X-20.674 Y-20.285
X-20.825 Y-20.138
X-20.977 Y-20.031
X-21.121 Y-19.957
X-21.265 Y-19.904
X-21.357 Y-19.88
X-21.547 Y-19.853
X-21.737 Y-19.85
X-25.707
G3 X-26.189 Y-19.964 I0.044 J-1.269
G1 X-26.319 Y-20.023 Z36.018
X-26.446 Y-20.081 Z36.042
X-26.571 Y-20.138 Z36.081
X-26.691 Y-20.192 Z36.136
X-26.804 Y-20.244 Z36.205
X-26.91 Y-20.292 Z36.287
X-27.006 Y-20.336 Z36.382
X-27.093 Y-20.375 Z36.488
X-27.168 Y-20.41 Z36.604
X-27.23 Y-20.438 Z36.729
X-27.28 Y-20.461 Z36.861
X-27.316 Y-20.477 Z36.997
X-27.338 Y-20.487 Z37.138
X-27.345 Y-20.49 Z37.28
G0 Z53
X-43.837 Y-95.36
Z38.55
G1 Z37.28 F850
X-43.83 Y-95.364 Z37.138
X-43.81 Y-95.377 Z36.997
X-43.776 Y-95.397 Z36.861
X-43.729 Y-95.425 Z36.729
X-43.67 Y-95.46 Z36.604
X-43.599 Y-95.502 Z36.488
X-43.518 Y-95.551 Z36.382
X-43.426 Y-95.605 Z36.287
X-43.326 Y-95.664 Z36.205
X-43.219 Y-95.728 Z36.136
X-43.106 Y-95.795 Z36.081
X-42.989 Y-95.865 Z36.042
X-42.868 Y-95.937 Z36.018
X-42.746 Y-96.009 Z36.01
G3 X-42.267 Y-96.15 I0.514 J0.864
G1 X-38.085
X-37.771 Y-96.134
X-37.387 Y-96.094
X-36.991 Y-96.031
X-36.534 Y-95.932
X-36.025 Y-95.793
X-35.482 Y-95.612
X-34.868 Y-95.37
X-34.204 Y-95.066
X-33.481 Y-94.686
X-32.67 Y-94.202
X-31.789 Y-93.609
X-30.846 Y-92.898
X-29.82 Y-92.032
X-28.842 Y-91.113
X-27.909 Y-90.149
X-27.016 Y-89.146
X-26.163 Y-88.11
X-25.347 Y-87.045
X-24.566 Y-85.953
X-23.82 Y-84.837
X-23.109 Y-83.699
X-22.43 Y-82.541
X-21.784 Y-81.365
X-21.171 Y-80.171
X-20.675 Y-79.139
X-20.496 Y-78.681
X-20.387 Y-78.201
X-20.35 Y-77.711
Y-69.73
G3 X-22.682 Y-69.079 I-1.269 J-0.044
G1 X-39.104 Y-94.186
G3 X-38.567 Y-96.036 I1.063 J-0.695
X-38.085 Y-96.15 I0.527 J1.156
G1 X-34.454
X-33.986 Y-96.127
X-33.647 Y-96.091
X-33.265 Y-96.03
X-32.831 Y-95.936
X-32.379 Y-95.813
X-31.843 Y-95.634
X-31.304 Y-95.422
X-30.67 Y-95.132
X-30.022 Y-94.791
X-29.289 Y-94.354
X-28.481 Y-93.81
X-27.628 Y-93.166
X-26.696 Y-92.38
X-25.719 Y-91.46
X-24.791 Y-90.491
X-23.908 Y-89.48
X-23.067 Y-88.434
X-22.266 Y-87.357
X-21.502 Y-86.254
X-20.878 Y-85.287
X-20.65 Y-84.872
X-20.485 Y-84.43
X-20.384 Y-83.968
X-20.35 Y-83.497
Y-77.711
G3 X-22.637 Y-76.995 I-1.269 J-0.044
G1 X-35.428 Y-94.121
G3 X-34.937 Y-96.036 I1.018 J-0.76
X-34.454 Y-96.15 I0.527 J1.156
G1 X-30.862
X-30.394 Y-96.127
X-30.076 Y-96.093
X-29.697 Y-96.033
X-29.31 Y-95.949
X-28.858 Y-95.826
X-28.38 Y-95.667
X-27.848 Y-95.457
X-27.271 Y-95.193
X-26.639 Y-94.861
X-25.97 Y-94.461
X-25.22 Y-93.956
X-24.418 Y-93.351
X-23.564 Y-92.63
X-22.63 Y-91.752
X-21.703 Y-90.78
X-21.152 Y-90.141
X-20.871 Y-89.765
X-20.647 Y-89.352
X-20.483 Y-88.912
X-20.383 Y-88.453
X-20.35 Y-87.985
Y-83.497
G3 X-22.606 Y-82.741 I-1.269 J-0.044
G1 X-31.804 Y-94.081
G3 X-31.344 Y-96.036 I0.986 J-0.8
X-30.862 Y-96.15 I0.527 J1.156
G1 X-27.44
X-26.937 Y-96.125
X-26.619 Y-96.092
X-26.263 Y-96.035
X-25.885 Y-95.953
X-25.446 Y-95.833
X-25.001 Y-95.685
X-24.473 Y-95.477
X-23.946 Y-95.235
X-23.327 Y-94.91
X-22.705 Y-94.539
X-22.102 Y-94.133
X-21.595 Y-93.75
X-21.522 Y-93.689
X-21.18 Y-93.355
X-20.89 Y-92.975
X-20.657 Y-92.558
X-20.488 Y-92.111
X-20.385 Y-91.644
X-20.35 Y-91.167
G3 X-22.3 Y-90.139 I-1.269 J-0.044
G1 X-28.077 Y-93.809
G3 X-27.922 Y-96.036 I0.681 J-1.072
X-27.44 Y-96.15 I0.527 J1.156
G1 X-24.018
X-23.589 Y-96.129
X-23.297 Y-96.098
X-23.022 Y-96.054
X-22.732 Y-95.991
X-22.454 Y-95.915
X-22.197 Y-95.83
X-21.805 Y-95.64
X-21.445 Y-95.395
X-21.127 Y-95.098
X-20.855 Y-94.758
X-20.638 Y-94.381
X-20.479 Y-93.976
X-20.382 Y-93.551
X-20.35 Y-93.117
G3 X-22.368 Y-92.136 I-1.269 J-0.044
G1 X-24.723 Y-93.855
G3 X-24.018 Y-96.15 I0.749 J-1.026
G1 X-21.908
X-21.758 Y-96.143
X-21.438 Y-96.074
X-21.14 Y-95.942
X-20.874 Y-95.75
X-20.655 Y-95.508
X-20.49 Y-95.226
X-20.387 Y-94.915
X-20.35 Y-94.59
G3 X-22.257 Y-93.177 I-1.507 J-0.04
X-21.908 Y-96.15 I0.402 J-1.46
G1 X-21.737
X-21.547 Y-96.147
X-21.357 Y-96.12
X-21.265 Y-96.096
X-21.121 Y-96.043
X-20.977 Y-95.969
X-20.825 Y-95.862
X-20.674 Y-95.715
X-20.597 Y-95.617
X-20.507 Y-95.476
X-20.44 Y-95.334
X-20.381 Y-95.144
X-20.353 Y-94.953
X-20.35 Y-94.572
Y-87.985
G3 X-20.464 Y-87.503 I-1.269 J-0.044
G1 X-20.523 Y-87.373 Z36.018
X-20.581 Y-87.246 Z36.042
X-20.638 Y-87.121 Z36.081
X-20.692 Y-87.001 Z36.136
X-20.744 Y-86.888 Z36.205
X-20.792 Y-86.782 Z36.287
X-20.836 Y-86.686 Z36.382
X-20.875 Y-86.599 Z36.488
X-20.91 Y-86.524 Z36.604
X-20.938 Y-86.462 Z36.729
X-20.961 Y-86.412 Z36.861
X-20.977 Y-86.376 Z36.997
X-20.987 Y-86.354 Z37.138
X-20.99 Y-86.347 Z37.28
G0 Z53
X-76.435 Y-20.64
Z38.55
G1 Z37.28 F850
X-76.441 Y-20.636 Z37.138
X-76.462 Y-20.623 Z36.997
X-76.496 Y-20.603 Z36.861
X-76.543 Y-20.575 Z36.729
X-76.602 Y-20.54 Z36.604
X-76.673 Y-20.498 Z36.488
X-76.754 Y-20.449 Z36.382
X-76.846 Y-20.395 Z36.287
X-76.945 Y-20.336 Z36.205
X-77.053 Y-20.272 Z36.136
X-77.166 Y-20.205 Z36.081
X-77.283 Y-20.135 Z36.042
X-77.404 Y-20.063 Z36.018
X-77.526 Y-19.991 Z36.01
G3 X-78.005 Y-19.85 I-0.514 J-0.864
G1 X-84.848
X-85.431 Y-19.879
X-85.97 Y-19.936
X-86.616 Y-20.039
X-87.304 Y-20.187
X-88.107 Y-20.407
X-89.013 Y-20.708
X-89.994 Y-21.095
X-91.095 Y-21.6
X-92.283 Y-22.224
X-93.437 Y-22.91
X-94.557 Y-23.65
X-95.644 Y-24.437
X-96.699 Y-25.266
X-97.723 Y-26.134
X-98.714 Y-27.039
X-99.674 Y-27.977
X-100.602 Y-28.946
X-101.498 Y-29.946
X-102.36 Y-30.974
X-103.19 Y-32.03
X-103.985 Y-33.111
X-104.746 Y-34.216
X-105.471 Y-35.346
X-106.16 Y-36.497
X-106.812 Y-37.671
X-107.427 Y-38.864
X-108.004 Y-40.075
X-108.543 Y-41.305
X-109.044 Y-42.55
X-109.505 Y-43.81
X-109.927 Y-45.084
X-110.31 Y-46.371
X-110.653 Y-47.668
X-110.955 Y-48.976
X-111.217 Y-50.292
X-111.439 Y-51.616
X-111.62 Y-52.946
X-111.759 Y-54.281
X-111.857 Y-55.619
X-111.912 Y-56.96
X-111.925 Y-58.303
X-111.897 Y-59.644
X-111.826 Y-60.985
X-111.715 Y-62.322
X-111.561 Y-63.656
X-111.367 Y-64.984
X-111.132 Y-66.305
X-110.856 Y-67.618
X-110.54 Y-68.923
X-110.184 Y-70.217
X-109.789 Y-71.5
X-109.354 Y-72.769
X-108.881 Y-74.025
X-108.369 Y-75.266
X-107.818 Y-76.49
X-107.229 Y-77.696
X-106.603 Y-78.883
X-105.94 Y-80.05
X-105.241 Y-81.196
X-104.507 Y-82.32
X-103.739 Y-83.42
X-102.937 Y-84.497
X-102.103 Y-85.548
X-101.236 Y-86.573
X-100.339 Y-87.571
X-99.411 Y-88.54
X-98.454 Y-89.481
X-97.469 Y-90.393
X-96.456 Y-91.273
X-95.416 Y-92.122
X-94.35 Y-92.937
X-93.259 Y-93.719
X-92.144 Y-94.467
X-91.007 Y-95.179
X-90.117 Y-95.699
X-89.727 Y-95.894
X-89.314 Y-96.035
X-88.887 Y-96.121
X-88.452 Y-96.15
X-82.053
G3 X-81.571 Y-96.036 I-0.044 J1.269
G1 X-81.441 Y-95.977 Z36.018
X-81.314 Y-95.919 Z36.042
X-81.189 Y-95.862 Z36.081
X-81.069 Y-95.808 Z36.136
X-80.956 Y-95.756 Z36.205
X-80.85 Y-95.708 Z36.287
X-80.754 Y-95.664 Z36.382
X-80.667 Y-95.625 Z36.488
X-80.592 Y-95.59 Z36.604
X-80.529 Y-95.562 Z36.729
X-80.48 Y-95.539 Z36.861
X-80.444 Y-95.523 Z36.997
X-80.422 Y-95.513 Z37.138
X-80.415 Y-95.51 Z37.28
G0 Z53
X-83.278 Y-20.64
Z38.55
G1 Z37.28 F850
X-83.285 Y-20.636 Z37.138
X-83.305 Y-20.623 Z36.997
X-83.339 Y-20.603 Z36.861
X-83.386 Y-20.575 Z36.729
X-83.445 Y-20.54 Z36.604
X-83.516 Y-20.498 Z36.488
X-83.598 Y-20.449 Z36.382
X-83.689 Y-20.395 Z36.287
X-83.789 Y-20.336 Z36.205
X-83.896 Y-20.272 Z36.136
X-84.009 Y-20.205 Z36.081
X-84.127 Y-20.135 Z36.042
X-84.247 Y-20.063 Z36.018
X-84.369 Y-19.991 Z36.01
G3 X-84.848 Y-19.85 I-0.514 J-0.864
G1 X-89.79
X-90.393 Y-19.88
X-90.86 Y-19.929
X-91.35 Y-20.007
X-91.927 Y-20.132
X-92.545 Y-20.301
X-93.267 Y-20.541
X-94.031 Y-20.842
X-94.896 Y-21.239
X-95.863 Y-21.747
X-96.924 Y-22.38
X-98.038 Y-23.129
X-99.111 Y-23.936
X-100.146 Y-24.79
X-101.144 Y-25.688
X-102.106 Y-26.623
X-103.035 Y-27.592
X-103.929 Y-28.593
X-104.789 Y-29.624
X-105.615 Y-30.681
X-106.407 Y-31.765
X-107.165 Y-32.873
X-107.888 Y-34.003
X-108.577 Y-35.155
X-109.231 Y-36.327
X-109.849 Y-37.518
X-110.432 Y-38.727
X-110.979 Y-39.953
X-111.49 Y-41.194
X-111.965 Y-42.45
X-112.402 Y-43.718
X-112.803 Y-44.999
X-113.166 Y-46.292
X-113.491 Y-47.594
X-113.779 Y-48.905
X-114.028 Y-50.223
X-114.238 Y-51.549
X-114.408 Y-52.88
X-114.54 Y-54.216
X-114.633 Y-55.555
X-114.686 Y-56.896
X-114.7 Y-58.238
X-114.675 Y-59.58
X-114.611 Y-60.921
X-114.508 Y-62.259
X-114.366 Y-63.594
X-114.186 Y-64.923
X-113.967 Y-66.248
X-113.71 Y-67.565
X-113.416 Y-68.874
X-113.083 Y-70.175
X-112.713 Y-71.465
X-112.305 Y-72.744
X-111.86 Y-74.01
X-111.378 Y-75.262
X-110.86 Y-76.5
X-110.306 Y-77.723
X-109.716 Y-78.928
X-109.091 Y-80.116
X-108.432 Y-81.286
X-107.74 Y-82.435
X-107.014 Y-83.564
X-106.256 Y-84.672
X-105.466 Y-85.757
X-104.645 Y-86.819
X-103.795 Y-87.857
X-102.914 Y-88.87
X-102.005 Y-89.857
X-101.067 Y-90.817
X-100.101 Y-91.749
X-99.109 Y-92.653
X-98.09 Y-93.527
X-97.047 Y-94.371
X-95.979 Y-95.185
X-95.494 Y-95.532
X-95.147 Y-95.75
X-94.775 Y-95.923
X-94.384 Y-96.048
X-93.981 Y-96.125
X-93.572 Y-96.15
X-88.452
G3 X-87.97 Y-96.036 I-0.044 J1.269
G1 X-87.84 Y-95.977 Z36.018
X-87.712 Y-95.919 Z36.042
X-87.588 Y-95.862 Z36.081
X-87.468 Y-95.808 Z36.136
X-87.355 Y-95.756 Z36.205
X-87.249 Y-95.708 Z36.287
X-87.152 Y-95.664 Z36.382
X-87.066 Y-95.625 Z36.488
X-86.991 Y-95.59 Z36.604
X-86.928 Y-95.562 Z36.729
X-86.879 Y-95.539 Z36.861
X-86.843 Y-95.523 Z36.997
X-86.821 Y-95.513 Z37.138
X-86.814 Y-95.51 Z37.28
G0 Z53
X-88.22 Y-20.64
Z38.55
G1 Z37.28 F850
X-88.227 Y-20.636 Z37.138
X-88.248 Y-20.623 Z36.997
X-88.282 Y-20.603 Z36.861
X-88.328 Y-20.575 Z36.729
X-88.388 Y-20.54 Z36.604
X-88.458 Y-20.498 Z36.488
X-88.54 Y-20.449 Z36.382
X-88.631 Y-20.395 Z36.287
X-88.731 Y-20.336 Z36.205
X-88.838 Y-20.272 Z36.136
X-88.951 Y-20.205 Z36.081
X-89.069 Y-20.135 Z36.042
X-89.19 Y-20.063 Z36.018
X-89.312 Y-19.991 Z36.01
G3 X-89.79 Y-19.85 I-0.514 J-0.864
G1 X-94.353
X-94.736 Y-19.869
X-95.121 Y-19.909
X-95.583 Y-19.983
X-96.067 Y-20.088
X-96.623 Y-20.24
X-97.224 Y-20.44
X-97.91 Y-20.71
X-98.632 Y-21.041
X-99.453 Y-21.472
X-100.362 Y-22.015
X-101.347 Y-22.678
X-102.415 Y-23.484
X-103.441 Y-24.349
X-104.424 Y-25.262
X-105.367 Y-26.217
X-106.272 Y-27.208
X-107.14 Y-28.232
X-107.973 Y-29.285
X-108.77 Y-30.365
X-109.532 Y-31.469
X-110.26 Y-32.597
X-110.954 Y-33.746
X-111.614 Y-34.914
X-112.24 Y-36.102
X-112.832 Y-37.306
X-113.39 Y-38.527
X-113.913 Y-39.763
X-114.401 Y-41.013
X-114.855 Y-42.276
X-115.274 Y-43.552
X-115.657 Y-44.838
X-116.005 Y-46.134
X-116.317 Y-47.439
X-116.592 Y-48.753
X-116.598 Y-48.783
X-116.627 Y-48.977
X-116.644 Y-49.173
X-116.65 Y-49.369
Y-63.333
X-116.583 Y-64.674
X-116.505 Y-66.014
X-116.356 Y-67.348
X-116.146 Y-68.673
X-115.883 Y-69.989
X-115.571 Y-71.295
X-115.214 Y-72.589
X-114.815 Y-73.87
X-114.376 Y-75.138
X-113.899 Y-76.393
X-113.385 Y-77.633
X-112.836 Y-78.857
X-112.251 Y-80.066
X-111.634 Y-81.257
X-110.983 Y-82.431
X-110.299 Y-83.586
X-109.585 Y-84.722
X-108.839 Y-85.838
X-108.063 Y-86.933
X-107.257 Y-88.007
X-106.423 Y-89.058
X-105.56 Y-90.086
X-104.669 Y-91.09
X-103.751 Y-92.068
X-102.805 Y-93.021
X-101.834 Y-93.947
X-100.838 Y-94.847
X-100.229 Y-95.364
X-99.855 Y-95.639
X-99.445 Y-95.859
X-99.009 Y-96.02
X-98.555 Y-96.117
X-98.091 Y-96.15
X-93.572
G3 X-93.09 Y-96.036 I-0.044 J1.269
X-92.571 Y-94.159 I-0.527 J1.156
G1 X-114.336 Y-62.656
G3 X-116.65 Y-63.333 I-1.045 J-0.722
G1 Y-72.858
X-116.588 Y-74.091
X-116.509 Y-74.852
X-116.366 Y-75.747
X-116.143 Y-76.777
X-115.822 Y-77.952
X-115.398 Y-79.226
X-114.91 Y-80.476
X-114.369 Y-81.704
X-113.78 Y-82.91
X-113.148 Y-84.095
X-112.479 Y-85.258
X-111.773 Y-86.4
X-111.035 Y-87.52
X-110.264 Y-88.619
X-109.464 Y-89.697
X-108.634 Y-90.752
X-107.776 Y-91.784
X-106.891 Y-92.792
X-105.979 Y-93.777
X-105.041 Y-94.737
X-104.51 Y-95.242
X-104.121 Y-95.559
X-103.69 Y-95.813
X-103.224 Y-95.999
X-102.736 Y-96.112
X-102.237 Y-96.15
X-98.091
G3 X-97.609 Y-96.036 I-0.044 J1.269
X-97.136 Y-94.097 I-0.527 J1.156
G1 X-114.382 Y-72.118
G3 X-116.65 Y-72.858 I-0.999 J-0.784
G1 Y-79.334
X-116.607 Y-80.194
X-116.549 Y-80.75
X-116.444 Y-81.408
X-116.284 Y-82.146
X-116.054 Y-82.987
X-115.731 Y-83.959
X-115.294 Y-85.068
X-114.735 Y-86.288
X-114.113 Y-87.477
X-113.438 Y-88.638
X-112.718 Y-89.77
X-111.958 Y-90.877
X-111.162 Y-91.957
X-110.334 Y-93.013
X-109.475 Y-94.045
X-108.703 Y-94.903
X-108.42 Y-95.186
X-108.095 Y-95.47
X-107.737 Y-95.709
X-107.35 Y-95.899
X-106.942 Y-96.038
X-106.519 Y-96.122
X-106.089 Y-96.15
X-102.237
G3 X-101.754 Y-96.036 I-0.044 J1.269
X-101.311 Y-94.061 I-0.527 J1.156
G1 X-114.411 Y-78.559
G3 X-116.536 Y-78.852 I-0.97 J-0.82
X-116.65 Y-79.334 I1.156 J-0.527
G1 Y-84.667
X-116.617 Y-85.324
X-116.566 Y-85.809
X-116.48 Y-86.348
X-116.347 Y-86.966
X-116.16 Y-87.649
X-115.895 Y-88.444
X-115.548 Y-89.326
X-115.093 Y-90.319
X-114.498 Y-91.452
X-113.81 Y-92.604
X-113.075 Y-93.707
X-112.501 Y-94.473
X-112.018 Y-95.05
X-111.969 Y-95.102
X-111.64 Y-95.41
X-111.272 Y-95.669
X-110.872 Y-95.877
X-110.448 Y-96.028
X-110.007 Y-96.119
X-109.557 Y-96.15
X-106.089
G3 X-105.606 Y-96.036 I-0.044 J1.269
X-105.193 Y-94.026 I-0.527 J1.156
G1 X-114.441 Y-83.857
G3 X-116.536 Y-84.185 I-0.94 J-0.854
X-116.65 Y-84.667 I1.156 J-0.527
G1 Y-89.239
X-116.615 Y-89.939
X-116.57 Y-90.372
X-116.495 Y-90.841
X-116.376 Y-91.389
X-116.223 Y-91.949
X-116.023 Y-92.55
X-115.778 Y-93.172
X-115.536 Y-93.7
X-115.284 Y-94.181
X-115.031 Y-94.604
X-114.972 Y-94.692
X-114.688 Y-95.056
X-114.357 Y-95.376
X-113.984 Y-95.647
X-113.577 Y-95.864
X-113.144 Y-96.022
X-112.694 Y-96.118
X-112.234 Y-96.15
G3 X-111.751 Y-96.036 I-0.044 J1.269
X-111.167 Y-94.265 I-0.527 J1.156
G1 X-114.27 Y-88.668
G3 X-116.536 Y-88.757 I-1.111 J-0.616
X-116.65 Y-89.239 I1.156 J-0.527
G1 Y-93.258
X-116.633 Y-93.595
X-116.612 Y-93.798
X-116.577 Y-94.017
X-116.53 Y-94.236
X-116.474 Y-94.439
X-116.322 Y-94.798
X-116.117 Y-95.13
X-115.862 Y-95.425
X-115.564 Y-95.678
X-115.231 Y-95.88
X-114.87 Y-96.029
X-114.491 Y-96.12
X-114.102 Y-96.15
G3 X-113.619 Y-96.036 I-0.044 J1.269
X-113.146 Y-94.098 I-0.527 J1.156
G1 X-114.381 Y-92.52
G3 X-116.536 Y-92.776 I-1 J-0.783
X-116.65 Y-93.258 I1.156 J-0.527
G1 Y-94.572
X-116.647 Y-94.876
Y-94.953
X-116.619 Y-95.144
X-116.56 Y-95.334
X-116.493 Y-95.476
X-116.403 Y-95.617
X-116.326 Y-95.715
X-116.175 Y-95.862
X-116.023 Y-95.969
X-115.879 Y-96.043
X-115.735 Y-96.096
X-115.643 Y-96.12
X-115.453 Y-96.147
X-115.263 Y-96.15
X-109.557
G3 X-109.075 Y-96.036 I-0.044 J1.269
G1 X-108.946 Y-95.977 Z36.018
X-108.818 Y-95.919 Z36.042
X-108.693 Y-95.862 Z36.081
X-108.574 Y-95.808 Z36.136
X-108.46 Y-95.756 Z36.205
X-108.354 Y-95.708 Z36.287
X-108.258 Y-95.664 Z36.382
X-108.171 Y-95.625 Z36.488
X-108.096 Y-95.59 Z36.604
X-108.034 Y-95.562 Z36.729
X-107.984 Y-95.539 Z36.861
X-107.948 Y-95.523 Z36.997
X-107.927 Y-95.513 Z37.138
X-107.919 Y-95.51 Z37.28
G0 Z53
X-92.783 Y-20.64
Z38.55
G1 Z37.28 F850
X-92.789 Y-20.636 Z37.138
X-92.81 Y-20.623 Z36.997
X-92.844 Y-20.603 Z36.861
X-92.891 Y-20.575 Z36.729
X-92.95 Y-20.54 Z36.604
X-93.021 Y-20.498 Z36.488
X-93.102 Y-20.449 Z36.382
X-93.194 Y-20.395 Z36.287
X-93.293 Y-20.336 Z36.205
X-93.401 Y-20.272 Z36.136
X-93.514 Y-20.205 Z36.081
X-93.631 Y-20.135 Z36.042
X-93.752 Y-20.063 Z36.018
X-93.874 Y-19.991 Z36.01
G3 X-94.353 Y-19.85 I-0.514 J-0.864
G1 X-98.155
X-98.731 Y-19.879
X-99.114 Y-19.919
X-99.506 Y-19.982
X-99.963 Y-20.08
X-100.466 Y-20.218
X-101.008 Y-20.398
X-101.617 Y-20.638
X-102.277 Y-20.941
X-102.992 Y-21.316
X-103.795 Y-21.795
X-104.664 Y-22.38
X-105.593 Y-23.081
X-106.61 Y-23.939
X-107.588 Y-24.859
X-108.52 Y-25.825
X-109.41 Y-26.829
X-110.26 Y-27.868
X-111.073 Y-28.936
X-111.848 Y-30.032
X-112.588 Y-31.151
X-113.294 Y-32.293
X-113.965 Y-33.456
X-114.602 Y-34.637
X-115.206 Y-35.835
X-115.776 Y-37.05
X-116.313 Y-38.28
X-116.409 Y-38.515
X-116.542 Y-38.916
X-116.623 Y-39.332
X-116.65 Y-39.754
Y-49.369
G3 X-116.536 Y-49.851 I1.269 J0.044
X-114.296 Y-49.985 I1.156 J0.527
G1 X-97.114 Y-21.78
G3 X-98.155 Y-19.85 I-1.085 J0.661
G1 X-101.956
X-102.487 Y-19.877
X-102.824 Y-19.912
X-103.205 Y-19.973
X-103.636 Y-20.066
X-104.087 Y-20.189
X-104.62 Y-20.366
X-105.155 Y-20.577
X-105.785 Y-20.866
X-106.428 Y-21.204
X-107.153 Y-21.637
X-107.953 Y-22.175
X-108.793 Y-22.809
X-109.71 Y-23.582
X-110.688 Y-24.502
X-111.615 Y-25.472
X-112.496 Y-26.485
X-113.334 Y-27.533
X-114.131 Y-28.613
X-114.89 Y-29.72
X-115.613 Y-30.851
X-116.185 Y-31.812
X-116.386 Y-32.207
X-116.532 Y-32.625
X-116.62 Y-33.059
X-116.65 Y-33.501
Y-39.754
G3 X-114.35 Y-40.452 I1.269 J0.044
G1 X-100.97 Y-21.861
G3 X-101.956 Y-19.85 I-1.031 J0.742
G1 X-105.758
X-106.048 Y-19.865
X-106.367 Y-19.898
X-106.745 Y-19.958
X-107.13 Y-20.041
X-107.582 Y-20.165
X-108.054 Y-20.322
X-108.586 Y-20.532
X-109.157 Y-20.794
X-109.787 Y-21.124
X-110.449 Y-21.519
X-111.192 Y-22.019
X-111.983 Y-22.616
X-112.825 Y-23.327
X-113.743 Y-24.191
X-114.669 Y-25.162
X-115.545 Y-26.179
X-115.944 Y-26.686
X-116.192 Y-27.049
X-116.39 Y-27.441
X-116.533 Y-27.856
X-116.621 Y-28.287
X-116.65 Y-28.726
Y-33.501
G3 X-114.378 Y-34.235 I1.269 J0.044
G1 X-104.799 Y-21.898
G3 X-105.758 Y-19.85 I-1.003 J0.779
G1 X-109.18
X-109.495 Y-19.866
X-109.813 Y-19.899
X-110.165 Y-19.955
X-110.542 Y-20.037
X-110.976 Y-20.156
X-111.421 Y-20.303
X-111.944 Y-20.51
X-112.467 Y-20.749
X-113.081 Y-21.072
X-113.699 Y-21.441
X-114.394 Y-21.908
X-115.055 Y-22.407
X-115.611 Y-22.877
X-115.916 Y-23.206
X-116.174 Y-23.573
X-116.379 Y-23.971
X-116.529 Y-24.394
X-116.62 Y-24.833
X-116.65 Y-25.28
G3 X-116.536 Y-25.763 I1.269 J0.044
X-114.675 Y-26.292 I1.156 J0.527
G1 X-108.518 Y-22.175
G3 X-109.18 Y-19.85 I-0.706 J1.056
G1 X-112.431
X-112.851 Y-19.871
X-113.164 Y-19.904
X-113.484 Y-19.955
X-113.846 Y-20.033
X-114.172 Y-20.122
X-114.51 Y-20.234
X-114.813 Y-20.354
X-115.114 Y-20.492
X-115.491 Y-20.729
X-115.827 Y-21.022
X-116.114 Y-21.363
X-116.344 Y-21.744
X-116.513 Y-22.157
X-116.615 Y-22.59
X-116.65 Y-23.034
G3 X-116.536 Y-23.516 I1.269 J0.044
X-114.693 Y-24.058 I1.156 J0.527
G1 X-111.787 Y-22.187
G3 X-112.431 Y-19.85 I-0.687 J1.068
G1 X-114.998
X-115.148 Y-19.858
X-115.492 Y-19.938
X-115.813 Y-20.087
X-116.097 Y-20.299
X-116.331 Y-20.565
X-116.506 Y-20.873
X-116.614 Y-21.21
X-116.65 Y-21.563
G3 X-116.556 Y-22.05 I1.603 J0.056
X-114.584 Y-23.042 I1.509 J0.544
X-114.998 Y-19.85 I-0.471 J1.562
G1 X-115.263
X-115.453 Y-19.853
X-115.643 Y-19.88
X-115.735 Y-19.904
X-115.879 Y-19.957
X-116.023 Y-20.031
X-116.175 Y-20.138
X-116.326 Y-20.285
X-116.403 Y-20.383
X-116.493 Y-20.524
X-116.56 Y-20.666
X-116.619 Y-20.856
X-116.647 Y-21.047
X-116.65 Y-21.428
Y-28.726
X-116.636 Y-28.81 Z36.018
X-116.623 Y-28.892 Z36.04
X-116.611 Y-28.969 Z36.076
X-116.599 Y-29.039 Z36.125
X-116.578 Y-29.097 Z36.186
X-116.56 Y-29.145 Z36.258
X-116.547 Y-29.18 Z36.337
X-116.539 Y-29.201 Z36.421
X-116.536 Y-29.208 Z36.509
G0 Z53
X-62.795 Y-56.039
Z39.78
G1 Z38.51 F850
G3 X-74.205 Y-59.961 Z37.848 I-5.705 J-1.961 F283.3
X-62.795 Y-56.039 Z37.186 I5.705 J1.961
X-74.205 Y-59.961 Z36.525 I-5.705 J-1.961
X-62.795 Y-56.039 Z35.863 I5.705 J1.961
X-74.205 Y-59.961 Z35.201 I-5.705 J-1.961
X-62.795 Y-56.039 Z34.539 I5.705 J1.961
X-74.205 Y-59.961 Z33.877 I-5.705 J-1.961
X-62.795 Y-56.039 Z33.216 I5.705 J1.961
X-74.205 Y-59.961 Z32.554 I-5.705 J-1.961
X-62.795 Y-56.039 Z31.892 I5.705 J1.961
X-74.205 Y-59.961 Z31.23 I-5.705 J-1.961
X-62.795 Y-56.039 Z30.568 I5.705 J1.961
X-74.205 Y-59.961 Z29.907 I-5.705 J-1.961
X-62.795 Y-56.039 Z29.245 I5.705 J1.961
X-74.205 Y-59.961 Z28.583 I-5.705 J-1.961
X-62.795 Y-56.039 Z27.921 I5.705 J1.961
X-74.205 Y-59.961 Z27.259 I-5.705 J-1.961
X-62.795 Y-56.039 Z26.597 I5.705 J1.961
X-74.205 Y-59.961 Z25.936 I-5.705 J-1.961
X-62.795 Y-56.039 Z25.274 I5.705 J1.961
X-74.205 Y-59.961 Z24.612 I-5.705 J-1.961
X-62.467 Y-58 Z24.02 I5.705 J1.961
X-74.532 I-6.033
X-62.744 Y-59.805 I6.032
X-62.467 Y-58 I-5.756 J1.805
G1 X-62.464 Y-57.664 F850
X-62.335 Y-56.328
X-62.312 Y-56.248
X-62.277 Y-56.102
X-62.251 Y-55.954
X-62.233 Y-55.801
X-62.223 Y-55.635
X-62.221 Y-55.457
X-62.23 Y-55.267
X-62.25 Y-55.065
X-62.283 Y-54.853
X-62.33 Y-54.632
X-62.391 Y-54.402
X-62.469 Y-54.165
X-62.564 Y-53.923
X-62.675 Y-53.676
X-62.805 Y-53.426
X-62.954 Y-53.175
X-63.121 Y-52.925
X-63.307 Y-52.676
X-63.512 Y-52.431
X-63.735 Y-52.192
X-63.977 Y-51.959
X-64.237 Y-51.735
X-64.514 Y-51.521
X-64.808 Y-51.318
X-65.118 Y-51.129
X-65.442 Y-50.954
X-65.78 Y-50.795
X-66.131 Y-50.652
X-66.494 Y-50.527
X-66.866 Y-50.421
X-67.248 Y-50.334
X-67.637 Y-50.267
X-68.032 Y-50.222
X-68.433 Y-50.197
X-68.836 Y-50.195
X-69.242 Y-50.214
X-69.648 Y-50.255
X-70.053 Y-50.319
X-70.456 Y-50.405
X-70.855 Y-50.513
X-71.249 Y-50.643
X-71.637 Y-50.795
X-72.017 Y-50.968
X-72.388 Y-51.162
X-72.749 Y-51.376
X-73.099 Y-51.61
X-73.436 Y-51.863
X-73.759 Y-52.134
X-74.068 Y-52.423
X-74.361 Y-52.729
X-74.637 Y-53.05
X-74.895 Y-53.386
X-75.136 Y-53.737
X-75.357 Y-54.1
X-75.558 Y-54.474
X-75.739 Y-54.86
X-75.899 Y-55.255
X-76.037 Y-55.658
X-76.153 Y-56.068
X-76.247 Y-56.484
X-76.318 Y-56.905
X-76.367 Y-57.329
X-76.392 Y-57.756
X-76.394 Y-58.183
X-76.373 Y-58.61
X-76.329 Y-59.035
X-76.261 Y-59.457
X-76.171 Y-59.875
X-76.059 Y-60.288
X-75.924 Y-60.694
X-75.768 Y-61.092
X-75.59 Y-61.481
X-75.391 Y-61.86
X-75.172 Y-62.228
X-74.933 Y-62.583
X-74.676 Y-62.925
X-74.4 Y-63.252
X-74.107 Y-63.564
X-73.797 Y-63.86
X-73.472 Y-64.138
X-73.132 Y-64.399
X-72.779 Y-64.64
X-72.412 Y-64.862
X-72.035 Y-65.064
X-71.647 Y-65.245
X-71.25 Y-65.405
X-70.844 Y-65.544
X-70.432 Y-65.66
X-70.014 Y-65.753
X-69.592 Y-65.824
X-69.166 Y-65.871
X-68.739 Y-65.896
X-68.31 Y-65.897
X-67.883 Y-65.875
X-67.457 Y-65.83
X-67.034 Y-65.762
X-66.615 Y-65.672
X-66.202 Y-65.558
X-65.796 Y-65.423
X-65.398 Y-65.265
X-65.009 Y-65.086
X-64.63 Y-64.887
X-64.262 Y-64.667
X-63.907 Y-64.427
X-63.565 Y-64.169
X-63.238 Y-63.892
X-62.927 Y-63.599
X-62.631 Y-63.288
X-62.353 Y-62.962
X-62.094 Y-62.622
X-61.852 Y-62.268
X-61.631 Y-61.901
X-61.43 Y-61.523
X-61.12 Y-60.857
X-60.787 Y-60.026
X-60.561 Y-59.359
X-60.395 Y-58.765
X-60.275 Y-58.226
X-60.19 Y-57.712
X-60.136 Y-57.223
X-60.11 Y-56.753
X-60.109 Y-56.296
X-60.133 Y-55.849
X-60.18 Y-55.411
X-60.25 Y-54.98
X-60.343 Y-54.556
X-60.458 Y-54.139
X-60.596 Y-53.729
X-60.756 Y-53.327
X-60.937 Y-52.933
X-61.141 Y-52.548
X-61.367 Y-52.171
X-61.615 Y-51.805
X-61.884 Y-51.451
X-62.175 Y-51.108
X-62.486 Y-50.779
X-62.818 Y-50.465
X-63.169 Y-50.167
X-63.538 Y-49.885
X-63.926 Y-49.622
X-64.33 Y-49.379
X-64.751 Y-49.156
X-65.186 Y-48.955
X-65.635 Y-48.776
X-66.096 Y-48.62
X-66.568 Y-48.489
X-67.049 Y-48.383
X-67.539 Y-48.303
X-68.036 Y-48.249
X-68.537 Y-48.222
X-69.042 Y-48.223
X-69.55 Y-48.25
X-70.057 Y-48.306
X-70.563 Y-48.389
X-71.066 Y-48.5
X-71.564 Y-48.639
X-72.056 Y-48.805
X-72.539 Y-48.998
X-73.013 Y-49.217
X-73.475 Y-49.463
X-73.925 Y-49.734
X-74.36 Y-50.03
X-74.78 Y-50.35
X-75.182 Y-50.692
X-75.566 Y-51.057
X-75.93 Y-51.442
X-76.274 Y-51.848
X-76.595 Y-52.272
X-76.893 Y-52.713
X-77.167 Y-53.17
X-77.417 Y-53.642
X-77.64 Y-54.127
X-77.837 Y-54.624
X-78.007 Y-55.132
X-78.15 Y-55.648
X-78.264 Y-56.172
X-78.35 Y-56.701
X-78.407 Y-57.234
X-78.434 Y-57.77
X-78.433 Y-58.307
X-78.403 Y-58.844
X-78.344 Y-59.378
X-78.256 Y-59.908
X-78.139 Y-60.433
X-77.994 Y-60.951
X-77.82 Y-61.461
X-77.62 Y-61.96
X-77.393 Y-62.448
X-77.139 Y-62.923
X-76.86 Y-63.384
X-76.557 Y-63.829
X-76.23 Y-64.256
X-75.88 Y-64.666
X-75.508 Y-65.056
X-75.116 Y-65.425
X-74.704 Y-65.773
X-74.274 Y-66.098
X-73.827 Y-66.399
X-73.364 Y-66.675
X-72.887 Y-66.926
X-72.397 Y-67.151
X-71.896 Y-67.349
X-71.384 Y-67.519
X-70.864 Y-67.661
X-70.337 Y-67.775
X-69.805 Y-67.86
X-69.269 Y-67.917
X-68.73 Y-67.944
X-68.191 Y-67.942
X-67.653 Y-67.91
X-67.117 Y-67.85
X-66.585 Y-67.761
X-66.059 Y-67.643
X-65.54 Y-67.496
X-65.03 Y-67.322
X-64.529 Y-67.12
X-64.041 Y-66.891
X-63.566 Y-66.637
X-63.105 Y-66.357
X-62.66 Y-66.052
X-62.232 Y-65.724
X-61.823 Y-65.373
X-61.406 Y-64.974
X-61.002 Y-64.543
X-60.589 Y-64.052
X-60.186 Y-63.517
X-59.808 Y-62.953
X-59.461 Y-62.37
X-59.149 Y-61.775
X-58.874 Y-61.171
X-58.635 Y-60.563
X-58.434 Y-59.955
X-58.269 Y-59.347
X-58.139 Y-58.742
X-58.044 Y-58.141
X-57.982 Y-57.546
X-57.954 Y-56.956
X-57.957 Y-56.373
X-57.991 Y-55.795
X-58.057 Y-55.225
X-58.152 Y-54.662
X-58.278 Y-54.107
X-58.433 Y-53.562
X-58.617 Y-53.026
X-58.83 Y-52.501
X-59.071 Y-51.988
X-59.34 Y-51.488
X-59.636 Y-51.003
X-59.96 Y-50.533
X-60.309 Y-50.079
X-60.684 Y-49.644
X-61.083 Y-49.228
X-61.506 Y-48.832
X-61.952 Y-48.458
X-62.42 Y-48.108
X-62.908 Y-47.781
X-63.416 Y-47.48
X-63.942 Y-47.206
X-64.485 Y-46.959
X-65.043 Y-46.742
X-65.615 Y-46.553
X-66.199 Y-46.396
X-66.794 Y-46.269
X-67.398 Y-46.175
X-68.009 Y-46.113
X-68.625 Y-46.084
X-69.244 Y-46.088
X-69.866 Y-46.127
X-70.486 Y-46.199
X-71.104 Y-46.305
X-71.718 Y-46.445
X-72.325 Y-46.619
X-72.924 Y-46.826
X-73.512 Y-47.065
X-74.088 Y-47.337
X-74.65 Y-47.641
X-75.196 Y-47.975
X-75.724 Y-48.34
X-76.233 Y-48.733
X-76.72 Y-49.154
X-77.185 Y-49.602
X-77.626 Y-50.075
X-78.041 Y-50.572
X-78.429 Y-51.091
X-78.788 Y-51.631
X-79.118 Y-52.191
X-79.418 Y-52.768
X-79.687 Y-53.362
X-79.923 Y-53.969
X-80.125 Y-54.59
X-80.294 Y-55.22
X-80.429 Y-55.859
X-80.529 Y-56.506
X-80.594 Y-57.157
X-80.624 Y-57.81
X-80.618 Y-58.465
X-80.576 Y-59.119
X-80.499 Y-59.77
X-80.387 Y-60.416
X-80.24 Y-61.055
X-80.058 Y-61.686
X-79.843 Y-62.306
X-79.594 Y-62.913
X-79.313 Y-63.507
X-78.999 Y-64.084
X-78.655 Y-64.644
X-78.281 Y-65.184
X-77.878 Y-65.703
X-77.448 Y-66.2
X-76.991 Y-66.672
X-76.509 Y-67.12
X-76.004 Y-67.54
X-75.476 Y-67.933
X-74.928 Y-68.296
X-74.361 Y-68.63
X-73.777 Y-68.932
X-73.177 Y-69.202
X-72.563 Y-69.439
X-71.938 Y-69.642
X-71.302 Y-69.812
X-70.658 Y-69.946
X-70.007 Y-70.046
X-69.352 Y-70.11
X-68.695 Y-70.138
X-68.037 Y-70.131
X-67.38 Y-70.088
X-66.727 Y-70.01
X-66.079 Y-69.896
X-65.438 Y-69.747
X-64.805 Y-69.564
X-64.184 Y-69.347
X-63.576 Y-69.096
X-62.976 Y-68.811
X-62.388 Y-68.49
X-61.805 Y-68.131
X-61.231 Y-67.731
X-60.668 Y-67.293
X-60.122 Y-66.818
X-59.596 Y-66.308
X-59.093 Y-65.764
X-58.615 Y-65.188
X-58.167 Y-64.583
X-57.751 Y-63.954
X-57.37 Y-63.303
X-57.026 Y-62.634
X-56.72 Y-61.952
X-56.454 Y-61.258
X-56.227 Y-60.556
X-56.04 Y-59.849
X-55.892 Y-59.138
X-55.785 Y-58.425
X-55.716 Y-57.712
X-55.687 Y-57.001
X-55.696 Y-56.293
X-55.743 Y-55.59
X-55.828 Y-54.892
X-55.95 Y-54.203
X-56.109 Y-53.523
X-56.304 Y-52.853
X-56.535 Y-52.195
X-56.802 Y-51.551
X-57.103 Y-50.923
X-57.438 Y-50.311
X-57.806 Y-49.717
X-58.206 Y-49.143
X-58.637 Y-48.591
X-59.099 Y-48.062
X-59.59 Y-47.557
X-60.11 Y-47.079
X-60.656 Y-46.628
X-61.227 Y-46.205
X-61.823 Y-45.814
X-62.441 Y-45.453
X-63.08 Y-45.126
X-63.738 Y-44.832
X-64.413 Y-44.574
X-65.104 Y-44.352
X-65.809 Y-44.167
X-66.525 Y-44.02
X-67.251 Y-43.912
X-67.985 Y-43.843
X-68.724 Y-43.813
X-69.466 Y-43.824
X-70.208 Y-43.875
X-70.949 Y-43.966
X-71.687 Y-44.098
X-72.418 Y-44.271
X-73.141 Y-44.483
X-73.853 Y-44.735
X-74.553 Y-45.026
X-75.237 Y-45.355
X-75.904 Y-45.721
X-76.552 Y-46.124
X-77.178 Y-46.563
X-77.781 Y-47.036
X-78.358 Y-47.541
X-78.908 Y-48.078
X-79.428 Y-48.645
X-79.918 Y-49.24
X-80.376 Y-49.862
X-80.799 Y-50.508
X-81.188 Y-51.177
X-81.54 Y-51.867
X-81.854 Y-52.575
X-82.13 Y-53.3
X-82.366 Y-54.04
X-82.562 Y-54.792
X-82.717 Y-55.554
X-82.831 Y-56.324
X-82.903 Y-57.099
X-82.932 Y-57.878
X-82.919 Y-58.657
X-82.865 Y-59.435
X-82.768 Y-60.209
X-82.629 Y-60.977
X-82.448 Y-61.737
X-82.227 Y-62.486
X-81.965 Y-63.222
X-81.664 Y-63.943
X-81.324 Y-64.647
X-80.946 Y-65.331
X-80.532 Y-65.994
X-80.082 Y-66.634
X-79.598 Y-67.249
X-79.082 Y-67.836
X-78.534 Y-68.395
X-77.957 Y-68.923
X-77.352 Y-69.42
X-76.721 Y-69.883
X-76.065 Y-70.311
X-75.387 Y-70.703
X-74.689 Y-71.057
X-73.973 Y-71.374
X-73.241 Y-71.651
X-72.494 Y-71.888
X-71.736 Y-72.084
X-70.968 Y-72.239
X-70.193 Y-72.352
X-69.413 Y-72.422
X-68.63 Y-72.451
X-67.847 Y-72.437
X-67.066 Y-72.38
X-66.289 Y-72.281
X-65.517 Y-72.141
X-64.752 Y-71.958
X-63.994 Y-71.732
X-63.244 Y-71.464
X-62.503 Y-71.153
X-61.773 Y-70.799
X-61.056 Y-70.401
X-60.354 Y-69.961
X-59.67 Y-69.479
X-59.008 Y-68.955
X-58.37 Y-68.393
X-57.76 Y-67.792
X-57.18 Y-67.157
X-56.634 Y-66.488
X-56.124 Y-65.79
X-55.652 Y-65.065
X-55.221 Y-64.316
X-54.831 Y-63.546
X-54.485 Y-62.759
X-54.183 Y-61.956
X-53.926 Y-61.141
X-53.714 Y-60.316
X-53.548 Y-59.485
X-53.428 Y-58.648
X-53.353 Y-57.809
X-53.324 Y-56.97
X-53.341 Y-56.133
X-53.402 Y-55.301
X-53.509 Y-54.474
X-53.66 Y-53.657
X-53.854 Y-52.849
X-54.092 Y-52.055
X-54.373 Y-51.274
X-54.695 Y-50.511
X-55.058 Y-49.765
X-55.461 Y-49.041
X-55.904 Y-48.338
X-56.384 Y-47.66
X-56.901 Y-47.008
X-57.454 Y-46.384
X-58.04 Y-45.789
X-58.66 Y-45.226
X-59.31 Y-44.696
X-59.99 Y-44.201
X-60.698 Y-43.743
X-61.431 Y-43.322
X-62.189 Y-42.941
X-62.968 Y-42.6
X-63.766 Y-42.301
X-64.583 Y-42.045
X-65.414 Y-41.833
X-66.258 Y-41.666
X-67.113 Y-41.545
X-67.975 Y-41.469
X-68.843 Y-41.441
X-69.713 Y-41.46
X-70.584 Y-41.526
X-71.452 Y-41.639
X-72.315 Y-41.8
X-73.17 Y-42.008
X-74.014 Y-42.262
X-74.846 Y-42.563
X-75.661 Y-42.908
X-76.459 Y-43.299
X-77.236 Y-43.733
X-77.989 Y-44.209
X-78.717 Y-44.726
X-79.417 Y-45.283
X-80.086 Y-45.878
X-80.724 Y-46.51
X-81.327 Y-47.176
X-81.894 Y-47.874
X-82.423 Y-48.603
X-82.912 Y-49.361
X-83.359 Y-50.145
X-83.764 Y-50.953
X-84.125 Y-51.782
X-84.441 Y-52.63
X-84.711 Y-53.495
X-84.933 Y-54.374
X-85.108 Y-55.265
X-85.234 Y-56.164
X-85.311 Y-57.069
X-85.34 Y-57.977
X-85.319 Y-58.887
X-85.248 Y-59.794
X-85.129 Y-60.696
X-84.96 Y-61.591
X-84.744 Y-62.476
X-84.479 Y-63.348
X-84.168 Y-64.204
X-83.811 Y-65.043
X-83.408 Y-65.861
X-82.962 Y-66.657
X-82.473 Y-67.427
X-81.943 Y-68.17
X-81.373 Y-68.883
X-80.766 Y-69.564
X-80.122 Y-70.212
X-79.444 Y-70.824
X-78.734 Y-71.398
X-77.994 Y-71.933
X-77.226 Y-72.427
X-76.432 Y-72.879
X-75.614 Y-73.287
X-74.776 Y-73.65
X-73.919 Y-73.967
X-73.046 Y-74.237
X-72.16 Y-74.46
X-71.263 Y-74.634
X-70.357 Y-74.76
X-69.447 Y-74.836
X-68.532 Y-74.863
X-67.617 Y-74.84
X-66.703 Y-74.767
X-65.791 Y-74.645
X-64.884 Y-74.473
X-63.984 Y-74.25
X-63.092 Y-73.978
X-62.211 Y-73.656
X-61.344 Y-73.285
X-60.492 Y-72.864
X-59.659 Y-72.395
X-58.848 Y-71.878
X-58.06 Y-71.314
X-57.3 Y-70.705
X-56.57 Y-70.052
X-55.875 Y-69.358
X-55.215 Y-68.625
X-54.596 Y-67.855
X-54.018 Y-67.053
X-53.484 Y-66.22
X-52.996 Y-65.359
X-52.557 Y-64.474
X-52.166 Y-63.568
X-51.826 Y-62.644
X-51.537 Y-61.705
X-51.299 Y-60.753
X-51.114 Y-59.793
X-50.982 Y-58.825
X-50.903 Y-57.855
X-50.876 Y-56.883
X-50.902 Y-55.913
X-50.98 Y-54.948
X-51.111 Y-53.99
X-51.292 Y-53.041
X-51.525 Y-52.105
X-51.808 Y-51.183
X-52.141 Y-50.278
X-52.522 Y-49.393
X-52.95 Y-48.529
X-53.425 Y-47.69
X-53.945 Y-46.877
X-54.509 Y-46.092
X-55.115 Y-45.339
X-55.762 Y-44.618
X-56.448 Y-43.933
X-57.172 Y-43.285
X-57.931 Y-42.675
X-58.723 Y-42.107
X-59.547 Y-41.581
X-60.401 Y-41.099
X-61.281 Y-40.664
X-62.185 Y-40.276
X-63.112 Y-39.936
X-64.058 Y-39.647
X-65.021 Y-39.409
X-65.997 Y-39.223
X-66.985 Y-39.089
X-67.981 Y-39.009
X-68.982 Y-38.984
X-69.986 Y-39.012
X-70.989 Y-39.095
X-71.988 Y-39.233
X-72.981 Y-39.425
X-73.964 Y-39.671
X-74.934 Y-39.971
X-75.888 Y-40.324
X-76.824 Y-40.728
X-77.738 Y-41.184
X-78.627 Y-41.689
X-79.49 Y-42.243
X-80.322 Y-42.843
X-81.121 Y-43.489
X-81.886 Y-44.178
X-82.613 Y-44.908
X-83.301 Y-45.678
X-83.946 Y-46.485
X-84.547 Y-47.326
X-85.103 Y-48.2
X-85.61 Y-49.104
X-86.069 Y-50.034
X-86.477 Y-50.989
X-86.832 Y-51.966
X-87.135 Y-52.961
X-87.383 Y-53.971
X-87.576 Y-54.994
X-87.714 Y-56.027
X-87.795 Y-57.066
X-87.82 Y-58.109
X-87.789 Y-59.152
X-87.7 Y-60.192
X-87.556 Y-61.227
X-87.356 Y-62.252
X-87.1 Y-63.265
X-86.79 Y-64.264
X-86.425 Y-65.244
X-86.009 Y-66.204
X-85.54 Y-67.139
X-85.022 Y-68.048
X-84.455 Y-68.928
X-83.841 Y-69.776
X-83.181 Y-70.59
X-82.479 Y-71.367
X-81.735 Y-72.104
X-80.953 Y-72.801
X-80.133 Y-73.454
X-79.28 Y-74.061
X-78.394 Y-74.622
X-77.48 Y-75.134
X-76.539 Y-75.595
X-75.574 Y-76.005
X-74.588 Y-76.362
X-73.585 Y-76.666
X-72.566 Y-76.914
X-71.535 Y-77.107
X-70.494 Y-77.243
X-69.447 Y-77.324
X-68.395 Y-77.347
X-67.341 Y-77.313
X-66.288 Y-77.222
X-65.238 Y-77.074
X-64.194 Y-76.868
X-63.159 Y-76.605
X-62.135 Y-76.284
X-61.125 Y-75.907
X-60.132 Y-75.474
X-59.159 Y-74.984
X-58.209 Y-74.441
X-57.286 Y-73.843
X-56.393 Y-73.194
X-55.533 Y-72.495
X-54.71 Y-71.748
X-53.926 Y-70.955
X-53.185 Y-70.119
X-52.489 Y-69.243
X-51.842 Y-68.33
X-51.244 Y-67.383
X-50.699 Y-66.404
X-50.208 Y-65.399
X-49.772 Y-64.369
X-49.394 Y-63.317
X-49.073 Y-62.249
X-48.811 Y-61.165
X-48.608 Y-60.071
X-48.466 Y-58.969
X-48.383 Y-57.863
X-48.36 Y-56.755
X-48.398 Y-55.649
X-48.495 Y-54.548
X-48.651 Y-53.455
X-48.867 Y-52.373
X-49.14 Y-51.305
X-49.471 Y-50.253
X-49.858 Y-49.221
X-50.301 Y-48.212
X-50.798 Y-47.228
X-51.348 Y-46.272
X-51.949 Y-45.347
X-52.6 Y-44.455
X-53.299 Y-43.598
X-54.044 Y-42.78
X-54.833 Y-42.002
X-55.665 Y-41.267
X-56.537 Y-40.578
X-57.446 Y-39.935
X-58.391 Y-39.342
X-59.368 Y-38.799
X-60.375 Y-38.31
X-61.41 Y-37.874
X-62.468 Y-37.495
X-63.548 Y-37.173
X-64.646 Y-36.91
X-65.759 Y-36.705
X-66.884 Y-36.562
X-68.018 Y-36.479
X-69.157 Y-36.458
X-70.297 Y-36.498
X-71.436 Y-36.601
X-72.57 Y-36.765
X-73.696 Y-36.991
X-74.81 Y-37.279
X-75.909 Y-37.626
X-76.989 Y-38.034
X-78.047 Y-38.501
X-79.08 Y-39.024
X-80.085 Y-39.604
X-81.058 Y-40.239
X-81.997 Y-40.926
X-82.898 Y-41.665
X-83.759 Y-42.452
X-84.577 Y-43.285
X-85.35 Y-44.163
X-86.074 Y-45.082
X-86.749 Y-46.04
X-87.371 Y-47.034
X-87.939 Y-48.062
X-88.451 Y-49.12
X-88.905 Y-50.204
X-89.3 Y-51.313
X-89.635 Y-52.442
X-89.908 Y-53.588
X-90.118 Y-54.748
X-90.266 Y-55.919
X-90.35 Y-57.096
X-90.37 Y-58.277
X-90.326 Y-59.457
X-90.217 Y-60.634
X-90.046 Y-61.804
X-89.811 Y-62.963
X-89.513 Y-64.108
X-89.154 Y-65.236
X-88.734 Y-66.343
X-88.254 Y-67.426
X-87.717 Y-68.481
X-87.123 Y-69.506
X-86.474 Y-70.498
X-85.772 Y-71.453
X-85.019 Y-72.369
X-84.218 Y-73.242
X-83.37 Y-74.071
X-82.478 Y-74.854
X-81.546 Y-75.586
X-80.574 Y-76.267
X-79.568 Y-76.895
X-78.528 Y-77.467
X-77.459 Y-77.982
X-76.364 Y-78.438
X-75.245 Y-78.835
X-74.106 Y-79.17
X-72.95 Y-79.443
X-71.78 Y-79.654
X-70.598 Y-79.801
X-69.409 Y-79.883
X-68.215 Y-79.901
X-67.02 Y-79.855
X-65.825 Y-79.743
X-64.635 Y-79.566
X-63.453 Y-79.324
X-62.281 Y-79.017
X-61.124 Y-78.647
X-59.984 Y-78.212
X-58.865 Y-77.714
X-57.771 Y-77.154
X-56.705 Y-76.533
X-55.67 Y-75.854
X-54.671 Y-75.116
X-53.71 Y-74.324
X-52.791 Y-73.478
X-51.918 Y-72.582
X-51.093 Y-71.638
X-50.319 Y-70.65
X-49.6 Y-69.621
X-48.937 Y-68.553
X-48.333 Y-67.451
X-47.79 Y-66.318
X-47.309 Y-65.158
X-46.892 Y-63.974
X-46.54 Y-62.771
X-46.254 Y-61.551
X-46.034 Y-60.319
X-45.882 Y-59.078
X-45.798 Y-57.832
X-45.781 Y-56.584
X-45.832 Y-55.339
X-45.95 Y-54.099
X-46.136 Y-52.868
X-46.387 Y-51.65
X-46.704 Y-50.447
X-47.086 Y-49.264
X-47.531 Y-48.103
X-48.038 Y-46.968
X-48.606 Y-45.862
X-49.234 Y-44.788
X-49.919 Y-43.749
X-50.66 Y-42.748
X-51.455 Y-41.788
X-52.302 Y-40.871
X-53.198 Y-40.001
X-54.142 Y-39.179
X-55.13 Y-38.409
X-56.159 Y-37.692
X-57.228 Y-37.031
X-58.332 Y-36.428
X-59.47 Y-35.885
X-60.637 Y-35.404
X-61.831 Y-34.985
X-63.049 Y-34.632
X-64.286 Y-34.344
X-65.539 Y-34.123
X-66.804 Y-33.97
X-68.079 Y-33.886
X-69.358 Y-33.872
X-70.639 Y-33.926
X-71.917 Y-34.05
X-73.189 Y-34.244
X-74.45 Y-34.506
X-75.698 Y-34.838
X-76.928 Y-35.237
X-78.136 Y-35.702
X-79.319 Y-36.234
X-80.473 Y-36.829
X-81.595 Y-37.488
X-82.681 Y-38.207
X-83.728 Y-38.984
X-84.732 Y-39.819
X-85.69 Y-40.707
X-86.601 Y-41.648
X-87.459 Y-42.637
X-88.264 Y-43.672
X-89.012 Y-44.751
X-89.701 Y-45.869
X-90.328 Y-47.024
X-90.893 Y-48.212
X-91.393 Y-49.43
X-91.827 Y-50.675
X-92.192 Y-51.941
X-92.489 Y-53.227
X-92.715 Y-54.527
X-92.871 Y-55.838
X-92.956 Y-57.157
X-92.969 Y-58.478
X-92.91 Y-59.799
X-92.78 Y-61.116
X-92.579 Y-62.424
X-92.307 Y-63.719
X-91.965 Y-64.998
X-91.554 Y-66.258
X-91.075 Y-67.493
X-90.53 Y-68.701
X-89.92 Y-69.878
X-89.247 Y-71.02
X-88.513 Y-72.124
X-87.72 Y-73.188
X-86.87 Y-74.206
X-85.967 Y-75.178
X-85.012 Y-76.099
X-84.008 Y-76.967
X-82.959 Y-77.779
X-81.867 Y-78.534
X-80.735 Y-79.228
X-79.568 Y-79.86
X-78.367 Y-80.428
X-77.138 Y-80.93
X-75.882 Y-81.365
X-74.604 Y-81.732
X-73.307 Y-82.029
X-71.995 Y-82.255
X-70.671 Y-82.41
X-69.338 Y-82.493
X-68 Y-82.504
X-66.661 Y-82.442
X-65.326 Y-82.308
X-64 Y-82.101
X-62.687 Y-81.824
X-61.39 Y-81.475
X-60.115 Y-81.058
X-58.863 Y-80.573
X-57.639 Y-80.023
X-56.446 Y-79.407
X-55.288 Y-78.73
X-54.166 Y-77.992
X-53.086 Y-77.197
X-52.048 Y-76.345
X-51.056 Y-75.441
X-50.113 Y-74.486
X-49.222 Y-73.483
X-48.383 Y-72.435
X-47.6 Y-71.344
X-46.876 Y-70.215
X-46.21 Y-69.049
X-45.606 Y-67.85
X-45.066 Y-66.622
X-44.59 Y-65.367
X-44.18 Y-64.089
X-43.838 Y-62.791
X-43.564 Y-61.477
X-43.36 Y-60.151
X-43.225 Y-58.815
X-43.161 Y-57.475
X-43.167 Y-56.133
X-43.243 Y-54.793
X-43.39 Y-53.458
X-43.606 Y-52.134
X-43.891 Y-50.822
X-44.244 Y-49.528
X-44.665 Y-48.253
X-45.153 Y-47.003
X-45.705 Y-45.779
X-46.32 Y-44.587
X-46.998 Y-43.428
X-47.735 Y-42.306
X-48.529 Y-41.225
X-49.379 Y-40.186
X-50.283 Y-39.193
X-51.237 Y-38.249
X-52.238 Y-37.356
X-53.285 Y-36.516
X-54.375 Y-35.732
X-55.503 Y-35.005
X-56.668 Y-34.338
X-57.865 Y-33.733
X-59.093 Y-33.19
X-60.347 Y-32.712
X-61.624 Y-32.3
X-62.921 Y-31.954
X-64.234 Y-31.676
X-65.56 Y-31.467
X-66.895 Y-31.325
X-68.235 Y-31.253
X-69.577 Y-31.249
X-70.918 Y-31.313
X-72.253 Y-31.445
X-73.581 Y-31.645
X-74.896 Y-31.912
X-76.196 Y-32.246
X-77.478 Y-32.644
X-78.738 Y-33.107
X-79.973 Y-33.632
X-81.179 Y-34.22
X-82.355 Y-34.868
X-83.495 Y-35.575
X-84.599 Y-36.339
X-85.662 Y-37.158
X-86.683 Y-38.03
X-87.659 Y-38.951
X-88.588 Y-39.92
X-89.467 Y-40.934
X-90.294 Y-41.99
X-91.069 Y-43.087
X-91.787 Y-44.22
X-92.449 Y-45.388
X-93.051 Y-46.587
X-93.592 Y-47.816
X-94.071 Y-49.07
X-94.485 Y-50.346
X-94.836 Y-51.642
X-95.122 Y-52.953
X-95.342 Y-54.277
X-95.497 Y-55.61
X-95.585 Y-56.95
X-95.607 Y-58.291
X-95.564 Y-59.633
X-95.454 Y-60.971
X-95.277 Y-62.301
X-95.034 Y-63.621
X-94.725 Y-64.927
X-94.352 Y-66.216
X-93.914 Y-67.485
X-93.415 Y-68.731
X-92.854 Y-69.95
X-92.234 Y-71.141
X-91.556 Y-72.299
X-90.823 Y-73.423
X-90.034 Y-74.509
X-89.194 Y-75.555
X-88.302 Y-76.558
X-87.36 Y-77.515
X-86.373 Y-78.424
X-85.341 Y-79.282
X-84.268 Y-80.088
X-83.156 Y-80.841
X-82.009 Y-81.537
X-80.829 Y-82.177
X-79.619 Y-82.758
X-78.382 Y-83.279
X-77.121 Y-83.738
X-75.839 Y-84.134
X-74.538 Y-84.466
X-73.223 Y-84.732
X-71.896 Y-84.933
X-70.56 Y-85.068
X-69.22 Y-85.137
X-67.878 Y-85.141
X-66.537 Y-85.079
X-65.201 Y-84.953
X-63.873 Y-84.762
X-62.555 Y-84.506
X-61.251 Y-84.186
X-59.965 Y-83.803
X-58.7 Y-83.356
X-57.457 Y-82.849
X-56.24 Y-82.283
X-55.052 Y-81.659
X-53.894 Y-80.979
X-52.771 Y-80.245
X-51.683 Y-79.459
X-50.634 Y-78.622
X-49.625 Y-77.737
X-48.661 Y-76.803
X-47.742 Y-75.825
X-46.871 Y-74.804
X-46.049 Y-73.743
X-45.278 Y-72.644
X-44.56 Y-71.51
X-43.896 Y-70.344
X-43.287 Y-69.148
X-42.735 Y-67.924
X-42.241 Y-66.677
X-41.806 Y-65.407
X-41.433 Y-64.117
X-41.123 Y-62.812
X-40.875 Y-61.492
X-40.691 Y-60.163
X-40.569 Y-58.826
X-40.511 Y-57.486
X-40.516 Y-56.143
X-40.584 Y-54.803
X-40.715 Y-53.467
X-40.909 Y-52.139
X-41.166 Y-50.822
X-41.487 Y-49.519
X-41.87 Y-48.232
X-42.314 Y-46.966
X-42.817 Y-45.722
X-43.379 Y-44.503
X-43.998 Y-43.312
X-44.672 Y-42.151
X-45.4 Y-41.023
X-46.18 Y-39.931
X-47.011 Y-38.877
X-47.891 Y-37.864
X-48.82 Y-36.895
X-49.793 Y-35.971
X-50.809 Y-35.094
X-51.865 Y-34.266
X-52.959 Y-33.488
X-54.088 Y-32.762
X-55.25 Y-32.09
X-56.442 Y-31.473
X-57.661 Y-30.913
X-58.906 Y-30.41
X-60.173 Y-29.968
X-61.46 Y-29.586
X-62.763 Y-29.266
X-64.08 Y-29.007
X-65.408 Y-28.81
X-66.743 Y-28.674
X-68.083 Y-28.601
X-69.425 Y-28.589
X-70.766 Y-28.639
X-72.104 Y-28.75
X-73.435 Y-28.924
X-74.756 Y-29.159
X-76.065 Y-29.455
X-77.359 Y-29.812
X-78.635 Y-30.228
X-79.891 Y-30.703
X-81.123 Y-31.234
X-82.33 Y-31.821
X-83.508 Y-32.463
X-84.657 Y-33.158
X-85.772 Y-33.905
X-86.852 Y-34.702
X-87.893 Y-35.549
X-88.895 Y-36.442
X-89.854 Y-37.381
X-90.77 Y-38.362
X-91.64 Y-39.384
X-92.464 Y-40.444
X-93.238 Y-41.54
X-93.963 Y-42.669
X-94.636 Y-43.831
X-95.255 Y-45.021
X-95.82 Y-46.239
X-96.327 Y-47.482
X-96.777 Y-48.746
X-97.168 Y-50.03
X-97.501 Y-51.33
X-97.775 Y-52.644
X-97.99 Y-53.969
X-98.144 Y-55.302
X-98.24 Y-56.641
X-98.275 Y-57.983
X-98.25 Y-59.325
X-98.165 Y-60.664
X-98.018 Y-61.998
X-97.81 Y-63.324
X-97.541 Y-64.639
X-97.213 Y-65.94
X-96.827 Y-67.226
X-96.383 Y-68.492
X-95.883 Y-69.738
X-95.327 Y-70.96
X-94.718 Y-72.156
X-94.057 Y-73.323
X-93.343 Y-74.46
X-92.579 Y-75.564
X-91.765 Y-76.631
X-90.903 Y-77.659
X-89.995 Y-78.648
X-89.043 Y-79.594
X-88.05 Y-80.497
X-87.017 Y-81.354
X-85.947 Y-82.164
X-84.842 Y-82.926
X-83.704 Y-83.637
X-82.535 Y-84.298
X-81.338 Y-84.904
X-80.115 Y-85.456
X-78.867 Y-85.951
X-77.599 Y-86.39
X-76.312 Y-86.77
X-75.009 Y-87.092
X-73.693 Y-87.356
X-72.366 Y-87.56
X-71.032 Y-87.705
X-69.692 Y-87.791
X-68.351 Y-87.818
X-67.009 Y-87.784
X-65.67 Y-87.691
X-64.337 Y-87.537
X-63.012 Y-87.323
X-61.697 Y-87.05
X-60.397 Y-86.72
X-59.112 Y-86.332
X-57.845 Y-85.888
X-56.599 Y-85.389
X-55.376 Y-84.836
X-54.179 Y-84.23
X-53.008 Y-83.573
X-51.868 Y-82.865
X-50.76 Y-82.108
X-49.686 Y-81.302
X-48.649 Y-80.451
X-47.65 Y-79.554
X-46.691 Y-78.616
X-45.773 Y-77.637
X-44.898 Y-76.619
X-44.068 Y-75.564
X-43.283 Y-74.475
X-42.546 Y-73.354
X-41.858 Y-72.201
X-41.221 Y-71.02
X-40.636 Y-69.812
X-40.104 Y-68.58
X-39.626 Y-67.326
X-39.203 Y-66.052
X-38.835 Y-64.761
X-38.524 Y-63.455
X-38.27 Y-62.138
X-38.072 Y-60.81
X-37.931 Y-59.475
X-37.848 Y-58.136
X-37.824 Y-56.794
X-37.858 Y-55.452
X-37.95 Y-54.113
X-38.101 Y-52.78
X-38.31 Y-51.454
X-38.577 Y-50.138
X-38.9 Y-48.836
X-39.279 Y-47.548
X-39.714 Y-46.278
X-40.203 Y-45.028
X-40.744 Y-43.8
X-41.339 Y-42.597
X-41.985 Y-41.421
X-42.683 Y-40.274
X-43.429 Y-39.159
X-44.224 Y-38.077
X-45.064 Y-37.031
X-45.949 Y-36.022
X-46.877 Y-35.052
X-47.846 Y-34.123
X-48.854 Y-33.237
X-49.898 Y-32.394
X-50.978 Y-31.597
X-52.091 Y-30.847
X-53.236 Y-30.146
X-54.41 Y-29.496
X-55.611 Y-28.897
X-56.837 Y-28.35
X-58.085 Y-27.857
X-59.354 Y-27.418
X-60.64 Y-27.034
X-61.941 Y-26.705
X-63.255 Y-26.431
X-64.579 Y-26.214
X-65.912 Y-26.053
X-67.25 Y-25.948
X-68.591 Y-25.902
X-69.933 Y-25.913
X-71.274 Y-25.98
X-72.61 Y-26.105
X-73.94 Y-26.286
X-75.261 Y-26.524
X-76.571 Y-26.816
X-77.867 Y-27.164
X-79.148 Y-27.565
X-80.411 Y-28.02
X-81.653 Y-28.527
X-82.873 Y-29.086
X-84.068 Y-29.697
X-85.236 Y-30.358
X-86.376 Y-31.068
X-87.484 Y-31.825
X-88.559 Y-32.628
X-89.6 Y-33.475
X-90.605 Y-34.365
X-91.572 Y-35.296
X-92.499 Y-36.266
X-93.386 Y-37.274
X-94.23 Y-38.317
X-95.029 Y-39.395
X-95.783 Y-40.506
X-96.489 Y-41.647
X-97.147 Y-42.817
X-97.755 Y-44.014
X-98.313 Y-45.234
X-98.82 Y-46.477
X-99.274 Y-47.74
X-99.676 Y-49.021
X-100.024 Y-50.317
X-100.319 Y-51.626
X-100.56 Y-52.947
X-100.745 Y-54.276
X-100.875 Y-55.612
X-100.949 Y-56.952
X-100.968 Y-58.294
X-100.93 Y-59.636
X-100.837 Y-60.974
X-100.688 Y-62.308
X-100.484 Y-63.635
X-100.226 Y-64.952
X-99.913 Y-66.257
X-99.547 Y-67.549
X-99.128 Y-68.824
X-98.657 Y-70.08
X-98.133 Y-71.316
X-97.559 Y-72.529
X-96.936 Y-73.718
X-96.263 Y-74.879
X-95.543 Y-76.012
X-94.777 Y-77.114
X-93.966 Y-78.183
X-93.111 Y-79.218
X-92.214 Y-80.217
X-91.278 Y-81.178
X-90.302 Y-82.1
X-89.289 Y-82.98
X-88.24 Y-83.817
X-87.157 Y-84.611
X-86.043 Y-85.358
X-84.899 Y-86.06
X-83.726 Y-86.713
X-82.528 Y-87.318
X-81.306 Y-87.872
X-80.062 Y-88.376
X-78.798 Y-88.828
X-77.517 Y-89.228
X-76.22 Y-89.575
X-74.91 Y-89.868
X-73.59 Y-90.106
X-72.26 Y-90.29
X-70.924 Y-90.418
X-69.584 Y-90.492
X-68.242 Y-90.511
X-66.9 Y-90.475
X-65.561 Y-90.384
X-64.227 Y-90.238
X-62.9 Y-90.039
X-61.582 Y-89.785
X-60.275 Y-89.478
X-58.982 Y-89.119
X-57.705 Y-88.706
X-56.446 Y-88.242
X-55.206 Y-87.727
X-53.988 Y-87.163
X-52.794 Y-86.55
X-51.626 Y-85.89
X-50.485 Y-85.183
X-49.373 Y-84.431
X-48.292 Y-83.635
X-47.244 Y-82.797
X-46.23 Y-81.918
X-45.252 Y-80.999
X-44.311 Y-80.041
X-43.41 Y-79.047
X-42.549 Y-78.017
X-41.73 Y-76.953
X-40.954 Y-75.859
X-40.222 Y-74.734
X-39.535 Y-73.581
X-38.895 Y-72.401
X-38.301 Y-71.197
X-37.756 Y-69.971
X-37.26 Y-68.724
X-36.814 Y-67.458
X-36.419 Y-66.175
X-36.076 Y-64.878
X-35.785 Y-63.567
X-35.547 Y-62.246
X-35.361 Y-60.917
X-35.229 Y-59.582
X-35.149 Y-58.242
X-35.123 Y-56.9
X-35.151 Y-55.558
X-35.232 Y-54.218
X-35.366 Y-52.883
X-35.552 Y-51.554
X-35.792 Y-50.233
X-36.085 Y-48.923
X-36.431 Y-47.627
X-36.828 Y-46.344
X-37.276 Y-45.079
X-37.773 Y-43.833
X-38.32 Y-42.607
X-38.916 Y-41.404
X-39.558 Y-40.226
X-40.247 Y-39.074
X-40.981 Y-37.951
X-41.76 Y-36.857
X-42.581 Y-35.795
X-43.443 Y-34.767
X-44.347 Y-33.775
X-45.29 Y-32.819
X-46.269 Y-31.902
X-47.284 Y-31.024
X-48.334 Y-30.187
X-49.415 Y-29.392
X-50.527 Y-28.641
X-51.668 Y-27.934
X-52.836 Y-27.273
X-54.03 Y-26.659
X-55.246 Y-26.092
X-56.484 Y-25.574
X-57.742 Y-25.105
X-59.018 Y-24.688
X-60.309 Y-24.321
X-61.613 Y-24.005
X-62.929 Y-23.74
X-64.254 Y-23.528
X-65.587 Y-23.367
X-66.924 Y-23.259
X-68.265 Y-23.203
X-69.608 Y-23.199
X-70.949 Y-23.248
X-72.287 Y-23.349
X-73.621 Y-23.502
X-74.947 Y-23.707
X-76.264 Y-23.965
X-77.57 Y-24.274
X-78.864 Y-24.633
X-80.142 Y-25.042
X-81.403 Y-25.5
X-82.646 Y-26.007
X-83.868 Y-26.562
X-85.068 Y-27.163
X-86.244 Y-27.811
X-87.393 Y-28.503
X-88.516 Y-29.239
X-89.608 Y-30.019
X-90.67 Y-30.84
X-91.698 Y-31.703
X-92.693 Y-32.604
X-93.652 Y-33.543
X-94.574 Y-34.517
X-95.459 Y-35.527
X-96.304 Y-36.57
X-97.108 Y-37.644
X-97.871 Y-38.749
X-98.59 Y-39.882
X-99.266 Y-41.041
X-99.897 Y-42.226
X-100.481 Y-43.434
X-101.018 Y-44.664
X-101.507 Y-45.914
X-101.947 Y-47.182
X-102.339 Y-48.466
X-102.681 Y-49.764
X-102.974 Y-51.073
X-103.217 Y-52.394
X-103.409 Y-53.722
X-103.55 Y-55.057
X-103.64 Y-56.396
X-103.679 Y-57.737
X-103.667 Y-59.079
X-103.603 Y-60.42
X-103.487 Y-61.757
X-103.32 Y-63.089
X-103.102 Y-64.413
X-102.833 Y-65.728
X-102.515 Y-67.032
X-102.147 Y-68.323
X-101.73 Y-69.598
X-101.265 Y-70.858
X-100.753 Y-72.098
X-100.194 Y-73.318
X-99.589 Y-74.516
X-98.938 Y-75.69
X-98.243 Y-76.838
X-97.504 Y-77.959
X-96.723 Y-79.05
X-95.9 Y-80.11
X-95.038 Y-81.139
X-94.137 Y-82.134
X-93.198 Y-83.093
X-92.224 Y-84.017
X-91.216 Y-84.903
X-90.175 Y-85.749
X-89.102 Y-86.556
X-88 Y-87.322
X-86.869 Y-88.045
X-85.711 Y-88.724
X-84.528 Y-89.357
X-83.322 Y-89.945
X-82.094 Y-90.487
X-80.846 Y-90.981
X-79.58 Y-91.428
X-78.299 Y-91.826
X-77.003 Y-92.176
X-75.694 Y-92.476
X-74.376 Y-92.726
X-73.049 Y-92.926
X-71.715 Y-93.076
X-70.376 Y-93.176
X-69.035 Y-93.224
X-67.693 Y-93.221
X-66.352 Y-93.166
X-65.014 Y-93.061
X-63.681 Y-92.906
X-62.354 Y-92.701
X-61.037 Y-92.446
X-59.73 Y-92.141
X-58.435 Y-91.788
X-57.154 Y-91.387
X-55.889 Y-90.938
X-54.642 Y-90.443
X-53.414 Y-89.901
X-52.207 Y-89.314
X-51.023 Y-88.682
X-49.863 Y-88.006
X-48.73 Y-87.287
X-47.624 Y-86.526
X-46.547 Y-85.725
X-45.5 Y-84.885
X-44.485 Y-84.007
X-43.504 Y-83.092
X-42.556 Y-82.142
X-41.644 Y-81.157
X-40.769 Y-80.14
X-39.931 Y-79.091
X-39.133 Y-78.012
X-38.376 Y-76.904
X-37.66 Y-75.768
X-36.987 Y-74.607
X-36.357 Y-73.422
X-35.771 Y-72.214
X-35.23 Y-70.986
X-34.734 Y-69.739
X-34.285 Y-68.474
X-33.882 Y-67.194
X-33.527 Y-65.9
X-33.219 Y-64.593
X-32.96 Y-63.276
X-32.749 Y-61.951
X-32.587 Y-60.618
X-32.476 Y-59.281
X-32.414 Y-57.94
X-32.401 Y-56.598
X-32.439 Y-55.256
X-32.525 Y-53.917
X-32.661 Y-52.582
X-32.846 Y-51.252
X-33.079 Y-49.931
X-33.362 Y-48.619
X-33.692 Y-47.318
X-34.069 Y-46.03
X-34.494 Y-44.757
X-34.966 Y-43.5
X-35.484 Y-42.262
X-36.048 Y-41.044
X-36.657 Y-39.848
X-37.309 Y-38.675
X-38.004 Y-37.527
X-38.741 Y-36.405
X-39.518 Y-35.311
X-40.336 Y-34.246
X-41.191 Y-33.212
X-42.084 Y-32.21
X-43.014 Y-31.242
X-43.978 Y-30.308
X-44.975 Y-29.41
X-46.005 Y-28.55
X-47.067 Y-27.729
X-48.158 Y-26.947
X-49.277 Y-26.206
X-50.423 Y-25.507
X-51.593 Y-24.85
X-52.787 Y-24.236
X-54.002 Y-23.666
X-55.237 Y-23.141
X-56.491 Y-22.662
X-57.761 Y-22.228
X-59.046 Y-21.841
X-60.344 Y-21.501
X-61.654 Y-21.209
X-62.974 Y-20.965
X-64.302 Y-20.77
X-65.636 Y-20.623
X-66.975 Y-20.525
X-68.316 Y-20.475
X-69.658 Y-20.474
X-70.999 Y-20.521
X-72.338 Y-20.617
X-73.672 Y-20.761
X-75.001 Y-20.953
X-76.321 Y-21.192
X-77.633 Y-21.479
X-78.932 Y-21.813
X-80.219 Y-22.194
X-81.492 Y-22.622
X-82.747 Y-23.095
X-83.985 Y-23.614
X-85.204 Y-24.176
X-86.402 Y-24.782
X-87.577 Y-25.43
X-88.728 Y-26.121
X-89.853 Y-26.852
X-90.952 Y-27.622
X-92.023 Y-28.432
X-93.064 Y-29.279
X-94.074 Y-30.163
X-95.052 Y-31.082
X-95.996 Y-32.036
X-96.905 Y-33.023
X-97.778 Y-34.043
X-98.614 Y-35.093
X-99.412 Y-36.172
X-100.172 Y-37.278
X-100.891 Y-38.411
X-101.57 Y-39.569
X-102.207 Y-40.751
X-102.801 Y-41.954
X-103.353 Y-43.178
X-103.86 Y-44.42
X-104.324 Y-45.68
X-104.742 Y-46.955
X-105.114 Y-48.245
X-105.439 Y-49.547
X-105.718 Y-50.86
X-105.95 Y-52.182
X-106.135 Y-53.511
X-106.273 Y-54.846
X-106.364 Y-56.185
X-106.407 Y-57.526
X-106.403 Y-58.869
X-106.351 Y-60.21
X-106.252 Y-61.548
X-106.105 Y-62.882
X-105.911 Y-64.21
X-105.67 Y-65.531
X-105.382 Y-66.841
X-105.047 Y-68.141
X-104.666 Y-69.428
X-104.24 Y-70.701
X-103.769 Y-71.958
X-103.254 Y-73.197
X-102.696 Y-74.418
X-102.095 Y-75.618
X-101.452 Y-76.796
X-100.767 Y-77.95
X-100.043 Y-79.08
X-99.279 Y-80.184
X-98.476 Y-81.259
X-97.635 Y-82.306
X-96.758 Y-83.321
X-95.845 Y-84.305
X-94.897 Y-85.255
X-93.917 Y-86.172
X-92.905 Y-87.053
X-91.862 Y-87.899
X-90.79 Y-88.707
X-89.691 Y-89.476
X-88.565 Y-90.207
X-87.414 Y-90.897
X-86.239 Y-91.546
X-85.042 Y-92.153
X-83.825 Y-92.718
X-82.588 Y-93.239
X-81.333 Y-93.715
X-80.062 Y-94.147
X-78.777 Y-94.533
X-77.478 Y-94.874
X-76.169 Y-95.169
X-74.85 Y-95.417
X-73.523 Y-95.62
X-72.19 Y-95.776
X-70.853 Y-95.884
X-69.512 Y-95.946
X-68.17 Y-95.96
X-66.828 Y-95.928
X-65.488 Y-95.849
X-64.152 Y-95.722
X-62.821 Y-95.548
X-61.497 Y-95.327
X-60.182 Y-95.06
X-58.877 Y-94.747
X-57.583 Y-94.39
X-56.303 Y-93.987
X-55.037 Y-93.541
X-53.788 Y-93.05
X-52.556 Y-92.517
X-51.343 Y-91.942
X-50.151 Y-91.325
X-48.982 Y-90.667
X-47.835 Y-89.969
X-46.713 Y-89.232
X-45.618 Y-88.457
X-44.551 Y-87.643
X-43.512 Y-86.793
X-42.503 Y-85.908
X-41.525 Y-84.989
X-40.578 Y-84.037
X-39.665 Y-83.054
X-38.786 Y-82.039
X-37.943 Y-80.996
X-37.135 Y-79.924
X-36.365 Y-78.824
X-35.632 Y-77.7
X-34.939 Y-76.551
X-34.285 Y-75.378
X-33.673 Y-74.184
X-33.102 Y-72.969
X-32.573 Y-71.736
X-32.087 Y-70.485
X-31.644 Y-69.218
X-31.245 Y-67.937
X-30.889 Y-66.642
X-30.578 Y-65.337
X-30.311 Y-64.021
X-30.09 Y-62.698
X-29.914 Y-61.367
X-29.784 Y-60.031
X-29.699 Y-58.692
X-29.661 Y-57.35
X-29.669 Y-56.008
X-29.724 Y-54.667
X-29.825 Y-53.329
X-29.972 Y-51.994
X-30.164 Y-50.666
X-30.402 Y-49.345
X-30.685 Y-48.033
X-31.012 Y-46.732
X-31.384 Y-45.442
X-31.8 Y-44.166
X-32.259 Y-42.905
X-32.761 Y-41.66
X-33.305 Y-40.433
X-33.891 Y-39.226
X-34.519 Y-38.039
X-35.187 Y-36.875
X-35.895 Y-35.735
X-36.642 Y-34.62
X-37.426 Y-33.531
X-38.248 Y-32.469
X-39.105 Y-31.436
X-39.996 Y-30.433
X-40.922 Y-29.461
X-41.879 Y-28.521
X-42.869 Y-27.614
X-43.889 Y-26.741
X-44.938 Y-25.904
X-46.015 Y-25.103
X-47.118 Y-24.34
X-48.248 Y-23.615
X-49.402 Y-22.929
X-50.578 Y-22.283
X-51.776 Y-21.678
X-52.994 Y-21.114
X-54.23 Y-20.591
X-55.484 Y-20.111
X-55.717 Y-20.03
X-56.069 Y-19.931
X-56.429 Y-19.87
X-56.793 Y-19.85
X-78.005
X-79.243 Y-19.912
X-80.071 Y-19.999
X-81.031 Y-20.152
X-82.119 Y-20.387
X-83.329 Y-20.718
X-84.603 Y-21.142
X-85.853 Y-21.631
X-87.078 Y-22.177
X-88.28 Y-22.776
X-89.456 Y-23.422
X-90.606 Y-24.114
X-91.73 Y-24.848
X-92.826 Y-25.621
X-93.895 Y-26.433
X-94.935 Y-27.282
X-95.945 Y-28.166
X-96.924 Y-29.084
X-97.872 Y-30.034
X-98.787 Y-31.016
X-99.669 Y-32.028
X-100.516 Y-33.069
X-101.329 Y-34.137
X-102.105 Y-35.232
X-102.845 Y-36.352
X-103.547 Y-37.495
X-104.21 Y-38.662
X-104.834 Y-39.851
X-105.418 Y-41.059
X-105.961 Y-42.287
X-106.463 Y-43.531
X-106.923 Y-44.792
X-107.342 Y-46.067
X-107.718 Y-47.356
X-108.051 Y-48.656
X-108.341 Y-49.966
X-108.587 Y-51.286
X-108.79 Y-52.612
X-108.95 Y-53.945
X-109.065 Y-55.282
X-109.136 Y-56.623
X-109.162 Y-57.964
X-109.143 Y-59.306
X-109.079 Y-60.647
X-108.972 Y-61.985
X-108.82 Y-63.318
X-108.624 Y-64.646
X-108.384 Y-65.967
X-108.1 Y-67.279
X-107.774 Y-68.58
X-107.405 Y-69.871
X-106.993 Y-71.148
X-106.54 Y-72.412
X-106.046 Y-73.66
X-105.511 Y-74.89
X-104.935 Y-76.103
X-104.319 Y-77.295
X-103.664 Y-78.467
X-102.97 Y-79.616
X-102.239 Y-80.741
X-101.471 Y-81.842
X-100.667 Y-82.917
X-99.828 Y-83.964
X-98.955 Y-84.984
X-98.049 Y-85.974
X-97.111 Y-86.933
X-96.141 Y-87.862
X-95.142 Y-88.758
X-94.114 Y-89.621
X-93.058 Y-90.449
X-91.976 Y-91.242
X-90.867 Y-91.999
X-89.734 Y-92.718
X-88.578 Y-93.4
X-87.4 Y-94.043
X-86.201 Y-94.647
X-84.983 Y-95.21
X-83.747 Y-95.734
X-83.239 Y-95.929
X-82.854 Y-96.051
X-82.456 Y-96.125
X-82.053 Y-96.15
X-58.235
X-56.926 Y-96.084
X-56.157 Y-96.004
X-55.276 Y-95.863
X-54.264 Y-95.645
X-53.125 Y-95.333
X-51.863 Y-94.913
X-50.614 Y-94.421
X-49.391 Y-93.87
X-48.193 Y-93.265
X-47.02 Y-92.612
X-45.873 Y-91.914
X-44.753 Y-91.175
X-43.661 Y-90.395
X-42.595 Y-89.579
X-41.559 Y-88.727
X-40.551 Y-87.84
X-39.573 Y-86.921
X-38.625 Y-85.971
X-37.709 Y-84.99
X-36.824 Y-83.98
X-35.973 Y-82.943
X-35.155 Y-81.879
X-34.372 Y-80.789
X-33.624 Y-79.674
X-32.912 Y-78.537
X-32.237 Y-77.376
X-31.6 Y-76.195
X-31.002 Y-74.994
X-30.443 Y-73.773
X-29.924 Y-72.536
X-29.444 Y-71.282
X-29.005 Y-70.014
X-28.606 Y-68.732
X-28.249 Y-67.439
X-27.933 Y-66.134
X-27.658 Y-64.82
X-27.426 Y-63.499
X-27.236 Y-62.17
X-27.088 Y-60.836
X-26.983 Y-59.498
X-26.921 Y-58.157
X-26.902 Y-56.815
X-26.927 Y-55.473
X-26.996 Y-54.133
X-27.107 Y-52.795
X-27.262 Y-51.462
X-27.459 Y-50.135
X-27.698 Y-48.814
X-27.98 Y-47.502
X-28.303 Y-46.199
X-28.668 Y-44.907
X-29.073 Y-43.628
X-29.519 Y-42.362
X-30.005 Y-41.111
X-30.531 Y-39.876
X-31.096 Y-38.659
X-31.7 Y-37.46
X-32.343 Y-36.282
X-33.024 Y-35.125
X-33.741 Y-33.991
X-34.495 Y-32.88
X-35.284 Y-31.795
X-36.107 Y-30.734
X-36.963 Y-29.701
X-37.852 Y-28.695
X-38.772 Y-27.718
X-39.723 Y-26.771
X-40.703 Y-25.854
X-41.712 Y-24.969
X-42.749 Y-24.117
X-43.812 Y-23.298
X-44.901 Y-22.513
X-46.015 Y-21.765
X-47.153 Y-21.052
X-48.313 Y-20.377
X-48.554 Y-20.247
X-48.924 Y-20.075
X-49.313 Y-19.951
X-49.715 Y-19.875
X-50.122 Y-19.85
X-56.793
G3 X-57.276 Y-19.964 I0.044 J-1.269
G1 X-57.405 Y-20.023 Z24.028
X-57.533 Y-20.081 Z24.052
X-57.657 Y-20.138 Z24.091
X-57.777 Y-20.192 Z24.146
X-57.891 Y-20.244 Z24.215
X-57.996 Y-20.292 Z24.297
X-58.093 Y-20.336 Z24.392
X-58.179 Y-20.375 Z24.498
X-58.254 Y-20.41 Z24.614
X-58.317 Y-20.438 Z24.739
X-58.367 Y-20.461 Z24.871
X-58.402 Y-20.477 Z25.007
X-58.424 Y-20.487 Z25.148
X-58.431 Y-20.49 Z25.29
G0 Z53
X-59.805 Y-95.36
Z26.56
G1 Z25.29 F850
X-59.798 Y-95.364 Z25.148
X-59.778 Y-95.377 Z25.007
X-59.744 Y-95.397 Z24.871
X-59.697 Y-95.425 Z24.739
X-59.638 Y-95.46 Z24.614
X-59.567 Y-95.502 Z24.498
X-59.485 Y-95.551 Z24.392
X-59.394 Y-95.605 Z24.297
X-59.294 Y-95.664 Z24.215
X-59.187 Y-95.728 Z24.146
X-59.074 Y-95.795 Z24.091
X-58.956 Y-95.865 Z24.052
X-58.836 Y-95.937 Z24.028
X-58.713 Y-96.009 Z24.02
G3 X-58.235 Y-96.15 I0.514 J0.864
G1 X-51.772
X-50.939 Y-96.108
X-50.415 Y-96.054
X-49.786 Y-95.953
X-49.116 Y-95.808
X-48.334 Y-95.594
X-47.45 Y-95.3
X-46.492 Y-94.923
X-45.413 Y-94.428
X-44.225 Y-93.804
X-43.072 Y-93.117
X-41.953 Y-92.376
X-40.866 Y-91.588
X-39.812 Y-90.757
X-38.789 Y-89.889
X-37.796 Y-88.985
X-36.835 Y-88.048
X-35.906 Y-87.08
X-35.007 Y-86.083
X-34.14 Y-85.058
X-33.306 Y-84.007
X-32.504 Y-82.931
X-31.735 Y-81.831
X-31.001 Y-80.708
X-30.301 Y-79.562
X-29.637 Y-78.396
X-29.009 Y-77.209
X-28.418 Y-76.005
X-27.863 Y-74.782
X-27.346 Y-73.544
X-26.865 Y-72.291
X-26.423 Y-71.024
X-26.019 Y-69.744
X-25.653 Y-68.453
X-25.325 Y-67.151
X-25.037 Y-65.84
X-24.788 Y-64.521
X-24.578 Y-63.196
X-24.408 Y-61.864
X-24.278 Y-60.528
X-24.189 Y-59.189
X-24.141 Y-57.848
X-24.134 Y-56.506
X-24.167 Y-55.164
X-24.241 Y-53.824
X-24.356 Y-52.487
X-24.51 Y-51.153
X-24.704 Y-49.825
X-24.938 Y-48.504
X-25.211 Y-47.19
X-25.524 Y-45.884
X-25.875 Y-44.589
X-26.264 Y-43.305
X-26.692 Y-42.032
X-27.157 Y-40.774
X-27.66 Y-39.529
X-28.201 Y-38.301
X-28.779 Y-37.09
X-29.394 Y-35.896
X-30.044 Y-34.722
X-30.73 Y-33.569
X-31.45 Y-32.436
X-32.204 Y-31.325
X-32.99 Y-30.238
X-33.809 Y-29.174
X-34.659 Y-28.136
X-35.54 Y-27.123
X-36.45 Y-26.137
X-37.389 Y-25.178
X-38.357 Y-24.247
X-39.351 Y-23.346
X-40.372 Y-22.475
X-41.419 Y-21.635
X-42.491 Y-20.828
X-43.019 Y-20.455
X-43.364 Y-20.242
X-43.733 Y-20.072
X-44.12 Y-19.949
X-44.518 Y-19.875
X-44.923 Y-19.85
X-50.122
G3 X-50.605 Y-19.964 I0.044 J-1.269
G1 X-50.734 Y-20.023 Z24.028
X-50.862 Y-20.081 Z24.052
X-50.986 Y-20.138 Z24.091
X-51.106 Y-20.192 Z24.146
X-51.22 Y-20.244 Z24.215
X-51.325 Y-20.292 Z24.297
X-51.422 Y-20.336 Z24.392
X-51.508 Y-20.375 Z24.498
X-51.583 Y-20.41 Z24.614
X-51.646 Y-20.438 Z24.739
X-51.695 Y-20.461 Z24.871
X-51.731 Y-20.477 Z25.007
X-51.753 Y-20.487 Z25.148
X-51.76 Y-20.49 Z25.29
G0 Z53
X-53.342 Y-95.36
Z26.56
G1 Z25.29 F850
X-53.335 Y-95.364 Z25.148
X-53.315 Y-95.377 Z25.007
X-53.281 Y-95.397 Z24.871
X-53.234 Y-95.425 Z24.739
X-53.175 Y-95.46 Z24.614
X-53.104 Y-95.502 Z24.498
X-53.022 Y-95.551 Z24.392
X-52.931 Y-95.605 Z24.297
X-52.831 Y-95.664 Z24.215
X-52.724 Y-95.728 Z24.146
X-52.611 Y-95.795 Z24.091
X-52.493 Y-95.865 Z24.052
X-52.373 Y-95.937 Z24.028
X-52.25 Y-96.009 Z24.02
G3 X-51.772 Y-96.15 I0.514 J0.864
G1 X-46.449
X-46.09 Y-96.132
