%
(face_48_to_45)
(z0 botom machine -5-5)
(T1  D=31.75 CR=0 - ZMIN=45 - face mill)
G90 G94
G17
G21

(Face1)
M9
T1 M6
S4000 M3
G54
M9
G0 X17.138 Y-101.026
Z63
Z53
G1 Z50.175 F849.6
G18 G3 X13.962 Z47 I-3.175
G1 X-3.5
X-133.5
G17 G2 Y-73.478 J13.774
G1 X-3.5
G3 Y-45.931 J13.774
G1 X-133.5
G2 Y-18.383 J13.774
G1 X-3.5
G18 G2 X-0.325 Z50.175 K3.175
G0 Z53
X17.138 Y-101.026
G1 Z49.175 F849.6
G3 X13.962 Z46 I-3.175
G1 X-3.5
X-133.5
G17 G2 Y-73.478 J13.774
G1 X-3.5
G3 Y-45.931 J13.774
G1 X-133.5
G2 Y-18.383 J13.774
G1 X-3.5
G18 G2 X-0.325 Z49.175 K3.175
G0 Z53
X17.138 Y-101.026
G1 Z48.175 F849.6
G3 X13.962 Z45 I-3.175
G1 X-3.5
X-133.5
G17 G2 Y-73.478 J13.774
G1 X-3.5
G3 Y-45.931 J13.774
G1 X-133.5
G2 Y-18.383 J13.774
G1 X-3.5
G18 G2 X-0.325 Z48.175 K3.175
G0 Z63
G17
M9
M30
%
