%
(1001)
(z0 botom machine -5-5)
(T1  D=12.7 CR=0 - ZMIN=18 - flat end mill)
G90 G94
G17
G21

(2D Contour7 2)
M9
T1 M6
S9000 M3
G54
M9
G0 X-133.96 Y-58.77
Z47
Z37
G1 Z33 F283.3
Z19.27
G18 G2 X-132.69 Z18 I1.27
G1 X-131.42 F850
G17 G3 X-130.15 Y-57.5 J1.27
G1 Y-19.65
G2 X-117.85 Y-7.35 I12.3
G1 X-22.15
G2 X-9.85 Y-19.65 J-12.3
G1 Y-95.35
G2 X-22.15 Y-107.65 I-12.3
G1 X-117.85
G2 X-130.15 Y-95.35 J12.3
G1 Y-19.65
G2 X-117.85 Y-7.35 I12.3
G1 X-22.15
G2 X-9.85 Y-19.65 J-12.3
G1 Y-95.35
G2 X-22.15 Y-107.65 I-12.3
G1 X-117.85
G2 X-130.15 Y-95.35 J12.3
G1 Y-57.5
G3 X-131.42 Y-56.23 I-1.27
G1 X-132.69
G18 G3 X-133.96 Z19.27 K1.27
G0 Z47
G17
M9
M30
%
