%
(1001)
(origin stock bottom)
(T1  D=6.15 CR=0 - ZMIN=0 - flat end mill)
G90 G94
G17
G21

(2D Contour1)
M9
T1 M6
S6000 M3
G54
G0 X-426.315 Y-585.075
Z24
Z14
G1 Z11.5 F333.3
X-449 Z7.5 F350
X-562 F850
G2 X-565.075 Y-582 J3.075
G1 Y-18
G2 X-562 Y-14.925 I3.075
G1 X-236
G2 X-232.925 Y-18 J-3.075
G1 Y-582
G2 X-236 Y-585.075 I-3.075
G1 X-449
G0 Z14
X-565.925 Y-564.145
G1 Z11.5 F333.3
Y-582 Z8.352 F350
G2 X-569 Y-585.075 Z7.5 I-3.075
G1 X-895 F850
G2 X-898.075 Y-582 J3.075
G1 Y-18
G2 X-895 Y-14.925 I3.075
G1 X-569
G2 X-565.925 Y-18 J-3.075
G1 Y-582
G2 X-569 Y-585.075 I-3.075
G1 X-703.949 Z6 F350
X-895 F850
G2 X-898.075 Y-582 J3.075
G1 Y-18
G2 X-895 Y-14.925 I3.075
G1 X-569
G2 X-565.925 Y-18 J-3.075
G1 Y-582
G2 X-569 Y-585.075 I-3.075
G1 X-703.949
G0 Z14
X-232.075 Y-35.855
G1 Z11.5 F333.3
Y-18 Z8.352 F350
G2 X-229 Y-14.925 Z7.5 I3.075
G1 X-3 F850
G2 X0.075 Y-18 J-3.075
G1 Y-579
G2 X-3 Y-582.075 I-3.075
G1 X-229
G2 X-232.075 Y-579 J3.075
G1 Y-18
G2 X-229 Y-14.925 I3.075
G1 X-109.501 Z6 F350
X-3 F850
G2 X0.075 Y-18 J-3.075
G1 Y-579
G2 X-3 Y-582.075 I-3.075
G1 X-229
G2 X-232.075 Y-579 J3.075
G1 Y-18
G2 X-229 Y-14.925 I3.075
G1 X-109.501
G0 Z14
X-471.685
G1 Z10 F333.3
X-449 Z6 F350
X-236 F850
G2 X-232.925 Y-18 J-3.075
G1 Y-582
G2 X-236 Y-585.075 I-3.075
G1 X-562
G2 X-565.075 Y-582 J3.075
G1 Y-18
G2 X-562 Y-14.925 I3.075
G1 X-449
G0 Z14
X-471.685
G1 Z8.5 F333.3
X-449 Z4.5 F350
X-236 F850
G2 X-232.925 Y-18 J-3.075
G1 Y-582
G2 X-236 Y-585.075 I-3.075
G1 X-562
G2 X-565.075 Y-582 J3.075
G1 Y-18
G2 X-562 Y-14.925 I3.075
G1 X-449
G0 Z14
X-591.685
G1 Z8.5 F333.3
X-569 Z4.5 F350
G2 X-565.925 Y-18 J-3.075 F850
G1 Y-582
G2 X-569 Y-585.075 I-3.075
G1 X-895
G2 X-898.075 Y-582 J3.075
G1 Y-18
G2 X-895 Y-14.925 I3.075
G1 X-569
G2 X-565.925 Y-18 Z4.446 J-3.075 F350
G1 Y-148.119 Z3
Y-582 F850
G2 X-569 Y-585.075 I-3.075
G1 X-895
G2 X-898.075 Y-582 J3.075
G1 Y-18
G2 X-895 Y-14.925 I3.075
G1 X-569
G2 X-565.925 Y-18 J-3.075
G1 Y-148.119
G0 Z14
X-232.075 Y-35.855
G1 Z8.5 F333.3
Y-18 Z5.352 F350
G2 X-229 Y-14.925 Z4.5 I3.075
G1 X-3 F850
G2 X0.075 Y-18 J-3.075
G1 Y-579
G2 X-3 Y-582.075 I-3.075
G1 X-229
G2 X-232.075 Y-579 J3.075
G1 Y-18
G2 X-229 Y-14.925 I3.075
G1 X-109.501 Z3 F350
X-3 F850
G2 X0.075 Y-18 J-3.075
G1 Y-579
G2 X-3 Y-582.075 I-3.075
G1 X-229
G2 X-232.075 Y-579 J3.075
G1 Y-18
G2 X-229 Y-14.925 I3.075
G1 X-109.501
G0 Z14
X-471.685
G1 Z7 F333.3
X-449 Z3 F350
X-236 F850
G2 X-232.925 Y-18 J-3.075
G1 Y-582
G2 X-236 Y-585.075 I-3.075
G1 X-562
G2 X-565.075 Y-582 J3.075
G1 Y-18
G2 X-562 Y-14.925 I3.075
G1 X-449
G0 Z14
X-471.685
G1 Z5.5 F333.3
X-449 Z1.5 F350
X-406.075 F850
Z3
X-391.925
Z1.5 F333.3
X-297.408 F850
Z3
X-283.258
Z1.5 F333.3
X-236 F850
G2 X-232.925 Y-18 J-3.075
G1 Y-67.025
Z3
Y-81.475
Z1.5 F333.3
Y-179.225 F850
Z3
Y-194.275
Z1.5 F333.3
Y-291.425 F850
Z3
Y-307.075
Z1.5 F333.3
Y-403.625 F850
Z3
Y-419.875
Z1.5 F333.3
Y-515.825 F850
Z3
Y-532.675
Z1.5 F333.3
Y-582 F850
G2 X-236 Y-585.075 I-3.075
G1 X-283.258
Z3
X-297.408
Z1.5 F333.3
X-391.925 F850
Z3
X-406.075
Z1.5 F333.3
X-500.592 F850
Z3
X-514.742
Z1.5 F333.3
X-562 F850
G2 X-565.075 Y-582 J3.075
G1 Y-532.675
Z3
Y-518.525
Z1.5 F333.3
Y-419.875 F850
Z3
Y-405.725
Z1.5 F333.3
Y-307.075 F850
Z3
Y-292.925
Z1.5 F333.3
Y-194.275 F850
Z3
Y-180.125
Z1.5 F333.3
Y-81.475 F850
Z3
Y-67.325
Z1.5 F333.3
Y-18 F850
G2 X-562 Y-14.925 I3.075
G1 X-514.742
Z3
X-500.592
Z1.5 F333.3
X-449 F850
G0 Z14
X-591.685
G1 Z5.5 F333.3
X-569 Z1.5 F350
G2 X-565.925 Y-18 J-3.075 F850
G1 Y-67.325
Z3
Y-81.475
Z1.5 F333.3
Y-180.125 F850
Z3
Y-194.275
Z1.5 F333.3
Y-292.925 F850
Z3
Y-307.075
Z1.5 F333.3
Y-405.725 F850
Z3
Y-419.875
Z1.5 F333.3
Y-518.525 F850
Z3
Y-532.675
Z1.5 F333.3
Y-582 F850
G2 X-569 Y-585.075 I-3.075
G1 X-616.258
Z3
X-630.408
Z1.5 F333.3
X-724.925 F850
Z3
X-739.075
Z1.5 F333.3
X-833.592 F850
Z3
X-847.742
Z1.5 F333.3
X-895 F850
G2 X-898.075 Y-582 J3.075
G1 Y-532.675
Z3
Y-518.525
Z1.5 F333.3
Y-419.875 F850
Z3
Y-405.725
Z1.5 F333.3
Y-307.075 F850
Z3
Y-292.925
Z1.5 F333.3
Y-194.275 F850
Z3
Y-180.125
Z1.5 F333.3
Y-81.475 F850
Z3
Y-67.325
Z1.5 F333.3
Y-18 F850
G2 X-895 Y-14.925 I3.075
G1 X-847.742
Z3
X-833.592
Z1.5 F333.3
X-739.075 F850
Z3
X-724.925
Z1.5 F333.3
X-630.408 F850
Z3
X-616.258
Z1.5 F333.3
X-569 F850
G2 X-565.925 Y-18 Z1.446 J-3.075 F350
G1 Y-67.325 Z0.898
Z3
Y-81.475
Z0.741 F333.3
Y-148.119 Z0 F350
Y-180.125 F850
Z3
Y-194.275
Z0 F333.3
Y-292.925 F850
Z3
Y-307.075
Z0 F333.3
Y-405.725 F850
Z3
Y-419.875
Z0 F333.3
Y-518.525 F850
Z3
Y-532.675
Z0 F333.3
Y-582 F850
G2 X-569 Y-585.075 I-3.075
G1 X-616.258
Z3
X-630.408
Z0 F333.3
X-724.925 F850
Z3
X-739.075
Z0 F333.3
X-833.592 F850
Z3
X-847.742
Z0 F333.3
X-895 F850
G2 X-898.075 Y-582 J3.075
G1 Y-532.675
Z3
Y-518.525
Z0 F333.3
Y-419.875 F850
Z3
Y-405.725
Z0 F333.3
Y-307.075 F850
Z3
Y-292.925
Z0 F333.3
Y-194.275 F850
Z3
Y-180.125
Z0 F333.3
Y-81.475 F850
Z3
Y-67.325
Z0 F333.3
Y-18 F850
G2 X-895 Y-14.925 I3.075
G1 X-847.742
Z3
X-833.592
Z0 F333.3
X-739.075 F850
Z3
X-724.925
Z0 F333.3
X-630.408 F850
Z3
X-616.258
Z0 F333.3
X-569 F850
G2 X-565.925 Y-18 J-3.075
G1 Y-67.325
Z3
Y-81.475
Z0 F333.3
Y-148.119 F850
G0 Z14
X-232.075 Y-35.855
G1 Z5.5 F333.3
Y-18 Z2.352 F350
G2 X-229 Y-14.925 Z1.5 I3.075
G1 X-179.575 F850
Z3
X-165.425
Z1.5 F333.3
X-66.575 F850
Z3
X-52.425
Z1.5 F333.3
X-3 F850
G2 X0.075 Y-18 J-3.075
G1 Y-67.025
Z3
Y-81.175
Z1.5 F333.3
Y-179.225 F850
Z3
Y-193.375
Z1.5 F333.3
Y-291.425 F850
Z3
Y-305.575
Z1.5 F333.3
Y-403.625 F850
Z3
Y-417.775
Z1.5 F333.3
Y-515.825 F850
Z3
Y-529.975
Z1.5 F333.3
Y-579 F850
G2 X-3 Y-582.075 I-3.075
G1 X-52.425
Z3
X-66.575
Z1.5 F333.3
X-165.425 F850
Z3
X-179.575
Z1.5 F333.3
X-229 F850
G2 X-232.075 Y-579 J3.075
G1 Y-532.675
Z3
Y-515.825
Z1.5 F333.3
Y-419.875 F850
Z3
Y-403.625
Z1.5 F333.3
Y-307.075 F850
Z3
Y-291.425
Z1.5 F333.3
Y-194.275 F850
Z3
Y-179.225
Z1.5 F333.3
Y-81.475 F850
Z3
Y-67.025
Z1.5 F333.3
Y-18 F850
G2 X-229 Y-14.925 I3.075
G1 X-179.575 Z0.88 F350
Z3
X-165.425
Z0.702 F333.3
X-109.501 Z0 F350
X-66.575 F850
Z3
X-52.425
Z0 F333.3
X-3 F850
G2 X0.075 Y-18 J-3.075
G1 Y-67.025
Z3
Y-81.175
Z0 F333.3
Y-179.225 F850
Z3
Y-193.375
Z0 F333.3
Y-291.425 F850
Z3
Y-305.575
Z0 F333.3
Y-403.625 F850
Z3
Y-417.775
Z0 F333.3
Y-515.825 F850
Z3
Y-529.975
Z0 F333.3
Y-579 F850
G2 X-3 Y-582.075 I-3.075
G1 X-52.425
Z3
X-66.575
Z0 F333.3
X-165.425 F850
Z3
X-179.575
Z0 F333.3
X-229 F850
G2 X-232.075 Y-579 J3.075
G1 Y-532.675
Z3
Y-515.825
Z0 F333.3
Y-419.875 F850
Z3
Y-403.625
Z0 F333.3
Y-307.075 F850
Z3
Y-291.425
Z0 F333.3
Y-194.275 F850
Z3
Y-179.225
Z0 F333.3
Y-81.475 F850
Z3
Y-67.025
Z0 F333.3
Y-18 F850
G2 X-229 Y-14.925 I3.075
G1 X-179.575
Z3
X-165.425
Z0 F333.3
X-109.501 F850
G0 Z14
X-471.685
G1 Z4 F333.3
X-449 Z0 F350
X-406.075 F850
Z3
X-391.925
Z0 F333.3
X-297.408 F850
Z3
X-283.258
Z0 F333.3
X-236 F850
G2 X-232.925 Y-18 J-3.075
G1 Y-67.025
Z3
Y-81.475
Z0 F333.3
Y-179.225 F850
Z3
Y-194.275
Z0 F333.3
Y-291.425 F850
Z3
Y-307.075
Z0 F333.3
Y-403.625 F850
Z3
Y-419.875
Z0 F333.3
Y-515.825 F850
Z3
Y-532.675
Z0 F333.3
Y-582 F850
G2 X-236 Y-585.075 I-3.075
G1 X-283.258
Z3
X-297.408
Z0 F333.3
X-391.925 F850
Z3
X-406.075
Z0 F333.3
X-500.592 F850
Z3
X-514.742
Z0 F333.3
X-562 F850
G2 X-565.075 Y-582 J3.075
G1 Y-532.675
Z3
Y-518.525
Z0 F333.3
Y-419.875 F850
Z3
Y-405.725
Z0 F333.3
Y-307.075 F850
Z3
Y-292.925
Z0 F333.3
Y-194.275 F850
Z3
Y-180.125
Z0 F333.3
Y-81.475 F850
Z3
Y-67.325
Z0 F333.3
Y-18 F850
G2 X-562 Y-14.925 I3.075
G1 X-514.742
Z3
X-500.592
Z0 F333.3
X-449 F850
G0 Z24
M30
%
