%
(1001)
(origin stock top)
(T1  D=6.15 CR=0 - ZMIN=0 - flat end mill)
G90 G94
G17
G21

(2D Contour3)
M9
T1 M6
S6000 M3
G54
G0 X-768.075 Y-605
Z18.25
Z8.25
G1 Z5.75 F333.3
Z1.75
Y-350 F850
G2 X-765 Y-346.925 I3.075
G1 X-510
G3 X-463.075 Y-300 J46.925
G1 Y-250
G2 X-460 Y-246.925 I3.075
G1 X-30
G2 X-26.925 Y-250 J-3.075
G1 Y-600
Y-605
G0 Z8.25
X-768.075
G1 Z4.25 F333.3
Z0.875
Y-545.575 F850
Z1.5
Y-529.425
Z0.875 F333.3
Y-420.575 F850
Z1.5
Y-404.425
Z0.875 F333.3
Y-350 F850
G2 X-765 Y-346.925 I3.075
G1 X-709.325
Z1.5
X-693.175
Z0.875 F333.3
X-581.825 F850
Z1.5
X-565.675
Z0.875 F333.3
X-510 F850
G3 X-463.075 Y-300 J46.925
G1 Y-250
G2 X-460 Y-246.925 I3.075
G1 X-414.325
Z1.5
X-398.175
Z0.875 F333.3
X-306.825 F850
Z1.5
X-290.675
Z0.875 F333.3
X-199.325 F850
Z1.5
X-183.175
Z0.875 F333.3
X-91.825 F850
Z1.5
X-75.675
Z0.875 F333.3
X-30 F850
G2 X-26.925 Y-250 J-3.075
G1 Y-300.258
Z1.5
Y-316.408
Z0.875 F333.3
Y-416.925 F850
Z1.5
Y-433.075
Z0.875 F333.3
Y-533.592 F850
Z1.5
Y-549.742
Z0.875 F333.3
Y-605 F850
G0 Z8.25
X-768.075
G1 Z3.375 F333.3
Z0
Y-545.575 F850
Z1.5
Y-529.425
Z0 F333.3
Y-420.575 F850
Z1.5
Y-404.425
Z0 F333.3
Y-350 F850
G2 X-765 Y-346.925 I3.075
G1 X-709.325
Z1.5
X-693.175
Z0 F333.3
X-581.825 F850
Z1.5
X-565.675
Z0 F333.3
X-510 F850
G3 X-463.075 Y-300 J46.925
G1 Y-250
G2 X-460 Y-246.925 I3.075
G1 X-414.325
Z1.5
X-398.175
Z0 F333.3
X-306.825 F850
Z1.5
X-290.675
Z0 F333.3
X-199.325 F850
Z1.5
X-183.175
Z0 F333.3
X-91.825 F850
Z1.5
X-75.675
Z0 F333.3
X-30 F850
G2 X-26.925 Y-250 J-3.075
G1 Y-300.258
Z1.5
Y-316.408
Z0 F333.3
Y-416.925 F850
Z1.5
Y-433.075
Z0 F333.3
Y-533.592 F850
Z1.5
Y-549.742
Z0 F333.3
Y-605 F850
G0 Z18.25
M30
%
