%
(1001)
(origin stock top)
(T1  D=6.15 CR=0 - ZMIN=0 - flat end mill)
G90 G94
G17
G21

(2D Contour1)
M9
T1 M6
S6000 M3
G54
G0 X-733.075 Y-305
Z30
Z20
G1 Z17.5 F333.3
Z13.5
Y5 F850
G0 Z20
X-733.925
G1 Z17.5 F333.3
Z13.5
Y-305 F850
G0 Z20
X-733.075
G1 Z16 F333.3
Z12
Y5 F850
G0 Z20
X-733.925
G1 Z16 F333.3
Z12
Y-305 F850
G0 Z20
X-733.075
G1 Z14.5 F333.3
Z10.5
Y5 F850
G0 Z20
X-733.925
G1 Z14.5 F333.3
Z10.5
Y-305 F850
G0 Z20
X-733.075
G1 Z13 F333.3
Z9
Y5 F850
G0 Z20
X-733.925
G1 Z13 F333.3
Z9
Y-305 F850
G0 Z20
X-733.075
G1 Z11.5 F333.3
Z7.5
Y5 F850
G0 Z20
X-733.925
G1 Z11.5 F333.3
Z7.5
Y-305 F850
G0 Z20
X-733.075
G1 Z10 F333.3
Z6
Y5 F850
G0 Z20
X-733.925
G1 Z10 F333.3
Z6
Y-305 F850
G0 Z20
X-733.075
G1 Z8.5 F333.3
Z4.5
Y5 F850
G0 Z20
X-733.925
G1 Z8.5 F333.3
Z4.5
Y-305 F850
G0 Z20
X-733.075
G1 Z7 F333.3
Z3
Y-269.575 F850
Z4
Y-255.425
Z3 F333.3
Y-194.575 F850
Z4
Y-180.425
Z3 F333.3
Y-119.575 F850
Z4
Y-105.425
Z3 F333.3
Y-44.575 F850
Z4
Y-30.425
Z3 F333.3
Y5 F850
G0 Z20
X-733.925
G1 Z7 F333.3
Z3
Y-30.425 F850
Z4
Y-44.575
Z3 F333.3
Y-105.425 F850
Z4
Y-119.575
Z3 F333.3
Y-180.425 F850
Z4
Y-194.575
Z3 F333.3
Y-255.425 F850
Z4
Y-269.575
Z3 F333.3
Y-305 F850
G0 Z20
X-733.075
G1 Z5.5 F333.3
Z1.5
Y-269.575 F850
Z4
Y-255.425
Z1.5 F333.3
Y-194.575 F850
Z4
Y-180.425
Z1.5 F333.3
Y-119.575 F850
Z4
Y-105.425
Z1.5 F333.3
Y-44.575 F850
Z4
Y-30.425
Z1.5 F333.3
Y5 F850
G0 Z20
X-733.925
G1 Z5.5 F333.3
Z1.5
Y-30.425 F850
Z4
Y-44.575
Z1.5 F333.3
Y-105.425 F850
Z4
Y-119.575
Z1.5 F333.3
Y-180.425 F850
Z4
Y-194.575
Z1.5 F333.3
Y-255.425 F850
Z4
Y-269.575
Z1.5 F333.3
Y-305 F850
G0 Z20
X-733.075
G1 Z4 F333.3
Z0
Y-269.575 F850
Z4
Y-255.425
Z0 F333.3
Y-194.575 F850
Z4
Y-180.425
Z0 F333.3
Y-119.575 F850
Z4
Y-105.425
Z0 F333.3
Y-44.575 F850
Z4
Y-30.425
Z0 F333.3
Y5 F850
G0 Z20
X-733.925
G1 Z4 F333.3
Z0
Y-30.425 F850
Z4
Y-44.575
Z0 F333.3
Y-105.425 F850
Z4
Y-119.575
Z0 F333.3
Y-180.425 F850
Z4
Y-194.575
Z0 F333.3
Y-255.425 F850
Z4
Y-269.575
Z0 F333.3
Y-305 F850
G0 Z20
X-1090.075
G1 Z17.5 F333.3
Z13.5
Y5 F850
G0 Z20
Y-305
G1 Z16 F333.3
Z12
Y5 F850
G0 Z20
Y-305
G1 Z14.5 F333.3
Z10.5
Y5 F850
G0 Z20
Y-305
G1 Z13 F333.3
Z9
Y5 F850
G0 Z20
Y-305
G1 Z11.5 F333.3
Z7.5
Y5 F850
G0 Z20
Y-305
G1 Z10 F333.3
Z6
Y5 F850
G0 Z20
Y-305
G1 Z8.5 F333.3
Z4.5
Y5 F850
G0 Z20
Y-305
G1 Z7 F333.3
Z3
Y-269.575 F850
Z4
Y-255.425
Z3 F333.3
Y-194.575 F850
Z4
Y-180.425
Z3 F333.3
Y-119.575 F850
Z4
Y-105.425
Z3 F333.3
Y-44.575 F850
Z4
Y-30.425
Z3 F333.3
Y5 F850
G0 Z20
Y-305
G1 Z5.5 F333.3
Z1.5
Y-269.575 F850
Z4
Y-255.425
Z1.5 F333.3
Y-194.575 F850
Z4
Y-180.425
Z1.5 F333.3
Y-119.575 F850
Z4
Y-105.425
Z1.5 F333.3
Y-44.575 F850
Z4
Y-30.425
Z1.5 F333.3
Y5 F850
G0 Z20
Y-305
G1 Z4 F333.3
Z0
Y-269.575 F850
Z4
Y-255.425
Z0 F333.3
Y-194.575 F850
Z4
Y-180.425
Z0 F333.3
Y-119.575 F850
Z4
Y-105.425
Z0 F333.3
Y-44.575 F850
Z4
Y-30.425
Z0 F333.3
Y5 F850
G0 Z20
X-21.925
G1 Z17.5 F333.3
Z13.5
Y-305 F850
G0 Z20
Y5
G1 Z16 F333.3
Z12
Y-305 F850
G0 Z20
Y5
G1 Z14.5 F333.3
Z10.5
Y-305 F850
G0 Z20
Y5
G1 Z13 F333.3
Z9
Y-305 F850
G0 Z20
Y5
G1 Z11.5 F333.3
Z7.5
Y-305 F850
G0 Z20
Y5
G1 Z10 F333.3
Z6
Y-305 F850
G0 Z20
Y5
G1 Z8.5 F333.3
Z4.5
Y-305 F850
G0 Z20
Y5
G1 Z7 F333.3
Z3
Y-30.425 F850
Z4
Y-44.575
Z3 F333.3
Y-105.425 F850
Z4
Y-119.575
Z3 F333.3
Y-180.425 F850
Z4
Y-194.575
Z3 F333.3
Y-255.425 F850
Z4
Y-269.575
Z3 F333.3
Y-305 F850
G0 Z20
Y5
G1 Z5.5 F333.3
Z1.5
Y-30.425 F850
Z4
Y-44.575
Z1.5 F333.3
Y-105.425 F850
Z4
Y-119.575
Z1.5 F333.3
Y-180.425 F850
Z4
Y-194.575
Z1.5 F333.3
Y-255.425 F850
Z4
Y-269.575
Z1.5 F333.3
Y-305 F850
G0 Z20
Y5
G1 Z4 F333.3
Z0
Y-30.425 F850
Z4
Y-44.575
Z0 F333.3
Y-105.425 F850
Z4
Y-119.575
Z0 F333.3
Y-180.425 F850
Z4
Y-194.575
Z0 F333.3
Y-255.425 F850
Z4
Y-269.575
Z0 F333.3
Y-305 F850
G0 Z30
M30
%
