%
(1001)
(origin stock bottom)
(T1  D=6.15 CR=0 - ZMIN=0 - flat end mill)
G90 G94
G17
G21

(2D Contour3)
M9
T1 M6
S6000 M3
G54
G0 X-617.702 Y-18.372
Z18.25
Z8.25
G1 Z5.75 F333.3
X-601.981 Y-5.181 Z2.131 F350
G2 X-599.988 Y-4.461 Z1.75 I1.977 J-2.356
X-597.641 Y-5.569 I-0.016 J-3.075 F850
X-481.853 Y-302.442 I-386.667 J-321.826
X-482.947 Y-304.951 I-3.071 J-0.153
G1 X-513.589 Y-330.662
X-513.746 Y-330.785
X-514.882 Y-331.619
X-514.932 Y-331.654
X-516.084 Y-332.465
X-516.136 Y-332.501
X-517.304 Y-333.288
X-517.354 Y-333.322
X-518.536 Y-334.085
X-518.588 Y-334.117
X-519.786 Y-334.857
X-519.839 Y-334.889
X-521.052 Y-335.605
X-521.104 Y-335.635
X-522.332 Y-336.328
X-522.384 Y-336.357
X-523.627 Y-337.027
X-523.682 Y-337.056
X-524.941 Y-337.702
X-524.996 Y-337.729
X-526.27 Y-338.351
X-526.323 Y-338.377
X-527.612 Y-338.976
X-527.667 Y-339.001
X-528.971 Y-339.576
X-529.025 Y-339.599
X-530.344 Y-340.151
X-530.4 Y-340.173
X-531.735 Y-340.701
X-531.789 Y-340.722
X-533.139 Y-341.227
X-533.194 Y-341.247
X-534.559 Y-341.728
X-534.612 Y-341.746
X-535.992 Y-342.204
X-536.048 Y-342.222
X-537.444 Y-342.656
X-537.496 Y-342.672
X-538.906 Y-343.083
X-538.96 Y-343.098
X-540.386 Y-343.486
X-540.44 Y-343.5
X-541.881 Y-343.864
X-541.933 Y-343.877
X-543.389 Y-344.218
X-543.44 Y-344.23
X-544.911 Y-344.548
X-544.964 Y-344.558
X-546.449 Y-344.852
X-546.498 Y-344.862
X-547.999 Y-345.134
X-548.049 Y-345.142
X-549.565 Y-345.391
X-549.616 Y-345.399
X-551.147 Y-345.624
X-551.194 Y-345.631
X-552.74 Y-345.834
X-552.788 Y-345.84
X-554.348 Y-346.02
X-554.393 Y-346.025
X-555.968 Y-346.183
X-556.015 Y-346.187
X-557.605 Y-346.322
X-557.649 Y-346.325
X-559.253 Y-346.438
X-559.296 Y-346.441
X-560.914 Y-346.532
X-560.957 Y-346.534
X-562.59 Y-346.603
X-562.632 Y-346.605
X-564.279 Y-346.652
X-564.321 Y-346.653
X-565.983 Y-346.678
X-566.022
X-567.697 Y-346.682
X-567.735
X-569.424 Y-346.665
X-569.462 Y-346.664
X-571.165 Y-346.626
X-571.202 Y-346.625
X-572.919 Y-346.566
X-572.955 Y-346.565
X-574.685 Y-346.485
X-574.717 Y-346.483
X-576.46 Y-346.384
X-576.496 Y-346.382
X-578.253 Y-346.262
X-578.284 Y-346.26
X-580.053 Y-346.121
X-580.084 Y-346.118
X-581.866 Y-345.96
X-581.897 Y-345.957
X-583.692 Y-345.779
X-583.721 Y-345.776
X-585.528 Y-345.58
X-585.555 Y-345.577
X-587.375 Y-345.363
X-587.401 Y-345.36
X-589.232 Y-345.129
X-589.26 Y-345.125
X-591.103 Y-344.875
X-591.127 Y-344.872
X-592.981 Y-344.606
X-593.004 Y-344.602
X-594.869 Y-344.32
X-594.893 Y-344.317
X-596.77 Y-344.018
X-596.791 Y-344.014
X-598.677 Y-343.7
X-598.697 Y-343.697
X-600.594 Y-343.368
X-600.613 Y-343.364
X-602.52 Y-343.021
X-602.541 Y-343.018
X-604.458 Y-342.66
X-604.473 Y-342.657
X-606.398 Y-342.287
X-606.415 Y-342.283
X-608.35 Y-341.9
X-608.366 Y-341.897
X-610.309 Y-341.502
X-610.33 Y-341.498
X-614.24 Y-340.674
X-614.264 Y-340.669
X-618.203 Y-339.806
X-618.224 Y-339.801
X-622.189 Y-338.904
X-622.205 Y-338.9
X-626.192 Y-337.975
X-626.204 Y-337.973
X-630.21 Y-337.027
X-630.218 Y-337.025
X-634.237 Y-336.064
X-634.24 Y-336.063
X-642.302 Y-334.128
X-646.332 Y-333.167
X-650.354 Y-332.222
X-654.365 Y-331.3
X-658.359 Y-330.408
X-662.335 Y-329.552
X-664.309 Y-329.142
X-666.279 Y-328.743
X-668.241 Y-328.357
X-670.194 Y-327.986
X-672.14 Y-327.628
X-674.074 Y-327.287
X-676 Y-326.963
X-677.915 Y-326.656
X-679.819 Y-326.367
X-681.71 Y-326.097
X-683.589 Y-325.848
X-685.456 Y-325.62
X-687.309 Y-325.413
X-689.146 Y-325.228
X-690.969 Y-325.068
X-692.779 Y-324.931
X-694.571 Y-324.817
X-696.348 Y-324.73
X-698.108 Y-324.669
X-699.85 Y-324.634
X-701.574 Y-324.627
X-703.281 Y-324.647
X-704.97 Y-324.696
X-706.638 Y-324.773
X-708.286 Y-324.881
X-709.917 Y-325.018
X-711.525 Y-325.184
X-713.115 Y-325.382
X-714.683 Y-325.611
X-716.229 Y-325.872
X-717.755 Y-326.164
X-719.26 Y-326.487
X-720.742 Y-326.844
X-722.205 Y-327.233
X-723.653 Y-327.657
X-724.355 Y-327.877
X-725.06 Y-328.108
X-725.762 Y-328.349
X-726.46 Y-328.597
X-727.147 Y-328.852
X-727.832 Y-329.118
X-728.511 Y-329.39
X-729.184 Y-329.672
X-729.855 Y-329.963
X-730.516 Y-330.26
X-731.174 Y-330.567
X-731.828 Y-330.882
X-732.474 Y-331.205
X-733.115 Y-331.537
X-733.754 Y-331.879
X-734.384 Y-332.226
X-735.01 Y-332.584
X-735.633 Y-332.951
X-736.249 Y-333.324
X-736.86 Y-333.707
X-737.464 Y-334.097
X-738.066 Y-334.498
X-738.662 Y-334.906
X-739.251 Y-335.322
X-739.838 Y-335.748
X-740.42 Y-336.183
X-740.996 Y-336.624
X-741.565 Y-337.073
X-742.132 Y-337.534
X-742.694 Y-338.001
X-743.249 Y-338.477
X-743.795 Y-338.955
X-744.89 Y-339.955
X-745.961 Y-340.983
X-747.013 Y-342.043
X-748.045 Y-343.135
X-749.06 Y-344.26
X-750.056 Y-345.417
X-751.034 Y-346.606
X-751.995 Y-347.827
X-752.937 Y-349.078
X-753.862 Y-350.36
X-754.77 Y-351.672
X-755.661 Y-353.012
X-756.534 Y-354.381
X-757.392 Y-355.778
X-758.231 Y-357.203
X-759.056 Y-358.655
X-759.864 Y-360.131
X-760.657 Y-361.634
X-761.434 Y-363.16
X-762.195 Y-364.71
X-762.941 Y-366.283
X-763.673 Y-367.879
X-764.391 Y-369.494
X-765.094 Y-371.13
X-765.784 Y-372.786
X-766.46 Y-374.459
X-767.122 Y-376.152
X-767.773 Y-377.861
X-768.411 Y-379.584
X-769.036 Y-381.324
X-769.651 Y-383.078
X-770.253 Y-384.844
X-770.845 Y-386.624
X-771.426 Y-388.414
X-771.997 Y-390.215
X-772.557 Y-392.026
X-773.109 Y-393.845
X-773.651 Y-395.673
X-774.183 Y-397.503
X-775.226 Y-401.193
X-776.237 Y-404.896
X-777.221 Y-408.612
X-778.18 Y-412.331
X-779.117 Y-416.048
X-780.034 Y-419.756
X-781.822 Y-427.134
X-783.56 Y-434.416
X-785.265 Y-441.568
X-785.267 Y-441.576
X-786.952 Y-448.562
X-786.954 Y-448.572
X-787.792 Y-451.996
X-787.795 Y-452.006
X-788.633 Y-455.379
X-788.635 Y-455.389
X-789.472 Y-458.711
X-789.476 Y-458.726
X-790.316 Y-461.993
X-790.319 Y-462.006
X-791.16 Y-465.217
X-791.165 Y-465.234
X-792.01 Y-468.387
X-792.014 Y-468.404
X-792.862 Y-471.499
X-792.868 Y-471.518
X-793.721 Y-474.552
X-793.727 Y-474.573
X-794.585 Y-477.546
X-794.591 Y-477.568
X-795.455 Y-480.478
X-795.462 Y-480.501
X-796.332 Y-483.349
X-796.34 Y-483.374
X-797.216 Y-486.158
X-797.224 Y-486.185
X-798.107 Y-488.904
X-798.116 Y-488.931
X-799.006 Y-491.587
X-799.016 Y-491.615
X-799.912 Y-494.205
X-799.923 Y-494.236
X-800.827 Y-496.762
X-800.839 Y-496.795
X-801.751 Y-499.255
X-801.763 Y-499.287
X-802.682 Y-501.683
X-802.695 Y-501.718
X-803.621 Y-504.048
X-803.636 Y-504.084
X-804.57 Y-506.349
X-804.586 Y-506.386
X-805.527 Y-508.586
X-805.544 Y-508.626
X-806.493 Y-510.76
G2 X-811.659 Y-511.488 I-2.81 J1.25
G1 X-972.356 Y-319.977
G2 X-971.977 Y-315.644 I2.356 J1.977
G1 X-601.981 Y-5.181
G2 X-599.988 Y-4.461 I1.977 J-2.356
G0 Z8.25
X-1151.885 Y-36.327
G1 Z5.75 F333.3
G2 X-1129.246 Y-37.745 Z1.75 I-20.115 J-502.673 F350
X-868.143 Y-138.057 I-42.754 J-501.255 F850
X-866.925 Y-140.508 I-1.857 J-2.451
G1 Y-180.508
X-866.932 Y-180.709
X-867.024 Y-182.116
X-867.028 Y-182.177
X-867.148 Y-183.58
X-867.154 Y-183.639
X-867.301 Y-185.039
X-867.308 Y-185.1
X-867.483 Y-186.497
X-867.491 Y-186.558
X-867.694 Y-187.951
X-867.704 Y-188.012
X-867.935 Y-189.402
X-867.945 Y-189.463
X-868.204 Y-190.849
X-868.216 Y-190.907
X-868.502 Y-192.289
X-868.515 Y-192.35
X-868.83 Y-193.73
X-868.844 Y-193.788
X-869.186 Y-195.163
X-869.201 Y-195.221
X-869.571 Y-196.594
X-869.587 Y-196.65
X-869.984 Y-198.019
X-870.002 Y-198.079
X-870.428 Y-199.444
X-870.445 Y-199.498
X-870.898 Y-200.86
X-870.917 Y-200.917
X-871.398 Y-202.275
X-871.418 Y-202.329
X-871.927 Y-203.685
X-871.948 Y-203.738
X-872.484 Y-205.089
X-872.505 Y-205.142
X-873.069 Y-206.49
X-873.092 Y-206.542
X-873.684 Y-207.887
X-873.707 Y-207.938
X-874.327 Y-209.279
X-874.35 Y-209.328
X-874.997 Y-210.666
X-875.021 Y-210.715
X-875.696 Y-212.049
X-875.72 Y-212.097
X-876.422 Y-213.428
X-876.446 Y-213.473
X-877.175 Y-214.801
X-877.202 Y-214.847
X-877.958 Y-216.171
X-877.984 Y-216.214
X-878.768 Y-217.535
X-878.793 Y-217.577
X-879.604 Y-218.895
X-879.63 Y-218.937
X-880.468 Y-220.251
X-880.494 Y-220.291
X-881.359 Y-221.602
X-881.385 Y-221.64
X-882.276 Y-222.948
X-882.302 Y-222.986
X-883.22 Y-224.291
X-883.247 Y-224.329
X-884.192 Y-225.63
X-884.218 Y-225.665
X-885.189 Y-226.963
X-885.214 Y-226.997
X-886.211 Y-228.292
X-886.237 Y-228.325
X-887.26 Y-229.617
X-887.285 Y-229.648
X-888.333 Y-230.937
X-888.359 Y-230.968
X-889.433 Y-232.254
X-889.458 Y-232.283
X-890.557 Y-233.566
X-890.581 Y-233.595
X-891.705 Y-234.875
X-891.73 Y-234.903
X-892.879 Y-236.18
X-892.901 Y-236.204
X-894.073 Y-237.479
X-894.098 Y-237.506
X-895.295 Y-238.777
X-895.318 Y-238.801
X-896.539 Y-240.07
X-896.562 Y-240.093
X-897.806 Y-241.359
X-897.828 Y-241.382
X-899.095 Y-242.645
X-899.116 Y-242.665
X-900.405 Y-243.926
X-900.426 Y-243.947
X-901.738 Y-245.206
X-901.758 Y-245.225
X-903.091 Y-246.481
X-903.111 Y-246.5
X-904.466 Y-247.754
X-904.486 Y-247.771
X-905.861 Y-249.022
X-905.88 Y-249.04
X-907.276 Y-250.289
X-907.293 Y-250.304
X-908.709 Y-251.552
X-908.726 Y-251.567
X-910.16 Y-252.812
X-910.177 Y-252.827
X-911.631 Y-254.071
X-911.647 Y-254.084
X-913.118 Y-255.325
X-913.133 Y-255.338
X-914.622 Y-256.578
X-914.636 Y-256.589
X-916.141 Y-257.828
X-916.156 Y-257.84
X-917.678 Y-259.077
X-917.69 Y-259.087
X-919.227 Y-260.323
X-919.24 Y-260.334
X-920.792 Y-261.568
X-920.808 Y-261.581
X-923.952 Y-264.047
X-923.972 Y-264.062
X-927.165 Y-266.525
X-927.182 Y-266.538
X-930.418 Y-268.999
X-930.432 Y-269.009
X-933.704 Y-271.468
X-933.713 Y-271.475
X-937.012 Y-273.935
X-937.018 Y-273.94
X-940.337 Y-276.402
X-940.34 Y-276.404
X-947.006 Y-281.335
X-950.332 Y-283.805
X-953.641 Y-286.279
X-956.925 Y-288.758
X-960.176 Y-291.244
X-963.387 Y-293.74
X-964.969 Y-294.988
X-966.542 Y-296.242
X-968.099 Y-297.496
X-969.639 Y-298.754
X-971.162 Y-300.014
X-972.668 Y-301.278
X-974.154 Y-302.544
X-975.62 Y-303.814
X-977.065 Y-305.087
X-978.488 Y-306.362
X-979.886 Y-307.641
X-981.261 Y-308.924
X-982.61 Y-310.21
X-983.933 Y-311.5
X-985.229 Y-312.794
X-986.497 Y-314.091
X-987.736 Y-315.391
X-988.944 Y-316.696
X-990.122 Y-318.005
X-991.268 Y-319.317
X-992.383 Y-320.634
X-993.464 Y-321.954
X-994.511 Y-323.278
X-995.525 Y-324.607
X-996.503 Y-325.939
X-997.447 Y-327.277
X-998.355 Y-328.614
X-999.22 Y-329.958
X-1000.057 Y-331.31
X-1000.852 Y-332.66
X-1001.606 Y-334.014
X-1002.322 Y-335.373
X-1003.003 Y-336.745
X-1003.65 Y-338.114
X-1004.25 Y-339.49
X-1004.531 Y-340.169
X-1004.814 Y-340.877
X-1005.089 Y-341.569
X-1005.339 Y-342.245
X-1005.586 Y-342.939
X-1005.823 Y-343.634
X-1006.051 Y-344.33
X-1006.269 Y-345.029
X-1006.477 Y-345.73
X-1006.671 Y-346.411
X-1006.851 Y-347.113
X-1007.036 Y-347.836
X-1007.206 Y-348.542
X-1007.367 Y-349.248
X-1007.515 Y-349.937
X-1007.647 Y-350.646
X-1007.783 Y-351.377
X-1007.903 Y-352.07
X-1008.007 Y-352.784
X-1008.111 Y-353.5
X-1008.196 Y-354.217
X-1008.282 Y-354.935
X-1008.346 Y-355.635
X-1008.404 Y-356.376
X-1008.461 Y-357.1
X-1008.498 Y-357.804
X-1008.527 Y-358.55
X-1008.556 Y-359.278
X-1008.565 Y-359.987
Y-360.738
Y-361.47
X-1008.547 Y-362.175
X-1008.479 Y-363.667
X-1008.384 Y-365.155
X-1008.251 Y-366.64
X-1008.079 Y-368.13
X-1007.87 Y-369.626
X-1007.622 Y-371.129
X-1007.334 Y-372.647
X-1007.015 Y-374.178
X-1006.671 Y-375.697
X-1006.276 Y-377.229
X-1005.86 Y-378.775
X-1005.409 Y-380.308
X-1004.915 Y-381.862
X-1004.4 Y-383.42
X-1003.85 Y-384.974
X-1003.267 Y-386.539
X-1002.654 Y-388.107
X-1002.012 Y-389.678
X-1001.338 Y-391.259
X-1000.643 Y-392.842
X-999.923 Y-394.419
X-999.172 Y-395.999
X-998.385 Y-397.594
X-997.59 Y-399.188
X-996.765 Y-400.775
X-995.917 Y-402.371
X-995.046 Y-403.967
X-994.156 Y-405.563
X-993.245 Y-407.159
X-992.315 Y-408.757
X-991.366 Y-410.354
X-990.399 Y-411.952
X-989.417 Y-413.549
X-988.419 Y-415.144
X-987.406 Y-416.739
X-986.379 Y-418.333
X-985.34 Y-419.924
X-984.289 Y-421.513
X-983.228 Y-423.098
X-981.072 Y-426.27
X-978.885 Y-429.426
X-976.672 Y-432.567
X-974.44 Y-435.692
X-972.194 Y-438.799
X-969.943 Y-441.885
X-965.439 Y-447.998
X-960.979 Y-454.01
X-956.596 Y-459.913
X-956.591 Y-459.919
X-952.322 Y-465.7
X-952.316 Y-465.709
X-950.232 Y-468.552
X-950.226 Y-468.56
X-948.18 Y-471.37
X-948.173 Y-471.38
X-946.168 Y-474.157
X-946.161 Y-474.166
X-944.197 Y-476.908
X-944.188 Y-476.922
X-942.269 Y-479.631
X-942.259 Y-479.644
X-940.386 Y-482.318
X-940.376 Y-482.333
X-938.551 Y-484.972
X-938.54 Y-484.988
X-936.764 Y-487.592
X-936.751 Y-487.61
X-935.026 Y-490.178
X-935.014 Y-490.197
X-933.339 Y-492.73
X-933.326 Y-492.75
X-931.704 Y-495.246
X-931.689 Y-495.269
X-930.12 Y-497.73
X-930.106 Y-497.752
X-928.59 Y-500.176
X-928.574 Y-500.202
X-927.112 Y-502.591
X-927.097 Y-502.617
X-925.689 Y-504.969
X-925.672 Y-504.996
X-924.318 Y-507.312
X-924.301 Y-507.342
X-923.002 Y-509.622
X-922.985 Y-509.653
X-921.741 Y-511.896
X-921.723 Y-511.928
X-920.533 Y-514.136
X-920.515 Y-514.17
X-919.38 Y-516.341
X-919.361 Y-516.378
X-918.281 Y-518.513
X-918.262 Y-518.552
X-917.237 Y-520.651
G2 X-920 Y-525.075 I-2.763 J-1.349
G1 X-1170
G2 X-1173.075 Y-522 J3.075
G1 Y-39.004
G2 X-1169.988 Y-35.929 I3.075
X-1129.246 Y-37.745 I-2.013 J-503.071
X-1062.706 Y-47.941 Z0.875 I-42.754 J-501.255 F350
X-1018.434 Y-59.936 I-109.294 J-491.059 F850
G1 Z1.5
G2 X-1003.136 Y-65.112 I-153.566 J-479.064
G1 Z0.875 F333.3
G2 X-919.835 Y-103.687 I-168.864 J-473.888 F850
G1 Z1.5
G2 X-905.992 Y-112.006 I-252.165 J-435.313
G1 Z0.875 F333.3
G2 X-868.143 Y-138.057 I-266.008 J-426.994 F850
X-866.925 Y-140.508 I-1.857 J-2.451
G1 Y-180.508
X-866.932 Y-180.709
X-867.024 Y-182.116
X-867.028 Y-182.177
X-867.148 Y-183.58
X-867.154 Y-183.639
X-867.301 Y-185.039
X-867.308 Y-185.1
X-867.483 Y-186.497
X-867.491 Y-186.558
X-867.694 Y-187.951
X-867.704 Y-188.012
X-867.935 Y-189.402
X-867.945 Y-189.463
X-868.204 Y-190.849
X-868.216 Y-190.907
X-868.502 Y-192.289
X-868.515 Y-192.35
X-868.83 Y-193.73
X-868.844 Y-193.788
X-869.186 Y-195.163
X-869.201 Y-195.221
X-869.571 Y-196.594
X-869.587 Y-196.65
X-869.984 Y-198.019
X-870.002 Y-198.079
X-870.428 Y-199.444
X-870.445 Y-199.498
X-870.898 Y-200.86
X-870.917 Y-200.917
X-871.398 Y-202.275
X-871.418 Y-202.329
X-871.927 Y-203.685
X-871.948 Y-203.738
X-872.484 Y-205.089
X-872.505 Y-205.142
X-873.069 Y-206.49
X-873.092 Y-206.542
X-873.684 Y-207.887
X-873.707 Y-207.938
X-874.327 Y-209.279
X-874.35 Y-209.328
X-874.997 Y-210.666
X-875.021 Y-210.715
X-875.696 Y-212.049
X-875.72 Y-212.097
X-876.422 Y-213.428
X-876.446 Y-213.473
X-877.175 Y-214.801
X-877.202 Y-214.847
X-877.958 Y-216.171
X-877.984 Y-216.214
X-878.768 Y-217.535
X-878.785 Y-217.564
Z1.5
X-878.793 Y-217.577
X-879.604 Y-218.895
X-879.63 Y-218.937
X-880.468 Y-220.251
X-880.494 Y-220.291
X-881.359 Y-221.602
X-881.385 Y-221.64
X-882.276 Y-222.948
X-882.302 Y-222.986
X-883.22 Y-224.291
X-883.247 Y-224.329
X-884.192 Y-225.63
X-884.218 Y-225.665
X-885.189 Y-226.963
X-885.214 Y-226.997
X-886.211 Y-228.292
X-886.237 Y-228.325
X-887.26 Y-229.617
X-887.285 Y-229.648
X-888.155 Y-230.718
Z0.875 F333.3
X-888.333 Y-230.937 F850
X-888.359 Y-230.968
X-889.433 Y-232.254
X-889.458 Y-232.283
X-890.557 Y-233.566
X-890.581 Y-233.595
X-891.705 Y-234.875
X-891.73 Y-234.903
X-892.879 Y-236.18
X-892.901 Y-236.204
X-894.073 Y-237.479
X-894.098 Y-237.506
X-895.295 Y-238.777
X-895.318 Y-238.801
X-896.539 Y-240.07
X-896.562 Y-240.093
X-897.806 Y-241.359
X-897.828 Y-241.382
X-899.095 Y-242.645
X-899.116 Y-242.665
X-900.405 Y-243.926
X-900.426 Y-243.947
X-901.738 Y-245.206
X-901.758 Y-245.225
X-903.091 Y-246.481
X-903.111 Y-246.5
X-904.466 Y-247.754
X-904.486 Y-247.771
X-905.861 Y-249.022
X-905.88 Y-249.04
X-907.276 Y-250.289
X-907.293 Y-250.304
X-908.709 Y-251.552
X-908.726 Y-251.567
X-910.16 Y-252.812
X-910.177 Y-252.827
X-911.631 Y-254.071
X-911.647 Y-254.084
X-913.118 Y-255.325
X-913.133 Y-255.338
X-914.622 Y-256.578
X-914.636 Y-256.589
X-916.141 Y-257.828
X-916.156 Y-257.84
X-917.678 Y-259.077
X-917.69 Y-259.087
X-919.227 Y-260.323
X-919.24 Y-260.334
X-920.792 Y-261.568
X-920.808 Y-261.581
X-923.952 Y-264.047
X-923.972 Y-264.062
X-927.165 Y-266.525
X-927.182 Y-266.538
X-930.418 Y-268.999
X-930.432 Y-269.009
X-933.704 Y-271.468
X-933.713 Y-271.475
X-937.012 Y-273.935
X-937.018 Y-273.94
X-940.337 Y-276.402
X-940.34 Y-276.404
X-947.006 Y-281.335
X-950.332 Y-283.805
X-953.641 Y-286.279
X-956.925 Y-288.758
X-960.176 Y-291.244
X-963.387 Y-293.74
X-964.969 Y-294.988
X-966.542 Y-296.242
X-967.95 Y-297.376
Z1.5
X-968.099 Y-297.496
X-969.639 Y-298.754
X-971.162 Y-300.014
X-972.668 Y-301.278
X-974.154 Y-302.544
X-975.62 Y-303.814
X-977.065 Y-305.087
X-978.488 Y-306.362
X-979.886 Y-307.641
X-980.184 Y-307.918
Z0.875 F333.3
X-981.261 Y-308.924 F850
X-982.61 Y-310.21
X-983.933 Y-311.5
X-985.229 Y-312.794
X-986.497 Y-314.091
X-987.736 Y-315.391
X-988.944 Y-316.696
X-990.122 Y-318.005
X-991.268 Y-319.317
X-992.383 Y-320.634
X-993.464 Y-321.954
X-994.511 Y-323.278
X-995.525 Y-324.607
X-996.503 Y-325.939
X-997.447 Y-327.277
X-998.355 Y-328.614
X-999.22 Y-329.958
X-1000.057 Y-331.31
X-1000.852 Y-332.66
X-1001.606 Y-334.014
X-1002.322 Y-335.373
X-1003.003 Y-336.745
X-1003.65 Y-338.114
X-1004.25 Y-339.49
X-1004.531 Y-340.169
X-1004.814 Y-340.877
X-1005.089 Y-341.569
X-1005.339 Y-342.245
X-1005.586 Y-342.939
X-1005.823 Y-343.634
X-1006.051 Y-344.33
X-1006.269 Y-345.029
X-1006.477 Y-345.73
X-1006.671 Y-346.411
X-1006.851 Y-347.113
X-1007.036 Y-347.836
X-1007.206 Y-348.542
X-1007.367 Y-349.248
X-1007.515 Y-349.937
X-1007.647 Y-350.646
X-1007.783 Y-351.377
X-1007.903 Y-352.07
X-1008.007 Y-352.784
X-1008.111 Y-353.5
X-1008.196 Y-354.217
X-1008.282 Y-354.935
X-1008.346 Y-355.635
X-1008.404 Y-356.376
X-1008.461 Y-357.1
X-1008.498 Y-357.804
X-1008.527 Y-358.55
X-1008.556 Y-359.278
X-1008.565 Y-359.987
Y-361.47
X-1008.547 Y-362.175
X-1008.479 Y-363.667
X-1008.384 Y-365.155
X-1008.251 Y-366.64
X-1008.079 Y-368.13
X-1007.87 Y-369.626
X-1007.622 Y-371.129
X-1007.334 Y-372.647
X-1007.015 Y-374.178
X-1006.671 Y-375.697
X-1006.276 Y-377.229
X-1005.86 Y-378.775
X-1005.409 Y-380.308
X-1004.915 Y-381.862
X-1004.833 Y-382.108
Z1.5
X-1004.4 Y-383.42
X-1003.85 Y-384.974
X-1003.267 Y-386.539
X-1002.654 Y-388.107
X-1002.012 Y-389.678
X-1001.338 Y-391.259
X-1000.643 Y-392.842
X-999.923 Y-394.419
X-999.172 Y-395.999
X-998.662 Y-397.033
Z0.875 F333.3
X-998.385 Y-397.594 F850
X-997.59 Y-399.188
X-996.765 Y-400.775
X-995.917 Y-402.371
X-995.046 Y-403.967
X-994.156 Y-405.563
X-993.245 Y-407.159
X-992.315 Y-408.757
X-991.366 Y-410.354
X-990.399 Y-411.952
X-989.417 Y-413.549
X-988.419 Y-415.144
X-987.406 Y-416.739
X-986.379 Y-418.333
X-985.34 Y-419.924
X-984.289 Y-421.513
X-983.228 Y-423.098
X-981.072 Y-426.27
X-978.885 Y-429.426
X-976.672 Y-432.567
X-974.44 Y-435.692
X-972.194 Y-438.799
X-969.943 Y-441.885
X-965.439 Y-447.998
X-960.979 Y-454.01
X-956.596 Y-459.913
X-956.591 Y-459.919
X-952.322 Y-465.7
X-952.316 Y-465.709
X-950.232 Y-468.552
X-950.226 Y-468.56
X-948.18 Y-471.37
X-948.173 Y-471.38
X-946.168 Y-474.157
X-946.161 Y-474.166
X-944.197 Y-476.908
X-944.188 Y-476.922
X-944.098 Y-477.048
Z1.5
X-942.269 Y-479.631
X-942.259 Y-479.644
X-940.386 Y-482.318
X-940.376 Y-482.333
X-938.551 Y-484.972
X-938.54 Y-484.988
X-936.764 Y-487.592
X-936.751 Y-487.61
X-935.026 Y-490.178
X-935.014 Y-490.197
X-934.921 Y-490.337
Z0.875 F333.3
X-933.339 Y-492.73 F850
X-933.326 Y-492.75
X-931.704 Y-495.246
X-931.689 Y-495.269
X-930.12 Y-497.73
X-930.106 Y-497.752
X-928.59 Y-500.176
X-928.574 Y-500.202
X-927.112 Y-502.591
X-927.097 Y-502.617
X-925.689 Y-504.969
X-925.672 Y-504.996
X-924.318 Y-507.312
X-924.301 Y-507.342
X-923.002 Y-509.622
X-922.985 Y-509.653
X-921.741 Y-511.896
X-921.723 Y-511.928
X-920.533 Y-514.136
X-920.515 Y-514.17
X-919.38 Y-516.341
X-919.361 Y-516.378
X-918.281 Y-518.513
X-918.262 Y-518.552
X-917.237 Y-520.651
G2 X-920 Y-525.075 I-2.763 J-1.349
G1 X-974.425
Z1.5
X-990.575
Z0.875 F333.3
X-1099.425 F850
Z1.5
X-1115.575
Z0.875 F333.3
X-1170 F850
G2 X-1173.075 Y-522 J3.075
G1 Y-469.701
Z1.5
Y-453.551
Z0.875 F333.3
Y-348.952 F850
Z1.5
Y-332.802
Z0.875 F333.3
Y-228.203 F850
Z1.5
Y-212.053
Z0.875 F333.3
Y-107.453 F850
Z1.5
Y-91.303
Z0.875 F333.3
Y-39.004 F850
G2 X-1169.988 Y-35.929 I3.075
X-1124.1 Y-38.211 I-2.013 J-503.071
G1 Z1.5
G2 X-1108.05 Y-40.006 I-47.9 J-500.789
G1 Z0.875 F333.3
G2 X-1062.706 Y-47.941 I-63.95 J-498.994 F850
X-1018.434 Y-59.936 Z0.279 I-109.294 J-491.059 F350
G1 Z1.5
G2 X-1003.136 Y-65.112 I-153.566 J-479.064
G1 Z0.069 F333.3
G2 X-998.123 Y-66.929 Z0 I-168.864 J-473.888 F350
X-919.835 Y-103.687 I-173.878 J-472.071 F850
G1 Z1.5
G2 X-905.992 Y-112.006 I-252.165 J-435.313
G1 Z0 F333.3
G2 X-868.143 Y-138.057 I-266.008 J-426.994 F850
X-866.925 Y-140.508 I-1.857 J-2.451
G1 Y-180.508
X-866.932 Y-180.709
X-867.024 Y-182.116
X-867.028 Y-182.177
X-867.148 Y-183.58
X-867.154 Y-183.639
X-867.301 Y-185.039
X-867.308 Y-185.1
X-867.483 Y-186.497
X-867.491 Y-186.558
X-867.694 Y-187.951
X-867.704 Y-188.012
X-867.935 Y-189.402
X-867.945 Y-189.463
X-868.204 Y-190.849
X-868.216 Y-190.907
X-868.502 Y-192.289
X-868.515 Y-192.35
X-868.83 Y-193.73
X-868.844 Y-193.788
X-869.186 Y-195.163
X-869.201 Y-195.221
X-869.571 Y-196.594
X-869.587 Y-196.65
X-869.984 Y-198.019
X-870.002 Y-198.079
X-870.428 Y-199.444
X-870.445 Y-199.498
X-870.898 Y-200.86
X-870.917 Y-200.917
X-871.398 Y-202.275
X-871.418 Y-202.329
X-871.927 Y-203.685
X-871.948 Y-203.738
X-872.484 Y-205.089
X-872.505 Y-205.142
X-873.069 Y-206.49
X-873.092 Y-206.542
X-873.684 Y-207.887
X-873.707 Y-207.938
X-874.327 Y-209.279
X-874.35 Y-209.328
X-874.997 Y-210.666
X-875.021 Y-210.715
X-875.696 Y-212.049
X-875.72 Y-212.097
X-876.422 Y-213.428
X-876.446 Y-213.473
X-877.175 Y-214.801
X-877.202 Y-214.847
X-877.958 Y-216.171
X-877.984 Y-216.214
X-878.768 Y-217.535
X-878.785 Y-217.564
Z1.5
X-878.793 Y-217.577
X-879.604 Y-218.895
X-879.63 Y-218.937
X-880.468 Y-220.251
X-880.494 Y-220.291
X-881.359 Y-221.602
X-881.385 Y-221.64
X-882.276 Y-222.948
X-882.302 Y-222.986
X-883.22 Y-224.291
X-883.247 Y-224.329
X-884.192 Y-225.63
X-884.218 Y-225.665
X-885.189 Y-226.963
X-885.214 Y-226.997
X-886.211 Y-228.292
X-886.237 Y-228.325
X-887.26 Y-229.617
X-887.285 Y-229.648
X-888.155 Y-230.718
Z0 F333.3
X-888.333 Y-230.937 F850
X-888.359 Y-230.968
X-889.433 Y-232.254
X-889.458 Y-232.283
X-890.557 Y-233.566
X-890.581 Y-233.595
X-891.705 Y-234.875
X-891.73 Y-234.903
X-892.879 Y-236.18
X-892.901 Y-236.204
X-894.073 Y-237.479
X-894.098 Y-237.506
X-895.295 Y-238.777
X-895.318 Y-238.801
X-896.539 Y-240.07
X-896.562 Y-240.093
X-897.806 Y-241.359
X-897.828 Y-241.382
X-899.095 Y-242.645
X-899.116 Y-242.665
X-900.405 Y-243.926
X-900.426 Y-243.947
X-901.738 Y-245.206
X-901.758 Y-245.225
X-903.091 Y-246.481
X-903.111 Y-246.5
X-904.466 Y-247.754
X-904.486 Y-247.771
X-905.861 Y-249.022
X-905.88 Y-249.04
X-907.276 Y-250.289
X-907.293 Y-250.304
X-908.709 Y-251.552
X-908.726 Y-251.567
X-910.16 Y-252.812
X-910.177 Y-252.827
X-911.631 Y-254.071
X-911.647 Y-254.084
X-913.118 Y-255.325
X-913.133 Y-255.338
X-914.622 Y-256.578
X-914.636 Y-256.589
X-916.141 Y-257.828
X-916.156 Y-257.84
X-917.678 Y-259.077
X-917.69 Y-259.087
X-919.227 Y-260.323
X-919.24 Y-260.334
X-920.792 Y-261.568
X-920.808 Y-261.581
X-923.952 Y-264.047
X-923.972 Y-264.062
X-927.165 Y-266.525
X-927.182 Y-266.538
X-930.418 Y-268.999
X-930.432 Y-269.009
X-933.704 Y-271.468
X-933.713 Y-271.475
X-937.012 Y-273.935
X-937.018 Y-273.94
X-940.337 Y-276.402
X-940.34 Y-276.404
X-947.006 Y-281.335
X-950.332 Y-283.805
X-953.641 Y-286.279
X-956.925 Y-288.758
X-960.176 Y-291.244
X-963.387 Y-293.74
X-964.969 Y-294.988
X-966.542 Y-296.242
X-967.95 Y-297.376
Z1.5
X-968.099 Y-297.496
X-969.639 Y-298.754
X-971.162 Y-300.014
X-972.668 Y-301.278
X-974.154 Y-302.544
X-975.62 Y-303.814
X-977.065 Y-305.087
X-978.488 Y-306.362
X-979.886 Y-307.641
X-980.184 Y-307.918
Z0 F333.3
X-981.261 Y-308.924 F850
X-982.61 Y-310.21
X-983.933 Y-311.5
X-985.229 Y-312.794
X-986.497 Y-314.091
X-987.736 Y-315.391
X-988.944 Y-316.696
X-990.122 Y-318.005
X-991.268 Y-319.317
X-992.383 Y-320.634
X-993.464 Y-321.954
X-994.511 Y-323.278
X-995.525 Y-324.607
X-996.503 Y-325.939
X-997.447 Y-327.277
X-998.355 Y-328.614
X-999.22 Y-329.958
X-1000.057 Y-331.31
X-1000.852 Y-332.66
X-1001.606 Y-334.014
X-1002.322 Y-335.373
X-1003.003 Y-336.745
X-1003.65 Y-338.114
X-1004.25 Y-339.49
X-1004.531 Y-340.169
X-1004.814 Y-340.877
X-1005.089 Y-341.569
X-1005.339 Y-342.245
X-1005.586 Y-342.939
X-1005.823 Y-343.634
X-1006.051 Y-344.33
X-1006.269 Y-345.029
X-1006.477 Y-345.73
X-1006.671 Y-346.411
X-1006.851 Y-347.113
X-1007.036 Y-347.836
X-1007.206 Y-348.542
X-1007.367 Y-349.248
X-1007.515 Y-349.937
X-1007.647 Y-350.646
X-1007.783 Y-351.377
X-1007.903 Y-352.07
X-1008.007 Y-352.784
X-1008.111 Y-353.5
X-1008.196 Y-354.217
X-1008.282 Y-354.935
X-1008.346 Y-355.635
X-1008.404 Y-356.376
X-1008.461 Y-357.1
X-1008.498 Y-357.804
X-1008.527 Y-358.55
X-1008.556 Y-359.278
X-1008.565 Y-359.987
Y-361.47
X-1008.547 Y-362.175
X-1008.479 Y-363.667
X-1008.384 Y-365.155
X-1008.251 Y-366.64
X-1008.079 Y-368.13
X-1007.87 Y-369.626
X-1007.622 Y-371.129
X-1007.334 Y-372.647
X-1007.015 Y-374.178
X-1006.671 Y-375.697
X-1006.276 Y-377.229
X-1005.86 Y-378.775
X-1005.409 Y-380.308
X-1004.915 Y-381.862
X-1004.833 Y-382.108
Z1.5
X-1004.4 Y-383.42
X-1003.85 Y-384.974
X-1003.267 Y-386.539
X-1002.654 Y-388.107
X-1002.012 Y-389.678
X-1001.338 Y-391.259
X-1000.643 Y-392.842
X-999.923 Y-394.419
X-999.172 Y-395.999
X-998.662 Y-397.033
Z0 F333.3
X-998.385 Y-397.594 F850
X-997.59 Y-399.188
X-996.765 Y-400.775
X-995.917 Y-402.371
X-995.046 Y-403.967
X-994.156 Y-405.563
X-993.245 Y-407.159
X-992.315 Y-408.757
X-991.366 Y-410.354
X-990.399 Y-411.952
X-989.417 Y-413.549
X-988.419 Y-415.144
X-987.406 Y-416.739
X-986.379 Y-418.333
X-985.34 Y-419.924
X-984.289 Y-421.513
X-983.228 Y-423.098
X-981.072 Y-426.27
X-978.885 Y-429.426
X-976.672 Y-432.567
X-974.44 Y-435.692
X-972.194 Y-438.799
X-969.943 Y-441.885
X-965.439 Y-447.998
X-960.979 Y-454.01
X-956.596 Y-459.913
X-956.591 Y-459.919
X-952.322 Y-465.7
X-952.316 Y-465.709
X-950.232 Y-468.552
X-950.226 Y-468.56
X-948.18 Y-471.37
X-948.173 Y-471.38
X-946.168 Y-474.157
X-946.161 Y-474.166
X-944.197 Y-476.908
X-944.188 Y-476.922
X-944.098 Y-477.048
Z1.5
X-942.269 Y-479.631
X-942.259 Y-479.644
X-940.386 Y-482.318
X-940.376 Y-482.333
X-938.551 Y-484.972
X-938.54 Y-484.988
X-936.764 Y-487.592
X-936.751 Y-487.61
X-935.026 Y-490.178
X-935.014 Y-490.197
X-934.921 Y-490.337
Z0 F333.3
X-933.339 Y-492.73 F850
X-933.326 Y-492.75
X-931.704 Y-495.246
X-931.689 Y-495.269
X-930.12 Y-497.73
X-930.106 Y-497.752
X-928.59 Y-500.176
X-928.574 Y-500.202
X-927.112 Y-502.591
X-927.097 Y-502.617
X-925.689 Y-504.969
X-925.672 Y-504.996
X-924.318 Y-507.312
X-924.301 Y-507.342
X-923.002 Y-509.622
X-922.985 Y-509.653
X-921.741 Y-511.896
X-921.723 Y-511.928
X-920.533 Y-514.136
X-920.515 Y-514.17
X-919.38 Y-516.341
X-919.361 Y-516.378
X-918.281 Y-518.513
X-918.262 Y-518.552
X-917.237 Y-520.651
G2 X-920 Y-525.075 I-2.763 J-1.349
G1 X-974.425
Z1.5
X-990.575
Z0 F333.3
X-1099.425 F850
Z1.5
X-1115.575
Z0 F333.3
X-1170 F850
G2 X-1173.075 Y-522 J3.075
G1 Y-469.701
Z1.5
Y-453.551
Z0 F333.3
Y-348.952 F850
Z1.5
Y-332.802
Z0 F333.3
Y-228.203 F850
Z1.5
Y-212.053
Z0 F333.3
Y-107.453 F850
Z1.5
Y-91.303
Z0 F333.3
Y-39.004 F850
G2 X-1169.988 Y-35.929 I3.075
X-1124.1 Y-38.211 I-2.013 J-503.071
G1 Z1.5
G2 X-1108.05 Y-40.006 I-47.9 J-500.789
G1 Z0 F333.3
G2 X-1018.434 Y-59.936 I-63.95 J-498.994 F850
G1 Z1.5
G2 X-1003.136 Y-65.112 I-153.566 J-479.064
G1 Z0 F333.3
G2 X-998.123 Y-66.929 I-168.864 J-473.888 F850
G0 Z8.25
X-738.075 Y-577.315
G1 Z5.75 F333.3
Y-600 Z1.75 F350
Y-350 F850
G2 X-735 Y-346.925 I3.075
G1 X-480
G3 X-433.075 Y-300 J46.925
G1 Y-250
G2 X-430 Y-246.925 I3.075
G1 X0
G0 Z8.25
X-614.986 Y-16.094
G1 Z4.25 F333.3
X-601.981 Y-5.181 Z1.256 F350
G2 X-599.988 Y-4.461 Z0.875 I1.977 J-2.356
X-597.641 Y-5.569 I-0.016 J-3.075 F850
X-569.89 Y-42.191 I-386.667 J-321.826
G1 Z1.5
G2 X-560.949 Y-55.64 I-414.418 J-285.204
G1 Z0.875 F333.3
G2 X-518.615 Y-137.096 I-423.359 J-271.755 F850
G1 Z1.5
G2 X-512.746 Y-152.142 I-465.693 J-190.299
G1 Z0.875 F333.3
G2 X-488.751 Y-240.752 I-471.561 J-175.253 F850
G1 Z1.5
G2 X-486.225 Y-256.703 I-495.557 J-86.644
G1 Z0.875 F333.3
G2 X-481.853 Y-302.442 I-498.083 J-70.692 F850
X-482.947 Y-304.951 I-3.071 J-0.153
G1 X-513.589 Y-330.662
X-513.746 Y-330.785
X-514.882 Y-331.619
X-514.932 Y-331.654
X-516.084 Y-332.465
X-516.136 Y-332.501
X-517.304 Y-333.288
X-517.354 Y-333.322
X-518.536 Y-334.085
X-518.588 Y-334.117
X-519.786 Y-334.857
X-519.839 Y-334.889
X-521.052 Y-335.605
X-521.104 Y-335.635
X-522.332 Y-336.328
X-522.384 Y-336.357
X-523.627 Y-337.027
X-523.682 Y-337.056
X-524.941 Y-337.702
X-524.996 Y-337.729
X-526.27 Y-338.351
X-526.323 Y-338.377
X-527.612 Y-338.976
X-527.667 Y-339.001
X-528.971 Y-339.576
X-529.025 Y-339.599
X-530.344 Y-340.151
X-530.4 Y-340.173
X-531.735 Y-340.701
X-531.789 Y-340.722
X-533.139 Y-341.227
X-533.194 Y-341.247
X-534.559 Y-341.728
X-534.612 Y-341.746
X-535.992 Y-342.204
X-536.048 Y-342.222
X-537.444 Y-342.656
X-537.496 Y-342.672
X-538.906 Y-343.083
X-538.96 Y-343.098
X-539.463 Y-343.235
Z1.5
X-540.386 Y-343.486
X-540.44 Y-343.5
X-541.881 Y-343.864
X-541.933 Y-343.877
X-543.389 Y-344.218
X-543.44 Y-344.23
X-544.911 Y-344.548
X-544.964 Y-344.558
X-546.449 Y-344.852
X-546.498 Y-344.862
X-547.999 Y-345.134
X-548.049 Y-345.142
X-549.565 Y-345.391
X-549.616 Y-345.399
X-551.147 Y-345.624
X-551.194 Y-345.631
X-552.74 Y-345.834
X-552.788 Y-345.84
X-554.348 Y-346.02
X-554.393 Y-346.025
X-555.968 Y-346.183
X-556.015 Y-346.187
X-557.605 Y-346.322
X-557.649 Y-346.325
X-559.253 Y-346.438
X-559.296 Y-346.441
X-560.914 Y-346.532
X-560.957 Y-346.534
X-562.59 Y-346.603
X-562.632 Y-346.605
X-564.279 Y-346.652
X-564.321 Y-346.653
X-565.699 Y-346.673
Z0.875 F333.3
X-565.983 Y-346.678 F850
X-566.022
X-567.697 Y-346.682
X-567.735
X-569.424 Y-346.665
X-569.462 Y-346.664
X-571.165 Y-346.626
X-571.202 Y-346.625
X-572.919 Y-346.566
X-572.955 Y-346.565
X-574.685 Y-346.485
X-574.717 Y-346.483
X-576.46 Y-346.384
X-576.496 Y-346.382
X-578.253 Y-346.262
X-578.284 Y-346.26
X-580.053 Y-346.121
X-580.084 Y-346.118
X-581.866 Y-345.96
X-581.897 Y-345.957
X-583.692 Y-345.779
X-583.721 Y-345.776
X-585.528 Y-345.58
X-585.555 Y-345.577
X-587.375 Y-345.363
X-587.401 Y-345.36
X-589.232 Y-345.129
X-589.26 Y-345.125
X-591.103 Y-344.875
X-591.127 Y-344.872
X-592.981 Y-344.606
X-593.004 Y-344.602
X-594.869 Y-344.32
X-594.893 Y-344.317
X-596.77 Y-344.018
X-596.791 Y-344.014
X-598.677 Y-343.7
X-598.697 Y-343.697
X-600.594 Y-343.368
X-600.613 Y-343.364
X-602.52 Y-343.021
X-602.541 Y-343.018
X-604.458 Y-342.66
X-604.473 Y-342.657
X-606.398 Y-342.287
X-606.415 Y-342.283
X-608.35 Y-341.9
X-608.366 Y-341.897
X-610.309 Y-341.502
X-610.33 Y-341.498
X-614.24 Y-340.674
X-614.264 Y-340.669
X-618.203 Y-339.806
X-618.224 Y-339.801
X-622.189 Y-338.904
X-622.205 Y-338.9
X-626.192 Y-337.975
X-626.204 Y-337.973
X-630.21 Y-337.027
X-630.218 Y-337.025
X-634.237 Y-336.064
X-634.24 Y-336.063
X-642.302 Y-334.128
X-646.332 Y-333.167
X-650.354 Y-332.222
X-654.365 Y-331.3
X-658.359 Y-330.408
X-662.335 Y-329.552
X-664.309 Y-329.142
X-666.279 Y-328.743
X-668.052 Y-328.394
Z1.5
X-668.241 Y-328.357
X-670.194 Y-327.986
X-672.14 Y-327.628
X-674.074 Y-327.287
X-676 Y-326.963
X-677.915 Y-326.656
X-679.819 Y-326.367
X-681.71 Y-326.097
X-683.589 Y-325.848
X-683.992 Y-325.799
Z0.875 F333.3
X-685.456 Y-325.62 F850
X-687.309 Y-325.413
X-689.146 Y-325.228
X-690.969 Y-325.068
X-692.779 Y-324.931
X-694.571 Y-324.817
X-696.348 Y-324.73
X-698.108 Y-324.669
X-699.85 Y-324.634
X-701.574 Y-324.627
X-703.281 Y-324.647
X-704.97 Y-324.696
X-706.638 Y-324.773
X-708.286 Y-324.881
X-709.917 Y-325.018
X-711.525 Y-325.184
X-713.115 Y-325.382
X-714.683 Y-325.611
X-716.229 Y-325.872
X-717.755 Y-326.164
X-719.26 Y-326.487
X-720.742 Y-326.844
X-722.205 Y-327.233
X-723.653 Y-327.657
X-724.355 Y-327.877
X-725.06 Y-328.108
X-725.762 Y-328.349
X-726.46 Y-328.597
X-727.147 Y-328.852
X-727.832 Y-329.118
X-728.511 Y-329.39
X-729.184 Y-329.672
X-729.855 Y-329.963
X-730.516 Y-330.26
X-731.174 Y-330.567
X-731.828 Y-330.882
X-732.474 Y-331.205
X-733.115 Y-331.537
X-733.754 Y-331.879
X-734.384 Y-332.226
X-735.01 Y-332.584
X-735.633 Y-332.951
X-736.249 Y-333.324
X-736.86 Y-333.707
X-737.464 Y-334.097
X-738.066 Y-334.498
X-738.662 Y-334.906
X-739.251 Y-335.322
X-739.838 Y-335.748
X-740.42 Y-336.183
X-740.996 Y-336.624
X-741.565 Y-337.073
X-742.132 Y-337.534
X-742.694 Y-338.001
X-743.249 Y-338.477
X-743.795 Y-338.955
X-744.89 Y-339.955
X-745.961 Y-340.983
X-747.013 Y-342.043
X-748.045 Y-343.135
X-749.06 Y-344.26
X-750.056 Y-345.417
X-751.034 Y-346.606
X-751.995 Y-347.827
X-752.937 Y-349.078
X-753.862 Y-350.36
X-754.77 Y-351.672
X-755.661 Y-353.012
X-756.534 Y-354.381
X-756.671 Y-354.604
Z1.5
X-757.392 Y-355.778
X-758.231 Y-357.203
X-759.056 Y-358.655
X-759.864 Y-360.131
X-760.657 Y-361.634
X-761.434 Y-363.16
X-762.195 Y-364.71
X-762.941 Y-366.283
X-763.673 Y-367.879
X-764.138 Y-368.924
Z0.875 F333.3
X-764.391 Y-369.494 F850
X-765.094 Y-371.13
X-765.784 Y-372.786
X-766.46 Y-374.459
X-767.122 Y-376.152
X-767.773 Y-377.861
X-768.411 Y-379.584
X-769.036 Y-381.324
X-769.651 Y-383.078
X-770.253 Y-384.844
X-770.845 Y-386.624
X-771.426 Y-388.414
X-771.997 Y-390.215
X-772.557 Y-392.026
X-773.109 Y-393.845
X-773.651 Y-395.673
X-774.183 Y-397.503
X-775.226 Y-401.193
X-776.237 Y-404.896
X-777.221 Y-408.612
X-778.18 Y-412.331
X-779.117 Y-416.048
X-780.034 Y-419.756
X-781.822 Y-427.134
X-783.56 Y-434.416
X-785.265 Y-441.568
X-785.267 Y-441.576
X-786.952 Y-448.562
X-786.954 Y-448.572
X-787.792 Y-451.996
X-787.795 Y-452.006
X-788.633 Y-455.379
X-788.635 Y-455.389
X-789.472 Y-458.711
X-789.476 Y-458.726
X-790.316 Y-461.993
X-790.319 Y-462.006
X-790.359 Y-462.156
Z1.5
X-791.16 Y-465.217
X-791.165 Y-465.234
X-792.01 Y-468.387
X-792.014 Y-468.404
X-792.862 Y-471.499
X-792.868 Y-471.518
X-793.721 Y-474.552
X-793.727 Y-474.573
X-794.585 Y-477.546
X-794.591 Y-477.568
X-794.639 Y-477.729
Z0.875 F333.3
X-795.455 Y-480.478 F850
X-795.462 Y-480.501
X-796.332 Y-483.349
X-796.34 Y-483.374
X-797.216 Y-486.158
X-797.224 Y-486.185
X-798.107 Y-488.904
X-798.116 Y-488.931
X-799.006 Y-491.587
X-799.016 Y-491.615
X-799.912 Y-494.205
X-799.923 Y-494.236
X-800.827 Y-496.762
X-800.839 Y-496.795
X-801.751 Y-499.255
X-801.763 Y-499.287
X-802.682 Y-501.683
X-802.695 Y-501.718
X-803.621 Y-504.048
X-803.636 Y-504.084
X-804.57 Y-506.349
X-804.586 Y-506.386
X-805.527 Y-508.586
X-805.544 Y-508.626
X-806.493 Y-510.76
G2 X-811.659 Y-511.488 I-2.81 J1.25
G1 X-846.642 Y-469.796
Z1.5
X-857.023 Y-457.424
Z0.875 F333.3
X-926.991 Y-374.04 F850
Z1.5
X-937.372 Y-361.669
Z0.875 F333.3
X-972.356 Y-319.977 F850
G2 X-971.977 Y-315.644 I2.356 J1.977
G1 X-931.913 Y-282.027
Z1.5
X-919.541 Y-271.646
Z0.875 F333.3
X-839.414 Y-204.411 F850
Z1.5
X-827.042 Y-194.03
Z0.875 F333.3
X-746.915 Y-126.795 F850
Z1.5
X-734.543 Y-116.414
Z0.875 F333.3
X-654.416 Y-49.179 F850
Z1.5
X-642.044 Y-38.798
Z0.875 F333.3
X-601.981 Y-5.181 F850
G2 X-599.988 Y-4.461 I1.977 J-2.356
G0 Z8.25
X-738.075 Y-580.859
G1 Z4.25 F333.3
Y-600 Z0.875 F350
Y-545.575 F850
Z1.5
Y-529.425
Z0.875 F333.3
Y-420.575 F850
Z1.5
Y-404.425
Z0.875 F333.3
Y-350 F850
G2 X-735 Y-346.925 I3.075
G1 X-679.325
Z1.5
X-663.175
Z0.875 F333.3
X-565.68 F850
Z1.5
X-535.675
Z0.875 F333.3
X-480 F850
G3 X-433.075 Y-300 J46.925
G1 Y-250
G2 X-430 Y-246.925 I3.075
G1 X-384.325
Z1.5
X-368.175
Z0.875 F333.3
X-276.825 F850
Z1.5
X-260.675
Z0.875 F333.3
X-169.325 F850
Z1.5
X-153.175
Z0.875 F333.3
X-61.825 F850
Z1.5
X-45.675
Z0.875 F333.3
X0 F850
G0 Z8.25
X-614.986 Y-16.094
G1 Z3.375 F333.3
X-601.981 Y-5.181 Z0.381 F350
G2 X-599.988 Y-4.461 Z0 I1.977 J-2.356
X-597.641 Y-5.569 I-0.016 J-3.075 F850
X-569.89 Y-42.191 I-386.667 J-321.826
G1 Z1.5
G2 X-560.949 Y-55.64 I-414.418 J-285.204
G1 Z0 F333.3
G2 X-518.615 Y-137.096 I-423.359 J-271.755 F850
G1 Z1.5
G2 X-512.746 Y-152.142 I-465.693 J-190.299
G1 Z0 F333.3
G2 X-488.751 Y-240.752 I-471.561 J-175.253 F850
G1 Z1.5
G2 X-486.225 Y-256.703 I-495.557 J-86.644
G1 Z0 F333.3
G2 X-481.853 Y-302.442 I-498.083 J-70.692 F850
X-482.947 Y-304.951 I-3.071 J-0.153
G1 X-513.589 Y-330.662
X-513.746 Y-330.785
X-514.882 Y-331.619
X-514.932 Y-331.654
X-516.084 Y-332.465
X-516.136 Y-332.501
X-517.304 Y-333.288
X-517.354 Y-333.322
X-518.536 Y-334.085
X-518.588 Y-334.117
X-519.786 Y-334.857
X-519.839 Y-334.889
X-521.052 Y-335.605
X-521.104 Y-335.635
X-522.332 Y-336.328
X-522.384 Y-336.357
X-523.627 Y-337.027
X-523.682 Y-337.056
X-524.941 Y-337.702
X-524.996 Y-337.729
X-526.27 Y-338.351
X-526.323 Y-338.377
X-527.612 Y-338.976
X-527.667 Y-339.001
X-528.971 Y-339.576
X-529.025 Y-339.599
X-530.344 Y-340.151
X-530.4 Y-340.173
X-531.735 Y-340.701
X-531.789 Y-340.722
X-533.139 Y-341.227
X-533.194 Y-341.247
X-534.559 Y-341.728
X-534.612 Y-341.746
X-535.992 Y-342.204
X-536.048 Y-342.222
X-537.444 Y-342.656
X-537.496 Y-342.672
X-538.906 Y-343.083
X-538.96 Y-343.098
X-539.463 Y-343.235
Z1.5
X-540.386 Y-343.486
X-540.44 Y-343.5
X-541.881 Y-343.864
X-541.933 Y-343.877
X-543.389 Y-344.218
X-543.44 Y-344.23
X-544.911 Y-344.548
X-544.964 Y-344.558
X-546.449 Y-344.852
X-546.498 Y-344.862
X-547.999 Y-345.134
X-548.049 Y-345.142
X-549.565 Y-345.391
X-549.616 Y-345.399
X-551.147 Y-345.624
X-551.194 Y-345.631
X-552.74 Y-345.834
X-552.788 Y-345.84
X-554.348 Y-346.02
X-554.393 Y-346.025
X-555.968 Y-346.183
X-556.015 Y-346.187
X-557.605 Y-346.322
X-557.649 Y-346.325
X-559.253 Y-346.438
X-559.296 Y-346.441
X-560.914 Y-346.532
X-560.957 Y-346.534
X-562.59 Y-346.603
X-562.632 Y-346.605
X-564.279 Y-346.652
X-564.321 Y-346.653
X-565.699 Y-346.673
Z0 F333.3
X-565.983 Y-346.678 F850
X-566.022
X-567.697 Y-346.682
X-567.735
X-569.424 Y-346.665
X-569.462 Y-346.664
X-571.165 Y-346.626
X-571.202 Y-346.625
X-572.919 Y-346.566
X-572.955 Y-346.565
X-574.685 Y-346.485
X-574.717 Y-346.483
X-576.46 Y-346.384
X-576.496 Y-346.382
X-578.253 Y-346.262
X-578.284 Y-346.26
X-580.053 Y-346.121
X-580.084 Y-346.118
X-581.866 Y-345.96
X-581.897 Y-345.957
X-583.692 Y-345.779
X-583.721 Y-345.776
X-585.528 Y-345.58
X-585.555 Y-345.577
X-587.375 Y-345.363
X-587.401 Y-345.36
X-589.232 Y-345.129
X-589.26 Y-345.125
X-591.103 Y-344.875
X-591.127 Y-344.872
X-592.981 Y-344.606
X-593.004 Y-344.602
X-594.869 Y-344.32
X-594.893 Y-344.317
X-596.77 Y-344.018
X-596.791 Y-344.014
X-598.677 Y-343.7
X-598.697 Y-343.697
X-600.594 Y-343.368
X-600.613 Y-343.364
X-602.52 Y-343.021
X-602.541 Y-343.018
X-604.458 Y-342.66
X-604.473 Y-342.657
X-606.398 Y-342.287
X-606.415 Y-342.283
X-608.35 Y-341.9
X-608.366 Y-341.897
X-610.309 Y-341.502
X-610.33 Y-341.498
X-614.24 Y-340.674
X-614.264 Y-340.669
X-618.203 Y-339.806
X-618.224 Y-339.801
X-622.189 Y-338.904
X-622.205 Y-338.9
X-626.192 Y-337.975
X-626.204 Y-337.973
X-630.21 Y-337.027
X-630.218 Y-337.025
X-634.237 Y-336.064
X-634.24 Y-336.063
X-642.302 Y-334.128
X-646.332 Y-333.167
X-650.354 Y-332.222
X-654.365 Y-331.3
X-658.359 Y-330.408
X-662.335 Y-329.552
X-664.309 Y-329.142
X-666.279 Y-328.743
X-668.052 Y-328.394
Z1.5
X-668.241 Y-328.357
X-670.194 Y-327.986
X-672.14 Y-327.628
X-674.074 Y-327.287
X-676 Y-326.963
X-677.915 Y-326.656
X-679.819 Y-326.367
X-681.71 Y-326.097
X-683.589 Y-325.848
X-683.992 Y-325.799
Z0 F333.3
X-685.456 Y-325.62 F850
X-687.309 Y-325.413
X-689.146 Y-325.228
X-690.969 Y-325.068
X-692.779 Y-324.931
X-694.571 Y-324.817
X-696.348 Y-324.73
X-698.108 Y-324.669
X-699.85 Y-324.634
X-701.574 Y-324.627
X-703.281 Y-324.647
X-704.97 Y-324.696
X-706.638 Y-324.773
X-708.286 Y-324.881
X-709.917 Y-325.018
X-711.525 Y-325.184
X-713.115 Y-325.382
X-714.683 Y-325.611
X-716.229 Y-325.872
X-717.755 Y-326.164
X-719.26 Y-326.487
X-720.742 Y-326.844
X-722.205 Y-327.233
X-723.653 Y-327.657
X-724.355 Y-327.877
X-725.06 Y-328.108
X-725.762 Y-328.349
X-726.46 Y-328.597
X-727.147 Y-328.852
X-727.832 Y-329.118
X-728.511 Y-329.39
X-729.184 Y-329.672
X-729.855 Y-329.963
X-730.516 Y-330.26
X-731.174 Y-330.567
X-731.828 Y-330.882
X-732.474 Y-331.205
X-733.115 Y-331.537
X-733.754 Y-331.879
X-734.384 Y-332.226
X-735.01 Y-332.584
X-735.633 Y-332.951
X-736.249 Y-333.324
X-736.86 Y-333.707
X-737.464 Y-334.097
X-738.066 Y-334.498
X-738.662 Y-334.906
X-739.251 Y-335.322
X-739.838 Y-335.748
X-740.42 Y-336.183
X-740.996 Y-336.624
X-741.565 Y-337.073
X-742.132 Y-337.534
X-742.694 Y-338.001
X-743.249 Y-338.477
X-743.795 Y-338.955
X-744.89 Y-339.955
X-745.961 Y-340.983
X-747.013 Y-342.043
X-748.045 Y-343.135
X-749.06 Y-344.26
X-750.056 Y-345.417
X-751.034 Y-346.606
X-751.995 Y-347.827
X-752.937 Y-349.078
X-753.862 Y-350.36
X-754.77 Y-351.672
X-755.661 Y-353.012
X-756.534 Y-354.381
X-756.671 Y-354.604
Z1.5
X-757.392 Y-355.778
X-758.231 Y-357.203
X-759.056 Y-358.655
X-759.864 Y-360.131
X-760.657 Y-361.634
X-761.434 Y-363.16
X-762.195 Y-364.71
X-762.941 Y-366.283
X-763.673 Y-367.879
X-764.138 Y-368.924
Z0 F333.3
X-764.391 Y-369.494 F850
X-765.094 Y-371.13
X-765.784 Y-372.786
X-766.46 Y-374.459
X-767.122 Y-376.152
X-767.773 Y-377.861
X-768.411 Y-379.584
X-769.036 Y-381.324
X-769.651 Y-383.078
X-770.253 Y-384.844
X-770.845 Y-386.624
X-771.426 Y-388.414
X-771.997 Y-390.215
X-772.557 Y-392.026
X-773.109 Y-393.845
X-773.651 Y-395.673
X-774.183 Y-397.503
X-775.226 Y-401.193
X-776.237 Y-404.896
X-777.221 Y-408.612
X-778.18 Y-412.331
X-779.117 Y-416.048
X-780.034 Y-419.756
X-781.822 Y-427.134
X-783.56 Y-434.416
X-785.265 Y-441.568
X-785.267 Y-441.576
X-786.952 Y-448.562
X-786.954 Y-448.572
X-787.792 Y-451.996
X-787.795 Y-452.006
X-788.633 Y-455.379
X-788.635 Y-455.389
X-789.472 Y-458.711
X-789.476 Y-458.726
X-790.316 Y-461.993
X-790.319 Y-462.006
X-790.359 Y-462.156
Z1.5
X-791.16 Y-465.217
X-791.165 Y-465.234
X-792.01 Y-468.387
X-792.014 Y-468.404
X-792.862 Y-471.499
X-792.868 Y-471.518
X-793.721 Y-474.552
X-793.727 Y-474.573
X-794.585 Y-477.546
X-794.591 Y-477.568
X-794.639 Y-477.729
Z0 F333.3
X-795.455 Y-480.478 F850
X-795.462 Y-480.501
X-796.332 Y-483.349
X-796.34 Y-483.374
X-797.216 Y-486.158
X-797.224 Y-486.185
X-798.107 Y-488.904
X-798.116 Y-488.931
X-799.006 Y-491.587
X-799.016 Y-491.615
X-799.912 Y-494.205
X-799.923 Y-494.236
X-800.827 Y-496.762
X-800.839 Y-496.795
X-801.751 Y-499.255
X-801.763 Y-499.287
X-802.682 Y-501.683
X-802.695 Y-501.718
X-803.621 Y-504.048
X-803.636 Y-504.084
X-804.57 Y-506.349
X-804.586 Y-506.386
X-805.527 Y-508.586
X-805.544 Y-508.626
X-806.493 Y-510.76
G2 X-811.659 Y-511.488 I-2.81 J1.25
G1 X-846.642 Y-469.796
Z1.5
X-857.023 Y-457.424
Z0 F333.3
X-926.991 Y-374.04 F850
Z1.5
X-937.372 Y-361.669
Z0 F333.3
X-972.356 Y-319.977 F850
G2 X-971.977 Y-315.644 I2.356 J1.977
G1 X-931.913 Y-282.027
Z1.5
X-919.541 Y-271.646
Z0 F333.3
X-839.414 Y-204.411 F850
Z1.5
X-827.042 Y-194.03
Z0 F333.3
X-746.915 Y-126.795 F850
Z1.5
X-734.543 Y-116.414
Z0 F333.3
X-654.416 Y-49.179 F850
Z1.5
X-642.044 Y-38.798
Z0 F333.3
X-601.981 Y-5.181 F850
G2 X-599.988 Y-4.461 I1.977 J-2.356
G0 Z8.25
X-738.075 Y-580.859
G1 Z3.375 F333.3
Y-600 Z0 F350
Y-545.575 F850
Z1.5
Y-529.425
Z0 F333.3
Y-420.575 F850
Z1.5
Y-404.425
Z0 F333.3
Y-350 F850
G2 X-735 Y-346.925 I3.075
G1 X-679.325
Z1.5
X-663.175
Z0 F333.3
X-565.68 F850
Z1.5
X-535.675
Z0 F333.3
X-480 F850
G3 X-433.075 Y-300 J46.925
G1 Y-250
G2 X-430 Y-246.925 I3.075
G1 X-384.325
Z1.5
X-368.175
Z0 F333.3
X-276.825 F850
Z1.5
X-260.675
Z0 F333.3
X-169.325 F850
Z1.5
X-153.175
Z0 F333.3
X-61.825 F850
Z1.5
X-45.675
Z0 F333.3
X0 F850
G0 Z18.25

(2D Contour5)
X-998.192 Y-94.873
Z18.25
Z8.25
G1 Z5.75 F333.3
G3 X-1019.506 Y-87.112 Z1.75 I-173.809 J-444.126 F350
X-1119.896 Y-64.929 I-152.495 J-451.888 F850
G1 X-1119.898
G3 X-1120.103 Y-66.768 I-0.102 J-0.92
G2 X-1119.13 Y-66.875 I-51.41 J-472.285
X-920.49 Y-135.963 I-52.872 J-472.124
G3 X-919.51 Y-134.394 I0.49 J0.785
X-1019.506 Y-87.112 I-252.491 J-404.606
X-1037.559 Y-81.416 Z0.875 I-152.495 J-451.888 F350
X-1119.896 Y-64.929 I-134.441 J-457.584 F850
G1 X-1119.898
G3 X-1120.103 Y-66.768 I-0.102 J-0.92
G2 X-1119.13 Y-66.875 I-51.41 J-472.285
X-920.49 Y-135.963 I-52.872 J-472.124
G3 X-919.51 Y-134.394 I0.49 J0.785
X-1037.559 Y-81.416 I-252.491 J-404.606
X-1055.825 Y-76.441 Z0 I-134.441 J-457.584 F350
X-1119.896 Y-64.929 I-116.176 J-462.559 F850
G1 X-1119.898
G3 X-1120.103 Y-66.768 I-0.102 J-0.92
G2 X-1119.13 Y-66.875 I-51.41 J-472.285
X-920.49 Y-135.963 I-52.872 J-472.124
G3 X-919.51 Y-134.394 I0.49 J0.785
X-1055.825 Y-76.441 I-252.491 J-404.606
G0 Z8.25
X-531.744 Y-176.92
G1 Z5.75 F333.3
G3 X-539.411 Y-155.572 Z1.75 I-452.564 J-150.475 F350
X-587.659 Y-62.58 I-444.897 J-171.823 F850
X-588.942 Y-62.324 I-0.769 J-0.513
X-589.198 Y-63.607 I0.513 J-0.769
G2 X-513.896 Y-260.996 I-395.11 J-263.788
G3 X-512.851 Y-261.783 I0.916 J0.129
X-512.065 Y-260.738 I-0.129 J0.916
X-539.411 Y-155.572 I-472.243 J-66.657
X-546.58 Y-138.051 Z0.875 I-444.897 J-171.823 F350
X-587.659 Y-62.58 I-437.728 J-189.344 F850
X-588.942 Y-62.324 I-0.769 J-0.513
X-589.198 Y-63.607 I0.513 J-0.769
G2 X-513.896 Y-260.996 I-395.11 J-263.788
G3 X-512.851 Y-261.783 I0.916 J0.129
X-512.065 Y-260.738 I-0.129 J0.916
X-546.58 Y-138.051 I-472.243 J-66.657
X-554.439 Y-120.829 Z0 I-437.728 J-189.344 F350
X-587.659 Y-62.58 I-429.869 J-206.566 F850
X-588.942 Y-62.324 I-0.769 J-0.513
X-589.198 Y-63.607 I0.513 J-0.769
G2 X-513.896 Y-260.996 I-395.11 J-263.788
G3 X-512.851 Y-261.783 I0.916 J0.129
X-512.065 Y-260.738 I-0.129 J0.916
X-554.439 Y-120.829 I-472.243 J-66.657
G0 Z18.25
M30
%
