%
(1001)
(origin stock bottom)
(T1  D=6.15 CR=0 - ZMIN=0 - flat end mill)
G90 G94
G17
G21

(2D Contour6)
M9
T1 M6
S6000 M3
G54
G0 X-345.813 Y-548.325
Z24
Z14
G1 Z11.5 F333.3
X-368.498 Z7.5 F350
X-733.996 F850
G2 X-737.071 Y-545.25 J3.075
G1 Y-237.75
G2 X-733.996 Y-234.675 I3.075
G1 X-251
G2 X-247.925 Y-237.75 J-3.075
G1 Y-545.25
G2 X-251 Y-548.325 I-3.075
G1 X-368.498
G0 Z14
X-221.315
G1 Z11.5 F333.3
X-244 Z7.5 F350
G2 X-247.075 Y-545.25 J3.075 F850
G1 Y-237.75
G2 X-244 Y-234.675 I3.075
G1 X-3
G2 X0.075 Y-237.75 J-3.075
G1 Y-545.25
G2 X-3 Y-548.325 I-3.075
G1 X-244
G0 Z14
X-391.183 Y-51.675
G1 Z11.5 F333.3
X-368.498 Z7.5 F350
X-3 F850
G2 X0.075 Y-54.75 J-3.075
G1 Y-230.75
G2 X-3 Y-233.825 I-3.075
G1 X-564
G2 X-567.075 Y-230.75 J3.075
G1 Y-54.75
G2 X-564 Y-51.675 I3.075
G1 X-368.498
X-256.499 Z6 F350
X-3 F850
G2 X0.075 Y-54.75 J-3.075
G1 Y-230.75
G2 X-3 Y-233.825 I-3.075
G1 X-564
G2 X-567.075 Y-230.75 J3.075
G1 Y-54.75
G2 X-564 Y-51.675 I3.075
G1 X-368.498
X-256.499
G0 Z14
X-345.813 Y-548.325
G1 Z10 F333.3
X-368.498 Z6 F350
X-733.996 F850
G2 X-737.071 Y-545.25 J3.075
G1 Y-237.75
G2 X-733.996 Y-234.675 I3.075
G1 X-251
G2 X-247.925 Y-237.75 J-3.075
G1 Y-545.25
G2 X-251 Y-548.325 I-3.075
G1 X-368.498
G0 Z14
X-221.315
G1 Z10 F333.3
X-244 Z6 F350
G2 X-247.075 Y-545.25 J3.075 F850
G1 Y-237.75
G2 X-244 Y-234.675 I3.075
G1 X-3
G2 X0.075 Y-237.75 J-3.075
G1 Y-545.25
G2 X-3 Y-548.325 I-3.075
G1 X-244
G0 Z14
X-221.315
G1 Z8.5 F333.3
X-244 Z4.5 F350
G2 X-247.075 Y-545.25 J3.075 F850
G1 Y-237.75
G2 X-244 Y-234.675 I3.075
G1 X-3
G2 X0.075 Y-237.75 J-3.075
G1 Y-545.25
G2 X-3 Y-548.325 I-3.075
G1 X-244
G0 Z14
X-345.813
G1 Z8.5 F333.3
X-368.498 Z4.5 F350
X-733.996 F850
G2 X-737.071 Y-545.25 J3.075
G1 Y-237.75
G2 X-733.996 Y-234.675 I3.075
G1 X-251
G2 X-247.925 Y-237.75 J-3.075
G1 Y-545.25
G2 X-251 Y-548.325 I-3.075
G1 X-368.498
G0 Z14
X-391.183 Y-51.675
G1 Z8.5 F333.3
X-368.498 Z4.5 F350
X-3 F850
G2 X0.075 Y-54.75 J-3.075
G1 Y-230.75
G2 X-3 Y-233.825 I-3.075
G1 X-564
G2 X-567.075 Y-230.75 J3.075
G1 Y-54.75
G2 X-564 Y-51.675 I3.075
G1 X-368.498
X-290.575 Z3.456 F350
Z3.5
X-276.425
Z3.267 F333.3
X-256.499 Z3 F350
X-178.375 F850
Z3.5
X-164.225
Z3 F333.3
X-66.175 F850
Z3.5
X-52.025
Z3 F333.3
X-3 F850
G2 X0.075 Y-54.75 J-3.075
G1 Y-135.675
Z3.5
Y-149.825
Z3 F333.3
Y-230.75 F850
G2 X-3 Y-233.825 I-3.075
G1 X-52.025
Z3.5
X-70.325
Z3 F333.3
X-164.225 F850
Z3.5
X-190.825
Z3 F333.3
X-276.425 F850
Z3.5
X-290.575
Z3 F333.3
X-304.299 F850
Z3.5
X-318.449
Z3 F333.3
X-388.625 F850
Z3.5
X-402.775
Z3 F333.3
X-425.048 F850
Z3.5
X-439.198
Z3 F333.3
X-500.825 F850
Z3.5
X-514.975
Z3 F333.3
X-545.797 F850
Z3.5
X-559.947
Z3 F333.3
X-564 F850
G2 X-567.075 Y-230.75 J3.075
G1 Y-149.825
Z3.5
Y-135.675
Z3 F333.3
Y-54.75 F850
G2 X-564 Y-51.675 I3.075
G1 X-514.975
Z3.5
X-500.825
Z3 F333.3
X-402.775 F850
Z3.5
X-388.625
Z3 F333.3
X-290.575 F850
Z3.5
X-276.425
Z3 F333.3
X-256.499 F850
G0 Z14
X-345.813 Y-548.325
G1 Z7 F333.3
X-368.498 Z3 F350
X-425.048 F850
Z3.5
X-439.198
Z3 F333.3
X-545.797 F850
Z3.5
X-559.947
Z3 F333.3
X-666.546 F850
Z3.5
X-680.696
Z3 F333.3
X-733.996 F850
G2 X-737.071 Y-545.25 J3.075
G1 Y-501.075
Z3.5
Y-486.925
Z3 F333.3
Y-398.575 F850
Z3.5
Y-384.425
Z3 F333.3
Y-296.075 F850
Z3.5
Y-281.925
Z3 F333.3
Y-237.75 F850
G2 X-733.996 Y-234.675 I3.075
G1 X-680.696
Z3.5
X-666.546
Z3 F333.3
X-559.947 F850
Z3.5
X-545.797
Z3 F333.3
X-514.975 F850
Z3.5
X-500.825
Z3 F333.3
X-439.198 F850
Z3.5
X-425.048
Z3 F333.3
X-402.775 F850
Z3.5
X-388.625
Z3 F333.3
X-318.449 F850
Z3.5
X-304.299
Z3 F333.3
X-290.575 F850
Z3.5
X-276.425
Z3 F333.3
X-251 F850
G2 X-247.925 Y-237.75 J-3.075
G1 Y-281.925
Z3.5
Y-296.075
Z3 F333.3
Y-384.425 F850
Z3.5
Y-398.575
Z3 F333.3
Y-486.925 F850
Z3.5
Y-501.075
Z3 F333.3
Y-545.25 F850
G2 X-251 Y-548.325 I-3.075
G1 X-304.299
Z3.5
X-318.449
Z3 F333.3
X-368.498 F850
G0 Z14
X-221.315
G1 Z7 F333.3
X-244 Z3 F350
G2 X-247.075 Y-545.25 J3.075 F850
G1 Y-501.075
Z3.5
Y-486.925
Z3 F333.3
Y-398.575 F850
Z3.5
Y-384.425
Z3 F333.3
Y-296.075 F850
Z3.5
Y-281.925
Z3 F333.3
Y-237.75 F850
G2 X-244 Y-234.675 I3.075
G1 X-190.825
Z3.5
X-164.225
Z3 F333.3
X-70.325 F850
Z3.5
X-52.025
Z3 F333.3
X-3 F850
G2 X0.075 Y-237.75 J-3.075
G1 Y-281.925
Z3.5
Y-296.075
Z3 F333.3
Y-384.425 F850
Z3.5
Y-398.575
Z3 F333.3
Y-486.925 F850
Z3.5
Y-501.075
Z3 F333.3
Y-545.25 F850
G2 X-3 Y-548.325 I-3.075
G1 X-56.175
Z3.5
X-70.325
Z3 F333.3
X-176.675 F850
Z3.5
X-190.825
Z3 F333.3
X-244 F850
G0 Z14
X-221.315
G1 Z5.5 F333.3
X-244 Z1.5 F350
G2 X-247.075 Y-545.25 J3.075 F850
G1 Y-501.075
Z3.5
Y-486.925
Z1.5 F333.3
Y-398.575 F850
Z3.5
Y-384.425
Z1.5 F333.3
Y-296.075 F850
Z3.5
Y-281.925
Z1.5 F333.3
Y-237.75 F850
G2 X-244 Y-234.675 I3.075
G1 X-190.825
Z3.5
X-164.225
Z1.5 F333.3
X-70.325 F850
Z3.5
X-52.025
Z1.5 F333.3
X-3 F850
G2 X0.075 Y-237.75 J-3.075
G1 Y-281.925
Z3.5
Y-296.075
Z1.5 F333.3
Y-384.425 F850
Z3.5
Y-398.575
Z1.5 F333.3
Y-486.925 F850
Z3.5
Y-501.075
Z1.5 F333.3
Y-545.25 F850
G2 X-3 Y-548.325 I-3.075
G1 X-56.175
Z3.5
X-70.325
Z1.5 F333.3
X-176.675 F850
Z3.5
X-190.825
Z1.5 F333.3
X-244 F850
G0 Z14
X-345.813
G1 Z5.5 F333.3
X-368.498 Z1.5 F350
X-425.048 F850
Z3.5
X-439.198
Z1.5 F333.3
X-545.797 F850
Z3.5
X-559.947
Z1.5 F333.3
X-666.546 F850
Z3.5
X-680.696
Z1.5 F333.3
X-733.996 F850
G2 X-737.071 Y-545.25 J3.075
G1 Y-501.075
Z3.5
Y-486.925
Z1.5 F333.3
Y-398.575 F850
Z3.5
Y-384.425
Z1.5 F333.3
Y-296.075 F850
Z3.5
Y-281.925
Z1.5 F333.3
Y-237.75 F850
G2 X-733.996 Y-234.675 I3.075
G1 X-680.696
Z3.5
X-666.546
Z1.5 F333.3
X-559.947 F850
Z3.5
X-545.797
Z1.5 F333.3
X-514.975 F850
Z3.5
X-500.825
Z1.5 F333.3
X-439.198 F850
Z3.5
X-425.048
Z1.5 F333.3
X-402.775 F850
Z3.5
X-388.625
Z1.5 F333.3
X-318.449 F850
Z3.5
X-304.299
Z1.5 F333.3
X-290.575 F850
Z3.5
X-276.425
Z1.5 F333.3
X-251 F850
G2 X-247.925 Y-237.75 J-3.075
G1 Y-281.925
Z3.5
Y-296.075
Z1.5 F333.3
Y-384.425 F850
Z3.5
Y-398.575
Z1.5 F333.3
Y-486.925 F850
Z3.5
Y-501.075
Z1.5 F333.3
Y-545.25 F850
G2 X-251 Y-548.325 I-3.075
G1 X-304.299
Z3.5
X-318.449
Z1.5 F333.3
X-368.498 F850
G0 Z14
X-391.183 Y-51.675
G1 Z5.5 F333.3
X-368.498 Z1.5 F350
X-290.575 F850
Z3.5
X-276.425
Z1.5 F333.3
X-178.375 F850
Z3.5
X-164.225
Z1.5 F333.3
X-66.175 F850
Z3.5
X-52.025
Z1.5 F333.3
X-3 F850
G2 X0.075 Y-54.75 J-3.075
G1 Y-135.675
Z3.5
Y-149.825
Z1.5 F333.3
Y-230.75 F850
G2 X-3 Y-233.825 I-3.075
G1 X-52.025
Z3.5
X-70.325
Z1.5 F333.3
X-164.225 F850
Z3.5
X-190.825
Z1.5 F333.3
X-276.425 F850
Z3.5
X-290.575
Z1.5 F333.3
X-304.299 F850
Z3.5
X-318.449
Z1.5 F333.3
X-388.625 F850
Z3.5
X-402.775
Z1.5 F333.3
X-425.048 F850
Z3.5
X-439.198
Z1.5 F333.3
X-500.825 F850
Z3.5
X-514.975
Z1.5 F333.3
X-545.797 F850
Z3.5
X-559.947
Z1.5 F333.3
X-564 F850
G2 X-567.075 Y-230.75 J3.075
G1 Y-149.825
Z3.5
Y-135.675
Z1.5 F333.3
Y-54.75 F850
G2 X-564 Y-51.675 I3.075
G1 X-514.975
Z3.5
X-500.825
Z1.5 F333.3
X-402.775 F850
Z3.5
X-388.625
Z1.5 F333.3
X-368.498 F850
X-290.575 Z0.456 F350
Z3.5
X-276.425
Z0.267 F333.3
X-256.499 Z0 F350
X-178.375 F850
Z3.5
X-164.225
Z0 F333.3
X-66.175 F850
Z3.5
X-52.025
Z0 F333.3
X-3 F850
G2 X0.075 Y-54.75 J-3.075
G1 Y-135.675
Z3.5
Y-149.825
Z0 F333.3
Y-230.75 F850
G2 X-3 Y-233.825 I-3.075
G1 X-52.025
Z3.5
X-70.325
Z0 F333.3
X-164.225 F850
Z3.5
X-190.825
Z0 F333.3
X-276.425 F850
Z3.5
X-290.575
Z0 F333.3
X-304.299 F850
Z3.5
X-318.449
Z0 F333.3
X-388.625 F850
Z3.5
X-402.775
Z0 F333.3
X-425.048 F850
Z3.5
X-439.198
Z0 F333.3
X-500.825 F850
Z3.5
X-514.975
Z0 F333.3
X-545.797 F850
Z3.5
X-559.947
Z0 F333.3
X-564 F850
G2 X-567.075 Y-230.75 J3.075
G1 Y-149.825
Z3.5
Y-135.675
Z0 F333.3
Y-54.75 F850
G2 X-564 Y-51.675 I3.075
G1 X-514.975
Z3.5
X-500.825
Z0 F333.3
X-402.775 F850
Z3.5
X-388.625
Z0 F333.3
X-290.575 F850
Z3.5
X-276.425
Z0 F333.3
X-256.499 F850
G0 Z14
X-345.813 Y-548.325
G1 Z4 F333.3
X-368.498 Z0 F350
X-425.048 F850
Z3.5
X-439.198
Z0 F333.3
X-545.797 F850
Z3.5
X-559.947
Z0 F333.3
X-666.546 F850
Z3.5
X-680.696
Z0 F333.3
X-733.996 F850
G2 X-737.071 Y-545.25 J3.075
G1 Y-501.075
Z3.5
Y-486.925
Z0 F333.3
Y-398.575 F850
Z3.5
Y-384.425
Z0 F333.3
Y-296.075 F850
Z3.5
Y-281.925
Z0 F333.3
Y-237.75 F850
G2 X-733.996 Y-234.675 I3.075
G1 X-680.696
Z3.5
X-666.546
Z0 F333.3
X-559.947 F850
Z3.5
X-545.797
Z0 F333.3
X-514.975 F850
Z3.5
X-500.825
Z0 F333.3
X-439.198 F850
Z3.5
X-425.048
Z0 F333.3
X-402.775 F850
Z3.5
X-388.625
Z0 F333.3
X-318.449 F850
Z3.5
X-304.299
Z0 F333.3
X-290.575 F850
Z3.5
X-276.425
Z0 F333.3
X-251 F850
G2 X-247.925 Y-237.75 J-3.075
G1 Y-281.925
Z3.5
Y-296.075
Z0 F333.3
Y-384.425 F850
Z3.5
Y-398.575
Z0 F333.3
Y-486.925 F850
Z3.5
Y-501.075
Z0 F333.3
Y-545.25 F850
G2 X-251 Y-548.325 I-3.075
G1 X-304.299
Z3.5
X-318.449
Z0 F333.3
X-368.498 F850
G0 Z14
X-221.315
G1 Z4 F333.3
X-244 Z0 F350
G2 X-247.075 Y-545.25 J3.075 F850
G1 Y-501.075
Z3.5
Y-486.925
Z0 F333.3
Y-398.575 F850
Z3.5
Y-384.425
Z0 F333.3
Y-296.075 F850
Z3.5
Y-281.925
Z0 F333.3
Y-237.75 F850
G2 X-244 Y-234.675 I3.075
G1 X-190.825
Z3.5
X-164.225
Z0 F333.3
X-70.325 F850
Z3.5
X-52.025
Z0 F333.3
X-3 F850
G2 X0.075 Y-237.75 J-3.075
G1 Y-281.925
Z3.5
Y-296.075
Z0 F333.3
Y-384.425 F850
Z3.5
Y-398.575
Z0 F333.3
Y-486.925 F850
Z3.5
Y-501.075
Z0 F333.3
Y-545.25 F850
G2 X-3 Y-548.325 I-3.075
G1 X-56.175
Z3.5
X-70.325
Z0 F333.3
X-176.675 F850
Z3.5
X-190.825
Z0 F333.3
X-244 F850
G0 Z24
M30
%
