%
(1001)
(T1  D=1.587 CR=0 - ZMIN=-3 - flat end mill)
G90 G94
G17
G21

(2D Contour2)
M9
T1 M6
S24000 M3
G54
M9
G0 X-64.024 Y-39.604
Z15
Z5
G1 Z1 F283.2
Z-2.841
X-64.032 Y-39.602 Z-2.89
X-64.054 Y-39.596 Z-2.935
X-64.087 Y-39.586 Z-2.97
X-64.13 Y-39.574 Z-2.992
X-64.177 Y-39.561 Z-3
X-64.33 Y-39.517 F849.6
G3 X-64.526 Y-39.626 I-0.044 J-0.153
G1 X-64.602 Y-39.892
X-64.644 Y-40.037
X-64.577 Y-40.459
G3 X-64.395 Y-40.591 I0.157 J0.025
G1 X-64.239 Y-40.566
X-64.19 Y-40.558 Z-2.992
X-64.146 Y-40.552 Z-2.97
X-64.112 Y-40.546 Z-2.935
X-64.089 Y-40.542 Z-2.89
X-64.082 Y-40.541 Z-2.841
G0 Z5
X-63.783 Y-35.893
G1 Z1 F283.2
Z-2.841
X-63.79 Y-35.89 Z-2.89
X-63.811 Y-35.883 Z-2.935
X-63.844 Y-35.871 Z-2.97
X-63.886 Y-35.856 Z-2.992
X-63.932 Y-35.84 Z-3
X-64.082 Y-35.787 F849.6
G3 X-64.285 Y-35.884 I-0.053 J-0.15
G1 X-64.572 Y-36.7
X-64.512 Y-36.807
X-64.29 Y-37.203
X-64.21 Y-37.346
G2 X-64.16 Y-37.447 I-0.954 J-0.535
G3 X-63.951 Y-37.529 I0.146 J0.063
G1 X-63.806 Y-37.466
X-63.761 Y-37.446 Z-2.992
X-63.72 Y-37.429 Z-2.97
X-63.688 Y-37.415 Z-2.935
X-63.667 Y-37.406 Z-2.89
X-63.66 Y-37.403 Z-2.841
G0 Z5
X-63.04 Y-34.312
G1 Z1 F283.2
Z-2.841
X-63.046 Y-34.307 Z-2.89
X-63.062 Y-34.292 Z-2.935
X-63.088 Y-34.268 Z-2.97
X-63.121 Y-34.239 Z-2.992
X-63.157 Y-34.206 Z-3
X-63.275 Y-34.099 F849.6
G3 X-63.499 Y-34.11 I-0.107 J-0.118
G1 X-63.685 Y-34.315
X-63.761 Y-34.398
X-63.89 Y-34.766
G3 X-63.793 Y-34.968 I0.15 J-0.053
G1 X-63.644 Y-35.021
X-63.597 Y-35.037 Z-2.992
X-63.556 Y-35.052 Z-2.97
X-63.523 Y-35.064 Z-2.935
X-63.501 Y-35.071 Z-2.89
X-63.494 Y-35.074 Z-2.841
G0 Z5
X-67.247 Y-47.134
G1 Z1 F283.2
Z-2.841
X-67.25 Y-47.126 Z-2.89
X-67.258 Y-47.105 Z-2.935
X-67.27 Y-47.072 Z-2.97
X-67.285 Y-47.031 Z-2.992
X-67.302 Y-46.985 Z-3
X-67.357 Y-46.836 F849.6
G3 X-67.561 Y-46.742 I-0.149 J-0.055
G2 X-67.94 Y-46.81 I-0.379 J1.026
G1 X-68.085
X-68.36 Y-47.084
X-68.456 Y-47.18
X-68.556 Y-47.28
G3 Y-47.505 I0.112 J-0.112
G1 X-68.444 Y-47.617
X-68.409 Y-47.652 Z-2.992
X-68.378 Y-47.683 Z-2.97
X-68.353 Y-47.708 Z-2.935
X-68.337 Y-47.724 Z-2.89
X-68.331 Y-47.729 Z-2.841
G0 Z5
X-75.248 Y-47.279
G1 Z1 F283.2
Z-2.841
X-75.244 Y-47.273 Z-2.89
X-75.231 Y-47.254 Z-2.935
X-75.212 Y-47.225 Z-2.97
X-75.187 Y-47.188 Z-2.992
X-75.159 Y-47.148 Z-3
X-75.07 Y-47.017 F849.6
G3 X-75.112 Y-46.796 I-0.131 J0.089
G1 X-75.602 Y-46.463
X-75.917
X-76.194
G3 X-76.352 Y-46.622 J-0.159
G1 Y-46.781
G19 G2 Y-46.939 Z-2.841 K0.159
G0 Z5
X-76.129
G1 Z1 F283.2
Z-2.841
G3 Y-46.781 Z-3 J0.159
G1 Y-46.622 F849.6
G17 G3 X-76.287 Y-46.463 I-0.159
G1 X-76.898
X-77.17 Y-46.655
X-77.396 Y-46.815
G3 X-77.434 Y-47.036 I0.092 J-0.13
G1 X-77.343 Y-47.166
X-77.315 Y-47.206 Z-2.992
X-77.289 Y-47.242 Z-2.97
X-77.269 Y-47.271 Z-2.935
X-77.256 Y-47.289 Z-2.89
X-77.251 Y-47.296 Z-2.841
G0 Z5
X-82.037 Y-48.481
G1 Z1 F283.2
Z-2.841
X-82.038 Y-48.473 Z-2.89
X-82.04 Y-48.45 Z-2.935
X-82.043 Y-48.415 Z-2.97
X-82.046 Y-48.371 Z-2.992
X-82.05 Y-48.322 Z-3
X-82.063 Y-48.164 F849.6
G3 X-82.235 Y-48.019 I-0.158 J-0.013
G1 X-82.511 Y-48.042
X-82.59 Y-48.048
X-82.911 Y-48.202
G3 X-82.986 Y-48.414 I0.069 J-0.143
G1 X-82.918 Y-48.557
X-82.896 Y-48.601 Z-2.992
X-82.877 Y-48.641 Z-2.97
X-82.862 Y-48.673 Z-2.935
X-82.852 Y-48.693 Z-2.89
X-82.849 Y-48.7 Z-2.841
G0 Z5
X-84.119 Y-49.307
G1 Z1 F283.2
Z-2.841
X-84.122 Y-49.3 Z-2.89
X-84.132 Y-49.28 Z-2.935
X-84.147 Y-49.248 Z-2.97
X-84.166 Y-49.208 Z-2.992
X-84.187 Y-49.164 Z-3
X-84.256 Y-49.021 F849.6
G3 X-84.467 Y-48.946 I-0.143 J-0.068
G1 X-84.717 Y-49.065
X-84.778 Y-49.094
X-85.018 Y-49.34
G3 X-85.015 Y-49.564 I0.114 J-0.111
G1 X-84.902 Y-49.675
X-84.867 Y-49.709 Z-2.992
X-84.835 Y-49.74 Z-2.97
X-84.81 Y-49.765 Z-2.935
X-84.794 Y-49.781 Z-2.89
X-84.788 Y-49.786 Z-2.841
G0 Z5
X-87.809 Y-53.547
G1 Z1 F283.2
Z-2.841
X-87.815 Y-53.542 Z-2.89
X-87.832 Y-53.528 Z-2.935
X-87.86 Y-53.505 Z-2.97
X-87.894 Y-53.477 Z-2.992
X-87.932 Y-53.446 Z-3
X-88.055 Y-53.346 F849.6
G3 X-88.278 Y-53.369 I-0.1 J-0.123
G1 X-88.755 Y-53.953
X-88.864 Y-54.368
X-88.869 Y-54.388
X-88.578 Y-54.708
X-88.173 Y-55.154
X-88.004 Y-55.34
X-87.981 Y-55.35
G3 X-87.771 Y-55.271 I0.065 J0.145
G1 X-87.705 Y-55.126
X-87.685 Y-55.081 Z-2.992
X-87.667 Y-55.041 Z-2.97
X-87.653 Y-55.009 Z-2.935
X-87.643 Y-54.988 Z-2.89
X-87.64 Y-54.981 Z-2.841
G0 Z5
X-87.592 Y-53.03
G1 Z1 F283.2
Z-2.841
X-87.598 Y-53.025 Z-2.89
X-87.616 Y-53.011 Z-2.935
X-87.643 Y-52.989 Z-2.97
X-87.677 Y-52.961 Z-2.992
X-87.715 Y-52.93 Z-3
X-87.838 Y-52.829 F849.6
G3 X-88.061 Y-52.852 I-0.1 J-0.123
G1 X-88.9 Y-53.879
X-89.017 Y-54.327
X-89.045 Y-54.431
X-88.695 Y-54.815
X-88.099 Y-55.471
X-87.618 Y-55.687
X-87.366 Y-55.801
G3 X-87.156 Y-55.722 I0.065 J0.145
G1 X-87.091 Y-55.577
X-87.071 Y-55.532 Z-2.992
X-87.052 Y-55.492 Z-2.97
X-87.038 Y-55.46 Z-2.935
X-87.029 Y-55.439 Z-2.89
X-87.026 Y-55.432 Z-2.841
G0 Z5
X-74.07 Y-63.962
G1 Z1 F283.2
Z-2.841
X-74.077 Z-2.89
X-74.1 Z-2.935
X-74.135 Z-2.97
X-74.179 Z-2.992
X-74.228 Z-3
X-74.387 Y-63.963 F849.6
G3 X-74.545 Y-64.122 J-0.159
G1 Y-64.399
Y-64.409
X-74.321 Y-64.588
G3 X-74.098 Y-64.563 I0.099 J0.124
G1 X-73.999 Y-64.439
X-73.968 Y-64.4 Z-2.992
X-73.94 Y-64.366 Z-2.97
X-73.919 Y-64.338 Z-2.935
X-73.904 Y-64.321 Z-2.89
X-73.9 Y-64.315 Z-2.841
G0 Z5
X-74.291 Y-63.394
G1 Z1 F283.2
Z-2.841
X-74.298 Y-63.395 Z-2.89
X-74.32 Y-63.4 Z-2.935
X-74.355 Y-63.407 Z-2.97
X-74.398 Y-63.415 Z-2.992
X-74.446 Y-63.425 Z-3
X-74.602 Y-63.456 F849.6
G3 X-74.726 Y-63.643 I0.031 J-0.156
G2 X-74.705 Y-63.857 I-1.072 J-0.216
G1 X-74.703 Y-64.485
X-74.216 Y-64.875
X-73.999 Y-65.048
G3 X-73.776 Y-65.023 I0.099 J0.124
G1 X-73.677 Y-64.899
X-73.647 Y-64.86 Z-2.992
X-73.619 Y-64.826 Z-2.97
X-73.597 Y-64.798 Z-2.935
X-73.583 Y-64.781 Z-2.89
X-73.578 Y-64.775 Z-2.841
G0 Z5
X-71.391 Y-66.523
G1 Z1 F283.2
Z-2.841
X-71.396 Y-66.529 Z-2.89
X-71.41 Y-66.547 Z-2.935
X-71.432 Y-66.574 Z-2.97
X-71.459 Y-66.609 Z-2.992
X-71.49 Y-66.647 Z-3
X-71.589 Y-66.771 F849.6
G3 X-71.564 Y-66.994 I0.124 J-0.099
G1 X-71.348 Y-67.167
X-71.292 Y-67.212
X-70.961 Y-67.321
G3 X-70.761 Y-67.22 I0.05 J0.151
G1 X-70.711 Y-67.069
X-70.696 Y-67.022 Z-2.992
X-70.682 Y-66.98 Z-2.97
X-70.671 Y-66.947 Z-2.935
X-70.664 Y-66.926 Z-2.89
X-70.661 Y-66.918 Z-2.841
G0 Z5
X-60.856 Y-68.915
G1 Z1 F283.2
Z-2.841
X-60.858 Y-68.923 Z-2.89
X-60.862 Y-68.945 Z-2.935
X-60.868 Y-68.98 Z-2.97
X-60.876 Y-69.023 Z-2.992
X-60.884 Y-69.072 Z-3
X-60.912 Y-69.228 F849.6
G3 X-60.784 Y-69.412 I0.156 J-0.028
G1 X-60.179 Y-69.52
X-59.875 Y-69.376
X-59.624 Y-69.258
G3 X-59.549 Y-69.047 I-0.068 J0.144
G1 X-59.616 Y-68.903
X-59.637 Y-68.859 Z-2.992
X-59.656 Y-68.819 Z-2.97
X-59.671 Y-68.787 Z-2.935
X-59.681 Y-68.766 Z-2.89
X-59.684 Y-68.759 Z-2.841
G0 Z5
X-56.982 Y-67.483
G1 Z1 F283.2
Z-2.841
X-56.979 Y-67.49 Z-2.89
X-56.969 Y-67.51 Z-2.935
X-56.954 Y-67.542 Z-2.97
X-56.935 Y-67.582 Z-2.992
X-56.915 Y-67.626 Z-3
X-56.847 Y-67.77 F849.6
G3 X-56.635 Y-67.846 I0.144 J0.068
G1 X-56.134 Y-67.609
X-55.984 Y-67.374
X-55.836 Y-67.141
G3 X-55.884 Y-66.922 I-0.134 J0.085
G1 X-56.018 Y-66.836
X-56.059 Y-66.81 Z-2.992
X-56.096 Y-66.786 Z-2.97
X-56.126 Y-66.767 Z-2.935
X-56.145 Y-66.755 Z-2.89
X-56.152 Y-66.751 Z-2.841
G0 Z5
X-56.202 Y-66.83
G1 Z1 F283.2
Z-2.841
X-56.195 Y-66.834 Z-2.89
X-56.176 Y-66.846 Z-2.935
X-56.147 Y-66.865 Z-2.97
X-56.109 Y-66.889 Z-2.992
X-56.068 Y-66.915 Z-3
X-55.934 Y-67 F849.6
G3 X-55.715 Y-66.951 I0.085 J0.134
G1 X-55.566 Y-66.718
X-55.484 Y-66.589
X-55.43 Y-66.162
G3 X-55.567 Y-65.985 I-0.157 J0.02
G1 X-55.724 Y-65.964
X-55.773 Y-65.958 Z-2.992
X-55.817 Y-65.952 Z-2.97
X-55.852 Y-65.948 Z-2.935
X-55.874 Y-65.945 Z-2.89
X-55.882 Y-65.944 Z-2.841
G0 Z5
X-63.585 Y-22.563
G1 Z1 F283.2
Z-2.841
G19 G3 Y-22.405 Z-3 J0.159
G1 Y-22.246 F849.6
G17 G3 X-63.744 Y-22.087 I-0.159
G1 X-66.531
Y-22.089
X-66.508 Y-22.198
G2 X-66.499 Y-22.244 I-1.226 J-0.258
G1 X-66.48 Y-22.353
G2 X-66.474 Y-22.396 I-1.234 J-0.212
G1 X-66.459 Y-22.507
G2 X-66.454 Y-22.548 I-1.241 J-0.169
G1 X-66.445 Y-22.638
X-65.781 Y-23.427
X-65.094 Y-24.243
X-64.916 Y-24.455
G3 X-64.692 Y-24.474 I0.121 J0.102
G1 X-64.57 Y-24.372
X-64.533 Y-24.341 Z-2.992
X-64.499 Y-24.312 Z-2.97
X-64.472 Y-24.29 Z-2.935
X-64.455 Y-24.275 Z-2.89
X-64.449 Y-24.27 Z-2.841
G0 Z5
X-63.048 Y-22.405
G1 Z1 F283.2
Z-2.841
G19 G3 Y-22.246 Z-3 J0.159
G1 Y-22.087 F849.6
G17 G3 X-63.207 Y-21.928 I-0.159
G1 X-66.735
G2 X-66.723 Y-21.971 I-1.049 J-0.31
G1 X-66.696 Y-22.079
G2 X-66.686 Y-22.121 I-1.061 J-0.268
G1 X-66.663 Y-22.23
G2 X-66.656 Y-22.271 I-1.07 J-0.225
G1 X-66.637 Y-22.38
G2 X-66.631 Y-22.418 I-1.078 J-0.185
G1 X-66.616 Y-22.528
G2 X-66.612 Y-22.565 I-1.084 J-0.147
G1 X-66.601 Y-22.675
G2 X-66.598 Y-22.702 I-1.088 J-0.111
G1 X-65.903 Y-23.529
X-64.967 Y-24.641
G2 X-64.806 Y-24.898 I-0.837 J-0.704
G3 X-64.596 Y-24.978 I0.145 J0.065
G1 X-64.451 Y-24.913
X-64.406 Y-24.893 Z-2.992
X-64.366 Y-24.875 Z-2.97
X-64.334 Y-24.86 Z-2.935
X-64.313 Y-24.851 Z-2.89
X-64.306 Y-24.848 Z-2.841
G0 Z5
X-32.341 Y-24.206
G1 Z1 F283.2
Z-2.841
X-32.334 Y-24.21 Z-2.89
X-32.315 Y-24.222 Z-2.935
X-32.285 Y-24.241 Z-2.97
X-32.248 Y-24.265 Z-2.992
X-32.207 Y-24.291 Z-3
X-32.073 Y-24.377 F849.6
G3 X-31.854 Y-24.329 I0.086 J0.134
G1 X-30.417 Y-22.087
X-32.803
X-33.08
G3 X-33.239 Y-22.246 J-0.159
G1 Y-22.405
G19 G2 Y-22.563 Z-2.841 K0.159
G0 Z5
X-32.497 Y-24.744
G1 Z1 F283.2
Z-2.841
X-32.49 Y-24.748 Z-2.89
X-32.471 Y-24.76 Z-2.935
X-32.442 Y-24.779 Z-2.97
X-32.404 Y-24.803 Z-2.992
X-32.363 Y-24.83 Z-3
X-32.229 Y-24.915 F849.6
G17 G3 X-32.01 Y-24.867 I0.086 J0.134
G1 X-31.933 Y-24.746
X-31.861 Y-24.634
X-30.127 Y-21.928
X-33.341
X-33.618
G3 X-33.776 Y-22.087 J-0.159
G1 Y-22.246
G19 G2 Y-22.405 Z-2.841 K0.159
G0 Z15
G17

(2D Contour3)
M9
G0 X-45.584 Y-42.753
Z15
Z5
G1 Z1 F283.2
Z-2.841
X-45.577 Y-42.757 Z-2.89
X-45.557 Y-42.767 Z-2.935
X-45.525 Y-42.783 Z-2.97
X-45.486 Y-42.803 Z-2.992
X-45.442 Y-42.825 Z-3
X-45.3 Y-42.896 F849.6
G3 X-45.087 Y-42.826 I0.072 J0.142
G2 X-44.954 Y-42.637 I0.709 J-0.358
G1 X-43.777 Y-41.399
X-42.639 Y-40.199
X-41.192 Y-38.171
X-39.712 Y-36.097
G2 X-39.645 Y-36.015 I0.646 J-0.461
G1 X-38.642 Y-34.946
X-37.679 Y-33.92
X-35.849 Y-31.24
X-33.992 Y-28.517
X-31.68 Y-24.908
X-29.579 Y-21.628
X-67.155
X-67.154 Y-21.631
X-67.113 Y-21.735
G2 X-67.101 Y-21.769 I-0.738 J-0.291
G1 X-67.064 Y-21.875
G2 X-67.054 Y-21.907 I-0.751 J-0.257
G1 X-67.023 Y-22.013
G2 X-67.014 Y-22.044 I-0.761 J-0.225
G1 X-66.987 Y-22.152
G2 X-66.98 Y-22.183 I-0.77 J-0.194
G1 X-66.957 Y-22.292
G2 X-66.951 Y-22.321 I-0.777 J-0.163
G1 X-66.933 Y-22.431
G2 X-66.928 Y-22.458 I-0.782 J-0.134
G1 X-66.913 Y-22.569
G2 X-66.91 Y-22.595 I-0.787 J-0.107
G1 X-66.899 Y-22.706
G2 X-66.897 Y-22.732 I-0.79 J-0.08
G1 X-66.891 Y-22.821
X-66.132 Y-23.722
X-65.197 Y-24.834
G2 X-65.042 Y-25.122 I-0.607 J-0.511
G1 X-64.463 Y-27.1
X-63.885 Y-29.073
X-63.38 Y-30.731
X-62.872 Y-32.393
G2 X-63.042 Y-33.158 I-0.759 J-0.232
G1 X-63.586 Y-33.759
X-64.024 Y-34.242
X-64.495 Y-35.579
X-64.9 Y-36.728
X-64.774 Y-36.954
X-64.471 Y-37.493
G2 X-64.401 Y-38.101 I-0.692 J-0.389
G1 X-64.7 Y-39.143
X-64.95 Y-40.018
X-64.783 Y-41.077
X-64.589 Y-42.31
G2 X-64.748 Y-42.922 I-0.784 J-0.123
G1 X-66.031 Y-44.563
X-67.315 Y-46.205
G2 X-67.94 Y-46.51 I-0.625 J0.489
G1 X-68.21
X-68.668 Y-46.968
X-69.36 Y-47.66
G2 X-69.921 Y-47.892 I-0.561 J0.561
G1 X-72.722
G2 X-73.168 Y-47.755 J0.794
G1 X-74.439 Y-46.89
X-75.509 Y-46.163
X-76.993
X-77.704 Y-46.665
X-78.622 Y-47.312
G2 X-79.014 Y-47.454 I-0.457 J0.649
G1 X-80.915 Y-47.609
X-82.67 Y-47.754
X-83.809 Y-48.299
X-84.955 Y-48.846
X-85.59 Y-49.495
X-86.3 Y-50.22
X-87.78 Y-52.033
X-89.173 Y-53.74
X-89.308 Y-54.251
X-89.376 Y-54.513
X-88.917 Y-55.017
X-88.279 Y-55.719
X-84.455 Y-57.441
X-80.481 Y-59.23
G2 X-80.468 Y-59.236 I-0.326 J-0.724
G1 X-78.625 Y-60.105
X-76.781 Y-60.975
G2 X-76.442 Y-61.279 I-0.339 J-0.718
G1 X-75.121 Y-63.446
G2 X-75.005 Y-63.857 I-0.678 J-0.413
G1 X-75.003 Y-64.63
X-73.313 Y-65.98
X-71.437 Y-67.48
X-69.327 Y-68.176
X-67.158 Y-68.892
X-64.821 Y-69.157
X-62.403 Y-69.429
G2 X-62.352 Y-69.436 I-0.089 J-0.789
G1 X-61.121 Y-69.657
X-60.138 Y-69.832
X-58.045 Y-68.844
X-55.928 Y-67.843
X-55.575 Y-67.29
X-55.195 Y-66.693
X-55.047 Y-65.54
X-54.878 Y-64.212
G2 X-54.675 Y-63.776 I0.787 J-0.1
G1 X-53.025 Y-61.979
X-51.944 Y-60.434
X-50.892 Y-58.932
X-48.854 Y-53.359
X-46.78 Y-47.695
X-45.955 Y-45.314
X-45.129 Y-42.925
G2 X-45.087 Y-42.826 I0.75 J-0.259
G3 X-45.157 Y-42.613 I-0.142 J0.072
G1 X-45.299 Y-42.541
X-45.343 Y-42.519 Z-2.992
X-45.382 Y-42.499 Z-2.97
X-45.414 Y-42.483 Z-2.935
X-45.434 Y-42.473 Z-2.89
X-45.441 Y-42.47 Z-2.841
G0 Z15
M9
M30
%
