%
(1001)
(T1  D=6 CR=0 - ZMIN=-3 - flat end mill)
G90 G94
G17
G21

(2D Adaptive3)
M9
T1 M6
S6000 M3
G54
M9
G0 X-62.293 Y-55.814
Z15
Z5
Z3.15
G1 Z2.55 F850
G3 X-66.331 Y-59.837 Z2.237 I-2.019 J-2.011 F283.3
X-62.293 Y-55.814 Z1.925 I2.019 J2.011
X-66.331 Y-59.837 Z1.612 I-2.019 J-2.011
X-62.293 Y-55.814 Z1.299 I2.019 J2.011
X-66.331 Y-59.837 Z0.987 I-2.019 J-2.011
X-62.293 Y-55.814 Z0.674 I2.019 J2.011
X-66.331 Y-59.837 Z0.361 I-2.019 J-2.011
X-62.293 Y-55.814 Z0.049 I2.019 J2.011
X-66.331 Y-59.837 Z-0.264 I-2.019 J-2.011
X-62.293 Y-55.814 Z-0.577 I2.019 J2.011
X-66.331 Y-59.837 Z-0.889 I-2.019 J-2.011
X-62.293 Y-55.814 Z-1.202 I2.019 J2.011
X-66.331 Y-59.837 Z-1.515 I-2.019 J-2.011
X-62.293 Y-55.814 Z-1.827 I2.019 J2.011
X-66.331 Y-59.837 Z-2.14 I-2.019 J-2.011
X-62.293 Y-55.814 Z-2.453 I2.019 J2.011
X-66.331 Y-59.837 Z-2.765 I-2.019 J-2.011
X-61.462 Y-57.825 Z-3 I2.019 J2.011
X-67.162 I-2.85
X-61.462 I2.85
G1 X-61.459 Y-57.604 F850
X-61.329 Y-56.727
X-61.304 Y-56.619
X-61.284 Y-56.471
X-61.278 Y-56.321
X-61.287 Y-56.171
X-61.308 Y-56.023
X-61.34 Y-55.876
X-61.384 Y-55.729
X-61.44 Y-55.578
X-61.511 Y-55.424
X-61.595 Y-55.268
X-61.694 Y-55.112
X-61.809 Y-54.956
X-61.938 Y-54.804
X-62.083 Y-54.656
X-62.242 Y-54.514
X-62.416 Y-54.379
X-62.604 Y-54.254
X-62.805 Y-54.139
X-63.019 Y-54.035
X-63.243 Y-53.945
X-63.478 Y-53.87
X-63.721 Y-53.809
X-63.972 Y-53.765
X-64.229 Y-53.739
X-64.491 Y-53.729
X-64.755 Y-53.739
X-65.021 Y-53.766
X-65.287 Y-53.813
X-65.551 Y-53.878
X-65.812 Y-53.962
X-66.069 Y-54.065
X-66.319 Y-54.185
X-66.561 Y-54.324
X-66.794 Y-54.48
X-67.017 Y-54.652
X-67.228 Y-54.84
X-67.426 Y-55.042
X-67.611 Y-55.259
X-67.78 Y-55.488
X-67.933 Y-55.73
X-68.07 Y-55.981
X-68.189 Y-56.242
X-68.29 Y-56.512
X-68.372 Y-56.787
X-68.435 Y-57.069
X-68.478 Y-57.354
X-68.502 Y-57.642
X-68.505 Y-57.931
X-68.489 Y-58.22
X-68.452 Y-58.507
X-68.396 Y-58.791
X-68.32 Y-59.071
X-68.225 Y-59.344
X-68.111 Y-59.611
X-67.979 Y-59.87
X-67.829 Y-60.118
X-67.663 Y-60.356
X-67.48 Y-60.582
X-67.282 Y-60.794
X-67.07 Y-60.993
X-66.844 Y-61.176
X-66.607 Y-61.343
X-66.358 Y-61.494
X-66.099 Y-61.626
X-65.832 Y-61.741
X-65.557 Y-61.837
X-65.277 Y-61.914
X-64.992 Y-61.971
X-64.703 Y-62.008
X-64.413 Y-62.025
X-64.122 Y-62.022
X-63.832 Y-61.999
X-63.544 Y-61.955
X-63.26 Y-61.892
X-62.981 Y-61.81
X-62.709 Y-61.708
X-62.444 Y-61.588
X-62.188 Y-61.45
X-61.942 Y-61.294
X-61.708 Y-61.122
X-61.486 Y-60.933
X-61.277 Y-60.73
X-61.084 Y-60.513
X-60.905 Y-60.283
X-60.743 Y-60.042
X-60.563 Y-59.727
X-60.304 Y-59.194
X-60.101 Y-58.691
X-59.967 Y-58.276
X-59.874 Y-57.901
X-59.811 Y-57.546
X-59.775 Y-57.208
X-59.764 Y-56.883
X-59.774 Y-56.566
X-59.806 Y-56.256
X-59.859 Y-55.952
X-59.932 Y-55.654
X-60.025 Y-55.363
X-60.139 Y-55.078
X-60.272 Y-54.801
X-60.426 Y-54.532
X-60.599 Y-54.272
X-60.791 Y-54.023
X-61.002 Y-53.785
X-61.232 Y-53.56
X-61.479 Y-53.349
X-61.742 Y-53.154
X-62.022 Y-52.976
X-62.316 Y-52.816
X-62.623 Y-52.675
X-62.943 Y-52.555
X-63.274 Y-52.456
X-63.614 Y-52.379
X-63.962 Y-52.326
X-64.316 Y-52.297
X-64.675 Y-52.292
X-65.037 Y-52.312
X-65.399 Y-52.357
X-65.759 Y-52.428
X-66.116 Y-52.525
X-66.468 Y-52.646
X-66.812 Y-52.793
X-67.148 Y-52.964
X-67.472 Y-53.158
X-67.783 Y-53.376
X-68.079 Y-53.615
X-68.359 Y-53.876
X-68.622 Y-54.156
X-68.865 Y-54.454
X-69.087 Y-54.769
X-69.288 Y-55.1
X-69.465 Y-55.445
X-69.619 Y-55.801
X-69.748 Y-56.168
X-69.851 Y-56.544
X-69.928 Y-56.927
X-69.978 Y-57.314
X-70.002 Y-57.705
X-69.998 Y-58.097
X-69.967 Y-58.487
X-69.91 Y-58.876
X-69.825 Y-59.259
X-69.714 Y-59.636
X-69.577 Y-60.005
X-69.415 Y-60.363
X-69.228 Y-60.709
X-69.018 Y-61.042
X-68.785 Y-61.36
X-68.531 Y-61.661
X-68.256 Y-61.944
X-67.962 Y-62.207
X-67.651 Y-62.449
X-67.323 Y-62.669
X-66.981 Y-62.866
X-66.627 Y-63.038
X-66.261 Y-63.186
X-65.885 Y-63.308
X-65.502 Y-63.404
X-65.113 Y-63.473
X-64.721 Y-63.515
X-64.326 Y-63.53
X-63.931 Y-63.517
X-63.538 Y-63.478
X-63.149 Y-63.41
X-62.765 Y-63.317
X-62.389 Y-63.197
X-62.022 Y-63.051
X-61.666 Y-62.88
X-61.322 Y-62.684
X-60.993 Y-62.466
X-60.672 Y-62.219
X-60.361 Y-61.944
X-60.04 Y-61.617
X-59.72 Y-61.243
X-59.421 Y-60.84
X-59.151 Y-60.417
X-58.913 Y-59.982
X-58.71 Y-59.539
X-58.541 Y-59.091
X-58.406 Y-58.641
X-58.304 Y-58.192
X-58.235 Y-57.745
X-58.197 Y-57.3
X-58.191 Y-56.86
X-58.215 Y-56.425
X-58.268 Y-55.997
X-58.35 Y-55.576
X-58.461 Y-55.163
X-58.6 Y-54.76
X-58.766 Y-54.368
X-58.959 Y-53.988
X-59.179 Y-53.621
X-59.424 Y-53.269
X-59.694 Y-52.934
X-59.988 Y-52.617
X-60.305 Y-52.319
X-60.644 Y-52.043
X-61.003 Y-51.789
X-61.381 Y-51.559
X-61.777 Y-51.354
X-62.19 Y-51.176
X-62.616 Y-51.026
X-63.056 Y-50.904
X-63.505 Y-50.813
X-63.963 Y-50.753
X-64.427 Y-50.725
X-64.895 Y-50.728
X-65.365 Y-50.765
X-65.833 Y-50.834
X-66.298 Y-50.936
X-66.757 Y-51.07
X-67.208 Y-51.237
X-67.648 Y-51.436
X-68.075 Y-51.665
X-68.487 Y-51.925
X-68.881 Y-52.213
X-69.256 Y-52.529
X-69.609 Y-52.871
X-69.938 Y-53.238
X-70.242 Y-53.628
X-70.519 Y-54.039
X-70.767 Y-54.469
X-70.985 Y-54.916
X-71.172 Y-55.377
X-71.327 Y-55.852
X-71.449 Y-56.337
X-71.538 Y-56.829
X-71.592 Y-57.328
X-71.611 Y-57.829
X-71.596 Y-58.331
X-71.546 Y-58.832
X-71.461 Y-59.328
X-71.342 Y-59.817
X-71.189 Y-60.297
X-71.004 Y-60.766
X-70.786 Y-61.221
X-70.537 Y-61.66
X-70.258 Y-62.081
X-69.951 Y-62.482
X-69.616 Y-62.861
X-69.256 Y-63.216
X-68.872 Y-63.545
X-68.466 Y-63.847
X-68.04 Y-64.12
X-67.596 Y-64.363
X-67.137 Y-64.575
X-66.663 Y-64.754
X-66.178 Y-64.901
X-65.685 Y-65.013
X-65.184 Y-65.091
X-64.679 Y-65.134
X-64.173 Y-65.142
X-63.667 Y-65.115
X-63.164 Y-65.053
X-62.667 Y-64.957
X-62.177 Y-64.826
X-61.696 Y-64.661
X-61.225 Y-64.462
X-60.762 Y-64.227
X-60.307 Y-63.956
X-59.864 Y-63.647
X-59.43 Y-63.299
X-59.013 Y-62.913
X-58.616 Y-62.492
X-58.247 Y-62.041
X-57.908 Y-61.563
X-57.603 Y-61.063
X-57.335 Y-60.545
X-57.104 Y-60.013
X-56.912 Y-59.47
X-56.759 Y-58.919
X-56.646 Y-58.363
X-56.572 Y-57.806
X-56.537 Y-57.248
X-56.541 Y-56.694
X-56.583 Y-56.144
X-56.662 Y-55.6
X-56.779 Y-55.066
X-56.932 Y-54.542
X-57.12 Y-54.03
X-57.344 Y-53.533
X-57.601 Y-53.052
X-57.892 Y-52.59
X-58.214 Y-52.148
X-58.567 Y-51.728
X-58.95 Y-51.333
X-59.36 Y-50.963
X-59.798 Y-50.621
X-60.259 Y-50.309
X-60.744 Y-50.029
X-61.25 Y-49.781
X-61.774 Y-49.568
X-62.314 Y-49.391
X-62.869 Y-49.25
X-63.434 Y-49.148
X-64.009 Y-49.085
X-64.589 Y-49.062
X-65.172 Y-49.079
X-65.755 Y-49.137
X-66.336 Y-49.236
X-66.911 Y-49.375
X-67.477 Y-49.554
X-68.031 Y-49.773
X-68.571 Y-50.03
X-69.094 Y-50.325
X-69.596 Y-50.657
X-70.076 Y-51.024
X-70.53 Y-51.424
X-70.957 Y-51.856
X-71.354 Y-52.318
X-71.718 Y-52.807
X-72.049 Y-53.321
X-72.344 Y-53.858
X-72.601 Y-54.414
X-72.819 Y-54.988
X-72.998 Y-55.577
X-73.135 Y-56.178
X-73.231 Y-56.787
X-73.284 Y-57.402
X-73.295 Y-58.02
X-73.263 Y-58.638
X-73.188 Y-59.253
X-73.07 Y-59.861
X-72.911 Y-60.46
X-72.711 Y-61.048
X-72.47 Y-61.62
X-72.19 Y-62.174
X-71.872 Y-62.708
X-71.517 Y-63.219
X-71.128 Y-63.704
X-70.707 Y-64.162
X-70.254 Y-64.589
X-69.773 Y-64.984
X-69.265 Y-65.345
X-68.734 Y-65.67
X-68.181 Y-65.957
X-67.61 Y-66.206
X-67.023 Y-66.414
X-66.422 Y-66.581
X-65.812 Y-66.707
X-65.194 Y-66.789
X-64.571 Y-66.829
X-63.948 Y-66.826
X-63.326 Y-66.779
X-62.707 Y-66.689
X-62.094 Y-66.557
X-61.487 Y-66.38
X-60.889 Y-66.161
X-60.3 Y-65.897
X-59.723 Y-65.589
X-59.161 Y-65.237
X-58.618 Y-64.842
X-58.099 Y-64.406
X-57.607 Y-63.931
X-57.146 Y-63.42
X-56.771 Y-62.941
X-56.738 Y-62.897
X-56.709 Y-62.851
X-56.682 Y-62.802
X-56.554 Y-62.607
X-56.103 Y-61.877
X-55.789 Y-61.28
X-55.516 Y-60.659
X-55.286 Y-60.021
X-55.1 Y-59.368
X-54.961 Y-58.705
X-54.868 Y-58.036
X-54.822 Y-57.364
X-54.823 Y-56.692
X-54.869 Y-56.024
X-54.962 Y-55.361
X-55.1 Y-54.709
X-55.283 Y-54.068
X-55.51 Y-53.441
X-55.779 Y-52.832
X-56.09 Y-52.243
X-56.442 Y-51.676
X-56.832 Y-51.134
X-57.26 Y-50.619
X-57.724 Y-50.134
X-58.221 Y-49.681
X-58.75 Y-49.262
X-59.31 Y-48.879
X-59.896 Y-48.535
X-60.507 Y-48.231
X-61.141 Y-47.969
X-61.794 Y-47.75
X-62.463 Y-47.577
X-63.145 Y-47.449
X-63.838 Y-47.369
X-64.537 Y-47.337
X-64.688 Y-47.341
X-65.004 Y-47.378
X-65.306 Y-47.475
X-65.585 Y-47.628
X-65.829 Y-47.83
X-66.019 Y-48.018
X-66.126 Y-48.101
X-66.22 Y-48.172
X-66.428 Y-48.302
X-66.623 Y-48.406
X-66.824 Y-48.498
X-67.025 Y-48.573
X-67.126 Y-48.609
X-67.227 Y-48.663
X-67.282 Y-48.705
X-67.428 Y-48.848
X-67.63 Y-49.049
X-67.898 Y-49.309
X-68.032 Y-49.422
X-68.145 Y-49.511
X-68.234 Y-49.576
X-68.454 Y-49.712
X-68.636 Y-49.804
X-68.838 Y-49.895
X-68.892 Y-49.914
X-69.241 Y-50.012
X-69.442 Y-50.056
X-69.643 Y-50.083
X-69.845 Y-50.095
X-69.994 Y-50.105
X-70.202 Y-50.141
X-70.413 Y-50.193
X-70.662 Y-50.274
X-70.912 Y-50.374
X-71.198 Y-50.513
X-71.483 Y-50.676
X-71.802 Y-50.889
X-72.114 Y-51.13
X-72.444 Y-51.423
X-72.784 Y-51.772
X-73.107 Y-52.152
X-73.426 Y-52.584
X-73.735 Y-53.071
X-74.025 Y-53.606
X-74.287 Y-54.182
X-74.514 Y-54.788
X-74.702 Y-55.422
X-74.85 Y-56.082
X-74.954 Y-56.767
X-75.011 Y-57.47
X-75.019 Y-58.183
X-74.978 Y-58.903
X-74.932 Y-59.262
X-74.88 Y-59.514
X-74.79 Y-59.754
X-74.664 Y-59.977
X-74.526 Y-60.184
X-73.42 Y-61.997
X-73.298 Y-62.198
X-73.185 Y-62.4
X-73.078 Y-62.601
X-72.993 Y-62.802
X-72.926 Y-63.004
X-72.898 Y-63.115
X-72.891 Y-63.142
X-72.882 Y-63.177
X-72.823 Y-63.368
X-72.747 Y-63.525
X-72.644 Y-63.667
X-72.519 Y-63.79
G3 X-71.626 Y-63.03 I0.365 J0.476
G1 X-71.767 Y-62.766
G3 X-72.886 Y-62.943 I-0.529 J-0.283
X-72.882 Y-63.177 I0.59 J-0.107
G1 X-72.828 Y-63.407
X-72.81 Y-63.457
X-72.787 Y-63.507
X-72.758 Y-63.558
X-72.722 Y-63.608
X-72.664 Y-63.67
X-72.495 Y-63.809
X-70.449 Y-65.445
X-70.398 Y-65.48
X-70.348 Y-65.509
X-70.247 Y-65.549
X-66.723 Y-66.712
X-66.623 Y-66.732
X-62.998 Y-67.142
X-62.595 Y-67.187
X-61.991 Y-67.263
X-61.79 Y-67.296
X-61.549 Y-67.326
X-61.288 Y-67.342
X-60.991 Y-67.338
X-60.673 Y-67.312
X-60.314 Y-67.258
X-59.929 Y-67.172
X-59.517 Y-67.05
X-59.06 Y-66.879
X-58.799 Y-66.76
G3 X-59.184 Y-65.637 I-0.275 J0.533
G1 X-61.773 Y-66.119
G3 X-61.79 Y-67.296 I0.11 J-0.59
G1 X-60.783 Y-67.476
X-60.582 Y-67.509
X-60.481 Y-67.51
X-60.38 Y-67.494
X-60.304 Y-67.469
X-60.179 Y-67.412
X-58.769 Y-66.746
X-58.132 Y-66.405
X-57.983 Y-66.311
X-57.749 Y-66.134
X-57.55 Y-65.918
X-57.392 Y-65.67
X-57.279 Y-65.398
X-57.217 Y-65.111
G3 X-58.229 Y-64.622 I-0.597 J0.055
G1 X-59.421 Y-65.761
G3 X-58.998 Y-66.795 I0.414 J-0.434
X-58.769 Y-66.746 I-0.008 J0.6
G1 X-57.669 Y-66.226
X-57.561 Y-66.165
X-57.487 Y-66.106
X-57.447 Y-66.065
X-57.413 Y-66.025
X-57.36 Y-65.939
X-57.333 Y-65.881
X-57.314 Y-65.823
X-57.282 Y-65.622
X-57.076 Y-64.011
X-57.059 Y-63.9
X-57.058 Y-63.891
G2 X-57.057 Y-63.739 I1.74 J0.057
X-57.048 Y-63.665 I0.599 J-0.033
X-57.016 Y-63.554 I0.59 J-0.107
G1 X-56.757 Y-62.889
G2 X-56.661 Y-62.725 I0.559 J-0.218
X-56.559 Y-62.613 I1.342 J-1.108
G1 X-56.554 Y-62.607
X-56.396 Y-62.4
X-56.353 Y-62.347
X-56.222 Y-62.198
X-55.112 Y-60.99
X-54.937 Y-60.788
X-54.742 Y-60.561
X-54.603 Y-60.386
X-54.18 Y-59.782
X-54.044 Y-59.565
X-53.893 Y-59.284
X-53.739 Y-58.94
X-53.605 Y-58.577
X-53.479 Y-58.144
X-53.378 Y-57.681
X-53.304 Y-57.174
X-53.261 Y-56.611
X-53.258 Y-56.005
X-53.296 Y-55.387
X-53.382 Y-54.743
X-53.518 Y-54.075
X-53.708 Y-53.392
X-53.95 Y-52.706
X-54.246 Y-52.025
X-54.593 Y-51.355
X-54.991 Y-50.703
X-55.437 Y-50.074
X-55.93 Y-49.473
X-56.467 Y-48.903
X-57.045 Y-48.368
X-57.663 Y-47.872
X-58.316 Y-47.418
X-59.003 Y-47.008
X-59.72 Y-46.645
X-60.463 Y-46.331
X-61.229 Y-46.068
X-62.015 Y-45.858
X-62.652 Y-45.735
X-63.156 Y-45.673
X-63.194 Y-45.671
X-63.514 Y-45.684
X-63.825 Y-45.759
X-64.116 Y-45.891
X-64.376 Y-46.077
X-64.596 Y-46.309
X-65.414 Y-47.356
X-65.616 Y-47.611
X-65.698 Y-47.698
X-65.829 Y-47.83
G3 X-65.823 Y-48.654 I0.439 J-0.409
G1 X-55.092 Y-59.836
G3 X-54.18 Y-59.782 I0.433 J0.415
G1 X-52.911 Y-57.969
X-52.879 Y-57.919
X-52.854 Y-57.868
X-52.816 Y-57.768
X-52.325 Y-56.427
X-52.197 Y-56.015
X-52.125 Y-55.707
X-52.066 Y-55.345
X-52.03 Y-54.958
X-52.019 Y-54.502
X-52.04 Y-54.036
X-52.102 Y-53.501
X-52.211 Y-52.92
X-52.363 Y-52.333
X-52.576 Y-51.697
X-52.852 Y-51.029
X-53.193 Y-50.344
X-53.594 Y-49.659
X-54.052 Y-48.991
X-54.568 Y-48.339
X-55.145 Y-47.705
X-55.779 Y-47.099
X-56.46 Y-46.533
X-57.179 Y-46.014
X-57.931 Y-45.546
X-58.713 Y-45.129
X-59.521 Y-44.765
X-60.342 Y-44.459
X-60.977 Y-44.271
X-61.485 Y-44.158
X-61.904 Y-44.095
X-61.915 Y-44.094
X-62.244 Y-44.101
X-62.565 Y-44.171
X-62.865 Y-44.303
X-63.135 Y-44.492
X-63.361 Y-44.73
X-64.596 Y-46.309
G3 X-64.499 Y-47.119 I0.485 J-0.353
G1 X-53.27 Y-56.659
G3 X-52.325 Y-56.427 I0.388 J0.457
G1 X-51.342 Y-53.74
X-51.271 Y-53.511
X-51.213 Y-53.264
X-51.171 Y-53.007
X-51.142 Y-52.695
X-51.135 Y-52.365
X-51.152 Y-51.978
X-51.2 Y-51.568
X-51.289 Y-51.091
X-51.414 Y-50.607
X-51.6 Y-50.053
X-51.842 Y-49.466
X-52.138 Y-48.872
X-52.514 Y-48.231
X-52.97 Y-47.564
X-53.502 Y-46.892
X-54.095 Y-46.241
X-54.735 Y-45.629
X-55.415 Y-45.061
X-56.131 Y-44.538
X-56.877 Y-44.061
X-57.651 Y-43.629
X-58.45 Y-43.245
X-59.217 Y-42.935
X-59.77 Y-42.756
X-60.235 Y-42.64
X-60.639 Y-42.568
X-60.817 Y-42.549
X-61.181 Y-42.548
X-61.536 Y-42.623
X-61.869 Y-42.768
X-62.165 Y-42.98
X-62.41 Y-43.248
X-62.595 Y-43.56
X-62.646 Y-43.671
X-62.745 Y-43.872
X-62.865 Y-44.073
X-62.998 Y-44.264
X-63.361 Y-44.73
G3 X-63.241 Y-45.558 I0.485 J-0.353
G1 X-52.264 Y-53.99
G3 X-51.342 Y-53.74 I0.365 J0.476
G1 X-50.532 Y-51.525
X-50.48 Y-51.357
X-50.431 Y-51.15
X-50.391 Y-50.903
X-50.366 Y-50.646
X-50.359 Y-50.335
X-50.374 Y-50.016
X-50.418 Y-49.634
X-50.49 Y-49.244
X-50.61 Y-48.779
X-50.766 Y-48.314
X-50.988 Y-47.776
X-51.27 Y-47.209
X-51.611 Y-46.628
X-52.039 Y-46.001
X-52.552 Y-45.352
X-53.147 Y-44.698
X-53.788 Y-44.086
X-54.466 Y-43.516
X-55.18 Y-42.99
X-55.923 Y-42.507
X-56.692 Y-42.068
X-57.474 Y-41.683
X-58.165 Y-41.4
X-58.716 Y-41.218
X-59.174 Y-41.101
X-59.584 Y-41.026
X-59.939 Y-40.986
X-60.28 Y-40.972
X-60.598 Y-40.98
X-60.882 Y-41.008
X-60.991 Y-41.026
X-61.304 Y-41.11
X-61.594 Y-41.253
X-61.851 Y-41.449
X-62.066 Y-41.691
X-62.229 Y-41.97
X-62.336 Y-42.276
X-62.382 Y-42.596
G3 X-62.338 Y-42.826 I0.6 J-0.006
X-62.16 Y-43.067 I0.556 J0.224
G1 X-51.466 Y-51.764
G3 X-50.532 Y-51.525 I0.379 J0.465
G1 X-49.794 Y-49.511
X-49.75 Y-49.368
X-49.702 Y-49.163
X-49.667 Y-48.95
X-49.643 Y-48.693
X-49.636 Y-48.42
X-49.651 Y-48.106
X-49.69 Y-47.767
X-49.76 Y-47.387
X-49.866 Y-46.977
X-50.021 Y-46.515
X-50.218 Y-46.039
X-50.49 Y-45.49
X-50.812 Y-44.942
X-51.214 Y-44.354
X-51.708 Y-43.729
X-52.293 Y-43.087
X-52.933 Y-42.474
X-53.612 Y-41.904
X-54.324 Y-41.377
X-55.066 Y-40.892
X-55.836 Y-40.454
X-56.563 Y-40.101
X-57.247 Y-39.825
X-57.86 Y-39.627
X-58.427 Y-39.485
X-58.95 Y-39.393
X-59.399 Y-39.345
X-59.783 Y-39.332
X-60.149 Y-39.344
X-60.464 Y-39.376
X-60.773 Y-39.43
X-61.052 Y-39.498
X-61.312 Y-39.581
X-61.569 Y-39.684
X-61.87 Y-39.87
X-62.124 Y-40.117
X-62.321 Y-40.411
X-62.452 Y-40.74
X-62.51 Y-41.09
X-62.492 Y-41.444
X-62.459 Y-41.657
X-62.428 Y-41.858
X-62.391 Y-42.261
X-62.376 Y-42.462
X-62.382 Y-42.596
G3 X-62.338 Y-42.826 I0.6 J-0.006
X-62.085 Y-43.12 I0.556 J0.224
G1 X-50.653 Y-49.803
G3 X-49.794 Y-49.511 I0.303 J0.518
G1 X-49.131 Y-47.698
X-49.054 Y-47.451
X-49.01 Y-47.264
X-48.975 Y-47.054
X-48.952 Y-46.807
X-48.946 Y-46.549
X-48.96 Y-46.241
X-48.996 Y-45.927
X-49.066 Y-45.553
X-49.163 Y-45.176
X-49.313 Y-44.729
X-49.499 Y-44.279
X-49.753 Y-43.767
X-50.074 Y-43.22
X-50.455 Y-42.663
X-50.932 Y-42.059
X-51.505 Y-41.429
X-52.145 Y-40.817
X-52.825 Y-40.248
X-53.538 Y-39.722
X-54.282 Y-39.241
X-55.056 Y-38.81
X-55.813 Y-38.454
X-56.548 Y-38.169
X-57.242 Y-37.954
X-57.865 Y-37.807
X-58.447 Y-37.712
X-59 Y-37.66
X-59.51 Y-37.648
X-59.987 Y-37.67
X-60.372 Y-37.714
X-60.754 Y-37.786
X-61.059 Y-37.865
X-61.374 Y-37.97
X-61.418 Y-37.988
X-61.683 Y-38.127
X-61.919 Y-38.311
X-62.119 Y-38.534
X-62.275 Y-38.79
X-62.383 Y-39.069
X-62.663 Y-40.046
X-62.679 Y-40.146
Y-40.247
X-62.649 Y-40.448
X-62.492 Y-41.444
G3 X-62.173 Y-41.866 I0.589 J0.114
G1 X-49.956 Y-48.008
G3 X-49.131 Y-47.698 I0.27 J0.536
G1 X-48.983 Y-47.295
X-48.768 Y-46.691
X-48.418 Y-45.684
X-48.373 Y-45.53
X-48.334 Y-45.349
X-48.302 Y-45.129
X-48.284 Y-44.899
X-48.283 Y-44.628
X-48.301 Y-44.338
X-48.344 Y-44.011
X-48.416 Y-43.659
X-48.526 Y-43.265
X-48.673 Y-42.848
X-48.879 Y-42.373
X-49.127 Y-41.895
X-49.459 Y-41.351
X-49.86 Y-40.785
X-50.334 Y-40.208
X-50.905 Y-39.601
X-51.556 Y-39
X-52.247 Y-38.444
X-52.971 Y-37.934
X-53.727 Y-37.472
X-54.511 Y-37.059
X-55.303 Y-36.709
X-56.077 Y-36.429
X-56.831 Y-36.214
X-57.551 Y-36.062
X-58.214 Y-35.969
X-58.838 Y-35.925
X-59.422
X-59.921 Y-35.959
X-60.361 Y-36.02
X-60.718 Y-36.095
X-61.06 Y-36.192
X-61.087 Y-36.202
X-61.401 Y-36.354
X-61.675 Y-36.569
X-61.897 Y-36.837
X-62.057 Y-37.146
X-62.149 Y-37.482
X-62.167 Y-37.83
X-62.168 Y-38.032
X-62.193 Y-38.284
X-62.226 Y-38.434
X-62.321 Y-38.837
X-62.374 Y-39.039
X-62.383 Y-39.069
G3 X-62.064 Y-39.753 I0.582 J-0.145
G1 X-49.241 Y-46.008
G3 X-48.418 Y-45.684 I0.263 J0.539
G1 X-47.791 Y-43.872
X-47.732 Y-43.669
X-47.693 Y-43.491
X-47.662 Y-43.28
X-47.645 Y-43.052
X-47.644 Y-42.794
X-47.662 Y-42.504
X-47.704 Y-42.192
X-47.776 Y-41.839
X-47.88 Y-41.465
X-48.027 Y-41.05
X-48.222 Y-40.603
X-48.468 Y-40.129
X-48.794 Y-39.595
X-49.166 Y-39.071
X-49.63 Y-38.506
X-50.186 Y-37.917
X-50.828 Y-37.325
X-51.519 Y-36.771
X-52.245 Y-36.263
X-53.003 Y-35.804
X-53.789 Y-35.394
X-54.6 Y-35.037
X-55.433 Y-34.734
X-56.25 Y-34.498
X-57.038 Y-34.328
X-57.79 Y-34.22
X-58.499 Y-34.168
X-59.139 Y-34.165
X-59.631 Y-34.198
X-60.083 Y-34.259
X-60.434 Y-34.331
X-60.785 Y-34.43
X-61.067 Y-34.53
X-61.137 Y-34.561
X-61.346 Y-34.67
X-61.537 Y-34.807
X-61.706 Y-34.97
X-61.991 Y-35.285
X-62.045 Y-35.349
X-62.086 Y-35.414
X-62.168 Y-35.615
X-62.394 Y-36.255
X-62.421 Y-36.338
X-62.437 Y-36.421
X-62.441 Y-36.521
X-62.427 Y-36.622
X-62.394 Y-36.732
X-62.329 Y-36.934
G3 X-62.04 Y-37.264 I0.565 J0.203
G1 X-48.626 Y-44.189
G3 X-47.791 Y-43.872 I0.275 J0.533
G1 X-47.233 Y-42.261
X-47.158 Y-42.059
X-47.106 Y-41.919
X-47.065 Y-41.748
X-47.032 Y-41.55
X-47.01 Y-41.327
X-47.003 Y-41.085
X-47.015 Y-40.803
X-47.047 Y-40.51
X-47.109 Y-40.169
X-47.198 Y-39.82
X-47.33 Y-39.418
X-47.5 Y-39.001
X-47.726 Y-38.541
X-48.017 Y-38.04
X-48.359 Y-37.535
X-48.792 Y-36.982
X-49.314 Y-36.404
X-49.899 Y-35.838
X-50.565 Y-35.28
X-51.281 Y-34.758
X-52.03 Y-34.285
X-52.808 Y-33.86
X-53.61 Y-33.483
X-54.434 Y-33.157
X-55.276 Y-32.882
X-56.135 Y-32.663
X-56.983 Y-32.507
X-57.768 Y-32.418
X-58.455 Y-32.388
X-59.087 Y-32.404
X-59.307 Y-32.425
X-59.628 Y-32.486
X-59.932 Y-32.606
X-60.208 Y-32.78
X-60.448 Y-33.003
X-60.641 Y-33.266
X-60.783 Y-33.561
X-60.872 Y-33.802
X-60.984 Y-34.031
X-61.086 Y-34.205
X-61.186 Y-34.361
X-61.221 Y-34.407
X-61.387 Y-34.612
X-61.588 Y-34.839
X-61.706 Y-34.97
G3 X-61.505 Y-35.899 I0.459 J-0.387
G1 X-47.952 Y-42.333
G3 X-47.158 Y-42.059 I0.257 J0.542
G1 X-47.09 Y-41.909
X-47.064 Y-41.858
X-46.956 Y-41.657
X-46.828 Y-41.455
X-46.671 Y-41.254
X-46.578 Y-41.136
X-46.5 Y-41.008
X-46.432 Y-40.875
X-46.369 Y-40.723
X-46.315 Y-40.562
X-46.265 Y-40.369
X-46.227 Y-40.166
X-46.199 Y-39.924
X-46.188 Y-39.674
X-46.195 Y-39.378
X-46.223 Y-39.075
X-46.281 Y-38.721
X-46.365 Y-38.363
X-46.493 Y-37.95
X-46.659 Y-37.523
X-46.878 Y-37.056
X-47.164 Y-36.543
X-47.492 Y-36.04
X-47.908 Y-35.49
X-48.41 Y-34.913
X-48.986 Y-34.338
X-49.634 Y-33.774
X-50.341 Y-33.24
X-51.082 Y-32.754
X-51.851 Y-32.314
X-52.645 Y-31.92
X-53.461 Y-31.574
X-54.295 Y-31.274
X-55.145 Y-31.024
X-56.009 Y-30.827
X-56.871 Y-30.688
X-57.531 Y-30.629
X-58.015 Y-30.619
X-58.458 Y-30.641
X-58.821 Y-30.684
X-59.17 Y-30.75
X-59.472 Y-30.829
X-59.506 Y-30.841
X-59.828 Y-30.99
X-60.111 Y-31.203
X-60.343 Y-31.471
X-60.512 Y-31.782
X-60.612 Y-32.121
X-60.638 Y-32.475
G3 X-60.367 Y-32.937 I0.599 J0.041
G1 X-47.429 Y-41.339
G3 X-46.864 Y-41.387 I0.327 J0.503
X-46.671 Y-41.254 I-0.238 J0.551
G1 X-46.485 Y-41.049
X-46.284 Y-40.834
X-45.881 Y-40.411
X-45.755 Y-40.263
X-45.665 Y-40.143
X-45.585 Y-40.016
X-45.508 Y-39.873
X-45.436 Y-39.712
X-45.368 Y-39.527
X-45.309 Y-39.323
X-45.259 Y-39.091
X-45.223 Y-38.843
X-45.201 Y-38.556
X-45.2 Y-38.259
X-45.222 Y-37.912
X-45.269 Y-37.559
X-45.351 Y-37.162
X-45.469 Y-36.737
X-45.627 Y-36.291
X-45.846 Y-35.789
X-46.106 Y-35.287
X-46.436 Y-34.747
X-46.849 Y-34.167
X-47.33 Y-33.581
X-47.876 Y-33.002
X-48.522 Y-32.407
X-49.213 Y-31.852
X-49.939 Y-31.344
X-50.694 Y-30.879
X-51.474 Y-30.458
X-52.275 Y-30.081
X-53.096 Y-29.748
X-53.934 Y-29.459
X-54.787 Y-29.218
X-55.638 Y-29.031
X-56.409 Y-28.917
X-57.088 Y-28.865
X-57.684 Y-28.86
X-58.15 Y-28.889
X-58.568 Y-28.944
X-58.919 Y-29.015
X-59.254 Y-29.107
X-59.532 Y-29.205
X-59.821 Y-29.33
X-60.058 Y-29.452
X-60.137 Y-29.5
X-60.389 Y-29.688
X-60.6 Y-29.919
X-60.765 Y-30.185
X-60.877 Y-30.478
X-60.932 Y-30.786
X-60.929 Y-31.1
X-60.867 Y-31.407
X-60.751 Y-31.789
X-60.703 Y-31.99
X-60.665 Y-32.191
X-60.641 Y-32.393
X-60.638 Y-32.475
G3 X-60.329 Y-32.96 I0.599 J0.041
G1 X-46.59 Y-40.508
G3 X-45.881 Y-40.411 I0.289 J0.526
G1 X-44.874 Y-39.351
X-44.738 Y-39.192
X-44.649 Y-39.072
X-44.564 Y-38.938
X-44.481 Y-38.785
X-44.402 Y-38.611
X-44.328 Y-38.415
X-44.263 Y-38.196
X-44.208 Y-37.948
X-44.167 Y-37.683
X-44.143 Y-37.376
X-44.139 Y-37.058
X-44.16 Y-36.691
X-44.208 Y-36.314
X-44.291 Y-35.894
X-44.416 Y-35.434
X-44.579 Y-34.964
X-44.804 Y-34.438
X-45.086 Y-33.888
X-45.419 Y-33.335
X-45.839 Y-32.735
X-46.344 Y-32.112
X-46.93 Y-31.483
X-47.578 Y-30.878
X-48.264 Y-30.318
X-48.984 Y-29.801
X-49.733 Y-29.327
X-50.506 Y-28.894
X-51.3 Y-28.502
X-52.114 Y-28.151
X-52.945 Y-27.842
X-53.79 Y-27.577
X-54.65 Y-27.361
X-55.516 Y-27.201
X-56.298 Y-27.112
X-56.974 Y-27.082
X-57.598 Y-27.097
X-58.166 Y-27.151
X-58.677 Y-27.236
X-59.106 Y-27.337
X-59.5 Y-27.46
X-59.825 Y-27.587
X-60.129 Y-27.73
X-60.39 Y-27.876
X-60.642 Y-28.041
X-60.732 Y-28.109
X-60.979 Y-28.339
X-61.175 Y-28.615
X-61.311 Y-28.924
X-61.382 Y-29.254
X-61.384 Y-29.592
X-61.319 Y-29.924
X-60.873 Y-31.386
X-60.867 Y-31.407
G3 X-60.75 Y-31.609 I0.568 J0.194
X-60.573 Y-31.747 I0.451 J0.396
G1 X-45.569 Y-39.456
G3 X-44.874 Y-39.351 I0.274 J0.534
G1 X-44.579 Y-39.039
X-44.39 Y-38.837
X-44.27 Y-38.688
X-43.659 Y-37.83
X-43.522 Y-37.617
X-43.438 Y-37.464
X-43.361 Y-37.295
X-43.286 Y-37.097
X-43.22 Y-36.88
X-43.164 Y-36.631
X-43.123 Y-36.364
X-43.096 Y-36.054
X-43.091 Y-35.731
X-43.112 Y-35.354
X-43.159 Y-34.971
X-43.244 Y-34.536
X-43.368 Y-34.071
X-43.536 Y-33.583
X-43.769 Y-33.033
X-44.052 Y-32.476
X-44.403 Y-31.888
X-44.841 Y-31.259
X-45.363 Y-30.61
X-45.965 Y-29.96
X-46.61 Y-29.353
X-47.292 Y-28.787
X-48.007 Y-28.263
X-48.749 Y-27.78
X-49.516 Y-27.335
X-50.304 Y-26.93
X-51.11 Y-26.563
X-51.934 Y-26.236
X-52.773 Y-25.95
X-53.625 Y-25.708
X-54.49 Y-25.514
X-55.365 Y-25.376
X-56.198 Y-25.302
X-56.977 Y-25.288
X-57.669 Y-25.323
X-58.296 Y-25.398
X-58.877 Y-25.509
X-59.402 Y-25.648
X-59.839 Y-25.797
X-60.243 Y-25.966
X-60.556 Y-26.123
X-60.864 Y-26.306
X-61.11 Y-26.476
X-61.238 Y-26.578
X-61.473 Y-26.807
X-61.658 Y-27.078
X-61.787 Y-27.38
X-61.855 Y-27.701
X-61.858 Y-28.029
X-61.797 Y-28.351
X-61.733 Y-28.566
X-61.319 Y-29.924
G3 X-61.005 Y-30.273 I0.567 J0.195
G1 X-44.388 Y-38.009
G3 X-43.659 Y-37.83 I0.253 J0.544
G1 X-42.574 Y-36.31
X-42.491 Y-36.18
X-42.408 Y-36.027
X-42.332 Y-35.864
X-42.257 Y-35.665
X-42.194 Y-35.454
X-42.137 Y-35.204
X-42.096 Y-34.941
X-42.07 Y-34.629
X-42.065 Y-34.307
X-42.085 Y-33.929
X-42.133 Y-33.543
X-42.219 Y-33.101
X-42.345 Y-32.631
X-42.517 Y-32.131
X-42.756 Y-31.565
X-43.044 Y-30.999
X-43.407 Y-30.391
X-43.858 Y-29.744
X-44.396 Y-29.075
X-44.998 Y-28.425
X-45.641 Y-27.816
X-46.32 Y-27.246
X-47.03 Y-26.716
X-47.767 Y-26.225
X-48.528 Y-25.77
X-49.31 Y-25.353
X-50.11 Y-24.973
X-50.927 Y-24.63
X-51.759 Y-24.326
X-52.605 Y-24.062
X-53.284 Y-23.887
X-53.421 Y-23.858
X-53.56 Y-23.84
X-53.699 Y-23.835
X-57.762
X-58.515 Y-23.872
X-59.008 Y-23.931
X-59.488 Y-24.023
X-59.951 Y-24.145
X-60.361 Y-24.284
X-60.746 Y-24.445
X-61.052 Y-24.599
X-61.35 Y-24.776
X-61.595 Y-24.945
X-61.693 Y-25.023
X-61.928 Y-25.252
X-62.114 Y-25.523
X-62.243 Y-25.824
X-62.311 Y-26.145
X-62.314 Y-26.473
X-62.253 Y-26.795
X-61.797 Y-28.351
G3 X-60.787 Y-28.569 I0.569 J0.189
G1 X-57.343 Y-24.841
G3 X-57.762 Y-23.835 I-0.441 J0.407
G1 X-60.984
X-61.178 Y-23.844
X-61.331 Y-23.863
X-61.478 Y-23.891
X-61.762 Y-23.997
X-62.019 Y-24.158
X-62.239 Y-24.367
X-62.413 Y-24.615
X-62.535 Y-24.892
X-62.599 Y-25.189
X-62.603 Y-25.492
X-62.548 Y-25.79
G3 X-61.517 Y-25.985 I0.57 J0.189
G1 X-60.544 Y-24.818
G3 X-60.984 Y-23.835 I-0.461 J0.384
G1 X-62.052
X-62.202 Y-23.842
X-62.412 Y-23.917
X-62.594 Y-24.047
X-62.734 Y-24.221
X-62.822 Y-24.427
X-62.85 Y-24.648
X-62.817 Y-24.869
G3 X-61.989 Y-25.398 I0.738 J0.245
X-62.052 Y-23.835 I-0.091 J0.779
G1 X-62.193
X-62.394 Y-23.842
X-62.495 Y-23.867
X-62.545 Y-23.887
X-62.595 Y-23.912
X-62.632 Y-23.934
X-62.673 Y-23.964
X-62.714 Y-24
X-62.797 Y-24.095
X-62.824 Y-24.136
X-62.852 Y-24.186
X-62.874 Y-24.237
X-62.891 Y-24.287
X-62.903 Y-24.337
X-62.914 Y-24.438
X-62.908 Y-24.539
X-62.855 Y-24.74
X-62.253 Y-26.795
G3 X-61.953 Y-27.142 I0.57 J0.189
G1 X-43.319 Y-36.481
G3 X-42.574 Y-36.31 I0.269 J0.536
G1 X-41.791 Y-35.212
X-41.567 Y-34.9
X-41.47 Y-34.749
X-41.386 Y-34.597
X-41.311 Y-34.434
X-41.235 Y-34.236
X-41.171 Y-34.026
X-41.114 Y-33.776
X-41.073 Y-33.512
X-41.045 Y-33.201
X-41.04 Y-32.875
X-41.059 Y-32.495
X-41.106 Y-32.108
X-41.193 Y-31.657
X-41.317 Y-31.19
X-41.493 Y-30.676
X-41.734 Y-30.101
X-42.021 Y-29.533
X-42.393 Y-28.907
X-42.854 Y-28.243
X-43.404 Y-27.555
X-44.004 Y-26.903
X-44.645 Y-26.291
X-45.32 Y-25.717
X-46.025 Y-25.181
X-46.757 Y-24.681
X-47.512 Y-24.217
X-47.828 Y-24.042
X-48.084 Y-23.928
X-48.355 Y-23.858
X-48.634 Y-23.835
X-53.699
G3 X-54.072 Y-24.887 I0.021 J-0.6
G1 X-42.435 Y-34.987
G3 X-41.743 Y-35.054 I0.393 J0.453
X-41.567 Y-34.9 I-0.299 J0.52
G1 X-41.451 Y-34.739
X-41.342 Y-34.608
X-41.25 Y-34.501
X-40.646 Y-33.857
X-40.549 Y-33.742
X-40.459 Y-33.616
X-40.373 Y-33.476
X-40.287 Y-33.309
X-40.206 Y-33.123
X-40.13 Y-32.909
X-40.065 Y-32.674
X-40.01 Y-32.404
X-39.971 Y-32.114
X-39.95 Y-31.778
X-39.952 Y-31.425
X-39.983 Y-31.016
X-40.043 Y-30.6
X-40.147 Y-30.122
X-40.295 Y-29.613
X-40.493 Y-29.075
X-40.766 Y-28.467
X-41.097 Y-27.847
X-41.503 Y-27.2
X-42.006 Y-26.509
X-42.576 Y-25.831
X-43.189 Y-25.191
X-43.838 Y-24.588
X-44.281 Y-24.22
X-44.518 Y-24.055
X-44.78 Y-23.934
X-45.059 Y-23.86
X-45.347 Y-23.835
X-48.634
G3 X-49.073 Y-24.82 I0.021 J-0.6
G1 X-41.528 Y-33.817
G3 X-40.646 Y-33.857 I0.46 J0.386
G1 X-39.639 Y-32.784
X-39.483 Y-32.594
X-39.361 Y-32.424
X-39.269 Y-32.277
X-39.18 Y-32.107
X-39.095 Y-31.916
X-39.015 Y-31.696
X-38.946 Y-31.453
X-38.887 Y-31.177
X-38.844 Y-30.873
X-38.82 Y-30.539
Y-30.161
X-38.847 Y-29.761
X-38.911 Y-29.299
X-39.009 Y-28.831
X-39.158 Y-28.303
X-39.366 Y-27.724
X-39.623 Y-27.14
X-39.963 Y-26.492
X-40.388 Y-25.803
X-40.903 Y-25.084
X-41.457 Y-24.416
X-41.517 Y-24.352
X-41.773 Y-24.133
X-42.068 Y-23.969
X-42.389 Y-23.869
X-42.725 Y-23.835
X-45.347
G3 X-45.818 Y-24.777 I0.021 J-0.6
G1 X-40.426 Y-32.54
G3 X-39.483 Y-32.594 I0.493 J0.342
G1 X-39.236 Y-32.285
X-39.171 Y-32.191
X-38.282 Y-30.889
X-38.172 Y-30.71
X-38.089 Y-30.551
X-38.007 Y-30.362
X-37.934 Y-30.157
X-37.865 Y-29.911
X-37.812 Y-29.653
X-37.771 Y-29.343
X-37.75 Y-29.022
X-37.752 Y-28.644
X-37.781 Y-28.251
X-37.846 Y-27.801
X-37.951 Y-27.314
X-38.102 Y-26.794
X-38.321 Y-26.197
X-38.588 Y-25.601
X-38.903 Y-25.01
X-39.184 Y-24.561
X-39.213 Y-24.521
X-39.421 Y-24.286
X-39.668 Y-24.094
X-39.948 Y-23.952
X-40.249 Y-23.864
X-40.561 Y-23.835
X-42.725
G3 X-43.208 Y-24.76 I0.021 J-0.6
G1 X-39.269 Y-30.859
G3 X-38.282 Y-30.889 I0.504 J0.325
G1 X-37.246 Y-29.372
X-37.117 Y-29.162
X-37.036 Y-29.005
X-36.955 Y-28.82
X-36.884 Y-28.619
X-36.817 Y-28.378
X-36.765 Y-28.124
X-36.724 Y-27.817
X-36.704 Y-27.5
X-36.706 Y-27.124
X-36.735 Y-26.737
X-36.798 Y-26.298
X-36.899 Y-25.834
X-37.014 Y-25.437
X-37.152 Y-25.062
X-37.287 Y-24.761
X-37.311 Y-24.716
X-37.475 Y-24.465
X-37.682 Y-24.248
X-37.924 Y-24.072
X-38.194 Y-23.941
X-38.483 Y-23.862
X-38.781 Y-23.835
X-40.561
G3 X-41.052 Y-24.748 I0.021 J-0.6
G1 X-38.241 Y-29.33
G3 X-37.246 Y-29.372 I0.511 J0.314
G1 X-36.215 Y-27.862
X-36.075 Y-27.633
X-35.994 Y-27.476
X-35.916 Y-27.296
X-35.844 Y-27.095
X-35.783 Y-26.873
X-35.731 Y-26.623
X-35.696 Y-26.362
X-35.679 Y-26.082
X-35.68 Y-25.826
X-35.7 Y-25.554
X-35.735 Y-25.316
X-35.789 Y-25.066
X-35.798 Y-25.036
X-35.934 Y-24.706
X-36.137 Y-24.412
X-36.398 Y-24.168
X-36.705 Y-23.986
X-37.043 Y-23.873
X-37.398 Y-23.835
X-38.781
G3 X-39.258 Y-24.769 I0.021 J-0.6
G1 X-37.197 Y-27.841
G3 X-36.215 Y-27.862 I0.498 J0.334
G1 X-35.872 Y-27.358
X-35.813 Y-27.268
X-35.209 Y-26.326
X-35.103 Y-26.142
X-35.038 Y-26.007
X-34.984 Y-25.866
X-34.941 Y-25.723
X-34.908 Y-25.576
X-34.887 Y-25.425
X-34.897 Y-25.121
X-34.969 Y-24.825
X-35.099 Y-24.55
X-35.283 Y-24.308
X-35.512 Y-24.107
X-35.777 Y-23.958
X-36.067 Y-23.866
X-36.37 Y-23.835
G3 X-36.903 Y-24.665 I0.021 J-0.6
G1 X-36.256 Y-26.216
G3 X-35.209 Y-26.326 I0.554 J0.231
G1 X-34.604 Y-25.383
X-34.53 Y-25.253
X-34.472 Y-25.115
X-34.439 Y-24.851
X-34.475 Y-24.588
X-34.577 Y-24.342
X-34.74 Y-24.132
X-34.951 Y-23.971
X-35.197 Y-23.869
X-35.461 Y-23.835
G3 X-36.269 Y-24.312 I0.034 J-0.981
X-34.604 Y-25.383 I0.85 J-0.508
G1 X-34.256 Y-24.838
X-34.239 Y-24.812
X-34.219 Y-24.78
X-34.178 Y-24.707
X-34.169 Y-24.69
G3 X-34.354 Y-24.213 I-0.375 J0.129
X-34.731 Y-24.902 I-0.189 J-0.345
X-34.219 Y-24.78 I0.189 J0.345
G1 X-34.202 Y-24.754
X-34.194 Y-24.74
X-34.169 Y-24.69
X-34.159 Y-24.662
X-34.15 Y-24.639
X-34.126 Y-24.539
X-34.119 Y-24.438
X-34.13 Y-24.337
X-34.156 Y-24.242
X-34.176 Y-24.194
X-34.202 Y-24.146
X-34.208 Y-24.136
X-34.242 Y-24.086
X-34.284 Y-24.036
X-34.344 Y-23.982
X-34.407 Y-23.934
X-34.456 Y-23.905
X-34.506 Y-23.882
X-34.604 Y-23.85
X-34.705 Y-23.836
X-34.806 Y-23.835
X-37.398
G3 X-37.626 Y-23.888 I0.021 J-0.6
G1 X-37.712 Y-23.927 Z-2.993
X-37.795 Y-23.965 Z-2.971
X-37.874 Y-24.001 Z-2.935
X-37.947 Y-24.035 Z-2.885
X-38.012 Y-24.064 Z-2.824
X-38.068 Y-24.09 Z-2.753
X-38.113 Y-24.11 Z-2.672
X-38.145 Y-24.125 Z-2.585
X-38.165 Y-24.134 Z-2.494
X-38.172 Y-24.137 Z-2.4
G0 Z5
X-69.549 Y-50.835
Z-1.8
G1 Z-2.4 F850
X-69.551 Y-50.828 Z-2.494
X-69.555 Y-50.807 Z-2.585
X-69.562 Y-50.771 Z-2.672
X-69.571 Y-50.723 Z-2.753
X-69.583 Y-50.663 Z-2.824
X-69.597 Y-50.593 Z-2.885
X-69.612 Y-50.514 Z-2.935
X-69.629 Y-50.429 Z-2.971
X-69.646 Y-50.339 Z-2.993
X-69.664 Y-50.247 Z-3
G3 X-69.845 Y-50.095 I-0.184 J-0.036
G1 X-70.046 Y-50.098
X-71.657
X-71.807 Y-50.106
X-71.994 Y-50.13
X-72.186 Y-50.169
X-72.407 Y-50.23
X-72.633 Y-50.31
X-72.887 Y-50.419
X-73.143 Y-50.552
X-73.43 Y-50.726
X-73.71 Y-50.924
X-74.018 Y-51.176
X-74.325 Y-51.464
X-74.635 Y-51.798
X-74.955 Y-52.196
X-75.261 Y-52.635
X-75.55 Y-53.118
X-75.828 Y-53.664
X-76.085 Y-54.269
X-76.31 Y-54.923
X-76.495 Y-55.61
X-76.635 Y-56.325
X-76.726 Y-57.056
X-76.745 Y-57.408
X-76.731 Y-57.733
X-76.654 Y-58.049
X-76.517 Y-58.344
X-76.325 Y-58.607
X-76.087 Y-58.828
X-75.809 Y-58.998
G3 X-75.03 Y-58.719 I0.243 J0.548
G1 X-71.142 Y-50.967
G3 X-71.657 Y-50.098 I-0.536 J0.269
G1 X-72.463
X-72.664 Y-50.092
X-73.067 Y-50.07
X-73.177 Y-50.056
X-73.327 Y-50.044
X-73.481 Y-50.046
X-73.644 Y-50.059
X-73.829 Y-50.087
X-74.026 Y-50.131
X-74.242 Y-50.196
X-74.474 Y-50.283
X-74.722 Y-50.396
X-74.982 Y-50.537
X-75.263 Y-50.715
X-75.542 Y-50.921
X-75.848 Y-51.182
X-76.143 Y-51.471
X-76.453 Y-51.819
X-76.771 Y-52.23
X-77.066 Y-52.672
X-77.359 Y-53.185
X-77.64 Y-53.766
X-77.895 Y-54.402
X-78.093 Y-55.018
X-78.227 Y-55.558
X-78.299 Y-55.975
X-78.341 Y-56.375
X-78.353 Y-56.713
X-78.35 Y-56.796
X-78.312 Y-57.098
X-78.219 Y-57.387
X-78.076 Y-57.655
X-77.886 Y-57.892
X-77.657 Y-58.092
X-77.395 Y-58.246
X-76.274 Y-58.775
X-76.087 Y-58.864
X-75.809 Y-58.998
G3 X-74.99 Y-58.619 I0.243 J0.548
G1 X-72.699 Y-50.817
G3 X-73.177 Y-50.056 I-0.576 J0.169
G1 X-73.268 Y-50.044
X-73.469 Y-50.001
X-73.671 Y-49.942
X-73.757 Y-49.914
X-73.872 Y-49.865
X-73.983 Y-49.814
X-74.122 Y-49.759
X-74.266 Y-49.714
X-74.412 Y-49.684
X-74.561 Y-49.665
X-74.717 Y-49.656
X-74.895 Y-49.659
X-75.082 Y-49.675
X-75.294 Y-49.708
X-75.511 Y-49.757
X-75.757 Y-49.831
X-76.004 Y-49.925
X-76.282 Y-50.053
X-76.56 Y-50.205
X-76.858 Y-50.395
X-77.171 Y-50.628
X-77.48 Y-50.892
X-77.811 Y-51.218
X-78.137 Y-51.587
X-78.459 Y-52.005
X-78.777 Y-52.485
X-79.071 Y-53.003
X-79.323 Y-53.529
X-79.534 Y-54.059
X-79.695 Y-54.565
X-79.802 Y-55.002
X-79.865 Y-55.374
X-79.902 Y-55.74
X-79.912 Y-56.051
Y-56.065
X-79.873 Y-56.365
X-79.78 Y-56.653
X-79.637 Y-56.92
X-79.447 Y-57.157
X-79.218 Y-57.355
X-78.957 Y-57.509
X-77.395 Y-58.246
G3 X-76.6 Y-57.915 I0.237 J0.551
G1 X-73.693 Y-50.572
G3 X-73.983 Y-49.814 I-0.558 J0.221
G1 X-74.073 Y-49.773
X-74.187 Y-49.712
X-74.275 Y-49.663
X-74.805 Y-49.309
X-74.933 Y-49.231
X-75.069 Y-49.167
X-75.21 Y-49.116
X-75.354 Y-49.075
X-75.512 Y-49.043
X-75.683 Y-49.021
X-75.87 Y-49.009
X-76.079 Y-49.011
X-76.297 Y-49.028
X-76.543 Y-49.064
X-76.792 Y-49.118
X-77.069 Y-49.2
X-77.357 Y-49.306
X-77.659 Y-49.442
X-77.986 Y-49.617
X-78.308 Y-49.82
X-78.65 Y-50.071
X-79.008 Y-50.372
X-79.351 Y-50.705
X-79.695 Y-51.088
X-80.032 Y-51.52
X-80.35 Y-51.991
X-80.633 Y-52.482
X-80.876 Y-52.978
X-81.078 Y-53.477
X-81.228 Y-53.936
X-81.331 Y-54.345
X-81.393 Y-54.691
X-81.431 Y-55.041
X-81.443 Y-55.339
X-81.442 Y-55.35
X-81.404 Y-55.658
X-81.31 Y-55.953
X-81.162 Y-56.226
X-80.967 Y-56.466
X-80.73 Y-56.666
X-80.461 Y-56.819
X-79.511 Y-57.248
X-78.957 Y-57.509
G3 X-78.183 Y-57.225 I0.237 J0.551
G1 X-74.622 Y-50.061
G3 X-74.805 Y-49.309 I-0.537 J0.267
G1 X-75.8 Y-48.634
X-75.886 Y-48.575
X-75.952 Y-48.534
X-76.019 Y-48.504
X-76.087 Y-48.482
X-76.188 Y-48.466
X-76.289 Y-48.467
X-76.368 Y-48.48
X-76.448 Y-48.504
X-76.49 Y-48.522
X-76.691 Y-48.65
X-76.893 Y-48.792
X-77.497 Y-49.205
X-77.673 Y-49.309
X-77.9 Y-49.419
X-78.101 Y-49.498
X-78.142 Y-49.511
X-78.302 Y-49.557
X-78.504 Y-49.603
X-78.705 Y-49.638
X-78.906 Y-49.656
X-79.126 Y-49.686
X-79.295 Y-49.722
X-79.489 Y-49.778
X-79.687 Y-49.849
X-79.916 Y-49.95
X-80.143 Y-50.07
X-80.401 Y-50.23
X-80.654 Y-50.412
X-80.928 Y-50.64
X-81.201 Y-50.901
X-81.472 Y-51.197
X-81.74 Y-51.537
X-81.994 Y-51.907
X-82.222 Y-52.296
X-82.423 Y-52.701
X-82.593 Y-53.111
X-82.712 Y-53.466
X-82.804 Y-53.821
X-82.862 Y-54.13
X-82.898 Y-54.444
X-82.904 Y-54.565
X-82.886 Y-54.895
X-82.804 Y-55.216
X-82.659 Y-55.514
X-82.459 Y-55.777
X-82.21 Y-55.996
X-81.923 Y-56.161
X-80.461 Y-56.819
G3 X-79.648 Y-56.396 I0.227 J0.555
G1 X-78.289 Y-50.387
G3 X-78.906 Y-49.656 I-0.585 J0.132
G1 X-79.309 Y-49.692
X-80.719 Y-49.807
X-80.919 Y-49.833
X-81.089 Y-49.868
X-81.268 Y-49.918
X-81.465 Y-49.988
X-81.67 Y-50.077
X-81.894 Y-50.193
X-82.117 Y-50.329
X-82.36 Y-50.501
X-82.598 Y-50.696
X-82.839 Y-50.923
X-83.078 Y-51.182
X-83.309 Y-51.469
X-83.522 Y-51.776
X-83.716 Y-52.102
X-83.882 Y-52.428
X-84.016 Y-52.748
X-84.122 Y-53.057
X-84.198 Y-53.341
X-84.255 Y-53.635
X-84.287 Y-53.893
X-84.289 Y-53.929
X-84.273 Y-54.262
X-84.192 Y-54.585
X-84.048 Y-54.885
X-83.847 Y-55.151
X-83.597 Y-55.371
X-83.308 Y-55.538
X-81.923 Y-56.161
G3 X-81.107 Y-55.72 I0.227 J0.555
G1 X-80.102 Y-50.52
G3 X-80.719 Y-49.807 I-0.589 J0.114
G1 X-81.927 Y-49.906
X-82.003 Y-49.914
X-82.066 Y-49.926
X-82.128 Y-49.945
X-82.33 Y-50.037
X-83.538 Y-50.614
X-83.618 Y-50.659
X-83.699 Y-50.719
X-83.739 Y-50.759
X-84.343 Y-51.376
X-84.48 Y-51.525
X-84.657 Y-51.726
X-84.856 Y-51.976
X-84.986 Y-52.164
X-85.107 Y-52.37
X-85.213 Y-52.581
X-85.294 Y-52.778
X-85.37 Y-53.001
X-85.39 Y-53.076
X-85.441 Y-53.406
X-85.427 Y-53.739
X-85.346 Y-54.063
X-85.202 Y-54.364
X-85.001 Y-54.631
X-84.751 Y-54.852
X-84.462 Y-55.018
G3 X-83.635 Y-54.467 I0.227 J0.555
G1 X-83.621 Y-52.141
G3 X-84.657 Y-51.726 I-0.6 J0.003
G1 X-84.948 Y-52.056
X-85.01 Y-52.129
X-85.753 Y-53.039
X-85.842 Y-53.159
X-85.944 Y-53.379
X-85.99 Y-53.616
X-85.977 Y-53.858
X-85.906 Y-54.089
X-85.782 Y-54.297
X-85.612 Y-54.468
X-85.405 Y-54.594
G3 X-85.178 Y-54.657 I0.384 J0.938
X-84.8 Y-54.645 I0.157 J1.001
X-85.229 Y-52.728 I-0.215 J0.958
X-85.578 Y-52.882 I0.215 J-0.958
X-85.753 Y-53.039 I0.564 J-0.804
G1 X-86.079 Y-53.438
X-86.118 Y-53.488
X-86.149 Y-53.539
X-86.156 Y-53.551
X-86.195 Y-53.646
X-86.217 Y-53.74
X-86.224 Y-53.841
X-86.213 Y-53.941
X-86.191 Y-54.024
X-86.156 Y-54.107
X-86.136 Y-54.143
X-86.063 Y-54.239
X-86.009 Y-54.293
X-85.954 Y-54.335
X-85.942 Y-54.344
X-85.753 Y-54.437
X-83.308 Y-55.538
G3 X-83.079 Y-55.582 I0.227 J0.555
G1 X-82.985 Z-2.993
X-82.893 Y-55.581 Z-2.971
X-82.806 Z-2.935
X-82.726 Z-2.885
X-82.654 Y-55.58 Z-2.824
X-82.593 Z-2.753
X-82.544 Z-2.672
X-82.508 Z-2.585
X-82.486 Y-55.579 Z-2.494
X-82.479 Z-2.4
G0 Z15
M9
M30
%
