%
(1001)
(T1  D=6 CR=0 - ZMIN=-8 - flat end mill)
G90 G94
G17
G21

(2D Adaptive2)
M9
T1 M6
S6000 M3
G54
M9
G0 X-12.016 Y-10.464
Z15
Z5
Z3.15
G1 Z2.55 F850
G3 X-15.882 Y-9.436 Z2.331 I-1.933 J0.514 F283.3
X-12.016 Y-10.464 Z2.111 I1.933 J-0.514
X-15.882 Y-9.436 Z1.892 I-1.933 J0.514
X-12.016 Y-10.464 Z1.672 I1.933 J-0.514
X-15.882 Y-9.436 Z1.453 I-1.933 J0.514
X-12.016 Y-10.464 Z1.234 I1.933 J-0.514
X-15.882 Y-9.436 Z1.014 I-1.933 J0.514
X-12.016 Y-10.464 Z0.795 I1.933 J-0.514
X-15.882 Y-9.436 Z0.575 I-1.933 J0.514
X-12.016 Y-10.464 Z0.356 I1.933 J-0.514
X-15.882 Y-9.436 Z0.136 I-1.933 J0.514
X-12.016 Y-10.464 Z-0.083 I1.933 J-0.514
X-15.882 Y-9.436 Z-0.302 I-1.933 J0.514
X-12.016 Y-10.464 Z-0.522 I1.933 J-0.514
X-15.882 Y-9.436 Z-0.741 I-1.933 J0.514
X-12.016 Y-10.464 Z-0.961 I1.933 J-0.514
X-15.882 Y-9.436 Z-1.18 I-1.933 J0.514
X-12.016 Y-10.464 Z-1.399 I1.933 J-0.514
X-15.882 Y-9.436 Z-1.619 I-1.933 J0.514
X-12.016 Y-10.464 Z-1.838 I1.933 J-0.514
X-15.882 Y-9.436 Z-2.058 I-1.933 J0.514
X-12.016 Y-10.464 Z-2.277 I1.933 J-0.514
X-15.882 Y-9.436 Z-2.497 I-1.933 J0.514
X-12.016 Y-10.464 Z-2.716 I1.933 J-0.514
X-15.882 Y-9.436 Z-2.935 I-1.933 J0.514
X-12.016 Y-10.464 Z-3.155 I1.933 J-0.514
X-15.882 Y-9.436 Z-3.374 I-1.933 J0.514
X-12.016 Y-10.464 Z-3.594 I1.933 J-0.514
X-15.882 Y-9.436 Z-3.813 I-1.933 J0.514
X-12.016 Y-10.464 Z-4.032 I1.933 J-0.514
X-15.882 Y-9.436 Z-4.252 I-1.933 J0.514
X-12.016 Y-10.464 Z-4.471 I1.933 J-0.514
X-15.882 Y-9.436 Z-4.691 I-1.933 J0.514
X-12.016 Y-10.464 Z-4.91 I1.933 J-0.514
X-15.882 Y-9.436 Z-5.129 I-1.933 J0.514
X-12.016 Y-10.464 Z-5.349 I1.933 J-0.514
X-15.882 Y-9.436 Z-5.568 I-1.933 J0.514
X-12.016 Y-10.464 Z-5.788 I1.933 J-0.514
X-15.882 Y-9.436 Z-6.007 I-1.933 J0.514
X-12.016 Y-10.464 Z-6.227 I1.933 J-0.514
X-15.882 Y-9.436 Z-6.446 I-1.933 J0.514
X-12.016 Y-10.464 Z-6.665 I1.933 J-0.514
X-15.882 Y-9.436 Z-6.885 I-1.933 J0.514
X-12.016 Y-10.464 Z-7.104 I1.933 J-0.514
X-15.882 Y-9.436 Z-7.324 I-1.933 J0.514
X-12.016 Y-10.464 Z-7.543 I1.933 J-0.514
X-15.882 Y-9.436 Z-7.762 I-1.933 J0.514
X-14.208 Y-11.933 Z-7.881 I1.933 J-0.514
X-11.949 Y-9.95 Z-8 I0.259 J1.983
X-15.949 I-2
X-11.949 I2
G1 X-11.927 Y-8.993 F850
X-11.906 Y-8.875
X-11.897 Y-8.725
X-11.909 Y-8.575
X-11.938 Y-8.428
X-11.982 Y-8.285
X-12.039 Y-8.146
X-12.108 Y-8.013
X-12.189 Y-7.887
X-12.279 Y-7.767
X-12.378 Y-7.654
X-12.485 Y-7.549
X-12.601 Y-7.449
X-12.727 Y-7.355
X-12.864 Y-7.268
X-13.009 Y-7.189
X-13.164 Y-7.118
X-13.326 Y-7.056
X-13.496 Y-7.005
X-13.672 Y-6.965
X-13.854 Y-6.937
X-14.04 Y-6.922
X-14.229 Y-6.919
X-14.421 Y-6.929
X-14.614 Y-6.953
X-14.807 Y-6.991
X-14.999 Y-7.043
X-15.189 Y-7.108
X-15.375 Y-7.187
X-15.557 Y-7.279
X-15.734 Y-7.385
X-15.904 Y-7.504
X-16.066 Y-7.634
X-16.219 Y-7.777
X-16.364 Y-7.93
X-16.497 Y-8.094
X-16.62 Y-8.267
X-16.731 Y-8.45
X-16.829 Y-8.64
X-16.914 Y-8.837
X-16.986 Y-9.04
X-17.043 Y-9.248
X-17.086 Y-9.46
X-17.115 Y-9.675
X-17.128 Y-9.892
X-17.126 Y-10.11
X-17.11 Y-10.328
X-17.078 Y-10.544
X-17.031 Y-10.757
X-16.969 Y-10.967
X-16.893 Y-11.173
X-16.803 Y-11.373
X-16.699 Y-11.567
X-16.582 Y-11.753
X-16.452 Y-11.93
X-16.31 Y-12.098
X-16.157 Y-12.257
X-15.993 Y-12.404
X-15.819 Y-12.539
X-15.636 Y-12.663
X-15.445 Y-12.773
X-15.246 Y-12.87
X-15.042 Y-12.953
X-14.832 Y-13.022
X-14.617 Y-13.076
X-14.4 Y-13.114
X-14.18 Y-13.138
X-13.959 Y-13.147
X-13.738 Y-13.14
X-13.518 Y-13.118
X-13.3 Y-13.081
X-13.085 Y-13.029
X-12.874 Y-12.962
X-12.668 Y-12.88
X-12.468 Y-12.785
X-12.276 Y-12.675
X-12.091 Y-12.553
X-11.915 Y-12.418
X-11.749 Y-12.272
X-11.594 Y-12.114
X-11.45 Y-11.946
X-11.316 Y-11.767
X-11.174 Y-11.545
X-11.005 Y-11.236
X-10.839 Y-10.875
X-10.716 Y-10.553
X-10.626 Y-10.254
X-10.561 Y-9.97
X-10.519 Y-9.697
X-10.496 Y-9.433
X-10.492 Y-9.175
X-10.506 Y-8.923
X-10.536 Y-8.676
X-10.583 Y-8.434
X-10.646 Y-8.198
X-10.725 Y-7.967
X-10.82 Y-7.742
X-10.931 Y-7.524
X-11.057 Y-7.313
X-11.198 Y-7.11
X-11.353 Y-6.916
X-11.524 Y-6.732
X-11.708 Y-6.559
X-11.905 Y-6.397
X-12.115 Y-6.248
X-12.337 Y-6.113
X-12.57 Y-5.992
X-12.813 Y-5.887
X-13.065 Y-5.797
X-13.325 Y-5.725
X-13.592 Y-5.671
X-13.865 Y-5.635
X-14.141 Y-5.617
X-14.42 Y-5.619
X-14.701 Y-5.641
X-14.982 Y-5.682
X-15.261 Y-5.743
X-15.538 Y-5.823
X-15.81 Y-5.924
X-16.077 Y-6.043
X-16.336 Y-6.182
X-16.587 Y-6.34
X-16.827 Y-6.515
X-17.056 Y-6.708
X-17.272 Y-6.917
X-17.474 Y-7.141
X-17.661 Y-7.38
X-17.832 Y-7.632
X-17.985 Y-7.897
X-18.12 Y-8.172
X-18.235 Y-8.457
X-18.332 Y-8.75
X-18.407 Y-9.049
X-18.462 Y-9.354
X-18.496 Y-9.663
X-18.509 Y-9.974
X-18.5 Y-10.286
X-18.469 Y-10.597
X-18.417 Y-10.905
X-18.343 Y-11.21
X-18.248 Y-11.509
X-18.133 Y-11.801
X-17.998 Y-12.085
X-17.843 Y-12.359
X-17.669 Y-12.622
X-17.478 Y-12.873
X-17.269 Y-13.11
X-17.044 Y-13.332
X-16.804 Y-13.538
X-16.551 Y-13.727
X-16.285 Y-13.898
X-16.007 Y-14.051
X-15.719 Y-14.184
X-15.423 Y-14.296
X-15.12 Y-14.388
X-14.81 Y-14.459
X-14.497 Y-14.509
X-14.181 Y-14.536
X-13.863 Y-14.541
X-13.546 Y-14.525
X-13.231 Y-14.487
X-12.919 Y-14.426
X-12.612 Y-14.345
X-12.311 Y-14.242
X-12.018 Y-14.119
X-11.734 Y-13.975
X-11.456 Y-13.81
X-11.182 Y-13.62
X-10.914 Y-13.405
X-10.645 Y-13.157
X-10.385 Y-12.882
X-10.141 Y-12.585
X-9.918 Y-12.271
X-9.717 Y-11.943
X-9.541 Y-11.603
X-9.39 Y-11.256
X-9.264 Y-10.902
X-9.164 Y-10.544
X-9.09 Y-10.184
X-9.042 Y-9.823
X-9.019 Y-9.462
X-9.021 Y-9.103
X-9.048 Y-8.747
X-9.098 Y-8.395
X-9.173 Y-8.049
X-9.272 Y-7.709
X-9.394 Y-7.378
X-9.538 Y-7.056
X-9.704 Y-6.744
X-9.892 Y-6.444
X-10.101 Y-6.157
X-10.33 Y-5.884
X-10.579 Y-5.626
X-10.846 Y-5.385
X-11.13 Y-5.162
X-11.431 Y-4.959
X-11.746 Y-4.775
X-11.959 Y-4.671
X-12.194 Y-4.577
X-12.441 Y-4.519
X-12.694 Y-4.5
X-14.962
X-15.353 Y-4.52
X-15.645 Y-4.555
X-15.943 Y-4.611
X-16.248 Y-4.692
X-16.559 Y-4.797
X-16.87 Y-4.928
X-17.18 Y-5.083
X-17.483 Y-5.263
X-17.778 Y-5.467
X-18.063 Y-5.694
X-18.336 Y-5.945
X-18.595 Y-6.218
X-18.838 Y-6.513
X-19.063 Y-6.828
X-19.268 Y-7.161
X-19.451 Y-7.511
X-19.61 Y-7.876
X-19.745 Y-8.254
X-19.854 Y-8.643
X-19.937 Y-9.041
X-19.992 Y-9.445
X-20.019 Y-9.854
X-20.017 Y-10.265
X-20 Y-10.5
X-19.941 Y-10.835
X-19.815 Y-11.152
X-19.626 Y-11.436
X-19.096 Y-12.083
X-18.947 Y-12.268
X-18.878 Y-12.359
X-18.651 Y-12.703
X-18.532 Y-12.921
X-18.182 Y-13.573
X-17.969 Y-13.928
X-17.816 Y-14.147
X-17.642 Y-14.363
X-17.447 Y-14.573
X-17.226 Y-14.78
X-16.979 Y-14.981
X-16.709 Y-15.171
X-16.42 Y-15.346
X-16.113 Y-15.505
X-15.787 Y-15.645
X-15.443 Y-15.765
X-15.083 Y-15.864
X-14.71 Y-15.939
X-14.326 Y-15.989
X-13.935 Y-16.013
X-13.538 Y-16.009
X-13.139 Y-15.977
X-12.738 Y-15.918
X-12.338 Y-15.829
X-11.94 Y-15.712
X-11.545 Y-15.565
X-11.155 Y-15.389
X-10.77 Y-15.182
X-10.393 Y-14.943
X-10.026 Y-14.674
X-9.673 Y-14.376
X-9.338 Y-14.05
X-9.024 Y-13.699
X-8.851 Y-13.476
X-8.701 Y-13.246
X-8.59 Y-12.994
X-8.523 Y-12.727
X-8.5 Y-12.453
Y-7.263
X-8.508 Y-7.097
X-8.537 Y-6.86
X-8.583 Y-6.619
X-8.651 Y-6.359
X-8.744 Y-6.085
X-8.858 Y-5.812
X-9 Y-5.531
X-9.171 Y-5.242
X-9.187 Y-5.22
X-9.394 Y-4.974
X-9.645 Y-4.772
X-9.93 Y-4.623
X-10.238 Y-4.531
X-10.558 Y-4.5
G3 X-11.035 Y-5.434 I0.021 J-0.6
G1 X-9.598 Y-7.576
G3 X-8.5 Y-7.263 I0.498 J0.334
G1 Y-5.402
X-8.507 Y-5.252
X-8.579 Y-5.013
X-8.715 Y-4.803
X-8.905 Y-4.639
X-9.132 Y-4.535
X-9.38 Y-4.5
G3 X-9.97 Y-4.752 I0.031 J-0.889
X-8.761 Y-5.992 I0.605 J-0.62
X-8.5 Y-5.402 I-0.605 J0.62
G1 X-8.501 Y-5.087
X-8.506 Y-5.032
X-8.516 Y-4.978
X-8.531 Y-4.923
X-8.553 Y-4.869
X-8.594 Y-4.793
X-8.651 Y-4.717
X-8.719 Y-4.651
X-8.794 Y-4.596
X-8.869 Y-4.555
X-8.923 Y-4.533
X-8.978 Y-4.517
X-9.032 Y-4.506
X-9.086 Y-4.501
X-9.522 Y-4.5
X-12.694
G3 X-13.187 Y-4.789 I0.021 J-0.6
G1 X-18.157 Y-12.999
G3 X-18.182 Y-13.573 I0.513 J-0.311
G1 X-17.95 Y-14.009
X-17.836 Y-14.226
X-17.573 Y-14.746
X-17.513 Y-14.879
X-17.402 Y-15.216
X-17.336 Y-15.387
X-17.272 Y-15.523
X-17.193 Y-15.664
X-17.096 Y-15.813
X-16.978 Y-15.968
X-16.842 Y-16.124
X-16.678 Y-16.289
X-16.497 Y-16.446
X-16.286 Y-16.605
X-16.047 Y-16.761
X-15.79 Y-16.904
X-15.499 Y-17.04
X-15.179 Y-17.164
X-14.842 Y-17.268
X-14.481 Y-17.353
X-14.094 Y-17.416
X-13.682 Y-17.454
X-13.254 Y-17.464
X-12.816 Y-17.443
X-12.368 Y-17.391
X-11.909 Y-17.305
X-11.44 Y-17.183
X-10.967 Y-17.024
X-10.493 Y-16.828
X-10.022 Y-16.593
X-9.56 Y-16.321
X-9.141 Y-16.035
X-9.132 Y-16.027
X-8.914 Y-15.82
X-8.738 Y-15.578
X-8.607 Y-15.308
X-8.527 Y-15.019
X-8.5 Y-14.721
Y-12.453
G3 X-9.289 Y-11.905 I-0.6 J-0.021
G1 X-17.016 Y-14.479
G3 X-17.402 Y-15.216 I0.19 J-0.569
G1 X-17.298 Y-15.532
X-16.968 Y-16.62
X-16.901 Y-16.806
X-16.841 Y-16.944
X-16.765 Y-17.086
X-16.677 Y-17.228
X-16.566 Y-17.381
X-16.436 Y-17.535
X-16.285 Y-17.692
X-16.106 Y-17.855
X-15.91 Y-18.009
X-15.678 Y-18.166
X-15.422 Y-18.315
X-15.142 Y-18.453
X-14.824 Y-18.583
X-14.479 Y-18.697
X-14.116 Y-18.79
X-13.715 Y-18.864
X-13.281 Y-18.912
X-12.828 Y-18.931
X-12.361 Y-18.919
X-11.866 Y-18.871
X-11.35 Y-18.785
X-10.817 Y-18.658
X-10.28 Y-18.489
X-9.852 Y-18.321
X-9.478 Y-18.144
X-9.35 Y-18.073
X-9.063 Y-17.869
X-8.825 Y-17.609
X-8.647 Y-17.305
X-8.537 Y-16.97
X-8.5 Y-16.62
Y-14.721
G3 X-9.238 Y-14.158 I-0.6 J-0.021
G1 X-16.526 Y-15.882
G3 X-16.968 Y-16.62 I0.138 J-0.584
G1 X-16.837 Y-17.055
X-16.788 Y-17.273
X-16.743 Y-17.49
X-16.711 Y-17.708
X-16.706 Y-17.755
X-16.684 Y-17.903
X-16.647 Y-18.049
X-16.598 Y-18.19
X-16.538 Y-18.328
X-16.46 Y-18.476
X-16.369 Y-18.625
X-16.254 Y-18.785
X-16.121 Y-18.946
X-15.965 Y-19.111
X-15.78 Y-19.281
X-15.577 Y-19.442
X-15.336 Y-19.608
X-15.072 Y-19.765
X-14.779 Y-19.912
X-14.444 Y-20.052
X-14.086 Y-20.173
X-13.699 Y-20.275
X-13.268 Y-20.357
X-12.801 Y-20.413
X-12.32 Y-20.436
X-11.806 Y-20.426
X-11.282 Y-20.379
X-10.768 Y-20.297
X-10.341 Y-20.198
X-9.951 Y-20.079
X-9.631 Y-19.956
X-9.464 Y-19.878
X-9.192 Y-19.719
X-8.955 Y-19.512
X-8.761 Y-19.263
X-8.618 Y-18.983
X-8.53 Y-18.681
X-8.5 Y-18.367
Y-16.62
G3 X-9.191 Y-16.047 I-0.6 J-0.021
G1 X-16.199 Y-17.121
G3 X-16.706 Y-17.755 I0.091 J-0.593
G1 X-16.644 Y-18.361
X-16.58 Y-19.014
X-16.556 Y-19.176
X-16.524 Y-19.322
X-16.48 Y-19.466
X-16.422 Y-19.613
X-16.351 Y-19.764
X-16.258 Y-19.93
X-16.15 Y-20.094
X-16.014 Y-20.272
X-15.862 Y-20.447
X-15.68 Y-20.627
X-15.469 Y-20.81
X-15.236 Y-20.985
X-14.96 Y-21.164
X-14.661 Y-21.329
X-14.329 Y-21.484
X-13.951 Y-21.629
X-13.545 Y-21.753
X-13.113 Y-21.854
X-12.641 Y-21.93
X-12.153 Y-21.973
X-11.657 Y-21.984
X-11.17 Y-21.96
X-10.736 Y-21.908
X-10.331 Y-21.831
X-9.997 Y-21.744
X-9.677 Y-21.636
X-9.525 Y-21.572
X-9.238 Y-21.418
X-8.986 Y-21.21
X-8.78 Y-20.958
X-8.626 Y-20.67
X-8.532 Y-20.358
X-8.5 Y-20.034
Y-18.367
G3 X-9.151 Y-17.79 I-0.6 J-0.021
G1 X-16.032 Y-18.378
G3 X-16.58 Y-19.014 I0.051 J-0.598
G1 X-16.516 Y-19.667
X-16.51 Y-19.884
X-16.501 Y-20.319
X-16.493 Y-20.469
X-16.466 Y-20.617
X-16.428 Y-20.762
X-16.377 Y-20.911
X-16.308 Y-21.074
X-16.223 Y-21.243
X-16.118 Y-21.42
X-15.987 Y-21.608
X-15.838 Y-21.793
X-15.655 Y-21.992
X-15.453 Y-22.183
X-15.216 Y-22.378
X-14.941 Y-22.573
X-14.646 Y-22.753
X-14.307 Y-22.93
X-13.928 Y-23.095
X-13.529 Y-23.236
X-13.098 Y-23.356
X-12.642 Y-23.45
X-12.17 Y-23.513
X-11.699 Y-23.543
X-11.232 Y-23.541
X-10.823 Y-23.51
X-10.433 Y-23.454
X-10.109 Y-23.383
X-9.79 Y-23.291
X-9.523 Y-23.193
X-9.485 Y-23.176
X-9.208 Y-23.018
X-8.966 Y-22.811
X-8.768 Y-22.561
X-8.621 Y-22.278
X-8.531 Y-21.972
X-8.5 Y-21.655
Y-20.034
G3 X-9.124 Y-19.455 I-0.6 J-0.021
G1 X-15.927 Y-19.737
G3 X-16.501 Y-20.319 I0.025 J-0.599
G1 X-16.5 Y-20.537
Y-21.625
X-16.493 Y-21.775
X-16.472 Y-21.923
X-16.439 Y-22.074
X-16.395 Y-22.226
X-16.331 Y-22.398
X-16.254 Y-22.571
X-16.153 Y-22.759
X-16.031 Y-22.952
X-15.886 Y-23.151
X-15.709 Y-23.361
X-15.513 Y-23.563
X-15.279 Y-23.774
X-15.013 Y-23.981
X-14.722 Y-24.177
X-14.388 Y-24.371
X-14.018 Y-24.552
X-13.627 Y-24.71
X-13.206 Y-24.848
X-12.763 Y-24.96
X-12.305 Y-25.042
X-11.847 Y-25.092
X-11.39 Y-25.11
X-10.968 Y-25.098
X-10.589 Y-25.06
X-10.255 Y-25.003
X-9.94 Y-24.927
X-9.656 Y-24.837
X-9.554 Y-24.796
X-9.26 Y-24.645
X-9.001 Y-24.438
X-8.788 Y-24.184
X-8.63 Y-23.893
X-8.533 Y-23.576
X-8.5 Y-23.246
Y-21.655
G3 X-9.097 Y-21.076 I-0.6 J-0.021
G1 X-15.898 Y-21.046
G3 X-16.5 Y-21.625 I-0.003 J-0.6
G1 Y-23.05
X-16.493 Y-23.2
X-16.474 Y-23.349
X-16.443 Y-23.499
X-16.399 Y-23.662
X-16.339 Y-23.833
X-16.258 Y-24.02
X-16.161 Y-24.208
X-16.035 Y-24.414
X-15.891 Y-24.617
X-15.716 Y-24.832
X-15.511 Y-25.051
X-15.282 Y-25.263
X-15.012 Y-25.48
X-14.71 Y-25.691
X-14.384 Y-25.886
X-14.019 Y-26.071
X-13.619 Y-26.241
X-13.193 Y-26.388
X-12.753 Y-26.506
X-12.305 Y-26.594
X-11.856 Y-26.65
X-11.411 Y-26.674
X-11.013 Y-26.668
X-10.623 Y-26.635
X-10.302 Y-26.586
X-9.979 Y-26.513
X-9.702 Y-26.43
X-9.578 Y-26.383
X-9.278 Y-26.233
X-9.013 Y-26.027
X-8.796 Y-25.771
X-8.634 Y-25.477
X-8.534 Y-25.157
X-8.5 Y-24.823
Y-23.246
G3 X-9.082 Y-22.668 I-0.6 J-0.021
G1 X-15.883 Y-22.472
G3 X-16.5 Y-23.05 I-0.017 J-0.6
G1 Y-24.574
X-16.493 Y-24.724
X-16.471 Y-24.872
X-16.438 Y-25.025
X-16.389 Y-25.198
X-16.325 Y-25.373
X-16.238 Y-25.568
X-16.134 Y-25.763
X-16.003 Y-25.972
X-15.847 Y-26.188
X-15.666 Y-26.404
X-15.447 Y-26.632
X-15.206 Y-26.85
X-14.93 Y-27.067
X-14.614 Y-27.282
X-14.268 Y-27.484
X-13.899 Y-27.666
X-13.497 Y-27.831
X-13.072 Y-27.972
X-12.63 Y-28.085
X-12.185 Y-28.167
X-11.738 Y-28.217
X-11.3 Y-28.236
X-10.917 Y-28.226
X-10.542 Y-28.19
X-10.231 Y-28.138
X-9.914 Y-28.062
X-9.651 Y-27.98
X-9.56 Y-27.944
X-9.264 Y-27.793
X-9.004 Y-27.586
X-8.79 Y-27.332
X-8.631 Y-27.04
X-8.533 Y-26.723
X-8.5 Y-26.392
Y-24.823
G3 X-9.078 Y-24.245 I-0.6 J-0.021
G1 X-15.878 Y-23.995
G3 X-16.5 Y-24.574 I-0.022 J-0.6
G1 Y-26.097
X-16.493 Y-26.247
X-16.472 Y-26.395
X-16.437 Y-26.556
X-16.388 Y-26.726
X-16.321 Y-26.909
X-16.234 Y-27.104
X-16.127 Y-27.304
X-15.992 Y-27.521
X-15.838 Y-27.733
X-15.65 Y-27.958
X-15.432 Y-28.184
X-15.189 Y-28.404
X-14.904 Y-28.628
X-14.586 Y-28.844
X-14.246 Y-29.042
X-13.871 Y-29.227
X-13.464 Y-29.394
X-13.038 Y-29.535
X-12.597 Y-29.647
X-12.155 Y-29.728
X-11.71 Y-29.778
X-11.276 Y-29.796
X-10.899 Y-29.786
X-10.527 Y-29.75
X-10.22 Y-29.699
X-9.905 Y-29.624
X-9.642 Y-29.541
X-9.559 Y-29.509
X-9.263 Y-29.357
X-9.004 Y-29.151
X-8.79 Y-28.896
X-8.631 Y-28.605
X-8.533 Y-28.287
X-8.5 Y-27.957
Y-26.392
G3 X-9.074 Y-25.814 I-0.6 J-0.021
G1 X-15.874 Y-25.518
G3 X-16.5 Y-26.097 I-0.026 J-0.599
G1 Y-27.62
X-16.493 Y-27.77
X-16.473 Y-27.919
X-16.439 Y-28.082
X-16.392 Y-28.249
X-16.326 Y-28.436
X-16.242 Y-28.627
X-16.136 Y-28.83
X-16.004 Y-29.045
X-15.852 Y-29.258
X-15.663 Y-29.487
X-15.452 Y-29.71
X-15.208 Y-29.935
X-14.924 Y-30.162
X-14.613 Y-30.377
X-14.274 Y-30.578
X-13.899 Y-30.766
X-13.493 Y-30.937
X-13.069 Y-31.081
X-12.63 Y-31.197
X-12.19 Y-31.281
X-11.748 Y-31.334
X-11.313 Y-31.356
X-10.936 Y-31.349
X-10.559 Y-31.316
X-10.252 Y-31.267
X-9.934 Y-31.194
X-9.669 Y-31.113
X-9.571 Y-31.076
X-9.273 Y-30.926
X-9.01 Y-30.719
X-8.794 Y-30.464
X-8.633 Y-30.171
X-8.534 Y-29.852
X-8.5 Y-29.519
Y-27.957
G3 X-9.07 Y-27.379 I-0.6 J-0.021
G1 X-15.871 Y-27.042
G3 X-16.5 Y-27.62 I-0.03 J-0.599
G1 Y-29.144
X-16.492 Y-29.295
X-16.475 Y-29.444
X-16.443 Y-29.606
X-16.398 Y-29.772
X-16.335 Y-29.957
X-16.254 Y-30.148
X-16.151 Y-30.35
X-16.023 Y-30.565
X-15.874 Y-30.778
X-15.689 Y-31.008
X-15.482 Y-31.231
X-15.242 Y-31.457
X-14.962 Y-31.686
X-14.656 Y-31.902
X-14.322 Y-32.106
X-13.95 Y-32.298
X-13.547 Y-32.472
X-13.126 Y-32.62
X-12.69 Y-32.741
X-12.251 Y-32.83
X-11.81 Y-32.888
X-11.375 Y-32.915
X-10.992 Y-32.912
X-10.61 Y-32.882
X-10.299 Y-32.836
X-9.979 Y-32.766
X-9.709 Y-32.687
X-9.589 Y-32.643
X-9.286 Y-32.494
X-9.019 Y-32.288
X-8.799 Y-32.032
X-8.635 Y-31.737
X-8.534 Y-31.415
X-8.5 Y-31.079
Y-29.519
G3 X-9.067 Y-28.941 I-0.6 J-0.021
G1 X-15.867 Y-28.565
G3 X-16.5 Y-29.144 I-0.033 J-0.599
G1 Y-30.667
X-16.491 Y-30.847
X-16.473 Y-30.996
X-16.442 Y-31.155
X-16.397 Y-31.325
X-16.335 Y-31.507
X-16.252 Y-31.702
X-16.152 Y-31.901
X-16.022 Y-32.118
X-15.874 Y-32.331
X-15.691 Y-32.559
X-15.479 Y-32.788
X-15.243 Y-33.011
X-14.965 Y-33.238
X-14.654 Y-33.459
X-14.32 Y-33.663
X-13.952 Y-33.854
X-13.552 Y-34.027
X-13.132 Y-34.176
X-12.695 Y-34.297
X-12.256 Y-34.387
X-11.814 Y-34.446
X-11.379 Y-34.473
X-10.996 Y-34.471
X-10.614 Y-34.442
X-10.304 Y-34.396
X-9.983 Y-34.327
X-9.714 Y-34.248
X-9.591 Y-34.203
X-9.287 Y-34.055
X-9.02 Y-33.848
X-8.8 Y-33.592
X-8.635 Y-33.297
X-8.534 Y-32.975
X-8.5 Y-32.639
Y-31.079
G3 X-9.063 Y-30.502 I-0.6 J-0.021
G1 X-15.864 Y-30.089
G3 X-16.5 Y-30.667 I-0.036 J-0.599
G1 Y-32.288
X-16.493 Y-32.438
X-16.471 Y-32.589
X-16.437 Y-32.748
X-16.386 Y-32.926
X-16.32 Y-33.108
X-16.231 Y-33.309
X-16.125 Y-33.51
X-15.989 Y-33.728
X-15.831 Y-33.948
X-15.644 Y-34.172
X-15.42 Y-34.406
X-15.174 Y-34.629
X-14.893 Y-34.852
X-14.572 Y-35.07
X-14.221 Y-35.276
X-13.848 Y-35.461
X-13.444 Y-35.628
X-13.021 Y-35.769
X-12.581 Y-35.882
X-12.141 Y-35.964
X-11.697 Y-36.015
X-11.271 Y-36.034
X-10.891 Y-36.025
X-10.529 Y-35.991
X-10.22 Y-35.94
X-9.908 Y-35.866
X-9.647 Y-35.785
X-9.563 Y-35.752
X-9.266 Y-35.601
X-9.005 Y-35.394
X-8.791 Y-35.14
X-8.632 Y-34.848
X-8.533 Y-34.53
X-8.5 Y-34.199
Y-32.639
G3 X-9.069 Y-32.061 I-0.6 J-0.021
G1 X-15.869 Y-31.71
G3 X-16.5 Y-32.288 I-0.031 J-0.599
G1 Y-33.811
X-16.493 Y-33.961
X-16.475 Y-34.11
X-16.443 Y-34.273
X-16.398 Y-34.439
X-16.334 Y-34.626
X-16.254 Y-34.815
X-16.148 Y-35.023
X-16.022 Y-35.234
X-15.87 Y-35.452
X-15.685 Y-35.682
X-15.479 Y-35.904
X-15.236 Y-36.133
X-14.956 Y-36.362
X-14.653 Y-36.576
X-14.315 Y-36.782
X-13.941 Y-36.975
X-13.538 Y-37.15
X-13.116 Y-37.298
X-12.682 Y-37.418
X-12.243 Y-37.508
X-11.803 Y-37.566
X-11.37 Y-37.592
X-10.988 Y-37.589
X-10.608 Y-37.56
X-10.297 Y-37.514
X-9.978 Y-37.445
X-9.707 Y-37.365
X-9.589 Y-37.322
X-9.286 Y-37.173
X-9.019 Y-36.967
X-8.799 Y-36.711
X-8.635 Y-36.416
X-8.534 Y-36.094
X-8.5 Y-35.758
Y-34.199
G3 X-9.066 Y-33.621 I-0.6 J-0.021
G1 X-15.866 Y-33.233
G3 X-16.5 Y-33.811 I-0.034 J-0.599
G1 Y-35.335
X-16.491 Y-35.518
X-16.473 Y-35.667
X-16.442 Y-35.827
X-16.397 Y-35.997
X-16.334 Y-36.179
X-16.252 Y-36.375
X-16.151 Y-36.574
X-16.021 Y-36.792
X-15.872 Y-37.006
X-15.689 Y-37.234
X-15.477 Y-37.463
X-15.239 Y-37.687
X-14.961 Y-37.915
X-14.65 Y-38.136
X-14.316 Y-38.34
X-13.947 Y-38.531
X-13.547 Y-38.705
X-13.127 Y-38.854
X-12.691 Y-38.975
X-12.252 Y-39.064
X-11.811 Y-39.123
X-11.375 Y-39.151
X-10.993 Y-39.148
X-10.612 Y-39.119
X-10.302 Y-39.074
X-9.982 Y-39.004
X-9.714 Y-38.926
X-9.591 Y-38.881
X-9.287 Y-38.733
X-9.02 Y-38.526
X-8.8 Y-38.27
X-8.635 Y-37.975
X-8.534 Y-37.653
X-8.5 Y-37.317
Y-35.758
G3 X-9.062 Y-35.18 I-0.6 J-0.021
G1 X-15.863 Y-34.757
G3 X-16.5 Y-35.335 I-0.037 J-0.599
G1 Y-36.858
X-16.489 Y-37.077
X-16.471 Y-37.226
X-16.44 Y-37.385
X-16.395 Y-37.555
X-16.333 Y-37.738
X-16.25 Y-37.934
X-16.149 Y-38.133
X-16.019 Y-38.351
X-15.87 Y-38.565
X-15.688 Y-38.792
X-15.476 Y-39.022
X-15.239 Y-39.245
X-14.962 Y-39.473
X-14.65 Y-39.694
X-14.316 Y-39.898
X-13.948 Y-40.089
X-13.548 Y-40.263
X-13.128 Y-40.412
X-12.691 Y-40.533
X-12.253 Y-40.623
X-11.811 Y-40.681
X-11.376 Y-40.709
X-10.994 Y-40.707
X-10.613 Y-40.678
X-10.303 Y-40.633
X-9.982 Y-40.563
X-9.714 Y-40.485
X-9.591 Y-40.44
X-9.288 Y-40.291
X-9.02 Y-40.085
X-8.8 Y-39.829
X-8.636 Y-39.534
X-8.534 Y-39.212
X-8.5 Y-38.875
Y-37.317
G3 X-9.059 Y-36.739 I-0.6 J-0.021
G1 X-15.86 Y-36.28
G3 X-16.5 Y-36.858 I-0.04 J-0.599
G1 Y-38.501
X-16.493 Y-38.651
X-16.473 Y-38.799
X-16.441 Y-38.959
X-16.393 Y-39.133
X-16.328 Y-39.315
X-16.242 Y-39.515
X-16.139 Y-39.715
X-16.006 Y-39.934
X-15.853 Y-40.15
X-15.668 Y-40.376
X-15.45 Y-40.609
X-15.209 Y-40.832
X-14.93 Y-41.057
X-14.612 Y-41.278
X-14.27 Y-41.483
X-13.901 Y-41.671
X-13.499 Y-41.841
X-13.077 Y-41.986
X-12.639 Y-42.104
X-12.199 Y-42.19
X-11.757 Y-42.245
X-11.324 Y-42.269
X-10.945 Y-42.263
X-10.572 Y-42.232
X-10.264 Y-42.184
X-9.946 Y-42.112
X-9.683 Y-42.033
X-9.578 Y-41.993
X-9.277 Y-41.844
X-9.013 Y-41.637
X-8.796 Y-41.382
X-8.634 Y-41.088
X-8.534 Y-40.768
X-8.5 Y-40.434
Y-38.875
G3 X-9.067 Y-38.297 I-0.6 J-0.021
G1 X-15.867 Y-37.923
G3 X-16.5 Y-38.501 I-0.033 J-0.599
G1 Y-40.024
X-16.492 Y-40.194
X-16.474 Y-40.343
X-16.442 Y-40.505
X-16.397 Y-40.672
X-16.333 Y-40.858
X-16.252 Y-41.05
X-16.149 Y-41.254
X-16.02 Y-41.47
X-15.87 Y-41.684
X-15.685 Y-41.914
X-15.477 Y-42.14
X-15.237 Y-42.366
X-14.957 Y-42.595
X-14.649 Y-42.813
X-14.314 Y-43.017
X-13.943 Y-43.209
X-13.541 Y-43.383
X-13.12 Y-43.532
X-12.683 Y-43.652
X-12.245 Y-43.741
X-11.804 Y-43.8
X-11.371 Y-43.827
X-10.989 Y-43.824
X-10.608 Y-43.795
X-10.298 Y-43.749
X-9.978 Y-43.679
X-9.71 Y-43.601
X-9.59 Y-43.557
X-9.286 Y-43.408
X-9.019 Y-43.202
X-8.799 Y-42.946
X-8.635 Y-42.651
X-8.534 Y-42.329
X-8.5 Y-41.993
Y-40.434
G3 X-9.064 Y-39.856 I-0.6 J-0.021
G1 X-15.864 Y-39.446
G3 X-16.5 Y-40.024 I-0.036 J-0.599
G1 Y-41.645
X-16.493 Y-41.795
X-16.47 Y-41.948
X-16.436 Y-42.108
X-16.383 Y-42.287
X-16.316 Y-42.469
X-16.226 Y-42.672
X-16.118 Y-42.873
X-15.981 Y-43.092
X-15.82 Y-43.313
X-15.631 Y-43.537
X-15.405 Y-43.771
X-15.156 Y-43.996
X-14.873 Y-44.218
X-14.55 Y-44.436
X-14.196 Y-44.641
X-13.82 Y-44.826
X-13.416 Y-44.991
X-12.992 Y-45.13
X-12.552 Y-45.242
X-12.111 Y-45.322
X-11.668 Y-45.37
X-11.246 Y-45.388
X-10.865 Y-45.377
X-10.509 Y-45.342
X-10.199 Y-45.289
X-9.89 Y-45.215
X-9.631 Y-45.133
X-9.556 Y-45.104
X-9.261 Y-44.952
X-9.002 Y-44.745
X-8.789 Y-44.491
X-8.631 Y-44.2
X-8.533 Y-43.883
X-8.5 Y-43.553
Y-41.993
G3 X-9.069 Y-41.415 I-0.6 J-0.021
G1 X-15.87 Y-41.067
G3 X-16.5 Y-41.645 I-0.031 J-0.599
G1 Y-43.168
X-16.493 Y-43.318
X-16.474 Y-43.467
X-16.442 Y-43.63
X-16.397 Y-43.797
X-16.331 Y-43.985
X-16.251 Y-44.174
X-16.144 Y-44.384
X-16.017 Y-44.594
X-15.863 Y-44.814
X-15.677 Y-45.043
X-15.47 Y-45.266
X-15.224 Y-45.496
X-14.943 Y-45.724
X-14.64 Y-45.938
X-14.3 Y-46.143
X-13.924 Y-46.336
X-13.519 Y-46.51
X-13.097 Y-46.657
X-12.663 Y-46.776
X-12.224 Y-46.864
X-11.784 Y-46.921
X-11.351 Y-46.946
X-10.972 Y-46.942
X-10.594 Y-46.912
X-10.284 Y-46.866
X-9.966 Y-46.795
X-9.696 Y-46.716
X-9.585 Y-46.674
X-9.283 Y-46.525
X-9.017 Y-46.319
X-8.798 Y-46.063
X-8.635 Y-45.768
X-8.534 Y-45.447
X-8.5 Y-45.112
Y-43.553
G3 X-9.066 Y-42.975 I-0.6 J-0.021
G1 X-15.867 Y-42.59
G3 X-16.5 Y-43.168 I-0.034 J-0.599
G1 Y-44.692
X-16.491 Y-44.871
X-16.473 Y-45.02
X-16.442 Y-45.181
X-16.397 Y-45.35
X-16.334 Y-45.533
X-16.252 Y-45.727
X-16.15 Y-45.928
X-16.02 Y-46.146
X-15.871 Y-46.36
X-15.687 Y-46.589
X-15.476 Y-46.817
X-15.237 Y-47.042
X-14.958 Y-47.27
X-14.648 Y-47.491
X-14.314 Y-47.694
X-13.944 Y-47.886
X-13.543 Y-48.06
X-13.123 Y-48.208
X-12.687 Y-48.329
X-12.248 Y-48.418
X-11.807 Y-48.477
X-11.372 Y-48.504
X-10.991 Y-48.502
X-10.61 Y-48.473
X-10.3 Y-48.427
X-9.98 Y-48.358
X-9.712 Y-48.279
X-9.59 Y-48.235
X-9.287 Y-48.086
X-9.02 Y-47.88
X-8.799 Y-47.624
X-8.635 Y-47.329
X-8.534 Y-47.007
X-8.5 Y-46.671
Y-45.112
G3 X-9.063 Y-44.534 I-0.6 J-0.021
G1 X-15.863 Y-44.114
G3 X-16.5 Y-44.692 I-0.037 J-0.599
G1 Y-46.215
X-16.489 Y-46.43
X-16.471 Y-46.578
X-16.44 Y-46.738
X-16.395 Y-46.908
X-16.333 Y-47.091
X-16.25 Y-47.287
X-16.149 Y-47.486
X-16.019 Y-47.704
X-15.87 Y-47.918
X-15.688 Y-48.146
X-15.475 Y-48.376
X-15.238 Y-48.599
X-14.961 Y-48.827
X-14.649 Y-49.048
X-14.315 Y-49.252
X-13.947 Y-49.443
X-13.547 Y-49.617
X-13.127 Y-49.765
X-12.69 Y-49.887
X-12.252 Y-49.976
X-11.81 Y-50.035
X-11.375 Y-50.063
X-10.993 Y-50.06
X-10.613 Y-50.031
X-10.303 Y-49.986
X-9.982 Y-49.916
X-9.714 Y-49.839
X-9.591 Y-49.793
X-9.288 Y-49.645
X-9.02 Y-49.439
X-8.8 Y-49.183
X-8.636 Y-48.887
X-8.534 Y-48.565
X-8.5 Y-48.229
Y-46.671
G3 X-9.06 Y-46.093 I-0.6 J-0.021
G1 X-15.86 Y-45.637
G3 X-16.5 Y-46.215 I-0.04 J-0.599
G1 Y-47.858
X-16.493 Y-48.008
X-16.473 Y-48.156
X-16.44 Y-48.316
X-16.391 Y-48.491
X-16.327 Y-48.673
X-16.24 Y-48.874
X-16.136 Y-49.074
X-16.003 Y-49.293
X-15.849 Y-49.509
X-15.663 Y-49.735
X-15.444 Y-49.968
X-15.202 Y-50.191
X-14.922 Y-50.416
X-14.604 Y-50.637
X-14.26 Y-50.842
X-13.89 Y-51.029
X-13.488 Y-51.199
X-13.066 Y-51.343
X-12.627 Y-51.46
X-12.187 Y-51.545
X-11.745 Y-51.6
X-11.313 Y-51.622
X-10.934 Y-51.616
X-10.563 Y-51.584
X-10.255 Y-51.536
X-9.938 Y-51.464
X-9.676 Y-51.384
X-9.575 Y-51.346
X-9.275 Y-51.196
X-9.012 Y-50.99
X-8.795 Y-50.734
X-8.633 Y-50.441
X-8.534 Y-50.121
X-8.5 Y-49.788
Y-48.229
G3 X-9.067 Y-47.651 I-0.6 J-0.021
G1 X-15.868 Y-47.28
G3 X-16.5 Y-47.858 I-0.033 J-0.599
G1 Y-49.381
X-16.492 Y-49.547
X-16.474 Y-49.696
X-16.442 Y-49.859
X-16.397 Y-50.026
X-16.333 Y-50.212
X-16.252 Y-50.403
X-16.149 Y-50.608
X-16.02 Y-50.823
X-15.87 Y-51.038
X-15.685 Y-51.269
X-15.477 Y-51.493
X-15.236 Y-51.72
X-14.956 Y-51.949
X-14.649 Y-52.166
X-14.314 Y-52.37
X-13.942 Y-52.563
X-13.54 Y-52.737
X-13.118 Y-52.886
X-12.682 Y-53.006
X-12.244 Y-53.095
X-11.803 Y-53.154
X-11.37 Y-53.18
X-10.988 Y-53.178
X-10.608 Y-53.149
X-10.298 Y-53.103
X-9.978 Y-53.033
X-9.709 Y-52.954
X-9.589 Y-52.91
X-9.286 Y-52.762
X-9.019 Y-52.556
X-8.799 Y-52.3
X-8.635 Y-52.005
X-8.534 Y-51.683
X-8.5 Y-51.347
Y-49.788
G3 X-9.064 Y-49.21 I-0.6 J-0.021
G1 X-15.865 Y-48.803
G3 X-16.5 Y-49.381 I-0.036 J-0.599
G1 Y-51.002
X-16.493 Y-51.152
X-16.47 Y-51.306
X-16.435 Y-51.466
X-16.382 Y-51.646
X-16.315 Y-51.828
X-16.223 Y-52.031
X-16.115 Y-52.233
X-15.977 Y-52.451
X-15.815 Y-52.673
X-15.626 Y-52.897
X-15.399 Y-53.131
X-15.148 Y-53.356
X-14.864 Y-53.577
X-14.541 Y-53.795
X-14.186 Y-54.001
X-13.808 Y-54.185
X-13.403 Y-54.349
X-12.98 Y-54.487
X-12.539 Y-54.598
X-12.098 Y-54.677
X-11.655 Y-54.725
X-11.235 Y-54.742
X-10.854 Y-54.73
X-10.5 Y-54.694
X-10.19 Y-54.641
X-9.883 Y-54.567
X-9.623 Y-54.484
X-9.553 Y-54.457
X-9.259 Y-54.305
X-9.001 Y-54.098
X-8.788 Y-53.844
X-8.63 Y-53.553
X-8.533 Y-53.236
X-8.5 Y-52.907
Y-51.347
G3 X-9.069 Y-50.768 I-0.6 J-0.021
G1 X-15.87 Y-50.424
G3 X-16.5 Y-51.002 I-0.03 J-0.599
G1 Y-52.526
X-16.493 Y-52.676
X-16.474 Y-52.824
X-16.441 Y-52.988
X-16.396 Y-53.155
X-16.33 Y-53.343
X-16.249 Y-53.532
X-16.141 Y-53.742
X-16.014 Y-53.952
X-15.859 Y-54.173
X-15.673 Y-54.402
X-15.465 Y-54.625
X-15.218 Y-54.855
X-14.937 Y-55.083
X-14.632 Y-55.296
X-14.291 Y-55.502
X-13.914 Y-55.695
X-13.51 Y-55.868
X-13.088 Y-56.014
X-12.653 Y-56.132
X-12.214 Y-56.22
X-11.774 Y-56.276
X-11.341 Y-56.3
X-10.963 Y-56.296
X-10.586 Y-56.265
X-10.276 Y-56.218
X-9.959 Y-56.148
X-9.69 Y-56.068
X-9.582 Y-56.027
X-9.281 Y-55.878
X-9.015 Y-55.671
X-8.797 Y-55.416
X-8.634 Y-55.122
X-8.534 Y-54.801
X-8.5 Y-54.466
Y-52.907
G3 X-9.066 Y-52.329 I-0.6 J-0.021
G1 X-15.867 Y-51.948
G3 X-16.5 Y-52.526 I-0.034 J-0.599
G1 Y-54.049
X-16.491 Y-54.225
X-16.473 Y-54.374
X-16.442 Y-54.536
X-16.397 Y-54.704
X-16.334 Y-54.888
X-16.252 Y-55.081
X-16.15 Y-55.283
X-16.02 Y-55.5
X-15.871 Y-55.714
X-15.686 Y-55.944
X-15.476 Y-56.171
X-15.237 Y-56.396
X-14.957 Y-56.625
X-14.647 Y-56.845
X-14.313 Y-57.049
X-13.943 Y-57.24
X-13.542 Y-57.414
X-13.121 Y-57.563
X-12.685 Y-57.684
X-12.247 Y-57.773
X-11.806 Y-57.831
X-11.371 Y-57.858
X-10.99 Y-57.856
X-10.609 Y-57.827
X-10.299 Y-57.781
X-9.979 Y-57.711
X-9.711 Y-57.633
X-9.59 Y-57.589
X-9.287 Y-57.44
X-9.02 Y-57.234
X-8.799 Y-56.978
X-8.635 Y-56.683
X-8.534 Y-56.361
X-8.5 Y-56.025
Y-54.466
G3 X-9.063 Y-53.888 I-0.6 J-0.021
G1 X-15.864 Y-53.471
G3 X-16.5 Y-54.049 I-0.037 J-0.599
G1 Y-55.572
X-16.489 Y-55.783
X-16.472 Y-55.932
X-16.441 Y-56.092
X-16.395 Y-56.262
X-16.333 Y-56.445
X-16.25 Y-56.641
X-16.149 Y-56.84
X-16.019 Y-57.058
X-15.871 Y-57.272
X-15.688 Y-57.5
X-15.476 Y-57.73
X-15.238 Y-57.953
X-14.961 Y-58.181
X-14.649 Y-58.402
X-14.315 Y-58.606
X-13.947 Y-58.797
X-13.546 Y-58.971
X-13.126 Y-59.119
X-12.69 Y-59.241
X-12.251 Y-59.33
X-11.81 Y-59.389
X-11.375 Y-59.417
X-10.993 Y-59.414
X-10.612 Y-59.385
X-10.302 Y-59.34
X-9.982 Y-59.271
X-9.714 Y-59.193
X-9.591 Y-59.147
X-9.288 Y-58.999
X-9.02 Y-58.793
X-8.8 Y-58.537
X-8.636 Y-58.242
X-8.534 Y-57.919
X-8.5 Y-57.583
Y-56.025
G3 X-9.06 Y-55.447 I-0.6 J-0.021
G1 X-15.861 Y-54.995
G3 X-16.5 Y-55.572 I-0.04 J-0.599
G1 Y-57.215
X-16.493 Y-57.365
X-16.472 Y-57.514
X-16.439 Y-57.674
X-16.39 Y-57.849
X-16.326 Y-58.032
X-16.238 Y-58.232
X-16.134 Y-58.432
X-16 Y-58.651
X-15.845 Y-58.868
X-15.659 Y-59.094
X-15.439 Y-59.328
X-15.196 Y-59.55
X-14.916 Y-59.775
X-14.597 Y-59.996
X-14.252 Y-60.201
X-13.881 Y-60.387
X-13.478 Y-60.557
X-13.056 Y-60.7
X-12.618 Y-60.817
X-12.178 Y-60.901
X-11.735 Y-60.955
X-11.304 Y-60.977
X-10.926 Y-60.97
X-10.556 Y-60.937
X-10.248 Y-60.889
X-9.932 Y-60.816
X-9.67 Y-60.736
X-9.572 Y-60.699
X-9.273 Y-60.549
X-9.01 Y-60.342
X-8.794 Y-60.087
X-8.633 Y-59.794
X-8.534 Y-59.475
X-8.5 Y-59.142
Y-57.583
G3 X-9.067 Y-57.005 I-0.6 J-0.021
G1 X-15.868 Y-56.637
G3 X-16.5 Y-57.215 I-0.032 J-0.599
G1 Y-58.738
X-16.492 Y-58.901
X-16.474 Y-59.05
X-16.442 Y-59.213
X-16.398 Y-59.38
X-16.333 Y-59.567
X-16.253 Y-59.757
X-16.149 Y-59.962
X-16.02 Y-60.177
X-15.87 Y-60.393
X-15.685 Y-60.623
X-15.477 Y-60.847
X-15.236 Y-61.074
X-14.955 Y-61.304
X-14.65 Y-61.52
X-14.314 Y-61.724
X-13.942 Y-61.917
X-13.539 Y-62.092
X-13.117 Y-62.24
X-12.682 Y-62.361
X-12.244 Y-62.45
X-11.803 Y-62.508
X-11.37 Y-62.535
X-10.988 Y-62.532
X-10.608 Y-62.503
X-10.298 Y-62.457
X-9.978 Y-62.387
X-9.709 Y-62.309
X-9.589 Y-62.265
X-9.286 Y-62.116
X-9.019 Y-61.91
X-8.799 Y-61.654
X-8.635 Y-61.359
X-8.534 Y-61.037
X-8.5 Y-60.701
Y-59.142
G3 X-9.064 Y-58.564 I-0.6 J-0.021
G1 X-15.865 Y-58.16
G3 X-16.5 Y-58.738 I-0.036 J-0.599
G1 Y-60.36
X-16.493 Y-60.51
X-16.47 Y-60.664
X-16.434 Y-60.824
X-16.381 Y-61.004
X-16.313 Y-61.186
X-16.221 Y-61.389
X-16.112 Y-61.592
X-15.974 Y-61.81
X-15.811 Y-62.033
X-15.621 Y-62.256
X-15.394 Y-62.49
X-15.142 Y-62.716
X-14.857 Y-62.937
X-14.534 Y-63.154
X-14.177 Y-63.359
X-13.798 Y-63.544
X-13.393 Y-63.707
X-12.969 Y-63.845
X-12.529 Y-63.955
X-12.088 Y-64.033
X-11.645 Y-64.08
X-11.226 Y-64.096
X-10.845 Y-64.084
X-10.493 Y-64.048
X-10.182 Y-63.994
X-9.876 Y-63.919
X-9.617 Y-63.837
X-9.551 Y-63.81
X-9.257 Y-63.658
X-8.999 Y-63.451
X-8.787 Y-63.197
X-8.63 Y-62.906
X-8.533 Y-62.59
X-8.5 Y-62.261
Y-60.701
G3 X-9.07 Y-60.123 I-0.6 J-0.021
G1 X-15.87 Y-59.781
G3 X-16.5 Y-60.36 I-0.03 J-0.599
G1 Y-61.883
X-16.493 Y-62.033
X-16.474 Y-62.182
X-16.441 Y-62.345
X-16.395 Y-62.512
X-16.329 Y-62.701
X-16.247 Y-62.89
X-16.139 Y-63.101
X-16.012 Y-63.31
X-15.856 Y-63.531
X-15.669 Y-63.761
X-15.461 Y-63.984
X-15.213 Y-64.214
X-14.931 Y-64.442
X-14.626 Y-64.655
X-14.284 Y-64.86
X-13.907 Y-65.053
X-13.502 Y-65.225
X-13.079 Y-65.371
X-12.644 Y-65.489
X-12.205 Y-65.575
X-11.765 Y-65.631
X-11.333 Y-65.655
X-10.955 Y-65.65
X-10.579 Y-65.619
X-10.27 Y-65.572
X-9.954 Y-65.501
X-9.685 Y-65.42
X-9.58 Y-65.381
X-9.279 Y-65.231
X-9.014 Y-65.025
X-8.796 Y-64.769
X-8.634 Y-64.475
X-8.534 Y-64.155
X-8.5 Y-63.821
Y-62.261
G3 X-9.066 Y-61.683 I-0.6 J-0.021
G1 X-15.867 Y-61.305
G3 X-16.5 Y-61.883 I-0.033 J-0.599
G1 Y-63.406
X-16.491 Y-63.579
X-16.473 Y-63.728
X-16.442 Y-63.89
X-16.397 Y-64.058
X-16.334 Y-64.242
X-16.252 Y-64.435
X-16.15 Y-64.638
X-16.02 Y-64.854
X-15.871 Y-65.069
X-15.686 Y-65.299
X-15.477 Y-65.525
X-15.236 Y-65.751
X-14.956 Y-65.98
X-14.647 Y-66.199
X-14.313 Y-66.403
X-13.942 Y-66.595
X-13.541 Y-66.769
X-13.12 Y-66.917
X-12.684 Y-67.038
X-12.246 Y-67.127
X-11.805 Y-67.186
X-11.371 Y-67.213
X-10.989 Y-67.21
X-10.609 Y-67.181
X-10.299 Y-67.136
X-9.979 Y-67.066
X-9.71 Y-66.987
X-9.59 Y-66.943
X-9.287 Y-66.795
X-9.019 Y-66.588
X-8.799 Y-66.332
X-8.635 Y-66.037
X-8.534 Y-65.715
X-8.5 Y-65.379
Y-63.821
G3 X-9.063 Y-63.243 I-0.6 J-0.021
G1 X-15.864 Y-62.828
G3 X-16.5 Y-63.406 I-0.037 J-0.599
G1 Y-64.93
X-16.49 Y-65.138
X-16.472 Y-65.287
X-16.441 Y-65.447
X-16.395 Y-65.617
X-16.333 Y-65.799
X-16.25 Y-65.995
X-16.149 Y-66.195
X-16.019 Y-66.413
X-15.871 Y-66.627
X-15.688 Y-66.854
X-15.476 Y-67.084
X-15.238 Y-67.308
X-14.961 Y-67.535
X-14.649 Y-67.757
X-14.315 Y-67.961
X-13.947 Y-68.152
X-13.546 Y-68.325
X-13.126 Y-68.474
X-12.69 Y-68.595
X-12.251 Y-68.685
X-11.81 Y-68.744
X-11.375 Y-68.771
X-10.993 Y-68.769
X-10.612 Y-68.74
X-10.302 Y-68.695
X-9.982 Y-68.625
X-9.714 Y-68.547
X-9.591 Y-68.502
X-9.287 Y-68.354
X-9.02 Y-68.147
X-8.8 Y-67.891
X-8.636 Y-67.596
X-8.534 Y-67.274
X-8.5 Y-66.938
Y-65.379
G3 X-9.06 Y-64.802 I-0.6 J-0.021
G1 X-15.861 Y-64.352
G3 X-16.5 Y-64.93 I-0.04 J-0.599
G1 Y-66.572
X-16.493 Y-66.722
X-16.472 Y-66.872
X-16.439 Y-67.032
X-16.389 Y-67.208
X-16.324 Y-67.39
X-16.236 Y-67.591
X-16.131 Y-67.791
X-15.997 Y-68.01
X-15.841 Y-68.228
X-15.655 Y-68.453
X-15.434 Y-68.687
X-15.19 Y-68.91
X-14.909 Y-69.134
X-14.59 Y-69.355
X-14.243 Y-69.56
X-13.872 Y-69.746
X-13.469 Y-69.915
X-13.047 Y-70.058
X-12.608 Y-70.173
X-12.168 Y-70.257
X-11.725 Y-70.31
X-11.296 Y-70.331
X-10.917 Y-70.324
X-10.549 Y-70.291
X-10.241 Y-70.242
X-9.926 Y-70.169
X-9.664 Y-70.089
X-9.57 Y-70.053
X-9.272 Y-69.903
X-9.009 Y-69.696
X-8.793 Y-69.441
X-8.633 Y-69.148
X-8.533 Y-68.829
X-8.5 Y-68.497
Y-66.938
G3 X-9.067 Y-66.36 I-0.6 J-0.021
G1 X-15.868 Y-65.994
G3 X-16.5 Y-66.572 I-0.032 J-0.599
G1 Y-68.096
X-16.492 Y-68.256
X-16.474 Y-68.405
X-16.442 Y-68.568
X-16.398 Y-68.734
X-16.333 Y-68.921
X-16.253 Y-69.111
X-16.149 Y-69.317
X-16.021 Y-69.531
X-15.87 Y-69.747
X-15.685 Y-69.978
X-15.478 Y-70.201
X-15.236 Y-70.429
X-14.955 Y-70.658
X-14.651 Y-70.874
X-14.314 Y-71.079
X-13.941 Y-71.272
X-13.538 Y-71.446
X-13.117 Y-71.595
X-12.682 Y-71.715
X-12.243 Y-71.804
X-11.803 Y-71.863
X-11.37 Y-71.889
X-10.988 Y-71.887
X-10.608 Y-71.857
X-10.298 Y-71.812
X-9.978 Y-71.742
X-9.708 Y-71.663
X-9.589 Y-71.619
X-9.286 Y-71.471
X-9.019 Y-71.264
X-8.799 Y-71.008
X-8.635 Y-70.713
X-8.534 Y-70.391
X-8.5 Y-70.056
Y-68.497
G3 X-9.064 Y-67.919 I-0.6 J-0.021
G1 X-15.865 Y-67.518
G3 X-16.5 Y-68.096 I-0.035 J-0.599
G1 Y-69.619
X-16.49 Y-69.814
X-16.472 Y-69.963
X-16.441 Y-70.124
X-16.396 Y-70.293
X-16.334 Y-70.476
X-16.251 Y-70.671
X-16.15 Y-70.871
X-16.02 Y-71.089
X-15.871 Y-71.303
X-15.688 Y-71.531
X-15.476 Y-71.76
X-15.239 Y-71.984
X-14.961 Y-72.212
X-14.649 Y-72.433
X-14.315 Y-72.637
X-13.946 Y-72.828
X-13.546 Y-73.002
X-13.126 Y-73.151
X-12.69 Y-73.272
X-12.251 Y-73.361
X-11.81 Y-73.42
X-11.375 Y-73.448
X-10.993 Y-73.445
X-10.612 Y-73.416
X-10.302 Y-73.371
X-9.981 Y-73.301
X-9.714 Y-73.223
X-9.591 Y-73.178
X-9.287 Y-73.03
X-9.02 Y-72.824
X-8.8 Y-72.568
X-8.636 Y-72.272
X-8.534 Y-71.95
X-8.5 Y-71.614
Y-70.056
G3 X-9.061 Y-69.478 I-0.6 J-0.021
G1 X-15.862 Y-69.041
G3 X-16.5 Y-69.619 I-0.038 J-0.599
G1 Y-71.24
X-16.493 Y-71.39
X-16.473 Y-71.539
X-16.441 Y-71.699
X-16.392 Y-71.873
X-16.328 Y-72.055
X-16.242 Y-72.255
X-16.138 Y-72.455
X-16.005 Y-72.674
X-15.852 Y-72.89
X-15.667 Y-73.116
X-15.448 Y-73.349
X-15.208 Y-73.572
X-14.928 Y-73.797
X-14.61 Y-74.018
X-14.268 Y-74.223
X-13.898 Y-74.41
X-13.496 Y-74.581
X-13.074 Y-74.726
X-12.636 Y-74.843
X-12.196 Y-74.929
X-11.754 Y-74.984
X-11.322 Y-75.007
X-10.943 Y-75.002
X-10.57 Y-74.97
X-10.262 Y-74.922
X-9.944 Y-74.85
X-9.681 Y-74.771
X-9.577 Y-74.732
X-9.277 Y-74.582
X-9.013 Y-74.376
X-8.795 Y-74.12
X-8.634 Y-73.827
X-8.534 Y-73.507
X-8.5 Y-73.173
Y-71.614
G3 X-9.067 Y-71.036 I-0.6 J-0.021
G1 X-15.867 Y-70.662
G3 X-16.5 Y-71.24 I-0.033 J-0.599
G1 Y-72.763
X-16.492 Y-72.932
X-16.474 Y-73.081
X-16.442 Y-73.244
X-16.397 Y-73.411
X-16.333 Y-73.597
X-16.252 Y-73.789
X-16.149 Y-73.993
X-16.02 Y-74.209
X-15.87 Y-74.423
X-15.685 Y-74.653
X-15.477 Y-74.878
X-15.237 Y-75.104
X-14.956 Y-75.334
X-14.649 Y-75.552
X-14.314 Y-75.755
X-13.943 Y-75.948
X-13.54 Y-76.122
X-13.119 Y-76.27
X-12.683 Y-76.391
X-12.245 Y-76.48
X-11.804 Y-76.538
X-11.37 Y-76.565
X-10.989 Y-76.563
X-10.608 Y-76.534
X-10.298 Y-76.488
X-9.978 Y-76.418
X-9.709 Y-76.34
X-9.59 Y-76.295
X-9.286 Y-76.147
X-9.019 Y-75.941
X-8.799 Y-75.685
X-8.635 Y-75.39
X-8.534 Y-75.068
X-8.5 Y-74.732
Y-73.173
G3 X-9.064 Y-72.595 I-0.6 J-0.021
G1 X-15.864 Y-72.186
G3 X-16.5 Y-72.763 I-0.036 J-0.599
G1 Y-74.287
X-16.49 Y-74.491
X-16.472 Y-74.64
X-16.441 Y-74.8
X-16.396 Y-74.97
X-16.333 Y-75.152
X-16.25 Y-75.348
X-16.149 Y-75.548
X-16.02 Y-75.765
X-15.871 Y-75.979
X-15.688 Y-76.207
X-15.476 Y-76.437
X-15.239 Y-76.66
X-14.961 Y-76.888
X-14.649 Y-77.109
X-14.315 Y-77.313
X-13.947 Y-77.504
X-13.546 Y-77.678
X-13.127 Y-77.827
X-12.69 Y-77.948
X-12.252 Y-78.037
X-11.81 Y-78.096
X-11.375 Y-78.124
X-10.993 Y-78.121
X-10.612 Y-78.092
X-10.302 Y-78.047
X-9.982 Y-77.977
X-9.714 Y-77.899
X-9.591 Y-77.854
X-9.287 Y-77.706
X-9.02 Y-77.5
X-8.8 Y-77.244
X-8.636 Y-76.948
X-8.534 Y-76.626
X-8.5 Y-76.29
Y-74.732
G3 X-9.06 Y-74.154 I-0.6 J-0.021
G1 X-15.861 Y-73.709
G3 X-16.5 Y-74.287 I-0.039 J-0.599
G1 Y-75.93
X-16.493 Y-76.08
X-16.472 Y-76.23
X-16.438 Y-76.39
X-16.388 Y-76.567
X-16.322 Y-76.749
X-16.233 Y-76.95
X-16.128 Y-77.151
X-15.993 Y-77.37
X-15.835 Y-77.589
X-15.649 Y-77.814
X-15.426 Y-78.047
X-15.181 Y-78.271
X-14.9 Y-78.494
X-14.58 Y-78.714
X-14.231 Y-78.92
X-13.858 Y-79.105
X-13.455 Y-79.273
X-13.032 Y-79.415
X-12.593 Y-79.529
X-12.153 Y-79.612
X-11.71 Y-79.664
X-11.282 Y-79.684
X-10.903 Y-79.676
X-10.538 Y-79.642
X-10.23 Y-79.592
X-9.916 Y-79.519
X-9.655 Y-79.439
X-9.566 Y-79.404
X-9.269 Y-79.254
X-9.007 Y-79.047
X-8.792 Y-78.792
X-8.632 Y-78.5
X-8.533 Y-78.181
X-8.5 Y-77.849
Y-76.29
G3 X-9.068 Y-75.712 I-0.6 J-0.021
G1 X-15.869 Y-75.351
G3 X-16.5 Y-75.93 I-0.032 J-0.599
G1 Y-77.453
X-16.492 Y-77.609
X-16.474 Y-77.757
X-16.443 Y-77.921
X-16.398 Y-78.086
X-16.334 Y-78.274
X-16.253 Y-78.464
X-16.149 Y-78.67
X-16.022 Y-78.883
X-15.87 Y-79.1
X-15.685 Y-79.331
X-15.479 Y-79.553
X-15.236 Y-79.782
X-14.955 Y-80.011
X-14.652 Y-80.226
X-14.315 Y-80.431
X-13.941 Y-80.625
X-13.538 Y-80.799
X-13.117 Y-80.948
X-12.682 Y-81.068
X-12.243 Y-81.157
X-11.803 Y-81.215
X-11.37 Y-81.242
X-10.989 Y-81.24
X-10.609 Y-81.21
X-10.298 Y-81.165
X-9.979 Y-81.095
X-9.708 Y-81.016
X-9.589 Y-80.972
X-9.286 Y-80.824
X-9.019 Y-80.617
X-8.799 Y-80.361
X-8.635 Y-80.066
X-8.534 Y-79.744
X-8.5 Y-79.409
Y-77.849
G3 X-9.065 Y-77.271 I-0.6 J-0.021
G1 X-15.865 Y-76.875
G3 X-16.5 Y-77.453 I-0.035 J-0.599
G1 Y-78.976
X-16.49 Y-79.167
X-16.473 Y-79.316
X-16.442 Y-79.476
X-16.396 Y-79.646
X-16.334 Y-79.828
X-16.251 Y-80.024
X-16.15 Y-80.224
X-16.02 Y-80.441
X-15.872 Y-80.655
X-15.689 Y-80.883
X-15.476 Y-81.113
X-15.239 Y-81.337
X-14.961 Y-81.565
X-14.649 Y-81.786
X-14.315 Y-81.99
X-13.946 Y-82.181
X-13.546 Y-82.355
X-13.126 Y-82.504
X-12.69 Y-82.625
X-12.251 Y-82.714
X-11.81 Y-82.773
X-11.375 Y-82.8
X-10.993 Y-82.798
X-10.612 Y-82.769
X-10.302 Y-82.724
X-9.981 Y-82.654
X-9.714 Y-82.576
X-9.591 Y-82.531
X-9.287 Y-82.383
X-9.02 Y-82.177
X-8.8 Y-81.921
X-8.636 Y-81.625
X-8.534 Y-81.303
X-8.5 Y-80.967
Y-79.409
G3 X-9.062 Y-78.831 I-0.6 J-0.021
G1 X-15.862 Y-78.398
G3 X-16.5 Y-78.976 I-0.038 J-0.599
G1 Y-80.597
X-16.493 Y-80.747
X-16.473 Y-80.896
X-16.44 Y-81.056
X-16.391 Y-81.231
X-16.326 Y-81.413
X-16.239 Y-81.613
X-16.135 Y-81.813
X-16.001 Y-82.032
X-15.847 Y-82.249
X-15.662 Y-82.475
X-15.442 Y-82.708
X-15.2 Y-82.931
X-14.92 Y-83.156
X-14.601 Y-83.377
X-14.257 Y-83.582
X-13.887 Y-83.769
X-13.484 Y-83.938
X-13.062 Y-84.082
X-12.624 Y-84.199
X-12.184 Y-84.284
X-11.741 Y-84.338
X-11.31 Y-84.36
X-10.931 Y-84.354
X-10.561 Y-84.322
X-10.252 Y-84.273
X-9.936 Y-84.201
X-9.674 Y-84.122
X-9.574 Y-84.084
X-9.275 Y-83.934
X-9.011 Y-83.727
X-8.795 Y-83.472
X-8.633 Y-83.179
X-8.534 Y-82.859
X-8.5 Y-82.526
Y-80.967
G3 X-9.067 Y-80.389 I-0.6 J-0.021
G1 X-15.868 Y-80.019
G3 X-16.5 Y-80.597 I-0.033 J-0.599
G1 Y-82.121
X-16.492 Y-82.285
X-16.474 Y-82.434
X-16.442 Y-82.597
X-16.398 Y-82.764
X-16.333 Y-82.95
X-16.253 Y-83.141
X-16.149 Y-83.346
X-16.02 Y-83.561
X-15.87 Y-83.776
X-15.685 Y-84.007
X-15.477 Y-84.231
X-15.236 Y-84.458
X-14.956 Y-84.687
X-14.649 Y-84.904
X-14.314 Y-85.108
X-13.942 Y-85.301
X-13.539 Y-85.475
X-13.118 Y-85.624
X-12.682 Y-85.744
X-12.244 Y-85.833
X-11.803 Y-85.892
X-11.37 Y-85.919
X-10.988 Y-85.916
X-10.608 Y-85.887
X-10.298 Y-85.841
X-9.978 Y-85.771
X-9.709 Y-85.692
X-9.589 Y-85.648
X-9.286 Y-85.5
X-9.019 Y-85.294
X-8.799 Y-85.038
X-8.635 Y-84.743
X-8.534 Y-84.421
X-8.5 Y-84.085
Y-82.526
G3 X-9.064 Y-81.948 I-0.6 J-0.021
G1 X-15.865 Y-81.543
G3 X-16.5 Y-82.121 I-0.036 J-0.599
G1 Y-83.644
X-16.49 Y-83.844
X-16.472 Y-83.993
X-16.441 Y-84.153
X-16.396 Y-84.323
X-16.333 Y-84.505
X-16.251 Y-84.701
X-16.15 Y-84.9
X-16.02 Y-85.118
X-15.871 Y-85.332
X-15.688 Y-85.56
X-15.476 Y-85.79
X-15.239 Y-86.013
X-14.961 Y-86.241
X-14.649 Y-86.462
X-14.315 Y-86.666
X-13.947 Y-86.857
X-13.546 Y-87.031
X-13.126 Y-87.18
X-12.69 Y-87.301
X-12.251 Y-87.391
X-11.81 Y-87.449
X-11.375 Y-87.477
X-10.993 Y-87.474
X-10.612 Y-87.446
X-10.302 Y-87.4
X-9.981 Y-87.331
X-9.714 Y-87.253
X-9.591 Y-87.207
X-9.287 Y-87.059
X-9.02 Y-86.853
X-8.8 Y-86.597
X-8.636 Y-86.302
X-8.534 Y-85.979
X-8.5 Y-85.643
Y-84.085
G3 X-9.061 Y-83.507 I-0.6 J-0.021
G1 X-15.862 Y-83.066
G3 X-16.5 Y-83.644 I-0.039 J-0.599
G1 Y-85.287
X-16.493 Y-85.437
X-16.471 Y-85.588
X-16.437 Y-85.748
X-16.386 Y-85.926
X-16.32 Y-86.108
X-16.231 Y-86.31
X-16.124 Y-86.511
X-15.988 Y-86.73
X-15.83 Y-86.949
X-15.643 Y-87.174
X-15.419 Y-87.408
X-15.172 Y-87.632
X-14.89 Y-87.854
X-14.569 Y-88.074
X-14.218 Y-88.279
X-13.845 Y-88.465
X-13.441 Y-88.631
X-13.018 Y-88.772
X-12.579 Y-88.886
X-12.138 Y-88.968
X-11.695 Y-89.018
X-11.269 Y-89.037
X-10.89 Y-89.028
X-10.528 Y-88.994
X-10.219 Y-88.943
X-9.907 Y-88.87
X-9.647 Y-88.789
X-9.563 Y-88.756
X-9.266 Y-88.605
X-9.006 Y-88.398
X-8.791 Y-88.144
X-8.632 Y-87.852
X-8.533 Y-87.534
X-8.5 Y-87.203
Y-85.643
G3 X-9.068 Y-85.065 I-0.6 J-0.021
G1 X-15.869 Y-84.709
G3 X-16.5 Y-85.287 I-0.031 J-0.599
G1 Y-86.81
X-16.492 Y-86.961
X-16.475 Y-87.11
X-16.443 Y-87.273
X-16.398 Y-87.439
X-16.334 Y-87.627
X-16.254 Y-87.816
X-16.149 Y-88.024
X-16.023 Y-88.235
X-15.871 Y-88.453
X-15.685 Y-88.683
X-15.48 Y-88.906
X-15.236 Y-89.135
X-14.956 Y-89.364
X-14.654 Y-89.578
X-14.316 Y-89.784
X-13.942 Y-89.978
X-13.538 Y-90.152
X-13.117 Y-90.301
X-12.683 Y-90.421
X-12.244 Y-90.511
X-11.804 Y-90.569
X-11.371 Y-90.596
X-10.989 Y-90.593
X-10.609 Y-90.564
X-10.298 Y-90.518
X-9.98 Y-90.449
X-9.708 Y-90.369
X-9.59 Y-90.326
X-9.286 Y-90.177
X-9.019 Y-89.971
X-8.799 Y-89.715
X-8.635 Y-89.42
X-8.534 Y-89.098
X-8.5 Y-88.762
Y-87.203
G3 X-9.065 Y-86.625 I-0.6 J-0.021
G1 X-15.866 Y-86.232
G3 X-16.5 Y-86.81 I-0.035 J-0.599
G1 Y-88.333
X-16.491 Y-88.52
X-16.473 Y-88.669
X-16.442 Y-88.829
X-16.396 Y-88.999
X-16.334 Y-89.181
X-16.252 Y-89.377
X-16.151 Y-89.576
X-16.021 Y-89.794
X-15.872 Y-90.008
X-15.689 Y-90.236
X-15.477 Y-90.466
X-15.239 Y-90.69
X-14.961 Y-90.918
X-14.649 Y-91.139
X-14.315 Y-91.343
X-13.947 Y-91.535
X-13.546 Y-91.708
X-13.126 Y-91.857
X-12.69 Y-91.978
X-12.252 Y-92.068
X-11.81 Y-92.126
X-11.375 Y-92.154
X-10.993 Y-92.151
X-10.612 Y-92.123
X-10.302 Y-92.077
X-9.982 Y-92.008
X-9.714 Y-91.93
X-9.591 Y-91.885
X-9.287 Y-91.736
X-9.02 Y-91.53
X-8.8 Y-91.274
X-8.636 Y-90.979
X-8.534 Y-90.656
X-8.5 Y-90.32
Y-88.762
G3 X-9.062 Y-88.184 I-0.6 J-0.021
G1 X-15.863 Y-87.756
G3 X-16.5 Y-88.333 I-0.038 J-0.599
G1 Y-89.955
X-16.493 Y-90.104
X-16.472 Y-90.254
X-16.439 Y-90.414
X-16.39 Y-90.59
X-16.325 Y-90.772
X-16.237 Y-90.973
X-16.132 Y-91.173
X-15.998 Y-91.392
X-15.842 Y-91.609
X-15.656 Y-91.835
X-15.435 Y-92.068
X-15.192 Y-92.291
X-14.911 Y-92.516
X-14.592 Y-92.736
X-14.246 Y-92.941
X-13.875 Y-93.128
X-13.472 Y-93.296
X-13.05 Y-93.44
X-12.611 Y-93.555
X-12.171 Y-93.639
X-11.728 Y-93.693
X-11.298 Y-93.714
X-10.919 Y-93.707
X-10.551 Y-93.674
X-10.243 Y-93.625
X-9.928 Y-93.552
X-9.666 Y-93.472
X-9.571 Y-93.436
X-9.272 Y-93.286
X-9.01 Y-93.079
X-8.794 Y-92.824
X-8.633 Y-92.531
X-8.534 Y-92.212
X-8.5 Y-91.879
Y-90.32
G3 X-9.067 Y-89.742 I-0.6 J-0.021
G1 X-15.868 Y-89.376
G3 X-16.5 Y-89.955 I-0.032 J-0.599
G1 Y-91.478
X-16.492 Y-91.639
X-16.474 Y-91.788
X-16.442 Y-91.951
X-16.398 Y-92.117
X-16.333 Y-92.304
X-16.253 Y-92.494
X-16.149 Y-92.7
X-16.021 Y-92.914
X-15.87 Y-93.13
X-15.685 Y-93.361
X-15.478 Y-93.584
X-15.236 Y-93.812
X-14.955 Y-94.041
X-14.65 Y-94.257
X-14.314 Y-94.462
X-13.942 Y-94.655
X-13.539 Y-94.829
X-13.117 Y-94.978
X-12.682 Y-95.098
X-12.243 Y-95.187
X-11.803 Y-95.245
X-11.37 Y-95.272
X-10.988 Y-95.269
X-10.608 Y-95.24
X-10.298 Y-95.195
X-9.978 Y-95.125
X-9.708 Y-95.046
X-9.589 Y-95.002
X-9.286 Y-94.854
X-9.019 Y-94.647
X-8.799 Y-94.391
X-8.635 Y-94.096
X-8.534 Y-93.774
X-8.5 Y-93.438
Y-91.879
G3 X-9.064 Y-91.301 I-0.6 J-0.021
G1 X-15.865 Y-90.9
G3 X-16.5 Y-91.478 I-0.035 J-0.599
G1 Y-93.001
X-16.49 Y-93.197
X-16.472 Y-93.346
X-16.441 Y-93.506
X-16.396 Y-93.676
X-16.334 Y-93.858
X-16.251 Y-94.054
X-16.15 Y-94.254
X-16.02 Y-94.472
X-15.871 Y-94.685
X-15.688 Y-94.913
X-15.476 Y-95.143
X-15.239 Y-95.367
X-14.961 Y-95.595
X-14.649 Y-95.816
X-14.315 Y-96.02
X-13.947 Y-96.211
X-13.546 Y-96.385
X-13.126 Y-96.533
X-12.69 Y-96.655
X-12.251 Y-96.744
X-11.81 Y-96.803
X-11.375 Y-96.83
X-10.993 Y-96.828
X-10.612 Y-96.799
X-10.302 Y-96.754
X-9.981 Y-96.684
X-9.714 Y-96.606
X-9.591 Y-96.561
X-9.287 Y-96.413
X-9.02 Y-96.206
X-8.8 Y-95.95
X-8.636 Y-95.655
X-8.534 Y-95.333
X-8.5 Y-94.997
Y-93.438
G3 X-9.061 Y-92.861 I-0.6 J-0.021
G1 X-15.862 Y-92.423
G3 X-16.5 Y-93.001 I-0.038 J-0.599
G1 Y-94.644
X-16.493 Y-94.794
X-16.471 Y-94.946
X-16.436 Y-95.106
X-16.385 Y-95.285
X-16.318 Y-95.467
X-16.228 Y-95.669
X-16.121 Y-95.871
X-15.985 Y-96.089
X-15.825 Y-96.31
X-15.637 Y-96.534
X-15.412 Y-96.768
X-15.165 Y-96.992
X-14.882 Y-97.214
X-14.561 Y-97.433
X-14.208 Y-97.639
X-13.833 Y-97.824
X-13.429 Y-97.989
X-13.006 Y-98.13
X-12.566 Y-98.242
X-12.125 Y-98.323
X-11.682 Y-98.373
X-11.258 Y-98.391
X-10.878 Y-98.381
X-10.519 Y-98.347
X-10.21 Y-98.295
X-9.899 Y-98.221
X-9.639 Y-98.14
X-9.56 Y-98.109
X-9.264 Y-97.958
X-9.004 Y-97.751
X-8.79 Y-97.496
X-8.631 Y-97.205
X-8.533 Y-96.887
X-8.5 Y-96.557
Y-94.997
G3 X-9.069 Y-94.419 I-0.6 J-0.021
G1 X-15.869 Y-94.066
G3 X-16.5 Y-94.644 I-0.031 J-0.599
G1 Y-96.167
X-16.493 Y-96.317
X-16.474 Y-96.466
X-16.443 Y-96.629
X-16.398 Y-96.795
X-16.333 Y-96.983
X-16.253 Y-97.172
X-16.147 Y-97.381
X-16.021 Y-97.591
X-15.868 Y-97.81
X-15.683 Y-98.04
X-15.477 Y-98.263
X-15.232 Y-98.492
X-14.952 Y-98.721
X-14.649 Y-98.935
X-14.311 Y-99.141
X-13.936 Y-99.334
X-13.532 Y-99.509
X-13.111 Y-99.657
X-12.677 Y-99.777
X-12.237 Y-99.865
X-11.797 Y-99.923
X-11.365 Y-99.95
X-10.984 Y-99.947
X-10.605 Y-99.917
X-10.294 Y-99.871
X-9.976 Y-99.801
X-9.705 Y-99.722
X-9.588 Y-99.679
X-9.285 Y-99.53
X-9.019 Y-99.324
X-8.799 Y-99.068
X-8.635 Y-98.773
X-8.534 Y-98.451
X-8.5 Y-98.116
Y-96.557
G3 X-9.065 Y-95.978 I-0.6 J-0.021
G1 X-15.866 Y-95.589
G3 X-16.5 Y-96.167 I-0.034 J-0.599
G1 Y-97.691
X-16.491 Y-97.874
X-16.473 Y-98.023
X-16.442 Y-98.184
X-16.397 Y-98.353
X-16.334 Y-98.535
X-16.252 Y-98.731
X-16.15 Y-98.931
X-16.02 Y-99.149
X-15.872 Y-99.363
X-15.688 Y-99.591
X-15.476 Y-99.82
X-15.238 Y-100.045
X-14.96 Y-100.273
X-14.649 Y-100.494
X-14.315 Y-100.697
X-13.946 Y-100.889
X-13.545 Y-101.063
X-13.125 Y-101.211
X-12.689 Y-101.332
X-12.25 Y-101.422
X-11.809 Y-101.48
X-11.374 Y-101.508
X-10.992 Y-101.505
X-10.612 Y-101.476
X-10.302 Y-101.431
X-9.981 Y-101.361
X-9.713 Y-101.283
X-9.591 Y-101.238
X-9.287 Y-101.09
X-9.02 Y-100.884
X-8.8 Y-100.628
X-8.635 Y-100.333
X-8.534 Y-100.01
X-8.5 Y-99.674
Y-98.116
G3 X-9.062 Y-97.538 I-0.6 J-0.021
G1 X-15.863 Y-97.113
G3 X-16.5 Y-97.691 I-0.037 J-0.599
G1 Y-99.312
X-16.493 Y-99.462
X-16.472 Y-99.612
X-16.438 Y-99.772
X-16.388 Y-99.948
X-16.323 Y-100.13
X-16.235 Y-100.332
X-16.129 Y-100.532
X-15.994 Y-100.751
X-15.838 Y-100.969
X-15.651 Y-101.195
X-15.429 Y-101.428
X-15.185 Y-101.652
X-14.904 Y-101.875
X-14.584 Y-102.095
X-14.236 Y-102.301
X-13.864 Y-102.487
X-13.461 Y-102.655
X-13.038 Y-102.797
X-12.599 Y-102.912
X-12.159 Y-102.995
X-11.716 Y-103.047
X-11.288 Y-103.068
X-10.909 Y-103.06
X-10.543 Y-103.027
X-10.234 Y-102.977
X-9.92 Y-102.904
X-9.659 Y-102.824
X-9.568 Y-102.789
X-9.27 Y-102.638
X-9.008 Y-102.432
X-8.793 Y-102.177
X-8.632 Y-101.884
X-8.533 Y-101.565
X-8.5 Y-101.233
Y-99.674
G3 X-9.068 Y-99.096 I-0.6 J-0.021
G1 X-15.868 Y-98.734
G3 X-16.5 Y-99.312 I-0.032 J-0.599
G1 Y-100.835
X-16.492 Y-100.993
X-16.474 Y-101.142
X-16.442 Y-101.305
X-16.398 Y-101.471
X-16.334 Y-101.658
X-16.253 Y-101.848
X-16.149 Y-102.054
X-16.021 Y-102.267
X-15.87 Y-102.484
X-15.685 Y-102.715
X-15.478 Y-102.938
X-15.236 Y-103.166
X-14.955 Y-103.395
X-14.651 Y-103.61
X-14.315 Y-103.816
X-13.941 Y-104.009
X-13.538 Y-104.183
X-13.117 Y-104.332
X-12.682 Y-104.452
X-12.243 Y-104.541
X-11.803 Y-104.599
X-11.37 Y-104.626
X-10.988 Y-104.623
X-10.608 Y-104.594
X-10.298 Y-104.549
X-9.979 Y-104.479
X-9.708 Y-104.4
X-9.589 Y-104.356
X-9.286 Y-104.208
X-9.019 Y-104.001
X-8.799 Y-103.745
X-8.635 Y-103.45
X-8.534 Y-103.128
X-8.5 Y-102.793
Y-101.233
G3 X-9.065 Y-100.655 I-0.6 J-0.021
G1 X-15.865 Y-100.257
G3 X-16.5 Y-100.835 I-0.035 J-0.599
G1 Y-102.358
X-16.49 Y-102.551
X-16.472 Y-102.7
X-16.441 Y-102.86
X-16.396 Y-103.03
X-16.334 Y-103.212
X-16.251 Y-103.408
X-16.15 Y-103.608
X-16.02 Y-103.825
X-15.872 Y-104.039
X-15.689 Y-104.267
X-15.476 Y-104.497
X-15.239 Y-104.721
X-14.961 Y-104.949
X-14.649 Y-105.17
X-14.315 Y-105.374
X-13.946 Y-105.565
X-13.546 Y-105.739
X-13.126 Y-105.887
X-12.69 Y-106.009
X-12.251 Y-106.098
X-11.81 Y-106.157
X-11.375 Y-106.184
X-10.993 Y-106.182
X-10.612 Y-106.153
X-10.302 Y-106.108
X-9.981 Y-106.038
X-9.714 Y-105.96
X-9.591 Y-105.915
X-9.287 Y-105.767
X-9.02 Y-105.561
X-8.8 Y-105.304
X-8.636 Y-105.009
X-8.534 Y-104.687
X-8.5 Y-104.351
Y-102.793
G3 X-9.061 Y-102.215 I-0.6 J-0.021
G1 X-15.862 Y-101.781
G3 X-16.5 Y-102.358 I-0.038 J-0.599
G1 Y-104.001
X-16.493 Y-104.151
X-16.47 Y-104.304
X-16.436 Y-104.464
X-16.384 Y-104.643
X-16.317 Y-104.825
X-16.226 Y-105.028
X-16.118 Y-105.23
X-15.982 Y-105.448
X-15.82 Y-105.67
X-15.632 Y-105.894
X-15.407 Y-106.127
X-15.158 Y-106.352
X-14.875 Y-106.574
X-14.553 Y-106.792
X-14.199 Y-106.998
X-13.822 Y-107.183
X-13.418 Y-107.348
X-12.995 Y-107.487
X-12.555 Y-107.599
X-12.114 Y-107.679
X-11.671 Y-107.728
X-11.249 Y-107.746
X-10.868 Y-107.735
X-10.511 Y-107.7
X-10.201 Y-107.648
X-9.892 Y-107.574
X-9.633 Y-107.492
X-9.557 Y-107.462
X-9.262 Y-107.311
X-9.003 Y-107.104
X-8.789 Y-106.849
X-8.631 Y-106.558
X-8.533 Y-106.241
X-8.5 Y-105.911
Y-104.351
G3 X-9.069 Y-103.773 I-0.6 J-0.021
G1 X-15.87 Y-103.423
G3 X-16.5 Y-104.001 I-0.031 J-0.599
G1 Y-105.525
X-16.493 Y-105.675
X-16.474 Y-105.823
X-16.442 Y-105.986
X-16.397 Y-106.153
X-16.332 Y-106.341
X-16.251 Y-106.53
X-16.145 Y-106.739
X-16.019 Y-106.949
X-15.865 Y-107.169
X-15.679 Y-107.399
X-15.472 Y-107.621
X-15.227 Y-107.851
X-14.946 Y-108.08
X-14.643 Y-108.293
X-14.303 Y-108.499
X-13.928 Y-108.692
X-13.524 Y-108.866
X-13.102 Y-109.014
X-12.668 Y-109.133
X-12.228 Y-109.221
X-11.788 Y-109.278
X-11.356 Y-109.304
X-10.976 Y-109.301
X-10.598 Y-109.271
X-10.287 Y-109.224
X-9.97 Y-109.154
X-9.699 Y-109.074
X-9.586 Y-109.032
X-9.284 Y-108.884
X-9.017 Y-108.677
X-8.798 Y-108.421
X-8.635 Y-108.127
X-8.534 Y-107.805
X-8.5 Y-107.47
Y-105.911
G3 X-9.066 Y-105.333 I-0.6 J-0.021
G1 X-15.866 Y-104.947
G3 X-16.5 Y-105.525 I-0.034 J-0.599
G1 Y-107.048
X-16.491 Y-107.229
X-16.473 Y-107.377
X-16.442 Y-107.539
X-16.397 Y-107.708
X-16.334 Y-107.89
X-16.252 Y-108.085
X-16.15 Y-108.286
X-16.02 Y-108.503
X-15.871 Y-108.717
X-15.688 Y-108.946
X-15.476 Y-109.175
X-15.238 Y-109.399
X-14.959 Y-109.628
X-14.648 Y-109.848
X-14.314 Y-110.052
X-13.945 Y-110.244
X-13.544 Y-110.417
X-13.124 Y-110.566
X-12.687 Y-110.687
X-12.249 Y-110.776
X-11.808 Y-110.835
X-11.373 Y-110.862
X-10.991 Y-110.86
X-10.611 Y-110.831
X-10.301 Y-110.785
X-9.98 Y-110.716
X-9.712 Y-110.637
X-9.59 Y-110.593
X-9.287 Y-110.444
X-9.02 Y-110.238
X-8.8 Y-109.982
X-8.635 Y-109.687
X-8.534 Y-109.365
X-8.5 Y-109.029
Y-107.47
G3 X-9.062 Y-106.892 I-0.6 J-0.021
G1 X-15.863 Y-106.47
G3 X-16.5 Y-107.048 I-0.037 J-0.599
G1 Y-108.669
X-16.493 Y-108.819
X-16.471 Y-108.97
X-16.438 Y-109.13
X-16.387 Y-109.307
X-16.322 Y-109.489
X-16.233 Y-109.69
X-16.127 Y-109.891
X-15.991 Y-110.11
X-15.834 Y-110.329
X-15.647 Y-110.554
X-15.424 Y-110.788
X-15.179 Y-111.011
X-14.897 Y-111.235
X-14.576 Y-111.454
X-14.227 Y-111.66
X-13.855 Y-111.845
X-13.451 Y-112.013
X-13.028 Y-112.154
X-12.589 Y-112.269
X-12.149 Y-112.351
X-11.706 Y-112.403
X-11.278 Y-112.423
X-10.899 Y-112.414
X-10.535 Y-112.38
X-10.227 Y-112.33
X-9.914 Y-112.257
X-9.653 Y-112.176
X-9.565 Y-112.142
X-9.268 Y-111.992
X-9.007 Y-111.785
X-8.792 Y-111.53
X-8.632 Y-111.238
X-8.533 Y-110.919
X-8.5 Y-110.588
Y-109.029
G3 X-9.068 Y-108.45 I-0.6 J-0.021
G1 X-15.869 Y-108.091
G3 X-16.5 Y-108.669 I-0.032 J-0.599
G1 Y-110.192
X-16.492 Y-110.347
X-16.474 Y-110.496
X-16.443 Y-110.659
X-16.398 Y-110.825
X-16.334 Y-111.012
X-16.254 Y-111.202
X-16.149 Y-111.409
X-16.022 Y-111.621
X-15.87 Y-111.838
X-15.685 Y-112.069
X-15.479 Y-112.292
X-15.236 Y-112.52
X-14.955 Y-112.75
X-14.652 Y-112.964
X-14.315 Y-113.17
X-13.941 Y-113.363
X-13.538 Y-113.538
X-13.117 Y-113.686
X-12.682 Y-113.807
X-12.243 Y-113.896
X-11.803 Y-113.954
X-11.37 Y-113.981
X-10.989 Y-113.978
X-10.609 Y-113.949
X-10.298 Y-113.903
X-9.979 Y-113.834
X-9.708 Y-113.754
X-9.589 Y-113.711
X-9.286 Y-113.562
X-9.019 Y-113.356
X-8.799 Y-113.1
X-8.635 Y-112.805
X-8.534 Y-112.483
X-8.5 Y-112.147
Y-110.588
G3 X-9.065 Y-110.01 I-0.6 J-0.021
G1 X-15.866 Y-109.614
G3 X-16.5 Y-110.192 I-0.035 J-0.599
G1 Y-111.716
X-16.49 Y-111.906
X-16.473 Y-112.054
X-16.442 Y-112.215
X-16.396 Y-112.385
X-16.334 Y-112.567
X-16.251 Y-112.762
X-16.15 Y-112.962
X-16.02 Y-113.18
X-15.872 Y-113.394
X-15.689 Y-113.622
X-15.476 Y-113.851
X-15.239 Y-114.075
X-14.961 Y-114.303
X-14.649 Y-114.525
X-14.315 Y-114.729
X-13.946 Y-114.92
X-13.546 Y-115.093
X-13.126 Y-115.242
X-12.69 Y-115.363
X-12.251 Y-115.453
X-11.81 Y-115.512
X-11.375 Y-115.539
X-10.993 Y-115.537
X-10.612 Y-115.508
X-10.302 Y-115.463
X-9.981 Y-115.393
X-9.714 Y-115.315
X-9.591 Y-115.27
X-9.287 Y-115.121
X-9.02 Y-114.915
X-8.8 Y-114.659
X-8.636 Y-114.364
X-8.534 Y-114.042
X-8.5 Y-113.706
Y-112.147
G3 X-9.062 Y-111.569 I-0.6 J-0.021
G1 X-15.862 Y-111.138
G3 X-16.5 Y-111.716 I-0.038 J-0.599
G1 Y-113.239
X-16.489 Y-113.465
X-16.471 Y-113.614
X-16.44 Y-113.773
X-16.395 Y-113.943
X-16.332 Y-114.126
X-16.249 Y-114.322
X-16.148 Y-114.521
X-16.019 Y-114.739
X-15.87 Y-114.953
X-15.688 Y-115.18
X-15.475 Y-115.411
X-15.238 Y-115.634
X-14.961 Y-115.861
X-14.649 Y-116.083
X-14.315 Y-116.287
X-13.947 Y-116.478
X-13.547 Y-116.651
X-13.127 Y-116.8
X-12.691 Y-116.921
X-12.252 Y-117.011
X-11.81 Y-117.07
X-11.376 Y-117.097
X-10.994 Y-117.095
X-10.613 Y-117.066
X-10.303 Y-117.021
X-9.982 Y-116.951
X-9.714 Y-116.873
X-9.591 Y-116.828
X-9.288 Y-116.68
X-9.02 Y-116.474
X-8.8 Y-116.218
X-8.636 Y-115.922
X-8.534 Y-115.6
X-8.5 Y-115.264
Y-113.706
G3 X-9.059 Y-113.128 I-0.6 J-0.021
G1 X-15.859 Y-112.661
G3 X-16.5 Y-113.239 I-0.041 J-0.599
G1 Y-114.882
X-16.493 Y-115.032
X-16.474 Y-115.181
X-16.442 Y-115.34
X-16.395 Y-115.513
X-16.331 Y-115.696
X-16.246 Y-115.894
X-16.144 Y-116.094
X-16.011 Y-116.313
X-15.86 Y-116.528
X-15.676 Y-116.755
X-15.459 Y-116.987
X-15.22 Y-117.21
X-14.941 Y-117.436
X-14.626 Y-117.657
X-14.287 Y-117.862
X-13.918 Y-118.051
X-13.516 Y-118.222
X-13.095 Y-118.369
X-12.658 Y-118.488
X-12.218 Y-118.575
X-11.776 Y-118.632
X-11.342 Y-118.657
X-10.962 Y-118.652
X-10.586 Y-118.622
X-10.278 Y-118.575
X-9.959 Y-118.504
X-9.694 Y-118.425
X-9.583 Y-118.383
X-9.281 Y-118.234
X-9.016 Y-118.028
X-8.797 Y-117.772
X-8.634 Y-117.478
X-8.534 Y-117.157
X-8.5 Y-116.822
Y-115.264
G3 X-9.066 Y-114.686 I-0.6 J-0.021
G1 X-15.867 Y-114.304
G3 X-16.5 Y-114.882 I-0.034 J-0.599
G1 Y-116.405
X-16.491 Y-116.582
X-16.473 Y-116.731
X-16.442 Y-116.892
X-16.397 Y-117.06
X-16.334 Y-117.245
X-16.252 Y-117.439
X-16.149 Y-117.641
X-16.019 Y-117.858
X-15.871 Y-118.072
X-15.687 Y-118.301
X-15.477 Y-118.528
X-15.238 Y-118.753
X-14.958 Y-118.981
X-14.648 Y-119.201
X-14.315 Y-119.405
X-13.944 Y-119.596
X-13.543 Y-119.77
X-13.122 Y-119.919
X-12.686 Y-120.04
X-12.247 Y-120.129
X-11.806 Y-120.188
X-11.372 Y-120.215
X-10.99 Y-120.212
X-10.609 Y-120.183
X-10.3 Y-120.138
X-9.979 Y-120.068
X-9.711 Y-119.989
X-9.59 Y-119.945
X-9.287 Y-119.797
X-9.02 Y-119.59
X-8.799 Y-119.334
X-8.635 Y-119.039
X-8.534 Y-118.717
X-8.5 Y-118.381
Y-116.822
G3 X-9.063 Y-116.245 I-0.6 J-0.021
G1 X-15.864 Y-115.827
G3 X-16.5 Y-116.405 I-0.037 J-0.599
G1 Y-118.026
X-16.493 Y-118.176
X-16.471 Y-118.328
X-16.437 Y-118.488
X-16.386 Y-118.665
X-16.32 Y-118.848
X-16.23 Y-119.049
X-16.124 Y-119.25
X-15.988 Y-119.469
X-15.829 Y-119.689
X-15.641 Y-119.913
X-15.417 Y-120.147
X-15.171 Y-120.371
X-14.888 Y-120.594
X-14.567 Y-120.813
X-14.216 Y-121.019
X-13.842 Y-121.204
X-13.438 Y-121.37
X-13.015 Y-121.511
X-12.575 Y-121.624
X-12.135 Y-121.706
X-11.692 Y-121.757
X-11.266 Y-121.775
X-10.887 Y-121.766
X-10.525 Y-121.732
X-10.216 Y-121.681
X-9.905 Y-121.607
X-9.645 Y-121.526
X-9.562 Y-121.494
X-9.266 Y-121.343
X-9.005 Y-121.136
X-8.791 Y-120.881
X-8.631 Y-120.589
X-8.533 Y-120.272
X-8.5 Y-119.941
Y-118.381
G3 X-9.068 Y-117.803 I-0.6 J-0.021
G1 X-15.869 Y-117.448
G3 X-16.5 Y-118.026 I-0.031 J-0.599
G1 Y-119.55
X-16.493 Y-119.699
X-16.475 Y-119.848
X-16.443 Y-120.011
X-16.399 Y-120.177
X-16.334 Y-120.365
X-16.254 Y-120.554
X-16.149 Y-120.762
X-16.023 Y-120.973
X-15.87 Y-121.191
X-15.685 Y-121.421
X-15.48 Y-121.644
X-15.236 Y-121.873
X-14.956 Y-122.102
X-14.654 Y-122.316
X-14.315 Y-122.522
X-13.941 Y-122.716
X-13.538 Y-122.891
X-13.117 Y-123.039
X-12.683 Y-123.159
X-12.243 Y-123.249
X-11.803 Y-123.307
X-11.371 Y-123.334
X-10.989 Y-123.331
X-10.609 Y-123.302
X-10.298 Y-123.256
X-9.98 Y-123.187
X-9.708 Y-123.107
X-9.59 Y-123.063
X-9.286 Y-122.915
X-9.019 Y-122.709
X-8.799 Y-122.453
X-8.635 Y-122.158
X-8.534 Y-121.836
X-8.5 Y-121.5
Y-119.941
G3 X-9.065 Y-119.363 I-0.6 J-0.021
G1 X-15.866 Y-118.972
G3 X-16.5 Y-119.55 I-0.034 J-0.599
G1 Y-121.073
X-16.491 Y-121.258
X-16.473 Y-121.407
X-16.442 Y-121.567
X-16.396 Y-121.737
X-16.334 Y-121.919
X-16.252 Y-122.115
X-16.151 Y-122.314
X-16.021 Y-122.532
X-15.872 Y-122.746
X-15.689 Y-122.974
X-15.477 Y-123.204
X-15.239 Y-123.428
X-14.961 Y-123.656
X-14.649 Y-123.877
X-14.315 Y-124.081
X-13.947 Y-124.273
X-13.546 Y-124.446
X-13.126 Y-124.595
X-12.69 Y-124.716
X-12.252 Y-124.806
X-11.81 Y-124.864
X-11.375 Y-124.892
X-10.993 Y-124.889
X-10.612 Y-124.861
X-10.302 Y-124.815
X-9.982 Y-124.746
X-9.714 Y-124.668
X-9.591 Y-124.622
X-9.287 Y-124.474
X-9.02 Y-124.268
X-8.8 Y-124.012
X-8.636 Y-123.717
X-8.534 Y-123.394
X-8.5 Y-123.058
Y-121.5
G3 X-9.062 Y-120.922 I-0.6 J-0.021
G1 X-15.863 Y-120.495
G3 X-16.5 Y-121.073 I-0.038 J-0.599
G1 Y-122.596
X-16.489 Y-122.817
X-16.471 Y-122.966
X-16.44 Y-123.126
X-16.395 Y-123.296
X-16.332 Y-123.478
X-16.25 Y-123.675
X-16.149 Y-123.874
X-16.019 Y-124.092
X-15.87 Y-124.306
X-15.688 Y-124.533
X-15.475 Y-124.763
X-15.239 Y-124.987
X-14.961 Y-125.214
X-14.649 Y-125.435
X-14.315 Y-125.639
X-13.947 Y-125.83
X-13.547 Y-126.004
X-13.127 Y-126.153
X-12.691 Y-126.274
X-12.252 Y-126.364
X-11.81 Y-126.423
X-11.376 Y-126.45
X-10.994 Y-126.448
X-10.613 Y-126.419
X-10.303 Y-126.374
X-9.982 Y-126.304
X-9.714 Y-126.226
X-9.591 Y-126.181
X-9.288 Y-126.033
X-9.02 Y-125.826
X-8.8 Y-125.57
X-8.636 Y-125.275
X-8.534 Y-124.953
X-8.5 Y-124.617
Y-123.058
G3 X-9.059 Y-122.481 I-0.6 J-0.021
G1 X-15.86 Y-122.019
G3 X-16.5 Y-122.596 I-0.041 J-0.599
G1 Y-124.239
X-16.493 Y-124.389
X-16.473 Y-124.538
X-16.441 Y-124.698
X-16.393 Y-124.871
X-16.329 Y-125.054
X-16.244 Y-125.253
X-16.141 Y-125.453
X-16.008 Y-125.671
X-15.856 Y-125.887
X-15.671 Y-126.114
X-15.453 Y-126.346
X-15.213 Y-126.569
X-14.934 Y-126.795
X-14.617 Y-127.016
X-14.276 Y-127.221
X-13.907 Y-127.409
X-13.505 Y-127.58
X-13.083 Y-127.725
X-12.646 Y-127.844
X-12.206 Y-127.93
X-11.763 Y-127.986
X-11.331 Y-128.01
X-10.951 Y-128.005
X-10.577 Y-127.973
X-10.269 Y-127.926
X-9.951 Y-127.855
X-9.687 Y-127.776
X-9.579 Y-127.735
X-9.279 Y-127.586
X-9.014 Y-127.379
X-8.796 Y-127.124
X-8.634 Y-126.83
X-8.534 Y-126.509
X-8.5 Y-126.175
Y-124.617
G3 X-9.066 Y-124.039 I-0.6 J-0.021
G1 X-15.867 Y-123.661
G3 X-16.5 Y-124.239 I-0.033 J-0.599
G1 Y-125.762
X-16.491 Y-125.935
X-16.474 Y-126.084
X-16.442 Y-126.246
X-16.397 Y-126.413
X-16.333 Y-126.599
X-16.252 Y-126.791
X-16.149 Y-126.994
X-16.02 Y-127.211
X-15.87 Y-127.425
X-15.686 Y-127.655
X-15.477 Y-127.881
X-15.237 Y-128.106
X-14.957 Y-128.335
X-14.648 Y-128.554
X-14.314 Y-128.758
X-13.943 Y-128.95
X-13.541 Y-129.124
X-13.12 Y-129.272
X-12.684 Y-129.393
X-12.246 Y-129.482
X-11.805 Y-129.541
X-11.371 Y-129.568
X-10.989 Y-129.565
X-10.609 Y-129.536
X-10.299 Y-129.49
X-9.979 Y-129.421
X-9.71 Y-129.342
X-9.59 Y-129.298
X-9.286 Y-129.149
X-9.019 Y-128.943
X-8.799 Y-128.687
X-8.635 Y-128.392
X-8.534 Y-128.07
X-8.5 Y-127.734
Y-126.175
G3 X-9.063 Y-125.597 I-0.6 J-0.021
G1 X-15.864 Y-125.184
G3 X-16.5 Y-125.762 I-0.036 J-0.599
G1 Y-127.384
X-16.493 Y-127.533
X-16.471 Y-127.686
X-16.436 Y-127.846
X-16.384 Y-128.024
X-16.318 Y-128.207
X-16.227 Y-128.409
X-16.12 Y-128.61
X-15.983 Y-128.829
X-15.823 Y-129.049
X-15.635 Y-129.274
X-15.41 Y-129.508
X-15.162 Y-129.732
X-14.879 Y-129.954
X-14.557 Y-130.173
X-14.203 Y-130.378
X-13.828 Y-130.563
X-13.424 Y-130.729
X-13.001 Y-130.868
X-12.561 Y-130.981
X-12.12 Y-131.061
X-11.677 Y-131.111
X-11.254 Y-131.129
X-10.874 Y-131.118
X-10.515 Y-131.084
X-10.206 Y-131.032
X-9.896 Y-130.958
X-9.636 Y-130.876
X-9.558 Y-130.846
X-9.263 Y-130.694
X-9.003 Y-130.487
X-8.79 Y-130.233
X-8.631 Y-129.941
X-8.533 Y-129.624
X-8.5 Y-129.294
Y-127.734
G3 X-9.069 Y-127.156 I-0.6 J-0.021
G1 X-15.869 Y-126.805
G3 X-16.5 Y-127.384 I-0.031 J-0.599
G1 Y-128.907
X-16.493 Y-129.057
X-16.474 Y-129.206
X-16.442 Y-129.369
X-16.397 Y-129.535
X-16.332 Y-129.723
X-16.252 Y-129.912
X-16.145 Y-130.121
X-16.019 Y-130.331
X-15.866 Y-130.551
X-15.68 Y-130.781
X-15.474 Y-131.003
X-15.229 Y-131.233
X-14.948 Y-131.461
X-14.645 Y-131.675
X-14.306 Y-131.881
X-13.93 Y-132.074
X-13.526 Y-132.248
X-13.105 Y-132.396
X-12.67 Y-132.515
X-12.231 Y-132.604
X-11.791 Y-132.661
X-11.359 Y-132.687
X-10.978 Y-132.684
X-10.6 Y-132.654
X-10.289 Y-132.608
X-9.971 Y-132.538
X-9.701 Y-132.458
X-9.587 Y-132.416
X-9.284 Y-132.267
X-9.018 Y-132.061
X-8.798 Y-131.805
X-8.635 Y-131.51
X-8.534 Y-131.188
X-8.5 Y-130.853
Y-129.294
G3 X-9.066 Y-128.716 I-0.6 J-0.021
G1 X-15.866 Y-128.329
G3 X-16.446 Y-128.679 I-0.034 J-0.599
X-16.5 Y-128.907 I0.546 J-0.249
G1 Y-130.43
X-16.491 Y-130.612
X-16.473 Y-130.761
X-16.442 Y-130.922
X-16.397 Y-131.091
X-16.334 Y-131.273
X-16.252 Y-131.468
X-16.15 Y-131.669
X-16.02 Y-131.886
X-15.872 Y-132.1
X-15.688 Y-132.329
X-15.476 Y-132.558
X-15.238 Y-132.782
X-14.959 Y-133.011
X-14.648 Y-133.231
X-14.314 Y-133.435
X-13.945 Y-133.626
X-13.544 Y-133.8
X-13.124 Y-133.949
X-12.688 Y-134.07
X-12.249 Y-134.159
X-11.808 Y-134.218
X-11.373 Y-134.245
X-10.991 Y-134.243
X-10.611 Y-134.214
X-10.301 Y-134.168
X-9.98 Y-134.099
X-9.712 Y-134.021
X-9.591 Y-133.976
X-9.287 Y-133.827
X-9.02 Y-133.621
X-8.8 Y-133.365
X-8.635 Y-133.07
X-8.534 Y-132.748
X-8.5 Y-132.412
Y-130.853
G3 X-9.062 Y-130.275 I-0.6 J-0.021
G1 X-15.863 Y-129.852
G3 X-16.446 Y-130.202 I-0.037 J-0.599
X-16.5 Y-130.43 I0.546 J-0.249
G1 Y-131.953
X-16.489 Y-132.171
X-16.471 Y-132.32
X-16.44 Y-132.479
X-16.395 Y-132.649
X-16.333 Y-132.832
X-16.25 Y-133.028
X-16.149 Y-133.227
X-16.019 Y-133.445
X-15.87 Y-133.659
X-15.688 Y-133.887
X-15.475 Y-134.117
X-15.238 Y-134.34
X-14.961 Y-134.567
X-14.649 Y-134.789
X-14.315 Y-134.993
X-13.947 Y-135.184
X-13.547 Y-135.358
X-13.127 Y-135.506
X-12.69 Y-135.627
X-12.252 Y-135.717
X-11.81 Y-135.776
X-11.376 Y-135.803
X-10.993 Y-135.801
X-10.613 Y-135.772
X-10.303 Y-135.727
X-9.982 Y-135.657
X-9.714 Y-135.579
X-9.591 Y-135.534
X-9.288 Y-135.386
X-9.02 Y-135.18
X-8.8 Y-134.924
X-8.636 Y-134.628
X-8.534 Y-134.306
X-8.5 Y-133.97
Y-132.412
G3 X-9.059 Y-131.834 I-0.6 J-0.021
G1 X-15.86 Y-131.376
G3 X-16.446 Y-131.726 I-0.04 J-0.599
X-16.5 Y-131.953 I0.546 J-0.249
G1 Y-133.596
X-16.493 Y-133.746
X-16.473 Y-133.895
X-16.44 Y-134.055
X-16.392 Y-134.229
X-16.328 Y-134.411
X-16.241 Y-134.611
X-16.138 Y-134.811
X-16.005 Y-135.03
X-15.851 Y-135.247
X-15.666 Y-135.473
X-15.447 Y-135.706
X-15.206 Y-135.928
X-14.926 Y-136.154
X-14.609 Y-136.375
X-14.266 Y-136.579
X-13.897 Y-136.767
X-13.494 Y-136.937
X-13.073 Y-137.082
X-12.634 Y-137.2
X-12.195 Y-137.285
X-11.752 Y-137.34
X-11.32 Y-137.363
X-10.941 Y-137.357
X-10.569 Y-137.326
X-10.26 Y-137.278
X-9.943 Y-137.206
X-9.68 Y-137.127
X-9.577 Y-137.088
X-9.277 Y-136.938
X-9.013 Y-136.731
X-8.795 Y-136.476
X-8.634 Y-136.182
X-8.534 Y-135.862
X-8.5 Y-135.529
Y-133.97
G3 X-9.067 Y-133.392 I-0.6 J-0.021
G1 X-15.867 Y-133.018
G3 X-16.446 Y-133.369 I-0.033 J-0.599
X-16.5 Y-133.596 I0.546 J-0.249
G1 Y-135.12
X-16.492 Y-135.288
X-16.474 Y-135.437
X-16.442 Y-135.599
X-16.397 Y-135.766
X-16.333 Y-135.953
X-16.252 Y-136.145
X-16.149 Y-136.348
X-16.02 Y-136.564
X-15.87 Y-136.779
X-15.685 Y-137.009
X-15.477 Y-137.234
X-15.237 Y-137.46
X-14.956 Y-137.69
X-14.649 Y-137.907
X-14.314 Y-138.111
X-13.943 Y-138.304
X-13.54 Y-138.478
X-13.119 Y-138.626
X-12.683 Y-138.747
X-12.245 Y-138.836
X-11.804 Y-138.894
X-11.37 Y-138.921
X-10.989 Y-138.919
X-10.608 Y-138.889
X-10.298 Y-138.844
X-9.978 Y-138.774
X-9.709 Y-138.695
X-9.589 Y-138.651
X-9.286 Y-138.503
X-9.019 Y-138.296
X-8.799 Y-138.04
X-8.635 Y-137.745
X-8.534 Y-137.423
X-8.5 Y-137.088
Y-135.529
G3 X-9.064 Y-134.951 I-0.6 J-0.021
G1 X-15.864 Y-134.542
G3 X-16.446 Y-134.892 I-0.036 J-0.599
X-16.5 Y-135.12 I0.546 J-0.249
G1 Y-136.741
X-16.493 Y-136.891
X-16.47 Y-137.044
X-16.435 Y-137.204
X-16.383 Y-137.383
X-16.316 Y-137.565
X-16.225 Y-137.768
X-16.117 Y-137.97
X-15.98 Y-138.188
X-15.818 Y-138.409
X-15.63 Y-138.634
X-15.403 Y-138.868
X-15.154 Y-139.092
X-14.87 Y-139.314
X-14.547 Y-139.532
X-14.193 Y-139.738
X-13.816 Y-139.922
X-13.412 Y-140.087
X-12.988 Y-140.226
X-12.548 Y-140.337
X-12.107 Y-140.417
X-11.664 Y-140.465
X-11.242 Y-140.482
X-10.862 Y-140.471
X-10.506 Y-140.436
X-10.196 Y-140.383
X-9.888 Y-140.309
X-9.628 Y-140.227
X-9.555 Y-140.198
X-9.26 Y-140.046
X-9.002 Y-139.839
X-8.789 Y-139.585
X-8.631 Y-139.294
X-8.533 Y-138.977
X-8.5 Y-138.648
Y-137.088
G3 X-9.069 Y-136.509 I-0.6 J-0.021
G1 X-15.87 Y-136.163
G3 X-16.5 Y-136.741 I-0.031 J-0.599
G1 Y-138.264
X-16.493 Y-138.414
X-16.474 Y-138.563
X-16.442 Y-138.726
X-16.396 Y-138.893
X-16.331 Y-139.081
X-16.25 Y-139.27
X-16.143 Y-139.48
X-16.016 Y-139.69
X-15.862 Y-139.91
X-15.676 Y-140.14
X-15.468 Y-140.362
X-15.222 Y-140.592
X-14.941 Y-140.82
X-14.637 Y-141.034
X-14.297 Y-141.239
X-13.921 Y-141.433
X-13.516 Y-141.606
X-13.094 Y-141.753
X-12.66 Y-141.872
X-12.22 Y-141.959
X-11.78 Y-142.016
X-11.348 Y-142.041
X-10.969 Y-142.037
X-10.591 Y-142.007
X-10.281 Y-141.96
X-9.964 Y-141.889
X-9.694 Y-141.81
X-9.584 Y-141.768
X-9.282 Y-141.619
X-9.016 Y-141.413
X-8.798 Y-141.157
X-8.635 Y-140.863
X-8.534 Y-140.542
X-8.5 Y-140.207
Y-138.648
G3 X-9.066 Y-138.069 I-0.6 J-0.021
G1 X-15.867 Y-137.686
G3 X-16.446 Y-138.036 I-0.034 J-0.599
X-16.5 Y-138.264 I0.546 J-0.249
G1 Y-139.787
X-16.491 Y-139.965
X-16.473 Y-140.114
X-16.442 Y-140.276
X-16.397 Y-140.444
X-16.334 Y-140.628
X-16.252 Y-140.822
X-16.15 Y-141.023
X-16.02 Y-141.24
X-15.871 Y-141.454
X-15.687 Y-141.684
X-15.476 Y-141.911
X-15.237 Y-142.137
X-14.958 Y-142.365
X-14.648 Y-142.585
X-14.314 Y-142.789
X-13.944 Y-142.981
X-13.543 Y-143.155
X-13.122 Y-143.303
X-12.686 Y-143.424
X-12.248 Y-143.513
X-11.807 Y-143.572
X-11.372 Y-143.599
X-10.99 Y-143.596
X-10.61 Y-143.567
X-10.3 Y-143.522
X-9.98 Y-143.452
X-9.711 Y-143.374
X-9.59 Y-143.329
X-9.287 Y-143.181
X-9.02 Y-142.975
X-8.799 Y-142.719
X-8.635 Y-142.423
X-8.534 Y-142.101
X-8.5 Y-141.765
Y-140.207
G3 X-9.063 Y-139.629 I-0.6 J-0.021
G1 X-15.863 Y-139.21
G3 X-16.5 Y-139.787 I-0.037 J-0.599
G1 Y-141.311
X-16.489 Y-141.524
X-16.471 Y-141.673
X-16.441 Y-141.833
X-16.395 Y-142.003
X-16.333 Y-142.186
X-16.25 Y-142.382
X-16.149 Y-142.581
X-16.019 Y-142.799
X-15.87 Y-143.013
X-15.688 Y-143.24
X-15.475 Y-143.47
X-15.238 Y-143.694
X-14.961 Y-143.921
X-14.649 Y-144.143
X-14.315 Y-144.347
X-13.947 Y-144.538
X-13.547 Y-144.711
X-13.127 Y-144.86
X-12.69 Y-144.981
X-12.252 Y-145.071
X-11.81 Y-145.13
X-11.375 Y-145.157
X-10.993 Y-145.155
X-10.612 Y-145.126
X-10.302 Y-145.081
X-9.982 Y-145.011
X-9.714 Y-144.933
X-9.591 Y-144.888
X-9.288 Y-144.74
X-9.02 Y-144.533
X-8.8 Y-144.277
X-8.636 Y-143.982
X-8.534 Y-143.66
X-8.5 Y-143.324
Y-141.765
G3 X-9.06 Y-141.188 I-0.6 J-0.021
G1 X-15.86 Y-140.733
G3 X-16.5 Y-141.311 I-0.04 J-0.599
G1 Y-142.954
X-16.493 Y-143.103
X-16.473 Y-143.252
X-16.44 Y-143.412
X-16.391 Y-143.587
X-16.327 Y-143.769
X-16.239 Y-143.97
X-16.136 Y-144.17
X-16.002 Y-144.389
X-15.847 Y-144.605
X-15.662 Y-144.831
X-15.442 Y-145.065
X-15.2 Y-145.287
X-14.92 Y-145.512
X-14.602 Y-145.733
X-14.258 Y-145.938
X-13.887 Y-146.125
X-13.485 Y-146.295
X-13.063 Y-146.439
X-12.624 Y-146.556
X-12.185 Y-146.641
X-11.742 Y-146.695
X-11.311 Y-146.717
X-10.932 Y-146.711
X-10.561 Y-146.679
X-10.253 Y-146.63
X-9.937 Y-146.558
X-9.674 Y-146.478
X-9.574 Y-146.44
X-9.275 Y-146.291
X-9.011 Y-146.084
X-8.795 Y-145.829
X-8.633 Y-145.535
X-8.534 Y-145.216
X-8.5 Y-144.883
Y-143.324
G3 X-9.067 Y-142.746 I-0.6 J-0.021
G1 X-15.868 Y-142.375
G3 X-16.446 Y-142.726 I-0.033 J-0.599
X-16.5 Y-142.954 I0.546 J-0.249
G1 Y-144.477
X-16.492 Y-144.642
X-16.474 Y-144.791
X-16.442 Y-144.954
X-16.398 Y-145.12
X-16.333 Y-145.307
X-16.252 Y-145.498
X-16.149 Y-145.703
X-16.02 Y-145.918
X-15.87 Y-146.133
X-15.685 Y-146.363
X-15.477 Y-146.588
X-15.236 Y-146.814
X-14.956 Y-147.044
X-14.649 Y-147.261
X-14.314 Y-147.465
X-13.942 Y-147.658
X-13.539 Y-147.832
X-13.118 Y-147.981
X-12.682 Y-148.101
X-12.244 Y-148.19
X-11.803 Y-148.248
X-11.37 Y-148.275
X-10.988 Y-148.272
X-10.608 Y-148.243
X-10.298 Y-148.198
X-9.978 Y-148.128
X-9.709 Y-148.049
X-9.589 Y-148.005
X-9.286 Y-147.857
X-9.019 Y-147.65
X-8.799 Y-147.394
X-8.635 Y-147.099
X-8.534 Y-146.777
X-8.5 Y-146.442
Y-144.883
G3 X-8.554 Y-144.655 I-0.6 J-0.021
X-9.064 Y-144.305 I-0.546 J-0.249
G1 X-15.865 Y-143.899
G3 X-16.446 Y-144.249 I-0.036 J-0.599
X-16.5 Y-144.477 I0.546 J-0.249
G1 Y-146.098
X-16.493 Y-146.248
X-16.47 Y-146.402
X-16.435 Y-146.562
X-16.382 Y-146.742
X-16.314 Y-146.924
X-16.223 Y-147.127
X-16.114 Y-147.329
X-15.976 Y-147.547
X-15.814 Y-147.769
X-15.625 Y-147.993
X-15.397 Y-148.227
X-15.146 Y-148.452
X-14.862 Y-148.674
X-14.539 Y-148.891
X-14.183 Y-149.097
X-13.805 Y-149.281
X-13.4 Y-149.445
X-12.976 Y-149.583
X-12.536 Y-149.694
X-12.095 Y-149.773
X-11.652 Y-149.82
X-11.233 Y-149.836
X-10.851 Y-149.825
X-10.498 Y-149.789
X-10.188 Y-149.736
X-9.881 Y-149.661
X-9.621 Y-149.579
X-9.552 Y-149.551
X-9.258 Y-149.399
X-9 Y-149.192
X-8.788 Y-148.938
X-8.63 Y-148.647
X-8.533 Y-148.331
X-8.5 Y-148.002
Y-146.442
G3 X-9.069 Y-145.863 I-0.6 J-0.021
G1 X-15.87 Y-145.52
G3 X-16.5 Y-146.098 I-0.03 J-0.599
G1 Y-147.621
X-16.493 Y-147.771
X-16.474 Y-147.92
X-16.441 Y-148.083
X-16.395 Y-148.25
X-16.329 Y-148.439
X-16.248 Y-148.628
X-16.14 Y-148.838
X-16.014 Y-149.048
X-15.858 Y-149.269
X-15.672 Y-149.498
X-15.464 Y-149.721
X-15.217 Y-149.951
X-14.935 Y-150.179
X-14.631 Y-150.392
X-14.289 Y-150.598
X-13.912 Y-150.791
X-13.507 Y-150.963
X-13.085 Y-151.11
X-12.65 Y-151.228
X-12.211 Y-151.315
X-11.771 Y-151.371
X-11.339 Y-151.395
X-10.961 Y-151.391
X-10.584 Y-151.36
X-10.275 Y-151.313
X-9.958 Y-151.242
X-9.689 Y-151.162
X-9.582 Y-151.122
X-9.28 Y-150.973
X-9.015 Y-150.766
X-8.797 Y-150.51
X-8.634 Y-150.216
X-8.534 Y-149.895
X-8.5 Y-149.561
Y-148.002
G3 X-9.066 Y-147.424 I-0.6 J-0.021
G1 X-15.867 Y-147.043
G3 X-16.5 Y-147.621 I-0.034 J-0.599
G1 Y-149.145
X-16.491 Y-149.32
X-16.473 Y-149.469
X-16.442 Y-149.631
X-16.397 Y-149.799
X-16.334 Y-149.982
X-16.252 Y-150.176
X-16.15 Y-150.378
X-16.02 Y-150.595
X-15.871 Y-150.809
X-15.686 Y-151.039
X-15.477 Y-151.266
X-15.237 Y-151.491
X-14.957 Y-151.72
X-14.647 Y-151.94
X-14.313 Y-152.143
X-13.943 Y-152.335
X-13.541 Y-152.509
X-13.121 Y-152.658
X-12.685 Y-152.778
X-12.247 Y-152.868
X-11.806 Y-152.926
X-11.371 Y-152.953
X-10.989 Y-152.951
X-10.609 Y-152.921
X-10.299 Y-152.876
X-9.979 Y-152.806
X-9.711 Y-152.728
X-9.59 Y-152.683
X-9.287 Y-152.535
X-9.019 Y-152.329
X-8.799 Y-152.073
X-8.635 Y-151.778
X-8.534 Y-151.456
X-8.5 Y-151.12
Y-149.561
G3 X-9.063 Y-148.983 I-0.6 J-0.021
G1 X-15.864 Y-148.567
G3 X-16.5 Y-149.145 I-0.037 J-0.599
G1 Y-150.668
X-16.489 Y-150.878
X-16.472 Y-151.027
X-16.441 Y-151.187
X-16.395 Y-151.357
X-16.333 Y-151.54
X-16.25 Y-151.736
X-16.149 Y-151.935
X-16.019 Y-152.153
X-15.871 Y-152.367
X-15.688 Y-152.595
X-15.476 Y-152.824
X-15.238 Y-153.048
X-14.961 Y-153.276
X-14.649 Y-153.497
X-14.315 Y-153.701
X-13.947 Y-153.892
X-13.546 Y-154.066
X-13.126 Y-154.214
X-12.69 Y-154.336
X-12.251 Y-154.425
X-11.81 Y-154.484
X-11.375 Y-154.511
X-10.993 Y-154.509
X-10.612 Y-154.48
X-10.302 Y-154.435
X-9.982 Y-154.365
X-9.714 Y-154.287
X-9.591 Y-154.242
X-9.287 Y-154.094
X-9.02 Y-153.888
X-8.8 Y-153.632
X-8.636 Y-153.336
X-8.534 Y-153.014
X-8.5 Y-152.678
Y-151.12
G3 X-9.06 Y-150.542 I-0.6 J-0.021
G1 X-15.861 Y-150.09
G3 X-16.5 Y-150.668 I-0.04 J-0.599
G1 Y-152.311
X-16.493 Y-152.461
X-16.472 Y-152.61
X-16.439 Y-152.77
X-16.39 Y-152.945
X-16.325 Y-153.128
X-16.238 Y-153.328
X-16.133 Y-153.528
X-15.999 Y-153.747
X-15.844 Y-153.965
X-15.658 Y-154.19
X-15.437 Y-154.424
X-15.194 Y-154.647
X-14.914 Y-154.871
X-14.595 Y-155.092
X-14.249 Y-155.297
X-13.878 Y-155.484
X-13.476 Y-155.652
X-13.053 Y-155.796
X-12.615 Y-155.912
X-12.175 Y-155.996
X-11.732 Y-156.05
X-11.302 Y-156.072
X-10.923 Y-156.065
X-10.554 Y-156.032
X-10.246 Y-155.983
X-9.93 Y-155.91
X-9.668 Y-155.831
X-9.572 Y-155.794
X-9.273 Y-155.644
X-9.01 Y-155.437
X-8.794 Y-155.182
X-8.633 Y-154.889
X-8.534 Y-154.57
X-8.5 Y-154.237
Y-152.678
G3 X-9.067 Y-152.1 I-0.6 J-0.021
G1 X-15.868 Y-151.733
G3 X-16.5 Y-152.311 I-0.032 J-0.599
G1 Y-153.834
X-16.492 Y-153.996
X-16.474 Y-154.145
X-16.442 Y-154.308
X-16.398 Y-154.474
X-16.333 Y-154.661
X-16.253 Y-154.852
X-16.149 Y-155.057
X-16.02 Y-155.272
X-15.87 Y-155.488
X-15.685 Y-155.718
X-15.478 Y-155.942
X-15.236 Y-156.169
X-14.955 Y-156.399
X-14.65 Y-156.615
X-14.314 Y-156.819
X-13.942 Y-157.012
X-13.539 Y-157.186
X-13.117 Y-157.335
X-12.682 Y-157.456
X-12.243 Y-157.545
X-11.803 Y-157.603
X-11.37 Y-157.63
X-10.988 Y-157.627
X-10.608 Y-157.598
X-10.298 Y-157.552
X-9.978 Y-157.482
X-9.709 Y-157.403
X-9.589 Y-157.359
X-9.286 Y-157.211
X-9.019 Y-157.005
X-8.799 Y-156.749
X-8.635 Y-156.454
X-8.534 Y-156.132
X-8.5 Y-155.796
Y-154.237
G3 X-8.554 Y-154.009 I-0.6 J-0.021
X-9.064 Y-153.659 I-0.546 J-0.249
G1 X-15.865 Y-153.256
G3 X-16.5 Y-153.834 I-0.035 J-0.599
G1 Y-155.357
X-16.49 Y-155.555
X-16.472 Y-155.704
X-16.441 Y-155.864
X-16.396 Y-156.034
X-16.333 Y-156.216
X-16.251 Y-156.412
X-16.15 Y-156.611
X-16.02 Y-156.829
X-15.871 Y-157.043
X-15.688 Y-157.271
X-15.476 Y-157.501
X-15.239 Y-157.724
X-14.961 Y-157.952
X-14.649 Y-158.174
X-14.315 Y-158.377
X-13.947 Y-158.569
X-13.546 Y-158.742
X-13.126 Y-158.891
X-12.69 Y-159.012
X-12.251 Y-159.102
X-11.81 Y-159.16
X-11.375 Y-159.188
X-10.993 Y-159.185
X-10.612 Y-159.157
X-10.302 Y-159.111
X-9.981 Y-159.042
X-9.714 Y-158.964
X-9.591 Y-158.918
X-9.287 Y-158.77
X-9.02 Y-158.564
X-8.8 Y-158.308
X-8.636 Y-158.013
X-8.534 Y-157.69
X-8.5 Y-157.354
Y-155.796
G3 X-9.061 Y-155.218 I-0.6 J-0.021
G1 X-15.862 Y-154.78
G3 X-16.5 Y-155.357 I-0.039 J-0.599
G1 Y-156.979
X-16.493 Y-157.128
X-16.473 Y-157.277
X-16.441 Y-157.437
X-16.393 Y-157.611
X-16.329 Y-157.793
X-16.243 Y-157.993
X-16.14 Y-158.192
X-16.007 Y-158.411
X-15.854 Y-158.627
X-15.669 Y-158.854
X-15.451 Y-159.086
X-15.211 Y-159.309
X-14.931 Y-159.535
X-14.614 Y-159.756
X-14.272 Y-159.96
X-13.903 Y-160.148
X-13.501 Y-160.319
X-13.079 Y-160.464
X-12.641 Y-160.582
X-12.202 Y-160.668
X-11.759 Y-160.724
X-11.326 Y-160.747
X-10.947 Y-160.742
X-10.574 Y-160.711
X-10.265 Y-160.663
X-9.948 Y-160.591
X-9.684 Y-160.512
X-9.578 Y-160.472
X-9.278 Y-160.323
X-9.014 Y-160.116
X-8.796 Y-159.861
X-8.634 Y-159.567
X-8.534 Y-159.247
X-8.5 Y-158.913
Y-157.354
G3 X-9.067 Y-156.776 I-0.6 J-0.021
G1 X-15.867 Y-156.4
G3 X-16.446 Y-156.751 I-0.033 J-0.599
X-16.5 Y-156.979 I0.546 J-0.249
G1 Y-158.502
X-16.491 Y-158.673
X-16.474 Y-158.822
X-16.442 Y-158.984
X-16.397 Y-159.151
X-16.333 Y-159.337
X-16.252 Y-159.529
X-16.149 Y-159.732
X-16.02 Y-159.949
X-15.87 Y-160.163
X-15.686 Y-160.393
X-15.477 Y-160.619
X-15.237 Y-160.844
X-14.957 Y-161.074
X-14.649 Y-161.292
X-14.314 Y-161.495
X-13.943 Y-161.688
X-13.541 Y-161.862
X-13.12 Y-162.01
X-12.684 Y-162.131
X-12.245 Y-162.22
X-11.804 Y-162.279
X-11.371 Y-162.306
X-10.989 Y-162.303
X-10.608 Y-162.274
X-10.298 Y-162.228
X-9.978 Y-162.158
X-9.71 Y-162.08
X-9.59 Y-162.035
X-9.286 Y-161.887
X-9.019 Y-161.681
X-8.799 Y-161.425
X-8.635 Y-161.13
X-8.534 Y-160.808
X-8.5 Y-160.472
Y-158.913
G3 X-8.554 Y-158.685 I-0.6 J-0.021
X-9.063 Y-158.335 I-0.546 J-0.249
G1 X-15.864 Y-157.924
G3 X-16.5 Y-158.502 I-0.036 J-0.599
G1 Y-160.025
X-16.49 Y-160.231
X-16.472 Y-160.38
X-16.441 Y-160.54
X-16.395 Y-160.71
X-16.333 Y-160.892
X-16.25 Y-161.088
X-16.149 Y-161.288
X-16.02 Y-161.506
X-15.871 Y-161.719
X-15.688 Y-161.947
X-15.476 Y-162.177
X-15.239 Y-162.4
X-14.961 Y-162.628
X-14.649 Y-162.849
X-14.315 Y-163.053
X-13.947 Y-163.244
X-13.546 Y-163.418
X-13.127 Y-163.567
X-12.69 Y-163.688
X-12.252 Y-163.778
X-11.81 Y-163.836
X-11.375 Y-163.864
X-10.993 Y-163.861
X-10.612 Y-163.833
X-10.302 Y-163.787
X-9.982 Y-163.718
X-9.714 Y-163.64
X-9.591 Y-163.594
X-9.287 Y-163.446
X-9.02 Y-163.24
X-8.8 Y-162.984
X-8.636 Y-162.689
X-8.534 Y-162.366
X-8.5 Y-162.03
Y-160.472
G3 X-8.554 Y-160.244 I-0.6 J-0.021
X-9.06 Y-159.894 I-0.546 J-0.249
G1 X-15.861 Y-159.447
G3 X-16.5 Y-160.025 I-0.039 J-0.599
G1 Y-161.668
X-16.493 Y-161.818
X-16.472 Y-161.968
X-16.438 Y-162.128
X-16.388 Y-162.305
X-16.323 Y-162.487
X-16.234 Y-162.688
X-16.129 Y-162.888
X-15.994 Y-163.107
X-15.838 Y-163.326
X-15.651 Y-163.551
X-15.429 Y-163.785
X-15.185 Y-164.008
X-14.904 Y-164.231
X-14.584 Y-164.451
X-14.236 Y-164.657
X-13.864 Y-164.843
X-13.461 Y-165.011
X-13.038 Y-165.153
X-12.599 Y-165.268
X-12.159 Y-165.351
X-11.716 Y-165.404
X-11.287 Y-165.424
X-10.908 Y-165.416
X-10.542 Y-165.383
X-10.234 Y-165.333
X-9.92 Y-165.26
X-9.659 Y-165.18
X-9.568 Y-165.145
X-9.27 Y-164.994
X-9.008 Y-164.788
X-8.793 Y-164.533
X-8.632 Y-164.24
X-8.533 Y-163.921
X-8.5 Y-163.589
Y-162.03
G3 X-9.068 Y-161.452 I-0.6 J-0.021
G1 X-15.868 Y-161.09
G3 X-16.5 Y-161.668 I-0.032 J-0.599
G1 Y-163.191
X-16.492 Y-163.349
X-16.474 Y-163.498
X-16.442 Y-163.661
X-16.398 Y-163.827
X-16.334 Y-164.014
X-16.253 Y-164.204
X-16.149 Y-164.41
X-16.021 Y-164.623
X-15.87 Y-164.84
X-15.685 Y-165.071
X-15.478 Y-165.294
X-15.236 Y-165.522
X-14.955 Y-165.751
X-14.651 Y-165.966
X-14.315 Y-166.172
X-13.941 Y-166.365
X-13.538 Y-166.539
X-13.117 Y-166.688
X-12.682 Y-166.808
X-12.243 Y-166.897
X-11.803 Y-166.955
X-11.37 Y-166.982
X-10.988 Y-166.98
X-10.608 Y-166.95
X-10.298 Y-166.905
X-9.979 Y-166.835
X-9.708 Y-166.756
X-9.589 Y-166.712
X-9.286 Y-166.564
X-9.019 Y-166.357
X-8.799 Y-166.101
X-8.635 Y-165.806
X-8.534 Y-165.484
X-8.5 Y-165.149
Y-163.589
G3 X-9.065 Y-163.011 I-0.6 J-0.021
G1 X-15.865 Y-162.613
G3 X-16.5 Y-163.191 I-0.035 J-0.599
G1 Y-164.715
X-16.49 Y-164.907
X-16.473 Y-165.056
X-16.441 Y-165.216
X-16.396 Y-165.386
X-16.334 Y-165.568
X-16.251 Y-165.764
X-16.15 Y-165.964
X-16.02 Y-166.182
X-15.872 Y-166.395
X-15.689 Y-166.623
X-15.476 Y-166.853
X-15.239 Y-167.077
X-14.961 Y-167.305
X-14.649 Y-167.526
X-14.315 Y-167.73
X-13.946 Y-167.921
X-13.546 Y-168.095
X-13.126 Y-168.244
X-12.69 Y-168.365
X-12.251 Y-168.454
X-11.81 Y-168.513
X-11.375 Y-168.54
X-10.993 Y-168.538
X-10.612 Y-168.509
X-10.302 Y-168.464
X-9.981 Y-168.394
X-9.714 Y-168.316
X-9.591 Y-168.271
X-9.287 Y-168.123
X-9.02 Y-167.917
X-8.8 Y-167.661
X-8.636 Y-167.365
X-8.534 Y-167.043
X-8.5 Y-166.707
Y-165.149
G3 X-8.554 Y-164.921 I-0.6 J-0.021
X-9.061 Y-164.571 I-0.546 J-0.249
G1 X-15.862 Y-164.137
G3 X-16.5 Y-164.715 I-0.038 J-0.599
G1 Y-166.336
X-16.493 Y-166.486
X-16.473 Y-166.634
X-16.44 Y-166.794
X-16.392 Y-166.969
X-16.327 Y-167.151
X-16.24 Y-167.351
X-16.136 Y-167.551
X-16.003 Y-167.77
X-15.849 Y-167.987
X-15.664 Y-168.213
X-15.444 Y-168.446
X-15.203 Y-168.669
X-14.923 Y-168.894
X-14.604 Y-169.115
X-14.261 Y-169.32
X-13.891 Y-169.507
X-13.489 Y-169.677
X-13.067 Y-169.821
X-12.628 Y-169.938
X-12.189 Y-170.023
X-11.746 Y-170.078
X-11.314 Y-170.1
X-10.935 Y-170.094
X-10.564 Y-170.062
X-10.256 Y-170.014
X-9.939 Y-169.942
X-9.676 Y-169.862
X-9.575 Y-169.824
X-9.275 Y-169.674
X-9.012 Y-169.468
X-8.795 Y-169.212
X-8.633 Y-168.919
X-8.534 Y-168.599
X-8.5 Y-168.266
Y-166.707
G3 X-9.067 Y-166.129 I-0.6 J-0.021
G1 X-15.868 Y-165.758
G3 X-16.5 Y-166.336 I-0.033 J-0.599
G1 Y-167.859
X-16.492 Y-168.025
X-16.474 Y-168.174
X-16.442 Y-168.337
X-16.397 Y-168.504
X-16.333 Y-168.69
X-16.252 Y-168.882
X-16.149 Y-169.086
X-16.02 Y-169.301
X-15.87 Y-169.516
X-15.685 Y-169.747
X-15.477 Y-169.971
X-15.236 Y-170.198
X-14.956 Y-170.427
X-14.649 Y-170.644
X-14.314 Y-170.848
X-13.942 Y-171.041
X-13.54 Y-171.215
X-13.119 Y-171.364
X-12.683 Y-171.484
X-12.244 Y-171.573
X-11.804 Y-171.632
X-11.37 Y-171.658
X-10.988 Y-171.656
X-10.608 Y-171.626
X-10.298 Y-171.581
X-9.978 Y-171.511
X-9.709 Y-171.432
X-9.589 Y-171.388
X-9.286 Y-171.24
X-9.019 Y-171.033
X-8.799 Y-170.778
X-8.635 Y-170.482
X-8.534 Y-170.16
X-8.5 Y-169.825
Y-168.266
G3 X-9.064 Y-167.688 I-0.6 J-0.021
G1 X-15.865 Y-167.281
G3 X-16.5 Y-167.859 I-0.036 J-0.599
G1 Y-169.382
X-16.49 Y-169.584
X-16.472 Y-169.733
X-16.441 Y-169.893
X-16.396 Y-170.063
X-16.333 Y-170.245
X-16.251 Y-170.441
X-16.15 Y-170.64
X-16.02 Y-170.858
X-15.871 Y-171.072
X-15.688 Y-171.3
X-15.476 Y-171.53
X-15.239 Y-171.753
X-14.961 Y-171.981
X-14.649 Y-172.202
X-14.315 Y-172.406
X-13.947 Y-172.597
X-13.546 Y-172.771
X-13.126 Y-172.92
X-12.69 Y-173.041
X-12.251 Y-173.13
X-11.81 Y-173.189
X-11.375 Y-173.217
X-10.993 Y-173.214
X-10.612 Y-173.185
X-10.302 Y-173.14
X-9.981 Y-173.07
X-9.714 Y-172.992
X-9.591 Y-172.947
X-9.287 Y-172.799
X-9.02 Y-172.593
X-8.8 Y-172.337
X-8.636 Y-172.041
X-8.534 Y-171.719
X-8.5 Y-171.383
Y-169.825
G3 X-8.554 Y-169.597 I-0.6 J-0.021
X-9.061 Y-169.247 I-0.546 J-0.249
G1 X-15.861 Y-168.805
G3 X-16.5 Y-169.382 I-0.039 J-0.599
G1 Y-171.025
X-16.493 Y-171.175
X-16.471 Y-171.326
X-16.437 Y-171.486
X-16.387 Y-171.664
X-16.321 Y-171.846
X-16.232 Y-172.048
X-16.126 Y-172.248
X-15.99 Y-172.467
X-15.832 Y-172.687
X-15.645 Y-172.911
X-15.421 Y-173.145
X-15.176 Y-173.369
X-14.894 Y-173.592
X-14.573 Y-173.811
X-14.223 Y-174.017
X-13.85 Y-174.202
X-13.446 Y-174.369
X-13.023 Y-174.511
X-12.584 Y-174.624
X-12.143 Y-174.707
X-11.7 Y-174.758
X-11.274 Y-174.777
X-10.895 Y-174.768
X-10.532 Y-174.735
X-10.223 Y-174.684
X-9.91 Y-174.611
X-9.65 Y-174.53
X-9.564 Y-174.496
X-9.267 Y-174.346
X-9.006 Y-174.139
X-8.792 Y-173.884
X-8.632 Y-173.592
X-8.533 Y-173.274
X-8.5 Y-172.943
Y-171.383
G3 X-8.554 Y-171.155 I-0.6 J-0.021
X-9.068 Y-170.805 I-0.546 J-0.249
G1 X-15.869 Y-170.447
G3 X-16.5 Y-171.025 I-0.032 J-0.599
G1 Y-172.549
X-16.492 Y-172.701
X-16.474 Y-172.85
X-16.443 Y-173.013
X-16.398 Y-173.179
X-16.334 Y-173.367
X-16.254 Y-173.556
X-16.149 Y-173.764
X-16.022 Y-173.975
X-15.87 Y-174.193
X-15.685 Y-174.423
X-15.479 Y-174.646
X-15.236 Y-174.875
X-14.956 Y-175.104
X-14.653 Y-175.318
X-14.315 Y-175.524
X-13.941 Y-175.718
X-13.538 Y-175.892
X-13.117 Y-176.041
X-12.682 Y-176.161
X-12.243 Y-176.25
X-11.803 Y-176.309
X-11.371 Y-176.336
X-10.989 Y-176.333
X-10.609 Y-176.304
X-10.298 Y-176.258
X-9.979 Y-176.188
X-9.708 Y-176.109
X-9.59 Y-176.065
X-9.286 Y-175.917
X-9.019 Y-175.711
X-8.799 Y-175.455
X-8.635 Y-175.16
X-8.534 Y-174.838
X-8.5 Y-174.502
Y-172.943
G3 X-8.554 Y-172.715 I-0.6 J-0.021
X-9.065 Y-172.364 I-0.546 J-0.249
G1 X-15.866 Y-171.971
G3 X-16.446 Y-172.321 I-0.035 J-0.599
X-16.5 Y-172.549 I0.546 J-0.249
G1 Y-174.072
X-16.491 Y-174.26
X-16.473 Y-174.409
X-16.442 Y-174.569
X-16.396 Y-174.739
X-16.334 Y-174.921
X-16.251 Y-175.117
X-16.15 Y-175.316
X-16.02 Y-175.534
X-15.872 Y-175.748
X-15.689 Y-175.976
X-15.477 Y-176.206
X-15.239 Y-176.43
X-14.961 Y-176.658
X-14.649 Y-176.879
X-14.315 Y-177.083
X-13.947 Y-177.274
X-13.546 Y-177.448
X-13.126 Y-177.597
X-12.69 Y-177.718
X-12.252 Y-177.807
X-11.81 Y-177.866
X-11.375 Y-177.894
X-10.993 Y-177.891
X-10.612 Y-177.862
X-10.302 Y-177.817
X-9.982 Y-177.747
X-9.714 Y-177.67
X-9.591 Y-177.624
X-9.287 Y-177.476
X-9.02 Y-177.27
X-8.8 Y-177.014
X-8.636 Y-176.719
X-8.534 Y-176.396
X-8.5 Y-176.06
Y-174.502
G3 X-9.062 Y-173.924 I-0.6 J-0.021
G1 X-15.863 Y-173.494
G3 X-16.5 Y-174.072 I-0.038 J-0.599
G1 Y-175.693
X-16.493 Y-175.843
X-16.472 Y-175.992
X-16.439 Y-176.152
X-16.39 Y-176.327
X-16.325 Y-176.51
X-16.238 Y-176.71
X-16.133 Y-176.91
X-15.999 Y-177.129
X-15.844 Y-177.347
X-15.659 Y-177.572
X-15.438 Y-177.806
X-15.195 Y-178.029
X-14.915 Y-178.253
X-14.595 Y-178.474
X-14.25 Y-178.679
X-13.88 Y-178.865
X-13.477 Y-179.034
X-13.055 Y-179.178
X-12.616 Y-179.294
X-12.176 Y-179.378
X-11.733 Y-179.432
X-11.303 Y-179.454
X-10.924 Y-179.447
X-10.555 Y-179.414
X-10.247 Y-179.366
X-9.931 Y-179.293
X-9.669 Y-179.213
X-9.572 Y-179.176
X-9.273 Y-179.026
X-9.01 Y-178.819
X-8.794 Y-178.564
X-8.633 Y-178.271
X-8.534 Y-177.952
X-8.5 Y-177.619
Y-176.06
G3 X-9.067 Y-175.482 I-0.6 J-0.021
G1 X-15.868 Y-175.115
G3 X-16.5 Y-175.693 I-0.032 J-0.599
G1 Y-177.216
X-16.492 Y-177.379
X-16.474 Y-177.528
X-16.442 Y-177.69
X-16.398 Y-177.857
X-16.333 Y-178.044
X-16.253 Y-178.234
X-16.149 Y-178.44
X-16.02 Y-178.654
X-15.87 Y-178.87
X-15.685 Y-179.1
X-15.478 Y-179.324
X-15.236 Y-179.551
X-14.955 Y-179.781
X-14.65 Y-179.997
X-14.314 Y-180.202
X-13.942 Y-180.394
X-13.539 Y-180.569
X-13.117 Y-180.717
X-12.682 Y-180.838
X-12.244 Y-180.927
X-11.803 Y-180.985
X-11.37 Y-181.012
X-10.988 Y-181.009
X-10.608 Y-180.98
X-10.298 Y-180.934
X-9.978 Y-180.864
X-9.709 Y-180.786
X-9.589 Y-180.742
X-9.286 Y-180.593
X-9.019 Y-180.387
X-8.799 Y-180.131
X-8.635 Y-179.836
X-8.534 Y-179.514
X-8.5 Y-179.178
Y-177.619
G3 X-8.554 Y-177.391 I-0.6 J-0.021
X-9.064 Y-177.041 I-0.546 J-0.249
G1 X-15.865 Y-176.638
G3 X-16.5 Y-177.216 I-0.035 J-0.599
G1 Y-178.74
X-16.49 Y-178.937
X-16.472 Y-179.086
X-16.441 Y-179.246
X-16.396 Y-179.416
X-16.333 Y-179.598
X-16.251 Y-179.794
X-16.15 Y-179.994
X-16.02 Y-180.211
X-15.871 Y-180.425
X-15.688 Y-180.653
X-15.476 Y-180.883
X-15.239 Y-181.107
X-14.961 Y-181.335
X-14.649 Y-181.556
X-14.315 Y-181.76
X-13.947 Y-181.951
X-13.546 Y-182.125
X-13.126 Y-182.273
X-12.69 Y-182.394
X-12.251 Y-182.484
X-11.81 Y-182.543
X-11.375 Y-182.57
X-10.993 Y-182.568
X-10.612 Y-182.539
X-10.302 Y-182.494
X-9.981 Y-182.424
X-9.714 Y-182.346
X-9.591 Y-182.301
X-9.287 Y-182.152
X-9.02 Y-181.946
X-8.8 Y-181.69
X-8.636 Y-181.395
X-8.534 Y-181.073
X-8.5 Y-180.737
Y-179.178
G3 X-9.061 Y-178.6 I-0.6 J-0.021
G1 X-15.862 Y-178.162
G3 X-16.5 Y-178.74 I-0.039 J-0.599
G1 Y-180.383
X-16.493 Y-180.532
X-16.471 Y-180.684
X-16.437 Y-180.844
X-16.385 Y-181.022
X-16.319 Y-181.205
X-16.229 Y-181.407
X-16.122 Y-181.608
X-15.986 Y-181.827
X-15.827 Y-182.047
X-15.639 Y-182.271
X-15.415 Y-182.505
X-15.167 Y-182.729
X-14.885 Y-182.952
X-14.564 Y-183.171
X-14.211 Y-183.376
X-13.837 Y-183.561
X-13.433 Y-183.727
X-13.01 Y-183.868
X-12.57 Y-183.981
X-12.13 Y-184.062
X-11.687 Y-184.112
X-11.262 Y-184.131
X-10.882 Y-184.121
X-10.522 Y-184.087
X-10.213 Y-184.036
X-9.902 Y-183.962
X-9.642 Y-183.881
X-9.561 Y-183.849
X-9.265 Y-183.698
X-9.004 Y-183.491
X-8.791 Y-183.236
X-8.631 Y-182.945
X-8.533 Y-182.627
X-8.5 Y-182.296
Y-180.737
G3 X-9.068 Y-180.158 I-0.6 J-0.021
G1 X-15.869 Y-179.804
G3 X-16.5 Y-180.383 I-0.031 J-0.599
G1 Y-181.906
X-16.493 Y-182.056
X-16.475 Y-182.205
X-16.443 Y-182.368
X-16.398 Y-182.533
X-16.334 Y-182.721
X-16.254 Y-182.91
X-16.148 Y-183.118
X-16.022 Y-183.329
X-15.87 Y-183.548
X-15.684 Y-183.778
X-15.478 Y-184
X-15.234 Y-184.23
X-14.954 Y-184.459
X-14.652 Y-184.673
X-14.314 Y-184.879
X-13.939 Y-185.072
X-13.535 Y-185.247
X-13.114 Y-185.395
X-12.68 Y-185.515
X-12.241 Y-185.604
X-11.801 Y-185.663
X-11.368 Y-185.689
X-10.987 Y-185.686
X-10.607 Y-185.657
X-10.296 Y-185.611
X-9.978 Y-185.542
X-9.707 Y-185.462
X-9.589 Y-185.419
X-9.286 Y-185.27
X-9.019 Y-185.064
X-8.799 Y-184.808
X-8.635 Y-184.513
X-8.534 Y-184.191
X-8.5 Y-183.855
Y-182.296
G3 X-8.554 Y-182.068 I-0.6 J-0.021
X-9.065 Y-181.718 I-0.546 J-0.249
G1 X-15.866 Y-181.328
G3 X-16.5 Y-181.906 I-0.034 J-0.599
G1 Y-183.429
X-16.491 Y-183.614
X-16.473 Y-183.763
X-16.442 Y-183.923
X-16.397 Y-184.093
X-16.334 Y-184.275
X-16.252 Y-184.47
X-16.151 Y-184.67
X-16.021 Y-184.888
X-15.872 Y-185.102
X-15.689 Y-185.33
X-15.477 Y-185.56
X-15.239 Y-185.784
X-14.961 Y-186.012
X-14.649 Y-186.233
X-14.315 Y-186.437
X-13.946 Y-186.628
X-13.546 Y-186.802
X-13.126 Y-186.951
X-12.69 Y-187.072
X-12.251 Y-187.161
X-11.81 Y-187.22
X-11.375 Y-187.247
X-10.993 Y-187.245
X-10.612 Y-187.216
X-10.302 Y-187.171
X-9.981 Y-187.101
X-9.714 Y-187.023
X-9.591 Y-186.978
X-9.287 Y-186.83
X-9.02 Y-186.623
X-8.8 Y-186.367
X-8.636 Y-186.072
X-8.534 Y-185.75
X-8.5 Y-185.414
Y-183.855
G3 X-8.554 Y-183.628 I-0.6 J-0.021
X-9.062 Y-183.278 I-0.546 J-0.249
G1 X-15.863 Y-182.851
G3 X-16.5 Y-183.429 I-0.038 J-0.599
G1 Y-185.05
X-16.493 Y-185.2
X-16.472 Y-185.35
X-16.439 Y-185.51
X-16.389 Y-185.686
X-16.324 Y-185.868
X-16.235 Y-186.069
X-16.13 Y-186.27
X-15.996 Y-186.489
X-15.839 Y-186.707
X-15.653 Y-186.932
X-15.431 Y-187.166
X-15.188 Y-187.389
X-14.906 Y-187.613
X-14.587 Y-187.833
X-14.239 Y-188.038
X-13.868 Y-188.224
X-13.465 Y-188.393
X-13.042 Y-188.535
X-12.603 Y-188.651
X-12.163 Y-188.734
X-11.72 Y-188.787
X-11.291 Y-188.808
X-10.913 Y-188.8
X-10.546 Y-188.767
X-10.237 Y-188.718
X-9.923 Y-188.645
X-9.662 Y-188.564
X-9.569 Y-188.529
X-9.271 Y-188.378
X-9.009 Y-188.172
X-8.793 Y-187.917
X-8.632 Y-187.624
X-8.533 Y-187.305
X-8.5 Y-186.973
Y-185.414
G3 X-9.068 Y-184.836 I-0.6 J-0.021
G1 X-15.868 Y-184.472
G3 X-16.5 Y-185.05 I-0.032 J-0.599
G1 Y-186.574
X-16.492 Y-186.732
X-16.474 Y-186.881
X-16.442 Y-187.044
X-16.398 Y-187.21
X-16.334 Y-187.398
X-16.253 Y-187.588
X-16.149 Y-187.794
X-16.021 Y-188.007
X-15.87 Y-188.224
X-15.685 Y-188.454
X-15.478 Y-188.677
X-15.236 Y-188.905
X-14.955 Y-189.135
X-14.651 Y-189.35
X-14.314 Y-189.555
X-13.941 Y-189.748
X-13.538 Y-189.923
X-13.117 Y-190.071
X-12.682 Y-190.192
X-12.243 Y-190.281
X-11.803 Y-190.339
X-11.37 Y-190.366
X-10.988 Y-190.363
X-10.608 Y-190.334
X-10.298 Y-190.288
X-9.978 Y-190.218
X-9.708 Y-190.139
X-9.589 Y-190.096
X-9.286 Y-189.947
X-9.019 Y-189.741
X-8.799 Y-189.485
X-8.635 Y-189.19
X-8.534 Y-188.868
X-8.5 Y-188.532
Y-186.973
G3 X-9.064 Y-186.395 I-0.6 J-0.021
G1 X-15.865 Y-185.996
G3 X-16.5 Y-186.574 I-0.035 J-0.599
G1 Y-188.097
X-16.49 Y-188.291
X-16.472 Y-188.44
X-16.441 Y-188.6
X-16.396 Y-188.77
X-16.334 Y-188.952
X-16.251 Y-189.148
X-16.15 Y-189.347
X-16.02 Y-189.565
X-15.872 Y-189.779
X-15.689 Y-190.007
X-15.476 Y-190.237
X-15.239 Y-190.461
X-14.961 Y-190.688
X-14.649 Y-190.91
X-14.315 Y-191.114
X-13.946 Y-191.305
X-13.546 Y-191.478
X-13.126 Y-191.627
X-12.69 Y-191.748
X-12.251 Y-191.838
X-11.81 Y-191.897
X-11.375 Y-191.924
X-10.993 Y-191.922
X-10.612 Y-191.893
X-10.302 Y-191.848
X-9.981 Y-191.778
X-9.714 Y-191.7
X-9.591 Y-191.655
X-9.287 Y-191.506
X-9.02 Y-191.3
X-8.8 Y-191.044
X-8.636 Y-190.749
X-8.534 Y-190.427
X-8.5 Y-190.091
Y-188.532
G3 X-9.061 Y-187.954 I-0.6 J-0.021
G1 X-15.862 Y-187.519
G3 X-16.5 Y-188.097 I-0.038 J-0.599
G1 Y-189.74
X-16.493 Y-189.89
X-16.47 Y-190.042
X-16.436 Y-190.202
X-16.384 Y-190.381
X-16.317 Y-190.563
X-16.227 Y-190.766
X-16.119 Y-190.968
X-15.983 Y-191.186
X-15.822 Y-191.407
X-15.634 Y-191.631
X-15.409 Y-191.865
X-15.16 Y-192.09
X-14.877 Y-192.311
X-14.556 Y-192.53
X-14.202 Y-192.735
X-13.826 Y-192.92
X-13.422 Y-193.086
X-12.999 Y-193.225
X-12.559 Y-193.338
X-12.118 Y-193.418
X-11.675 Y-193.467
X-11.252 Y-193.485
X-10.872 Y-193.475
X-10.514 Y-193.44
X-10.204 Y-193.388
X-9.895 Y-193.314
X-9.635 Y-193.232
X-9.558 Y-193.202
X-9.263 Y-193.05
X-9.003 Y-192.844
X-8.79 Y-192.589
X-8.631 Y-192.298
X-8.533 Y-191.981
X-8.5 Y-191.65
Y-190.091
G3 X-9.069 Y-189.512 I-0.6 J-0.021
G1 X-15.869 Y-189.162
G3 X-16.5 Y-189.74 I-0.031 J-0.599
G1 Y-191.263
X-16.493 Y-191.413
X-16.474 Y-191.562
X-16.442 Y-191.725
X-16.397 Y-191.891
X-16.332 Y-192.079
X-16.252 Y-192.268
X-16.146 Y-192.477
X-16.019 Y-192.687
X-15.866 Y-192.907
X-15.68 Y-193.137
X-15.474 Y-193.359
X-15.229 Y-193.589
X-14.948 Y-193.817
X-14.645 Y-194.031
X-14.306 Y-194.237
X-13.93 Y-194.431
X-13.527 Y-194.605
X-13.105 Y-194.752
X-12.671 Y-194.872
X-12.232 Y-194.96
X-11.792 Y-195.017
X-11.359 Y-195.044
X-10.979 Y-195.04
X-10.6 Y-195.01
X-10.289 Y-194.964
X-9.972 Y-194.894
X-9.701 Y-194.815
X-9.587 Y-194.772
X-9.284 Y-194.623
X-9.018 Y-194.417
X-8.798 Y-194.161
X-8.635 Y-193.867
X-8.534 Y-193.545
X-8.5 Y-193.21
Y-191.65
G3 X-9.066 Y-191.072 I-0.6 J-0.021
G1 X-15.866 Y-190.685
G3 X-16.5 Y-191.263 I-0.034 J-0.599
G1 Y-192.786
X-16.491 Y-192.968
X-16.473 Y-193.117
X-16.442 Y-193.278
X-16.397 Y-193.447
X-16.334 Y-193.63
X-16.252 Y-193.825
X-16.15 Y-194.025
X-16.02 Y-194.243
X-15.872 Y-194.457
X-15.688 Y-194.685
X-15.476 Y-194.914
X-15.238 Y-195.139
X-14.959 Y-195.367
X-14.648 Y-195.588
X-14.314 Y-195.791
X-13.945 Y-195.983
X-13.544 Y-196.157
X-13.124 Y-196.305
X-12.688 Y-196.426
X-12.249 Y-196.516
X-11.808 Y-196.574
X-11.373 Y-196.602
X-10.991 Y-196.599
X-10.611 Y-196.57
X-10.301 Y-196.525
X-9.98 Y-196.455
X-9.712 Y-196.377
X-9.591 Y-196.332
X-9.287 Y-196.184
X-9.02 Y-195.977
X-8.8 Y-195.721
X-8.635 Y-195.426
X-8.534 Y-195.104
X-8.5 Y-194.768
Y-193.21
G3 X-9.062 Y-192.632 I-0.6 J-0.021
G1 X-15.863 Y-192.208
G3 X-16.5 Y-192.786 I-0.037 J-0.599
G1 Y-194.408
X-16.493 Y-194.557
X-16.472 Y-194.708
X-16.438 Y-194.868
X-16.388 Y-195.045
X-16.322 Y-195.227
X-16.233 Y-195.428
X-16.128 Y-195.629
X-15.992 Y-195.848
X-15.835 Y-196.067
X-15.649 Y-196.292
X-15.426 Y-196.525
X-15.181 Y-196.749
X-14.899 Y-196.972
X-14.579 Y-197.192
X-14.23 Y-197.398
X-13.858 Y-197.583
X-13.455 Y-197.751
X-13.032 Y-197.893
X-12.593 Y-198.007
X-12.152 Y-198.09
X-11.709 Y-198.142
X-11.282 Y-198.162
X-10.903 Y-198.154
X-10.538 Y-198.12
X-10.229 Y-198.07
X-9.916 Y-197.997
X-9.655 Y-197.916
X-9.566 Y-197.882
X-9.269 Y-197.731
X-9.007 Y-197.525
X-8.792 Y-197.27
X-8.632 Y-196.977
X-8.533 Y-196.659
X-8.5 Y-196.327
Y-194.768
G3 X-9.068 Y-194.19 I-0.6 J-0.021
G1 X-15.869 Y-193.829
G3 X-16.5 Y-194.408 I-0.032 J-0.599
G1 Y-195.931
X-16.492 Y-196.086
X-16.474 Y-196.235
X-16.443 Y-196.398
X-16.398 Y-196.564
X-16.334 Y-196.752
X-16.253 Y-196.941
X-16.149 Y-197.148
X-16.022 Y-197.361
X-15.87 Y-197.578
X-15.685 Y-197.808
X-15.479 Y-198.031
X-15.236 Y-198.26
X-14.955 Y-198.489
X-14.652 Y-198.704
X-14.315 Y-198.909
X-13.941 Y-199.103
X-13.538 Y-199.277
X-13.117 Y-199.426
X-12.682 Y-199.546
X-12.243 Y-199.635
X-11.803 Y-199.693
X-11.37 Y-199.72
X-10.989 Y-199.717
X-10.609 Y-199.688
X-10.298 Y-199.643
X-9.979 Y-199.573
X-9.708 Y-199.494
X-9.589 Y-199.45
X-9.286 Y-199.302
X-9.019 Y-199.095
X-8.799 Y-198.839
X-8.635 Y-198.544
X-8.534 Y-198.222
X-8.5 Y-197.886
Y-196.327
G3 X-8.554 Y-196.099 I-0.6 J-0.021
X-9.065 Y-195.749 I-0.546 J-0.249
G1 X-15.865 Y-195.353
G3 X-16.5 Y-195.931 I-0.035 J-0.599
G1 Y-197.454
X-16.49 Y-197.645
X-16.473 Y-197.794
X-16.442 Y-197.954
X-16.396 Y-198.124
X-16.334 Y-198.306
X-16.251 Y-198.502
X-16.15 Y-198.701
X-16.02 Y-198.919
X-15.872 Y-199.133
X-15.689 Y-199.361
X-15.476 Y-199.591
X-15.239 Y-199.815
X-14.961 Y-200.043
X-14.649 Y-200.264
X-14.315 Y-200.468
X-13.946 Y-200.659
X-13.546 Y-200.833
X-13.126 Y-200.981
X-12.69 Y-201.103
X-12.251 Y-201.192
X-11.81 Y-201.251
X-11.375 Y-201.278
X-10.993 Y-201.276
X-10.612 Y-201.247
X-10.302 Y-201.202
X-9.981 Y-201.132
X-9.714 Y-201.054
X-9.591 Y-201.009
X-9.287 Y-200.861
X-9.02 Y-200.654
X-8.8 Y-200.398
X-8.636 Y-200.103
X-8.534 Y-199.781
X-8.5 Y-199.445
Y-197.886
G3 X-9.062 Y-197.309 I-0.6 J-0.021
G1 X-15.862 Y-196.876
G3 X-16.5 Y-197.454 I-0.038 J-0.599
G1 Y-199.097
X-16.493 Y-199.247
X-16.47 Y-199.4
X-16.435 Y-199.56
X-16.383 Y-199.739
X-16.316 Y-199.922
X-16.225 Y-200.125
X-16.117 Y-200.327
X-15.98 Y-200.545
X-15.818 Y-200.767
X-15.63 Y-200.991
X-15.404 Y-201.224
X-15.154 Y-201.449
X-14.871 Y-201.671
X-14.548 Y-201.889
X-14.193 Y-202.094
X-13.817 Y-202.279
X-13.412 Y-202.444
X-12.989 Y-202.583
X-12.549 Y-202.694
X-12.108 Y-202.774
X-11.664 Y-202.823
X-11.244 Y-202.84
X-10.862 Y-202.829
X-10.507 Y-202.793
X-10.197 Y-202.741
X-9.889 Y-202.667
X-9.629 Y-202.584
X-9.555 Y-202.555
X-9.261 Y-202.404
X-9.002 Y-202.197
X-8.789 Y-201.943
X-8.631 Y-201.652
X-8.533 Y-201.335
X-8.5 Y-201.005
Y-199.445
G3 X-8.554 Y-199.217 I-0.6 J-0.021
X-9.069 Y-198.867 I-0.546 J-0.249
G1 X-15.87 Y-198.519
G3 X-16.5 Y-199.097 I-0.031 J-0.599
G1 Y-200.62
X-16.493 Y-200.77
X-16.474 Y-200.919
X-16.442 Y-201.082
X-16.397 Y-201.249
X-16.331 Y-201.437
X-16.251 Y-201.626
X-16.144 Y-201.835
X-16.017 Y-202.045
X-15.863 Y-202.265
X-15.677 Y-202.495
X-15.47 Y-202.718
X-15.224 Y-202.948
X-14.943 Y-203.176
X-14.64 Y-203.389
X-14.299 Y-203.595
X-13.923 Y-203.789
X-13.519 Y-203.962
X-13.097 Y-204.109
X-12.663 Y-204.228
X-12.223 Y-204.316
X-11.783 Y-204.373
X-11.351 Y-204.398
X-10.971 Y-204.394
X-10.594 Y-204.364
X-10.284 Y-204.318
X-9.966 Y-204.247
X-9.696 Y-204.168
X-9.585 Y-204.126
X-9.283 Y-203.977
X-9.017 Y-203.771
X-8.798 Y-203.515
X-8.635 Y-203.22
X-8.534 Y-202.899
X-8.5 Y-202.564
Y-201.005
G3 X-9.066 Y-200.427 I-0.6 J-0.021
G1 X-15.866 Y-200.042
G3 X-16.5 Y-200.62 I-0.034 J-0.599
G1 Y-202.144
X-16.491 Y-202.323
X-16.473 Y-202.472
X-16.442 Y-202.633
X-16.397 Y-202.802
X-16.334 Y-202.985
X-16.252 Y-203.179
X-16.15 Y-203.38
X-16.02 Y-203.598
X-15.871 Y-203.812
X-15.687 Y-204.041
X-15.476 Y-204.269
X-15.237 Y-204.494
X-14.958 Y-204.722
X-14.648 Y-204.943
X-14.314 Y-205.146
X-13.944 Y-205.338
X-13.543 Y-205.512
X-13.123 Y-205.66
X-12.687 Y-205.781
X-12.248 Y-205.87
X-11.807 Y-205.929
X-11.372 Y-205.956
X-10.99 Y-205.954
X-10.61 Y-205.925
X-10.3 Y-205.879
X-9.98 Y-205.81
X-9.712 Y-205.731
X-9.59 Y-205.687
X-9.287 Y-205.538
X-9.02 Y-205.332
X-8.799 Y-205.076
X-8.635 Y-204.781
X-8.534 Y-204.459
X-8.5 Y-204.123
Y-202.564
G3 X-9.063 Y-201.986 I-0.6 J-0.021
G1 X-15.863 Y-201.566
G3 X-16.5 Y-202.144 I-0.037 J-0.599
G1 Y-203.765
X-16.493 Y-203.915
X-16.471 Y-204.066
X-16.437 Y-204.226
X-16.387 Y-204.403
X-16.321 Y-204.585
X-16.232 Y-204.787
X-16.126 Y-204.988
X-15.99 Y-205.207
X-15.832 Y-205.426
X-15.645 Y-205.651
X-15.421 Y-205.885
X-15.175 Y-206.108
X-14.893 Y-206.331
X-14.572 Y-206.551
X-14.222 Y-206.756
X-13.849 Y-206.942
X-13.446 Y-207.109
X-13.023 Y-207.25
X-12.583 Y-207.364
X-12.143 Y-207.446
X-11.7 Y-207.497
X-11.273 Y-207.517
X-10.894 Y-207.508
X-10.531 Y-207.474
X-10.222 Y-207.424
X-9.91 Y-207.35
X-9.65 Y-207.269
X-9.564 Y-207.236
X-9.267 Y-207.085
X-9.006 Y-206.878
X-8.791 Y-206.624
X-8.632 Y-206.331
X-8.533 Y-206.013
X-8.5 Y-205.682
Y-204.123
G3 X-9.068 Y-203.544 I-0.6 J-0.021
G1 X-15.869 Y-203.187
G3 X-16.5 Y-203.765 I-0.032 J-0.599
G1 Y-205.288
X-16.492 Y-205.441
X-16.475 Y-205.59
X-16.443 Y-205.753
X-16.398 Y-205.918
X-16.334 Y-206.106
X-16.254 Y-206.295
X-16.149 Y-206.503
X-16.022 Y-206.714
X-15.87 Y-206.932
X-15.685 Y-207.163
X-15.479 Y-207.385
X-15.236 Y-207.614
X-14.956 Y-207.843
X-14.653 Y-208.058
X-14.315 Y-208.264
X-13.941 Y-208.457
X-13.538 Y-208.632
X-13.117 Y-208.78
X-12.682 Y-208.901
X-12.243 Y-208.99
X-11.803 Y-209.048
X-11.371 Y-209.075
X-10.989 Y-209.072
X-10.609 Y-209.043
X-10.298 Y-208.997
X-9.979 Y-208.928
X-9.708 Y-208.849
X-9.59 Y-208.805
X-9.286 Y-208.656
X-9.019 Y-208.45
X-8.799 Y-208.194
X-8.635 Y-207.899
X-8.534 Y-207.577
X-8.5 Y-207.241
Y-205.682
G3 X-8.554 Y-205.454 I-0.6 J-0.021
X-9.065 Y-205.104 I-0.546 J-0.249
G1 X-15.866 Y-204.71
G3 X-16.5 Y-205.288 I-0.035 J-0.599
G1 Y-206.811
X-16.491 Y-207
X-16.473 Y-207.148
X-16.442 Y-207.309
X-16.396 Y-207.479
X-16.334 Y-207.661
X-16.251 Y-207.856
X-16.15 Y-208.056
X-16.02 Y-208.274
X-15.872 Y-208.488
X-15.689 Y-208.716
X-15.477 Y-208.946
X-15.239 Y-209.17
X-14.961 Y-209.397
X-14.649 Y-209.619
X-14.315 Y-209.823
X-13.946 Y-210.014
X-13.546 Y-210.188
X-13.126 Y-210.336
X-12.69 Y-210.457
X-12.252 Y-210.547
X-11.81 Y-210.606
X-11.375 Y-210.633
X-10.993 Y-210.631
X-10.612 Y-210.602
X-10.302 Y-210.557
X-9.982 Y-210.487
X-9.714 Y-210.409
X-9.591 Y-210.364
X-9.287 Y-210.216
X-9.02 Y-210.009
X-8.8 Y-209.753
X-8.636 Y-209.458
X-8.534 Y-209.136
X-8.5 Y-208.8
Y-207.241
G3 X-9.062 Y-206.663 I-0.6 J-0.021
G1 X-15.863 Y-206.234
G3 X-16.5 Y-206.811 I-0.038 J-0.599
G1 Y-208.335
X-16.489 Y-208.559
X-16.471 Y-208.708
X-16.44 Y-208.867
X-16.395 Y-209.037
X-16.332 Y-209.22
X-16.249 Y-209.416
X-16.149 Y-209.616
X-16.019 Y-209.833
X-15.87 Y-210.047
X-15.688 Y-210.275
X-15.475 Y-210.505
X-15.238 Y-210.728
X-14.961 Y-210.955
X-14.649 Y-211.177
X-14.315 Y-211.381
X-13.947 Y-211.572
X-13.547 Y-211.745
X-13.127 Y-211.894
X-12.691 Y-212.015
X-12.252 Y-212.105
X-11.81 Y-212.164
X-11.376 Y-212.191
X-10.994 Y-212.189
X-10.613 Y-212.16
X-10.303 Y-212.115
X-9.982 Y-212.046
X-9.714 Y-211.968
X-9.591 Y-211.922
X-9.288 Y-211.774
X-9.02 Y-211.568
X-8.8 Y-211.312
X-8.636 Y-211.016
X-8.534 Y-210.694
X-8.5 Y-210.358
Y-208.8
G3 X-9.059 Y-208.222 I-0.6 J-0.021
G1 X-15.859 Y-207.757
G3 X-16.446 Y-208.107 I-0.041 J-0.599
X-16.5 Y-208.335 I0.546 J-0.249
G1 Y-209.978
