%
(1001)
(z0 mdf bottom machine -5-5)
(T1  D=12.7 CR=0 - ZMIN=15 - flat end mill)
G90 G94
G17
G21

(lid flange contour 2)
M9
T1 M6
S6000 M3
G54
M9
G0 X-244.36 Y-31.031
Z37
Z27
G1 Z25.77 F283.3
G18 G2 X-243.09 Z24.5 I1.27
G1 X-241.82 F850
G17 G3 X-240.55 Y-29.761 J1.27
G1 Y-18.5 Z24.107 F283.3
G2 X-227 Y-4.95 Z23.364 I13.55
G1 X-145 Z20.5
X-63 F850
G2 X-49.45 Y-18.5 J-13.55
G1 Y-126.5
G2 X-63 Y-140.05 I-13.55
G1 X-227
G2 X-240.55 Y-126.5 J13.55
G1 Y-18.5
G2 X-227 Y-4.95 I13.55
G1 X-145
X-102.046 Z19 F283.3
X-63 F850
G2 X-49.45 Y-18.5 J-13.55
G1 Y-126.5
G2 X-63 Y-140.05 I-13.55
G1 X-227
G2 X-240.55 Y-126.5 J13.55
G1 Y-18.5
G2 X-227 Y-4.95 I13.55
G1 X-145
X-102.046
X-63 Z17.636 F283.3
G2 X-59.145 Y-5.51 Z17.5 J-13.55
X-49.45 Y-18.5 I-3.855 J-12.99 F850
G1 Y-126.5
G2 X-63 Y-140.05 I-13.55
G1 X-227
G2 X-240.55 Y-126.5 J13.55
G1 Y-18.5
G2 X-227 Y-4.95 I13.55
G1 X-102.046
X-63
G2 X-59.145 Y-5.51 J-13.55
X-49.45 Y-18.5 Z16.893 I-3.855 J-12.99 F283.3
G1 Y-44.079 Z16
Y-126.5 F850
G2 X-63 Y-140.05 I-13.55
G1 X-227
G2 X-240.55 Y-126.5 J13.55
G1 Y-18.5
G2 X-227 Y-4.95 I13.55
G1 X-63
G2 X-49.45 Y-18.5 J-13.55
G1 Y-44.079
Y-72.715 Z15 F283.3
Y-126.5 F850
G2 X-63 Y-140.05 I-13.55
G1 X-227
G2 X-240.55 Y-126.5 J13.55
G1 Y-18.5
G2 X-227 Y-4.95 I13.55
G1 X-63
G2 X-49.45 Y-18.5 J-13.55
G1 Y-72.715
G0 Z37
M9
M30
%
