%
(1001)
(z0 mdf bottom machine -5-5)
(T1  D=12.7 CR=0 - ZMIN=10 - flat end mill)
G90 G94
G17
G21

(Face1)
M9
T1 M6
S6000 M3
G54
M8
G0 X7.255 Y-137.056
Z62
Z52
G1 Z46.77 F850
G18 G3 X5.985 Z45.5 I-1.27
G1 X-1
X-211
G17 G2 Y-125.383 J5.837
G1 X-194.045
G3 Y-113.71 J5.837
G1 X-196
X-211
G2 Y-102.037 J5.837
G1 X-196
G3 Y-90.364 J5.837
G1 X-211
G2 Y-78.691 J5.837
G1 X-196
G3 Y-67.018 J5.837
G1 X-211
G2 Y-55.345 J5.837
G1 X-196
G3 Y-43.672 J5.837
G1 X-211
G2 Y-31.999 J5.837
G1 X-196
X-194.595
G3 Y-20.326 J5.837
G1 X-211
G18 G3 X-212.27 Z46.77 K1.27
G0 Z52
X-24.255 Y-125.383
G1 Z46.77 F850
G2 X-22.985 Z45.5 I1.27
G1 X-17.955
X-1
G17 G3 Y-113.71 J5.837
G1 X-16
G2 Y-102.037 J5.837
G1 X-1
G3 Y-90.364 J5.837
G1 X-16
G2 Y-78.691 J5.837
G1 X-1
G3 Y-67.018 J5.837
G1 X-16
G2 Y-55.345 J5.837
G1 X-1
G3 Y-43.672 J5.837
G1 X-16
G2 Y-31.999 J5.837
G1 X-1
G3 Y-20.326 J5.837
G1 X-17.405
G18 G3 X-18.675 Z46.77 K1.27
G0 Z52
X7.255 Y-8.653
G1 Z46.77 F850
G3 X5.985 Z45.5 I-1.27
G1 X-1
X-211
G3 X-212.27 Z46.77 K1.27
G0 Z52
X-219.255 Y-137.056
G1 Z45.27 F850
G2 X-217.985 Z44 I1.27
G1 X-211
X-1
G17 G3 Y-125.383 J5.837
G1 X-17.955
G2 Y-113.71 J5.837
G1 X-16
X-1
G3 Y-102.037 J5.837
G1 X-16
G2 Y-90.364 J5.837
G1 X-1
G3 Y-78.691 J5.837
G1 X-16
G2 Y-67.018 J5.837
G1 X-1
G3 Y-55.345 J5.837
G1 X-16
G2 Y-43.672 J5.837
G1 X-1
G3 Y-31.999 J5.837
G1 X-16
X-17.405
G2 Y-20.326 J5.837
G1 X-1
G18 G2 X0.27 Z45.27 K1.27
G0 Z52
X-187.745 Y-125.383
G1 Z45.27 F850
G3 X-189.015 Z44 I-1.27
G1 X-194.045
X-211
G17 G2 Y-113.71 J5.837
G1 X-196
G3 Y-102.037 J5.837
G1 X-211
G2 Y-90.364 J5.837
G1 X-196
G3 Y-78.691 J5.837
G1 X-211
G2 Y-67.018 J5.837
G1 X-196
G3 Y-55.345 J5.837
G1 X-211
G2 Y-43.672 J5.837
G1 X-196
G3 Y-31.999 J5.837
G1 X-211
G2 Y-20.326 J5.837
G1 X-194.595
G18 G2 X-193.325 Z45.27 K1.27
G0 Z52
X-219.255 Y-8.653
G1 Z45.27 F850
G2 X-217.985 Z44 I1.27
G1 X-211
X-1
G2 X0.27 Z45.27 K1.27
G0 Z62
G17

(2D Adaptive2)
M8
G0 X-128.105 Y-70.539
Z62
Z52
Z50.77
G1 Z49.5 F850
G3 X-139.515 Y-74.461 Z48.838 I-5.705 J-1.961 F283.3
X-128.105 Y-70.539 Z48.176 I5.705 J1.961
X-139.515 Y-74.461 Z47.515 I-5.705 J-1.961
X-128.105 Y-70.539 Z46.853 I5.705 J1.961
X-139.515 Y-74.461 Z46.191 I-5.705 J-1.961
X-128.105 Y-70.539 Z45.529 I5.705 J1.961
X-139.515 Y-74.461 Z44.867 I-5.705 J-1.961
X-128.105 Y-70.539 Z44.206 I5.705 J1.961
X-139.515 Y-74.461 Z43.544 I-5.705 J-1.961
X-128.105 Y-70.539 Z42.882 I5.705 J1.961
X-139.515 Y-74.461 Z42.22 I-5.705 J-1.961
X-128.105 Y-70.539 Z41.558 I5.705 J1.961
X-139.515 Y-74.461 Z40.897 I-5.705 J-1.961
X-128.105 Y-70.539 Z40.235 I5.705 J1.961
X-139.515 Y-74.461 Z39.573 I-5.705 J-1.961
X-128.105 Y-70.539 Z38.911 I5.705 J1.961
X-139.515 Y-74.461 Z38.249 I-5.705 J-1.961
X-128.105 Y-70.539 Z37.587 I5.705 J1.961
X-139.515 Y-74.461 Z36.926 I-5.705 J-1.961
X-128.105 Y-70.539 Z36.264 I5.705 J1.961
X-139.515 Y-74.461 Z35.602 I-5.705 J-1.961
X-127.777 Y-72.5 Z35.01 I5.705 J1.961
X-139.842 I-6.033
X-128.054 Y-74.305 I6.033
X-127.777 Y-72.5 I-5.756 J1.805
G1 X-127.774 Y-72.164 F850
X-127.645 Y-70.828
X-127.622 Y-70.748
X-127.587 Y-70.602
X-127.561 Y-70.454
X-127.543 Y-70.301
X-127.532 Y-70.135
X-127.531 Y-69.957
X-127.54 Y-69.767
X-127.56 Y-69.565
X-127.593 Y-69.353
X-127.64 Y-69.132
X-127.701 Y-68.902
X-127.779 Y-68.665
X-127.874 Y-68.423
X-127.985 Y-68.176
X-128.115 Y-67.926
X-128.264 Y-67.675
X-128.431 Y-67.425
X-128.617 Y-67.176
X-128.822 Y-66.931
X-129.045 Y-66.692
X-129.287 Y-66.459
X-129.547 Y-66.235
X-129.824 Y-66.021
X-130.118 Y-65.818
X-130.428 Y-65.629
X-130.752 Y-65.454
X-131.09 Y-65.295
X-131.441 Y-65.152
X-131.804 Y-65.027
X-132.176 Y-64.921
X-132.558 Y-64.834
X-132.947 Y-64.767
X-133.342 Y-64.722
X-133.743 Y-64.697
X-134.146 Y-64.695
X-134.552 Y-64.714
X-134.958 Y-64.755
X-135.363 Y-64.819
X-135.766 Y-64.905
X-136.165 Y-65.013
X-136.559 Y-65.143
X-136.947 Y-65.295
X-137.327 Y-65.468
X-137.698 Y-65.662
X-138.059 Y-65.876
X-138.409 Y-66.11
X-138.746 Y-66.363
X-139.069 Y-66.634
X-139.378 Y-66.923
X-139.671 Y-67.229
X-139.947 Y-67.55
X-140.205 Y-67.886
X-140.446 Y-68.237
X-140.667 Y-68.6
X-140.868 Y-68.974
X-141.049 Y-69.36
X-141.209 Y-69.755
X-141.347 Y-70.158
X-141.463 Y-70.568
X-141.557 Y-70.984
X-141.628 Y-71.405
X-141.677 Y-71.829
X-141.702 Y-72.256
X-141.704 Y-72.683
X-141.683 Y-73.11
X-141.639 Y-73.535
X-141.571 Y-73.957
X-141.481 Y-74.375
X-141.369 Y-74.788
X-141.234 Y-75.194
X-141.078 Y-75.592
X-140.9 Y-75.981
X-140.701 Y-76.36
X-140.482 Y-76.728
X-140.243 Y-77.083
X-139.986 Y-77.425
X-139.71 Y-77.752
X-139.417 Y-78.064
X-139.107 Y-78.36
X-138.782 Y-78.638
X-138.442 Y-78.899
X-138.089 Y-79.14
X-137.722 Y-79.362
X-137.345 Y-79.564
X-136.957 Y-79.745
X-136.56 Y-79.905
X-136.154 Y-80.044
X-135.742 Y-80.16
X-135.324 Y-80.253
X-134.902 Y-80.324
X-134.476 Y-80.371
X-134.049 Y-80.396
X-133.62 Y-80.397
X-133.193 Y-80.375
X-132.767 Y-80.33
X-132.344 Y-80.262
X-131.925 Y-80.172
X-131.512 Y-80.058
X-131.106 Y-79.923
X-130.708 Y-79.765
X-130.319 Y-79.586
X-129.94 Y-79.387
X-129.572 Y-79.167
X-129.217 Y-78.927
X-128.875 Y-78.669
X-128.548 Y-78.392
X-128.237 Y-78.099
X-127.941 Y-77.788
X-127.663 Y-77.462
X-127.404 Y-77.122
X-127.162 Y-76.768
X-126.941 Y-76.401
X-126.74 Y-76.023
X-126.43 Y-75.357
X-126.097 Y-74.526
X-125.871 Y-73.859
X-125.705 Y-73.265
X-125.585 Y-72.726
X-125.5 Y-72.212
X-125.446 Y-71.723
X-125.42 Y-71.253
X-125.419 Y-70.796
X-125.443 Y-70.349
X-125.49 Y-69.911
X-125.56 Y-69.48
X-125.653 Y-69.056
X-125.768 Y-68.639
X-125.906 Y-68.229
X-126.066 Y-67.827
X-126.247 Y-67.433
X-126.451 Y-67.048
X-126.677 Y-66.671
X-126.925 Y-66.305
X-127.194 Y-65.951
X-127.485 Y-65.608
X-127.796 Y-65.279
X-128.128 Y-64.965
X-128.479 Y-64.667
X-128.848 Y-64.385
X-129.236 Y-64.122
X-129.64 Y-63.879
X-130.061 Y-63.656
X-130.496 Y-63.455
X-130.945 Y-63.276
X-131.406 Y-63.12
X-131.878 Y-62.989
X-132.359 Y-62.883
X-132.849 Y-62.803
X-133.346 Y-62.749
X-133.847 Y-62.722
X-134.352 Y-62.723
X-134.86 Y-62.75
X-135.367 Y-62.806
X-135.873 Y-62.889
X-136.376 Y-63
X-136.874 Y-63.139
X-137.366 Y-63.305
X-137.849 Y-63.498
X-138.323 Y-63.717
X-138.785 Y-63.963
X-139.235 Y-64.234
X-139.67 Y-64.53
X-140.09 Y-64.85
X-140.492 Y-65.192
X-140.876 Y-65.557
X-141.24 Y-65.942
X-141.584 Y-66.348
X-141.905 Y-66.772
X-142.203 Y-67.213
X-142.477 Y-67.67
X-142.727 Y-68.142
X-142.95 Y-68.627
X-143.147 Y-69.124
X-143.317 Y-69.632
X-143.46 Y-70.148
X-143.574 Y-70.672
X-143.66 Y-71.201
X-143.716 Y-71.734
X-143.744 Y-72.27
X-143.743 Y-72.807
X-143.713 Y-73.344
X-143.654 Y-73.878
X-143.566 Y-74.408
X-143.449 Y-74.933
X-143.304 Y-75.451
X-143.13 Y-75.961
X-142.93 Y-76.46
X-142.703 Y-76.948
X-142.449 Y-77.423
X-142.17 Y-77.884
X-141.867 Y-78.329
X-141.54 Y-78.756
X-141.19 Y-79.166
X-140.818 Y-79.556
X-140.426 Y-79.925
X-140.014 Y-80.273
X-139.584 Y-80.598
X-139.137 Y-80.899
X-138.674 Y-81.175
X-138.197 Y-81.426
X-137.707 Y-81.651
X-137.206 Y-81.849
X-136.694 Y-82.019
X-136.174 Y-82.161
X-135.647 Y-82.275
X-135.115 Y-82.36
X-134.579 Y-82.417
X-134.04 Y-82.444
X-133.501 Y-82.442
X-132.963 Y-82.41
X-132.427 Y-82.35
X-131.895 Y-82.261
X-131.369 Y-82.143
X-130.85 Y-81.996
X-130.34 Y-81.822
X-129.839 Y-81.62
X-129.351 Y-81.391
X-128.876 Y-81.137
X-128.415 Y-80.857
X-127.97 Y-80.552
X-127.542 Y-80.224
X-127.133 Y-79.873
X-126.716 Y-79.474
X-126.312 Y-79.043
X-125.898 Y-78.552
X-125.496 Y-78.017
X-125.118 Y-77.453
X-124.771 Y-76.87
X-124.459 Y-76.275
X-124.184 Y-75.671
X-123.945 Y-75.063
X-123.744 Y-74.455
X-123.579 Y-73.847
X-123.449 Y-73.242
X-123.354 Y-72.641
X-123.292 Y-72.046
X-123.264 Y-71.456
X-123.267 Y-70.873
X-123.301 Y-70.295
X-123.367 Y-69.725
X-123.462 Y-69.162
X-123.588 Y-68.607
X-123.743 Y-68.062
X-123.927 Y-67.526
X-124.14 Y-67.001
X-124.381 Y-66.488
X-124.65 Y-65.988
X-124.946 Y-65.503
X-125.27 Y-65.033
X-125.619 Y-64.579
X-125.994 Y-64.144
X-126.393 Y-63.728
X-126.816 Y-63.332
X-127.262 Y-62.958
X-127.73 Y-62.608
X-128.218 Y-62.281
X-128.726 Y-61.98
X-129.252 Y-61.706
X-129.795 Y-61.459
X-130.353 Y-61.242
X-130.925 Y-61.053
X-131.509 Y-60.896
X-132.104 Y-60.769
X-132.708 Y-60.675
X-133.319 Y-60.613
X-133.935 Y-60.584
X-134.554 Y-60.588
X-135.176 Y-60.627
X-135.796 Y-60.699
X-136.414 Y-60.805
X-137.028 Y-60.945
X-137.635 Y-61.119
X-138.234 Y-61.326
X-138.822 Y-61.565
X-139.398 Y-61.837
X-139.96 Y-62.141
X-140.506 Y-62.475
X-141.034 Y-62.84
X-141.543 Y-63.233
X-142.03 Y-63.654
X-142.495 Y-64.102
X-142.936 Y-64.575
X-143.351 Y-65.072
X-143.739 Y-65.591
X-144.098 Y-66.131
X-144.428 Y-66.691
X-144.728 Y-67.268
X-144.997 Y-67.862
X-145.233 Y-68.469
X-145.435 Y-69.09
X-145.604 Y-69.72
X-145.739 Y-70.359
X-145.839 Y-71.006
X-145.904 Y-71.657
X-145.934 Y-72.31
X-145.928 Y-72.965
X-145.886 Y-73.619
X-145.809 Y-74.27
X-145.697 Y-74.916
X-145.55 Y-75.555
X-145.368 Y-76.186
X-145.153 Y-76.806
X-144.904 Y-77.413
X-144.623 Y-78.007
X-144.309 Y-78.584
X-143.965 Y-79.144
X-143.591 Y-79.684
X-143.188 Y-80.203
X-142.758 Y-80.7
X-142.301 Y-81.172
X-141.819 Y-81.62
X-141.314 Y-82.04
X-140.786 Y-82.433
X-140.238 Y-82.796
X-139.671 Y-83.13
X-139.087 Y-83.432
X-138.487 Y-83.702
X-137.873 Y-83.939
X-137.248 Y-84.142
X-136.612 Y-84.312
X-135.968 Y-84.446
X-135.317 Y-84.546
X-134.662 Y-84.61
X-134.005 Y-84.638
X-133.347 Y-84.631
X-132.69 Y-84.588
X-132.037 Y-84.51
X-131.389 Y-84.396
X-130.748 Y-84.247
X-130.115 Y-84.064
X-129.494 Y-83.847
X-128.886 Y-83.596
X-128.286 Y-83.311
X-127.698 Y-82.99
X-127.115 Y-82.631
X-126.541 Y-82.231
X-125.978 Y-81.793
X-125.432 Y-81.318
X-124.906 Y-80.808
X-124.403 Y-80.264
X-123.925 Y-79.688
X-123.477 Y-79.083
X-123.061 Y-78.454
X-122.68 Y-77.803
X-122.336 Y-77.134
X-122.03 Y-76.452
X-121.764 Y-75.758
X-121.537 Y-75.056
X-121.35 Y-74.349
X-121.202 Y-73.638
X-121.095 Y-72.925
X-121.026 Y-72.212
X-120.997 Y-71.501
X-121.006 Y-70.793
X-121.053 Y-70.09
X-121.138 Y-69.392
X-121.26 Y-68.703
X-121.419 Y-68.023
X-121.614 Y-67.353
X-121.845 Y-66.695
X-122.112 Y-66.051
X-122.413 Y-65.423
X-122.748 Y-64.811
X-123.116 Y-64.217
X-123.516 Y-63.643
X-123.947 Y-63.091
X-124.409 Y-62.562
X-124.9 Y-62.057
X-125.42 Y-61.579
X-125.966 Y-61.128
X-126.537 Y-60.705
X-127.133 Y-60.314
X-127.751 Y-59.953
X-128.389 Y-59.626
X-129.048 Y-59.332
X-129.723 Y-59.074
X-130.414 Y-58.852
X-131.119 Y-58.667
X-131.835 Y-58.52
X-132.561 Y-58.412
X-133.295 Y-58.343
X-134.034 Y-58.313
X-134.776 Y-58.324
X-135.518 Y-58.375
X-136.259 Y-58.466
X-136.997 Y-58.598
X-137.728 Y-58.771
X-138.451 Y-58.983
X-139.163 Y-59.235
X-139.863 Y-59.526
X-140.547 Y-59.855
X-141.214 Y-60.221
X-141.862 Y-60.624
X-142.488 Y-61.063
X-143.091 Y-61.536
X-143.668 Y-62.041
X-144.218 Y-62.578
X-144.738 Y-63.145
X-145.228 Y-63.74
X-145.686 Y-64.362
X-146.109 Y-65.008
X-146.498 Y-65.677
X-146.85 Y-66.367
X-147.164 Y-67.075
X-147.44 Y-67.8
X-147.676 Y-68.54
X-147.872 Y-69.292
X-148.027 Y-70.054
X-148.141 Y-70.824
X-148.212 Y-71.599
X-148.242 Y-72.378
X-148.229 Y-73.157
X-148.175 Y-73.935
X-148.078 Y-74.709
X-147.939 Y-75.477
X-147.758 Y-76.237
X-147.537 Y-76.986
X-147.275 Y-77.722
X-146.974 Y-78.443
X-146.634 Y-79.147
X-146.256 Y-79.831
X-145.842 Y-80.494
X-145.392 Y-81.134
X-144.908 Y-81.749
X-144.392 Y-82.336
X-143.844 Y-82.895
X-143.267 Y-83.423
X-142.662 Y-83.92
X-142.031 Y-84.383
X-141.375 Y-84.811
X-140.697 Y-85.203
X-139.999 Y-85.557
X-139.283 Y-85.874
X-138.551 Y-86.151
X-137.804 Y-86.388
X-137.046 Y-86.584
X-136.278 Y-86.739
X-135.503 Y-86.852
X-134.723 Y-86.922
X-133.94 Y-86.951
X-133.157 Y-86.937
X-132.376 Y-86.88
X-131.598 Y-86.781
X-130.827 Y-86.641
X-130.062 Y-86.458
X-129.304 Y-86.232
X-128.554 Y-85.964
X-127.813 Y-85.653
X-127.083 Y-85.299
X-126.366 Y-84.901
X-125.664 Y-84.461
X-124.98 Y-83.979
X-124.318 Y-83.455
X-123.68 Y-82.893
X-123.07 Y-82.292
X-122.49 Y-81.657
X-121.944 Y-80.988
X-121.434 Y-80.29
X-120.962 Y-79.565
X-120.531 Y-78.816
X-120.141 Y-78.046
X-119.795 Y-77.259
X-119.493 Y-76.456
X-119.236 Y-75.641
X-119.024 Y-74.816
X-118.858 Y-73.985
X-118.738 Y-73.148
X-118.663 Y-72.309
X-118.634 Y-71.47
X-118.65 Y-70.633
X-118.712 Y-69.801
X-118.819 Y-68.974
X-118.969 Y-68.157
X-119.164 Y-67.349
X-119.402 Y-66.555
X-119.683 Y-65.774
X-120.005 Y-65.011
X-120.368 Y-64.265
X-120.771 Y-63.541
X-121.214 Y-62.838
X-121.694 Y-62.16
X-122.211 Y-61.508
X-122.764 Y-60.884
X-123.35 Y-60.289
X-123.97 Y-59.726
X-124.62 Y-59.196
X-125.3 Y-58.701
X-126.008 Y-58.243
X-126.741 Y-57.822
X-127.499 Y-57.441
X-128.278 Y-57.1
X-129.076 Y-56.801
X-129.893 Y-56.545
X-130.724 Y-56.333
X-131.568 Y-56.166
X-132.423 Y-56.045
X-133.285 Y-55.969
X-134.153 Y-55.941
X-135.023 Y-55.96
X-135.894 Y-56.026
X-136.762 Y-56.139
X-137.625 Y-56.3
X-138.48 Y-56.508
X-139.324 Y-56.762
X-140.156 Y-57.063
X-140.971 Y-57.408
X-141.769 Y-57.799
X-142.546 Y-58.233
X-143.299 Y-58.709
X-144.027 Y-59.226
X-144.727 Y-59.783
X-145.396 Y-60.378
X-146.034 Y-61.01
X-146.637 Y-61.676
X-147.204 Y-62.374
X-147.733 Y-63.103
X-148.222 Y-63.861
X-148.669 Y-64.645
X-149.074 Y-65.453
X-149.435 Y-66.282
X-149.751 Y-67.13
X-150.021 Y-67.995
X-150.243 Y-68.874
X-150.418 Y-69.765
X-150.544 Y-70.664
X-150.621 Y-71.569
X-150.65 Y-72.477
X-150.628 Y-73.387
X-150.558 Y-74.294
X-150.439 Y-75.196
X-150.27 Y-76.091
X-150.054 Y-76.976
X-149.789 Y-77.848
X-149.478 Y-78.704
X-149.121 Y-79.543
X-148.718 Y-80.361
X-148.272 Y-81.157
X-147.783 Y-81.927
X-147.253 Y-82.67
X-146.683 Y-83.383
X-146.076 Y-84.064
X-145.432 Y-84.712
X-144.754 Y-85.324
X-144.044 Y-85.898
X-143.304 Y-86.433
X-142.536 Y-86.927
X-141.742 Y-87.379
X-140.924 Y-87.787
X-140.086 Y-88.15
X-139.229 Y-88.467
X-138.356 Y-88.737
X-137.47 Y-88.96
X-136.573 Y-89.134
X-135.667 Y-89.26
X-134.757 Y-89.336
X-133.842 Y-89.363
X-132.927 Y-89.34
X-132.013 Y-89.267
X-131.101 Y-89.145
X-130.194 Y-88.973
X-129.294 Y-88.75
X-128.402 Y-88.478
X-127.521 Y-88.156
X-126.654 Y-87.785
X-125.802 Y-87.364
X-124.969 Y-86.895
X-124.158 Y-86.378
X-123.37 Y-85.814
X-122.61 Y-85.205
X-121.88 Y-84.552
X-121.185 Y-83.858
X-120.525 Y-83.125
X-119.906 Y-82.355
X-119.328 Y-81.553
X-118.794 Y-80.72
X-118.306 Y-79.859
X-117.867 Y-78.974
X-117.476 Y-78.068
X-117.136 Y-77.144
X-116.847 Y-76.205
X-116.609 Y-75.253
X-116.424 Y-74.293
X-116.292 Y-73.325
X-116.213 Y-72.355
X-116.186 Y-71.383
X-116.212 Y-70.413
X-116.29 Y-69.448
X-116.421 Y-68.49
X-116.602 Y-67.541
X-116.835 Y-66.605
X-117.118 Y-65.683
X-117.451 Y-64.778
X-117.832 Y-63.893
X-118.26 Y-63.029
X-118.735 Y-62.19
X-119.255 Y-61.377
X-119.819 Y-60.592
X-120.425 Y-59.839
X-121.072 Y-59.118
X-121.758 Y-58.433
X-122.482 Y-57.785
X-123.241 Y-57.175
X-124.033 Y-56.607
X-124.857 Y-56.081
X-125.711 Y-55.599
X-126.591 Y-55.164
X-127.495 Y-54.776
X-128.422 Y-54.436
X-129.368 Y-54.147
X-130.331 Y-53.909
X-131.307 Y-53.723
X-132.295 Y-53.589
X-133.291 Y-53.509
X-134.292 Y-53.484
X-135.296 Y-53.512
X-136.299 Y-53.595
X-137.298 Y-53.733
X-138.291 Y-53.925
X-139.274 Y-54.171
X-140.244 Y-54.471
X-141.198 Y-54.824
X-142.134 Y-55.228
X-143.048 Y-55.684
X-143.937 Y-56.189
X-144.799 Y-56.743
X-145.632 Y-57.343
X-146.431 Y-57.989
X-147.196 Y-58.678
X-147.923 Y-59.408
X-148.611 Y-60.178
X-149.256 Y-60.985
X-149.857 Y-61.826
X-150.413 Y-62.7
X-150.92 Y-63.604
X-151.379 Y-64.534
X-151.787 Y-65.489
X-152.142 Y-66.466
X-152.445 Y-67.461
X-152.693 Y-68.471
X-152.886 Y-69.494
X-153.024 Y-70.527
X-153.105 Y-71.566
X-153.13 Y-72.609
X-153.099 Y-73.652
X-153.01 Y-74.692
X-152.866 Y-75.727
X-152.666 Y-76.752
X-152.41 Y-77.765
X-152.1 Y-78.764
X-151.735 Y-79.744
X-151.319 Y-80.704
X-150.85 Y-81.639
X-150.332 Y-82.548
X-149.765 Y-83.428
X-149.151 Y-84.276
X-148.491 Y-85.09
X-147.789 Y-85.867
X-147.045 Y-86.604
X-146.263 Y-87.301
X-145.443 Y-87.954
X-144.59 Y-88.561
X-143.704 Y-89.122
X-142.79 Y-89.634
X-141.849 Y-90.095
X-140.884 Y-90.505
X-139.898 Y-90.862
X-138.895 Y-91.166
X-137.876 Y-91.414
X-136.845 Y-91.607
X-135.804 Y-91.743
X-134.757 Y-91.824
X-133.705 Y-91.847
X-132.651 Y-91.813
X-131.598 Y-91.722
X-130.548 Y-91.574
X-129.504 Y-91.368
X-128.469 Y-91.105
X-127.445 Y-90.784
X-126.435 Y-90.407
X-125.442 Y-89.974
X-124.469 Y-89.484
X-123.519 Y-88.941
X-122.596 Y-88.343
X-121.703 Y-87.694
X-120.843 Y-86.995
X-120.02 Y-86.248
X-119.236 Y-85.455
X-118.495 Y-84.619
X-117.799 Y-83.743
X-117.152 Y-82.83
X-116.554 Y-81.883
X-116.009 Y-80.904
X-115.518 Y-79.899
X-115.082 Y-78.869
X-114.704 Y-77.817
X-114.383 Y-76.749
X-114.121 Y-75.665
X-113.918 Y-74.571
X-113.776 Y-73.469
X-113.693 Y-72.363
X-113.67 Y-71.255
X-113.707 Y-70.149
X-113.805 Y-69.048
X-113.961 Y-67.955
X-114.177 Y-66.873
X-114.45 Y-65.805
X-114.781 Y-64.753
X-115.168 Y-63.721
X-115.611 Y-62.712
X-116.108 Y-61.728
X-116.658 Y-60.772
X-117.259 Y-59.847
X-117.91 Y-58.955
X-118.609 Y-58.098
X-119.354 Y-57.28
X-120.143 Y-56.502
X-120.975 Y-55.767
X-121.847 Y-55.078
X-122.756 Y-54.435
X-123.701 Y-53.842
X-124.678 Y-53.299
X-125.685 Y-52.81
X-126.72 Y-52.374
X-127.778 Y-51.995
X-128.858 Y-51.673
X-129.956 Y-51.41
X-131.069 Y-51.205
X-132.194 Y-51.062
X-133.328 Y-50.979
X-134.467 Y-50.958
X-135.607 Y-50.998
X-136.746 Y-51.101
X-137.88 Y-51.265
X-139.006 Y-51.491
X-140.12 Y-51.779
X-141.219 Y-52.126
X-142.299 Y-52.534
X-143.357 Y-53.001
X-144.39 Y-53.524
X-145.395 Y-54.104
X-146.368 Y-54.739
X-147.307 Y-55.426
X-148.208 Y-56.165
X-149.069 Y-56.952
X-149.887 Y-57.785
X-150.66 Y-58.663
X-151.384 Y-59.582
X-152.059 Y-60.54
X-152.681 Y-61.534
X-153.249 Y-62.562
X-153.761 Y-63.62
X-154.215 Y-64.704
X-154.61 Y-65.813
X-154.945 Y-66.942
X-155.218 Y-68.088
X-155.428 Y-69.248
X-155.576 Y-70.419
X-155.66 Y-71.596
X-155.68 Y-72.777
X-155.635 Y-73.957
X-155.527 Y-75.134
X-155.356 Y-76.304
X-155.121 Y-77.463
X-154.823 Y-78.608
X-154.464 Y-79.736
X-154.044 Y-80.843
X-153.564 Y-81.926
X-153.027 Y-82.981
X-152.433 Y-84.006
X-151.784 Y-84.998
X-151.082 Y-85.953
X-150.329 Y-86.869
X-149.528 Y-87.742
X-148.68 Y-88.571
X-147.788 Y-89.354
X-146.856 Y-90.086
X-145.884 Y-90.767
X-144.878 Y-91.395
X-143.838 Y-91.967
X-142.769 Y-92.482
X-141.674 Y-92.938
X-140.555 Y-93.335
X-139.416 Y-93.67
X-138.26 Y-93.943
X-137.09 Y-94.154
X-135.908 Y-94.301
X-134.719 Y-94.383
X-133.525 Y-94.401
X-132.33 Y-94.355
X-131.135 Y-94.243
X-129.945 Y-94.066
X-128.763 Y-93.824
X-127.591 Y-93.517
X-126.434 Y-93.147
X-125.294 Y-92.712
X-124.175 Y-92.214
X-123.081 Y-91.654
X-122.015 Y-91.033
X-120.98 Y-90.354
X-119.981 Y-89.616
X-119.02 Y-88.824
X-118.101 Y-87.978
X-117.228 Y-87.082
X-116.403 Y-86.138
X-115.629 Y-85.15
X-114.91 Y-84.121
X-114.247 Y-83.053
X-113.643 Y-81.951
X-113.1 Y-80.818
X-112.619 Y-79.658
X-112.202 Y-78.474
X-111.85 Y-77.271
X-111.564 Y-76.051
X-111.344 Y-74.819
X-111.192 Y-73.578
X-111.108 Y-72.332
X-111.091 Y-71.084
X-111.142 Y-69.839
X-111.26 Y-68.599
X-111.446 Y-67.368
X-111.697 Y-66.15
X-112.014 Y-64.947
X-112.395 Y-63.764
X-112.841 Y-62.603
X-113.348 Y-61.468
X-113.916 Y-60.362
X-114.544 Y-59.288
X-115.229 Y-58.249
X-115.97 Y-57.248
X-116.765 Y-56.288
X-117.612 Y-55.371
X-118.508 Y-54.501
X-119.452 Y-53.679
X-120.439 Y-52.909
X-121.469 Y-52.192
X-122.538 Y-51.531
X-123.642 Y-50.928
X-124.78 Y-50.385
X-125.947 Y-49.904
X-127.141 Y-49.485
X-128.359 Y-49.132
X-129.596 Y-48.844
X-130.849 Y-48.623
X-132.114 Y-48.47
X-133.389 Y-48.386
X-134.668 Y-48.372
X-135.949 Y-48.426
X-137.227 Y-48.55
X-138.499 Y-48.744
X-139.76 Y-49.006
X-141.008 Y-49.338
X-142.238 Y-49.737
X-143.446 Y-50.202
X-144.629 Y-50.734
X-145.783 Y-51.329
X-146.905 Y-51.988
X-147.991 Y-52.707
X-149.038 Y-53.484
X-150.042 Y-54.319
X-151 Y-55.207
X-151.91 Y-56.148
X-152.769 Y-57.137
X-153.574 Y-58.172
X-154.322 Y-59.251
X-155.011 Y-60.369
X-155.638 Y-61.524
X-156.203 Y-62.712
X-156.703 Y-63.93
X-157.137 Y-65.175
X-157.502 Y-66.441
X-157.799 Y-67.727
X-158.025 Y-69.027
X-158.181 Y-70.338
X-158.266 Y-71.657
X-158.279 Y-72.978
X-158.22 Y-74.299
X-158.09 Y-75.616
X-157.889 Y-76.924
X-157.617 Y-78.219
X-157.275 Y-79.498
X-156.864 Y-80.758
X-156.385 Y-81.993
X-155.84 Y-83.201
X-155.23 Y-84.378
X-154.557 Y-85.52
X-153.823 Y-86.624
X-153.03 Y-87.688
X-152.18 Y-88.706
X-151.277 Y-89.678
X-150.322 Y-90.599
X-149.318 Y-91.467
X-148.269 Y-92.279
X-147.177 Y-93.034
X-146.045 Y-93.728
X-144.878 Y-94.36
X-143.677 Y-94.928
X-142.448 Y-95.43
X-141.192 Y-95.865
X-139.914 Y-96.232
X-138.617 Y-96.529
X-137.305 Y-96.755
X-135.98 Y-96.91
X-134.648 Y-96.993
X-133.31 Y-97.004
X-131.971 Y-96.942
X-130.636 Y-96.808
X-129.31 Y-96.601
X-127.997 Y-96.324
X-126.7 Y-95.975
X-125.425 Y-95.558
X-124.173 Y-95.073
X-122.949 Y-94.523
X-121.756 Y-93.907
X-120.598 Y-93.23
X-119.476 Y-92.492
X-118.396 Y-91.697
X-117.358 Y-90.845
X-116.366 Y-89.941
X-115.423 Y-88.986
X-114.532 Y-87.983
X-113.693 Y-86.935
X-112.91 Y-85.844
X-112.186 Y-84.715
X-111.52 Y-83.549
X-110.916 Y-82.35
X-110.376 Y-81.122
X-109.9 Y-79.867
X-109.49 Y-78.589
X-109.148 Y-77.291
X-108.874 Y-75.977
X-108.67 Y-74.651
X-108.535 Y-73.315
X-108.471 Y-71.975
X-108.477 Y-70.633
X-108.553 Y-69.293
X-108.7 Y-67.958
X-108.916 Y-66.634
X-109.201 Y-65.322
X-109.554 Y-64.028
X-109.975 Y-62.753
X-110.463 Y-61.503
X-111.015 Y-60.279
X-111.63 Y-59.087
X-112.308 Y-57.928
X-113.045 Y-56.806
X-113.839 Y-55.725
X-114.689 Y-54.686
X-115.593 Y-53.693
X-116.547 Y-52.749
X-117.548 Y-51.856
X-118.595 Y-51.016
X-119.685 Y-50.232
X-120.813 Y-49.505
X-121.978 Y-48.838
X-123.175 Y-48.233
X-124.403 Y-47.69
X-125.657 Y-47.212
X-126.934 Y-46.8
X-128.231 Y-46.454
X-129.544 Y-46.176
X-130.87 Y-45.967
X-132.205 Y-45.825
X-133.545 Y-45.753
X-134.887 Y-45.749
X-136.228 Y-45.813
X-137.563 Y-45.945
X-138.891 Y-46.145
X-140.206 Y-46.412
X-141.506 Y-46.746
X-142.788 Y-47.144
X-144.048 Y-47.607
X-145.283 Y-48.132
X-146.489 Y-48.72
X-147.665 Y-49.368
X-148.805 Y-50.075
X-149.909 Y-50.839
X-150.972 Y-51.658
X-151.993 Y-52.53
X-152.969 Y-53.451
X-153.898 Y-54.42
X-154.777 Y-55.434
X-155.604 Y-56.49
X-156.379 Y-57.587
X-157.097 Y-58.72
X-157.759 Y-59.888
X-158.361 Y-61.087
X-158.902 Y-62.316
X-159.381 Y-63.57
X-159.795 Y-64.846
X-160.146 Y-66.142
X-160.432 Y-67.453
X-160.652 Y-68.777
X-160.807 Y-70.11
X-160.895 Y-71.45
X-160.917 Y-72.791
X-160.874 Y-74.133
X-160.764 Y-75.471
X-160.587 Y-76.801
X-160.344 Y-78.121
X-160.035 Y-79.427
X-159.662 Y-80.716
X-159.224 Y-81.985
X-158.725 Y-83.231
X-158.164 Y-84.45
X-157.544 Y-85.641
X-156.866 Y-86.799
X-156.133 Y-87.923
X-155.344 Y-89.009
X-154.504 Y-90.055
X-153.612 Y-91.058
X-152.67 Y-92.015
X-151.683 Y-92.924
X-150.651 Y-93.782
X-149.578 Y-94.588
X-148.466 Y-95.341
X-147.319 Y-96.037
X-146.139 Y-96.677
X-144.929 Y-97.258
X-143.692 Y-97.779
X-142.431 Y-98.238
X-141.149 Y-98.634
X-139.848 Y-98.966
X-138.533 Y-99.232
X-137.206 Y-99.433
X-135.87 Y-99.568
X-134.53 Y-99.637
X-133.188 Y-99.641
X-131.847 Y-99.579
X-130.511 Y-99.453
X-129.183 Y-99.262
X-127.865 Y-99.006
X-126.561 Y-98.686
X-125.275 Y-98.303
X-124.01 Y-97.856
X-122.767 Y-97.349
X-121.55 Y-96.783
X-120.362 Y-96.159
X-119.204 Y-95.479
X-118.081 Y-94.745
X-116.993 Y-93.959
X-115.944 Y-93.122
X-114.935 Y-92.237
X-113.971 Y-91.303
X-113.052 Y-90.325
X-112.181 Y-89.304
X-111.359 Y-88.243
X-110.588 Y-87.144
X-109.87 Y-86.01
X-109.206 Y-84.844
X-108.597 Y-83.648
X-108.045 Y-82.424
X-107.551 Y-81.177
X-107.116 Y-79.907
X-106.743 Y-78.617
X-106.433 Y-77.312
X-106.185 Y-75.992
X-106.001 Y-74.663
X-105.879 Y-73.326
X-105.821 Y-71.986
X-105.826 Y-70.643
X-105.894 Y-69.303
X-106.025 Y-67.967
X-106.219 Y-66.639
X-106.476 Y-65.322
X-106.797 Y-64.019
X-107.18 Y-62.732
X-107.624 Y-61.466
X-108.127 Y-60.222
X-108.689 Y-59.003
X-109.308 Y-57.812
X-109.982 Y-56.651
X-110.71 Y-55.523
X-111.49 Y-54.431
X-112.321 Y-53.377
X-113.201 Y-52.364
X-114.13 Y-51.395
X-115.103 Y-50.471
X-116.119 Y-49.594
X-117.175 Y-48.766
X-118.269 Y-47.988
X-119.398 Y-47.262
X-120.56 Y-46.59
X-121.752 Y-45.973
X-122.971 Y-45.413
X-124.216 Y-44.91
X-125.483 Y-44.468
X-126.77 Y-44.086
X-128.073 Y-43.766
X-129.39 Y-43.507
X-130.718 Y-43.31
X-132.053 Y-43.174
X-133.393 Y-43.101
X-134.735 Y-43.089
X-136.076 Y-43.139
X-137.414 Y-43.25
X-138.745 Y-43.424
X-140.066 Y-43.659
X-141.375 Y-43.955
X-142.669 Y-44.312
X-143.945 Y-44.728
X-145.201 Y-45.203
X-146.433 Y-45.734
X-147.64 Y-46.321
X-148.818 Y-46.963
X-149.967 Y-47.658
X-151.082 Y-48.405
X-152.162 Y-49.202
X-153.203 Y-50.049
X-154.205 Y-50.942
X-155.164 Y-51.881
X-156.08 Y-52.862
X-156.95 Y-53.884
X-157.774 Y-54.944
X-158.548 Y-56.04
X-159.273 Y-57.169
X-159.946 Y-58.331
X-160.565 Y-59.521
X-161.13 Y-60.739
X-161.637 Y-61.982
X-162.087 Y-63.246
X-162.478 Y-64.53
X-162.811 Y-65.83
X-163.085 Y-67.144
X-163.3 Y-68.469
X-163.454 Y-69.802
X-163.55 Y-71.141
X-163.585 Y-72.483
X-163.56 Y-73.825
X-163.475 Y-75.164
X-163.328 Y-76.498
X-163.12 Y-77.824
X-162.851 Y-79.139
X-162.523 Y-80.44
X-162.136 Y-81.726
X-161.693 Y-82.992
X-161.193 Y-84.238
X-160.637 Y-85.46
X-160.028 Y-86.656
X-159.367 Y-87.823
X-158.653 Y-88.96
X-157.889 Y-90.064
X-157.075 Y-91.131
X-156.213 Y-92.159
X-155.305 Y-93.148
X-154.353 Y-94.094
X-153.36 Y-94.997
X-152.327 Y-95.854
X-151.257 Y-96.664
X-150.152 Y-97.426
X-149.014 Y-98.137
X-147.845 Y-98.798
X-146.648 Y-99.404
X-145.425 Y-99.956
X-144.177 Y-100.451
X-142.909 Y-100.89
X-141.622 Y-101.27
X-140.319 Y-101.592
X-139.003 Y-101.856
X-137.676 Y-102.06
X-136.342 Y-102.205
X-135.002 Y-102.291
X-133.661 Y-102.318
X-132.319 Y-102.284
X-130.98 Y-102.191
X-129.647 Y-102.037
X-128.322 Y-101.823
X-127.007 Y-101.55
X-125.707 Y-101.22
X-124.422 Y-100.832
X-123.155 Y-100.388
X-121.909 Y-99.889
X-120.686 Y-99.336
X-119.489 Y-98.73
X-118.318 Y-98.073
X-117.178 Y-97.365
X-116.07 Y-96.608
X-114.996 Y-95.802
X-113.959 Y-94.951
X-112.96 Y-94.054
X-112.001 Y-93.116
X-111.083 Y-92.137
X-110.208 Y-91.119
X-109.378 Y-90.064
X-108.593 Y-88.975
X-107.856 Y-87.854
X-107.168 Y-86.701
X-106.531 Y-85.52
X-105.945 Y-84.312
X-105.414 Y-83.08
X-104.936 Y-81.826
X-104.513 Y-80.552
X-104.145 Y-79.261
X-103.834 Y-77.955
X-103.58 Y-76.638
X-103.382 Y-75.31
X-103.241 Y-73.975
X-103.158 Y-72.636
X-103.134 Y-71.294
X-103.168 Y-69.952
X-103.26 Y-68.613
X-103.411 Y-67.28
X-103.62 Y-65.954
X-103.887 Y-64.638
X-104.21 Y-63.336
X-104.589 Y-62.048
X-105.024 Y-60.778
X-105.513 Y-59.528
X-106.054 Y-58.3
X-106.649 Y-57.097
X-107.295 Y-55.921
X-107.993 Y-54.774
X-108.739 Y-53.659
X-109.534 Y-52.577
X-110.374 Y-51.531
X-111.259 Y-50.522
X-112.187 Y-49.552
X-113.156 Y-48.623
X-114.164 Y-47.737
X-115.208 Y-46.894
X-116.288 Y-46.097
X-117.401 Y-45.347
X-118.546 Y-44.646
X-119.72 Y-43.996
X-120.921 Y-43.397
X-122.147 Y-42.85
X-123.395 Y-42.357
X-124.664 Y-41.918
X-125.95 Y-41.534
X-127.251 Y-41.205
X-128.565 Y-40.931
X-129.889 Y-40.714
X-131.222 Y-40.553
X-132.56 Y-40.448
X-133.901 Y-40.402
X-135.243 Y-40.413
X-136.584 Y-40.48
X-137.92 Y-40.605
X-139.25 Y-40.786
X-140.571 Y-41.024
X-141.881 Y-41.316
X-143.177 Y-41.664
X-144.458 Y-42.065
X-145.721 Y-42.52
X-146.963 Y-43.027
X-148.183 Y-43.586
X-149.378 Y-44.197
X-150.546 Y-44.858
X-151.685 Y-45.568
X-152.794 Y-46.325
X-153.869 Y-47.128
X-154.91 Y-47.975
X-155.915 Y-48.865
X-156.882 Y-49.796
X-157.809 Y-50.766
X-158.696 Y-51.774
X-159.54 Y-52.817
X-160.339 Y-53.895
X-161.093 Y-55.006
X-161.799 Y-56.147
X-162.457 Y-57.317
X-163.065 Y-58.514
X-163.623 Y-59.734
X-164.13 Y-60.977
X-164.584 Y-62.24
X-164.986 Y-63.521
X-165.334 Y-64.817
X-165.629 Y-66.126
X-165.87 Y-67.447
X-166.055 Y-68.776
X-166.185 Y-70.112
X-166.259 Y-71.452
X-166.278 Y-72.794
X-166.24 Y-74.136
X-166.147 Y-75.474
X-165.998 Y-76.808
X-165.794 Y-78.135
X-165.536 Y-79.452
X-165.223 Y-80.757
X-164.857 Y-82.049
X-164.438 Y-83.324
X-163.967 Y-84.58
X-163.443 Y-85.816
X-162.869 Y-87.029
X-162.246 Y-88.218
X-161.573 Y-89.379
X-160.853 Y-90.512
X-160.087 Y-91.614
X-159.276 Y-92.683
X-158.421 Y-93.718
X-157.524 Y-94.717
X-156.588 Y-95.678
X-155.612 Y-96.6
X-154.599 Y-97.48
X-153.55 Y-98.317
X-152.467 Y-99.111
X-151.353 Y-99.858
X-150.209 Y-100.56
X-149.036 Y-101.213
X-147.838 Y-101.818
X-146.616 Y-102.372
X-145.372 Y-102.876
X-144.108 Y-103.328
X-142.827 Y-103.728
X-141.53 Y-104.075
X-140.22 Y-104.368
X-138.9 Y-104.606
X-137.57 Y-104.79
X-136.234 Y-104.918
X-134.894 Y-104.992
X-133.552 Y-105.011
X-132.21 Y-104.975
X-130.871 Y-104.884
X-129.537 Y-104.738
X-128.21 Y-104.539
X-126.892 Y-104.285
X-125.585 Y-103.978
X-124.292 Y-103.619
X-123.015 Y-103.206
X-121.756 Y-102.742
X-120.516 Y-102.227
X-119.298 Y-101.663
X-118.104 Y-101.05
X-116.936 Y-100.39
X-115.795 Y-99.683
X-114.683 Y-98.931
X-113.602 Y-98.135
X-112.554 Y-97.297
X-111.54 Y-96.418
X-110.562 Y-95.499
X-109.621 Y-94.541
X-108.72 Y-93.547
X-107.859 Y-92.517
X-107.04 Y-91.453
X-106.264 Y-90.359
X-105.532 Y-89.234
X-104.845 Y-88.081
X-104.205 Y-86.901
X-103.611 Y-85.697
X-103.066 Y-84.471
X-102.57 Y-83.224
X-102.124 Y-81.958
X-101.729 Y-80.675
X-101.386 Y-79.378
X-101.095 Y-78.067
X-100.857 Y-76.746
X-100.671 Y-75.417
X-100.539 Y-74.082
X-100.459 Y-72.742
X-100.433 Y-71.4
X-100.461 Y-70.058
X-100.542 Y-68.718
X-100.676 Y-67.383
X-100.862 Y-66.054
X-101.102 Y-64.733
X-101.395 Y-63.423
X-101.741 Y-62.127
X-102.138 Y-60.844
X-102.586 Y-59.579
X-103.083 Y-58.333
X-103.63 Y-57.107
X-104.226 Y-55.904
X-104.868 Y-54.726
X-105.557 Y-53.574
X-106.291 Y-52.451
X-107.07 Y-51.357
X-107.891 Y-50.295
X-108.753 Y-49.267
X-109.657 Y-48.275
X-110.599 Y-47.319
X-111.579 Y-46.402
X-112.594 Y-45.524
X-113.644 Y-44.687
X-114.725 Y-43.892
X-115.837 Y-43.141
X-116.978 Y-42.434
X-118.146 Y-41.773
X-119.34 Y-41.159
X-120.556 Y-40.592
X-121.794 Y-40.074
X-123.052 Y-39.605
X-124.328 Y-39.188
X-125.619 Y-38.821
X-126.923 Y-38.505
X-128.239 Y-38.24
X-129.564 Y-38.028
X-130.897 Y-37.867
X-132.234 Y-37.759
X-133.575 Y-37.703
X-134.918 Y-37.699
X-136.259 Y-37.748
X-137.597 Y-37.849
X-138.931 Y-38.002
X-140.257 Y-38.207
X-141.574 Y-38.465
X-142.88 Y-38.774
X-144.174 Y-39.133
X-145.452 Y-39.542
X-146.713 Y-40
X-147.956 Y-40.507
X-149.178 Y-41.062
X-150.378 Y-41.663
X-151.554 Y-42.311
X-152.703 Y-43.003
X-153.826 Y-43.739
X-154.918 Y-44.519
X-155.979 Y-45.34
X-157.008 Y-46.203
X-158.003 Y-47.104
X-158.962 Y-48.043
X-159.884 Y-49.017
X-160.769 Y-50.027
X-161.614 Y-51.07
X-162.418 Y-52.144
X-163.181 Y-53.249
X-163.9 Y-54.382
X-164.576 Y-55.541
X-165.207 Y-56.726
X-165.791 Y-57.934
X-166.328 Y-59.164
X-166.817 Y-60.414
X-167.257 Y-61.682
X-167.649 Y-62.966
X-167.991 Y-64.264
X-168.284 Y-65.573
X-168.527 Y-66.894
X-168.719 Y-68.222
X-168.86 Y-69.557
X-168.95 Y-70.896
X-168.989 Y-72.237
X-168.977 Y-73.579
X-168.913 Y-74.92
X-168.797 Y-76.257
X-168.63 Y-77.589
X-168.412 Y-78.913
X-168.143 Y-80.228
X-167.825 Y-81.532
X-167.457 Y-82.823
X-167.04 Y-84.098
X-166.575 Y-85.358
X-166.063 Y-86.598
X-165.504 Y-87.818
X-164.899 Y-89.016
X-164.248 Y-90.19
X-163.553 Y-91.338
X-162.814 Y-92.459
X-162.033 Y-93.55
X-161.21 Y-94.61
X-160.348 Y-95.639
X-159.447 Y-96.634
X-158.508 Y-97.593
X-157.534 Y-98.517
X-156.526 Y-99.403
X-155.485 Y-100.249
X-154.412 Y-101.056
X-153.31 Y-101.822
X-152.179 Y-102.545
X-151.021 Y-103.224
X-149.838 Y-103.857
X-148.632 Y-104.445
X-147.404 Y-104.987
X-146.156 Y-105.481
X-144.89 Y-105.928
X-143.608 Y-106.326
X-142.313 Y-106.676
X-141.004 Y-106.976
X-139.686 Y-107.226
X-138.359 Y-107.426
X-137.025 Y-107.576
X-135.686 Y-107.676
X-134.345 Y-107.724
X-133.003 Y-107.721
X-131.662 Y-107.666
X-130.324 Y-107.561
X-128.991 Y-107.406
X-127.664 Y-107.201
X-126.347 Y-106.946
X-125.04 Y-106.641
X-123.745 Y-106.288
X-122.464 Y-105.887
X-121.199 Y-105.438
X-119.952 Y-104.943
X-118.724 Y-104.401
X-117.517 Y-103.814
X-116.333 Y-103.182
X-115.173 Y-102.506
X-114.04 Y-101.787
X-112.934 Y-101.026
X-111.857 Y-100.225
X-110.81 Y-99.385
X-109.795 Y-98.507
X-108.813 Y-97.592
X-107.866 Y-96.642
X-106.954 Y-95.657
X-106.079 Y-94.64
X-105.241 Y-93.591
X-104.443 Y-92.512
X-103.686 Y-91.404
X-102.97 Y-90.268
X-102.297 Y-89.107
X-101.667 Y-87.922
X-101.081 Y-86.714
X-100.54 Y-85.486
X-100.044 Y-84.239
X-99.595 Y-82.974
X-99.192 Y-81.694
X-98.837 Y-80.4
X-98.529 Y-79.093
X-98.27 Y-77.776
X-98.059 Y-76.451
X-97.897 Y-75.118
X-97.786 Y-73.781
X-97.724 Y-72.44
X-97.711 Y-71.098
X-97.749 Y-69.756
X-97.835 Y-68.417
X-97.971 Y-67.082
X-98.156 Y-65.752
X-98.389 Y-64.431
X-98.671 Y-63.119
X-99.002 Y-61.818
X-99.379 Y-60.53
X-99.804 Y-59.257
X-100.276 Y-58
X-100.794 Y-56.762
X-101.358 Y-55.544
X-101.967 Y-54.348
X-102.619 Y-53.175
X-103.314 Y-52.027
X-104.051 Y-50.905
X-104.828 Y-49.811
X-105.646 Y-48.746
X-106.501 Y-47.712
X-107.394 Y-46.71
X-108.324 Y-45.742
X-109.287 Y-44.808
X-110.285 Y-43.91
X-111.315 Y-43.05
X-112.377 Y-42.229
X-113.468 Y-41.447
X-114.587 Y-40.706
X-115.733 Y-40.007
X-116.903 Y-39.35
X-118.097 Y-38.736
X-119.312 Y-38.166
X-120.547 Y-37.641
X-121.801 Y-37.162
X-123.071 Y-36.728
X-124.356 Y-36.341
X-125.654 Y-36.001
X-126.964 Y-35.709
X-128.284 Y-35.465
X-129.612 Y-35.27
X-130.946 Y-35.123
X-132.285 Y-35.025
X-133.626 Y-34.975
X-134.968 Y-34.974
X-136.309 Y-35.021
X-137.648 Y-35.117
X-138.982 Y-35.261
X-140.311 Y-35.453
X-141.631 Y-35.692
X-142.943 Y-35.979
X-144.242 Y-36.313
X-145.529 Y-36.694
X-146.802 Y-37.122
X-148.057 Y-37.595
X-149.295 Y-38.114
X-150.514 Y-38.676
X-151.712 Y-39.282
X-152.887 Y-39.93
X-154.038 Y-40.621
X-155.163 Y-41.352
X-156.262 Y-42.122
X-157.333 Y-42.932
X-158.374 Y-43.779
X-159.384 Y-44.663
X-160.362 Y-45.582
X-161.306 Y-46.536
X-162.215 Y-47.523
X-163.088 Y-48.543
X-163.924 Y-49.593
X-164.722 Y-50.672
X-165.482 Y-51.778
X-166.201 Y-52.911
X-166.88 Y-54.069
X-167.517 Y-55.251
X-168.111 Y-56.454
X-168.663 Y-57.678
X-169.17 Y-58.92
X-169.634 Y-60.18
X-170.052 Y-61.455
X-170.424 Y-62.745
X-170.749 Y-64.047
X-171.028 Y-65.36
X-171.26 Y-66.682
X-171.445 Y-68.011
X-171.583 Y-69.346
X-171.674 Y-70.685
X-171.717 Y-72.026
X-171.713 Y-73.369
X-171.661 Y-74.71
X-171.561 Y-76.048
X-171.415 Y-77.382
X-171.221 Y-78.71
X-170.98 Y-80.031
X-170.692 Y-81.341
X-170.357 Y-82.641
X-169.976 Y-83.928
X-169.55 Y-85.201
X-169.079 Y-86.458
X-168.564 Y-87.697
X-168.006 Y-88.918
X-167.405 Y-90.118
X-166.762 Y-91.296
X-166.077 Y-92.45
X-165.353 Y-93.58
X-164.589 Y-94.684
X-163.786 Y-95.759
X-162.945 Y-96.806
X-162.068 Y-97.821
X-161.155 Y-98.805
X-160.207 Y-99.755
X-159.227 Y-100.672
X-158.215 Y-101.553
X-157.172 Y-102.399
X-156.1 Y-103.207
X-155.001 Y-103.976
X-153.875 Y-104.707
X-152.724 Y-105.397
X-151.549 Y-106.046
X-150.352 Y-106.653
X-149.135 Y-107.218
X-147.898 Y-107.739
X-146.643 Y-108.215
X-145.372 Y-108.647
X-144.087 Y-109.033
X-142.788 Y-109.374
X-141.479 Y-109.669
X-140.16 Y-109.917
X-138.833 Y-110.12
X-137.5 Y-110.276
X-136.163 Y-110.384
X-134.822 Y-110.446
X-133.48 Y-110.46
X-132.138 Y-110.428
X-130.798 Y-110.349
X-129.462 Y-110.222
X-128.131 Y-110.048
X-126.807 Y-109.827
X-125.492 Y-109.56
X-124.187 Y-109.247
X-122.893 Y-108.89
X-121.613 Y-108.487
X-120.347 Y-108.041
X-119.098 Y-107.55
X-117.866 Y-107.017
X-116.653 Y-106.442
X-115.461 Y-105.825
X-114.292 Y-105.167
X-113.145 Y-104.469
X-112.023 Y-103.732
X-110.928 Y-102.957
X-109.861 Y-102.143
X-108.822 Y-101.293
X-107.813 Y-100.408
X-106.835 Y-99.489
X-105.888 Y-98.537
X-104.975 Y-97.554
X-104.096 Y-96.539
X-103.253 Y-95.496
X-102.445 Y-94.424
X-101.675 Y-93.324
X-100.942 Y-92.2
X-100.249 Y-91.051
X-99.595 Y-89.878
X-98.983 Y-88.684
X-98.412 Y-87.469
X-97.883 Y-86.236
X-97.397 Y-84.985
X-96.954 Y-83.718
X-96.554 Y-82.437
X-96.199 Y-81.142
X-95.888 Y-79.837
X-95.621 Y-78.521
X-95.4 Y-77.198
X-95.224 Y-75.867
X-95.094 Y-74.531
X-95.009 Y-73.192
X-94.971 Y-71.85
X-94.979 Y-70.508
X-95.034 Y-69.167
X-95.135 Y-67.829
X-95.282 Y-66.494
X-95.474 Y-65.166
X-95.712 Y-63.845
X-95.995 Y-62.533
X-96.322 Y-61.232
X-96.694 Y-59.942
X-97.11 Y-58.666
X-97.569 Y-57.405
X-98.071 Y-56.16
X-98.615 Y-54.933
X-99.201 Y-53.726
X-99.829 Y-52.539
X-100.497 Y-51.375
X-101.205 Y-50.235
X-101.952 Y-49.12
X-102.736 Y-48.031
X-103.558 Y-46.969
X-104.415 Y-45.936
X-105.306 Y-44.933
X-106.232 Y-43.961
X-107.189 Y-43.021
X-108.179 Y-42.114
X-109.199 Y-41.241
X-110.248 Y-40.404
X-111.325 Y-39.603
X-112.428 Y-38.84
X-113.558 Y-38.115
X-114.712 Y-37.429
X-115.888 Y-36.783
X-117.086 Y-36.178
X-118.304 Y-35.614
X-119.54 Y-35.091
X-120.794 Y-34.611
X-122.062 Y-34.173
X-123.345 Y-33.779
X-124.641 Y-33.428
X-125.947 Y-33.122
X-127.264 Y-32.86
X-128.588 Y-32.642
X-129.919 Y-32.469
X-131.255 Y-32.342
X-132.595 Y-32.261
X-133.937 Y-32.225
X-135.279 Y-32.235
X-136.62 Y-32.29
X-137.958 Y-32.39
X-139.293 Y-32.534
X-140.621 Y-32.723
X-141.943 Y-32.957
X-143.256 Y-33.235
X-144.559 Y-33.557
X-145.851 Y-33.922
X-147.129 Y-34.33
X-148.393 Y-34.781
X-149.641 Y-35.274
X-150.872 Y-35.81
X-152.084 Y-36.386
X-153.276 Y-37.003
X-154.447 Y-37.66
X-155.595 Y-38.355
X-156.719 Y-39.089
X-157.818 Y-39.859
X-158.891 Y-40.665
X-159.937 Y-41.507
X-160.954 Y-42.382
X-161.941 Y-43.291
X-162.898 Y-44.233
X-163.822 Y-45.206
X-164.714 Y-46.208
X-165.572 Y-47.241
X-166.395 Y-48.301
X-167.181 Y-49.389
X-167.931 Y-50.502
X-168.644 Y-51.639
X-169.318 Y-52.8
X-169.953 Y-53.982
X-170.549 Y-55.185
X-171.105 Y-56.406
X-171.621 Y-57.645
X-172.095 Y-58.901
X-172.527 Y-60.172
X-172.917 Y-61.456
X-173.264 Y-62.752
X-173.568 Y-64.06
X-173.829 Y-65.376
X-174.045 Y-66.701
X-174.216 Y-68.032
X-174.344 Y-69.368
X-174.427 Y-70.708
X-174.466 Y-72.049
X-174.461 Y-73.391
X-174.411 Y-74.733
X-174.318 Y-76.072
X-174.18 Y-77.407
X-173.998 Y-78.736
X-173.773 Y-80.06
X-173.504 Y-81.374
X-173.191 Y-82.68
X-172.836 Y-83.974
X-172.438 Y-85.256
X-171.997 Y-86.523
X-171.514 Y-87.776
X-170.99 Y-89.011
X-170.426 Y-90.229
X-169.822 Y-91.428
X-169.179 Y-92.606
X-168.497 Y-93.762
X-167.778 Y-94.895
X-167.022 Y-96.004
X-166.229 Y-97.087
X-165.402 Y-98.144
X-164.54 Y-99.173
X-163.644 Y-100.172
X-162.716 Y-101.142
X-161.756 Y-102.08
X-160.766 Y-102.986
X-159.746 Y-103.858
X-158.698 Y-104.696
X-157.622 Y-105.499
X-156.521 Y-106.267
X-155.395 Y-106.998
X-154.246 Y-107.691
X-153.075 Y-108.347
X-151.883 Y-108.963
X-150.671 Y-109.54
X-149.441 Y-110.077
X-148.194 Y-110.573
X-146.931 Y-111.028
X-145.654 Y-111.44
X-144.364 Y-111.81
X-143.062 Y-112.137
X-141.75 Y-112.421
X-140.43 Y-112.662
X-139.102 Y-112.859
X-137.769 Y-113.012
X-136.431 Y-113.122
X-135.091 Y-113.188
X-133.749 Y-113.211
X-132.407 Y-113.189
X-131.066 Y-113.124
X-129.729 Y-113.015
X-128.395 Y-112.862
X-127.067 Y-112.666
X-125.747 Y-112.426
X-124.435 Y-112.143
X-123.133 Y-111.817
X-121.842 Y-111.449
X-120.564 Y-111.039
X-119.3 Y-110.588
X-118.051 Y-110.096
X-116.819 Y-109.565
X-115.604 Y-108.993
X-114.409 Y-108.383
X-113.234 Y-107.735
X-112.08 Y-107.05
X-110.949 Y-106.327
X-109.842 Y-105.568
X-108.759 Y-104.775
X-107.704 Y-103.946
X-106.675 Y-103.084
X-105.675 Y-102.188
X-104.704 Y-101.262
X-103.764 Y-100.304
X-102.855 Y-99.317
X-101.978 Y-98.301
X-101.133 Y-97.258
X-100.322 Y-96.188
X-99.546 Y-95.093
X-98.805 Y-93.974
X-98.101 Y-92.832
X-97.433 Y-91.668
X-96.802 Y-90.483
X-96.21 Y-89.278
X-95.657 Y-88.055
X-95.144 Y-86.815
X-94.672 Y-85.559
X-94.24 Y-84.288
X-93.848 Y-83.004
X-93.498 Y-81.708
X-93.19 Y-80.402
X-92.924 Y-79.087
X-92.699 Y-77.764
X-92.517 Y-76.434
X-92.377 Y-75.099
X-92.28 Y-73.76
X-92.226 Y-72.419
X-92.215 Y-71.077
X-92.247 Y-69.735
X-92.322 Y-68.395
X-92.441 Y-67.058
X-92.602 Y-65.726
X-92.807 Y-64.4
X-93.054 Y-63.08
X-93.343 Y-61.77
X-93.674 Y-60.469
X-94.046 Y-59.179
X-94.459 Y-57.902
X-94.913 Y-56.639
X-95.406 Y-55.391
X-95.94 Y-54.16
X-96.512 Y-52.946
X-97.123 Y-51.751
X-97.772 Y-50.576
X-98.458 Y-49.422
X-99.182 Y-48.292
X-99.941 Y-47.185
X-100.736 Y-46.104
X-101.565 Y-45.048
X-102.427 Y-44.02
X-103.322 Y-43.019
X-104.248 Y-42.048
X-105.204 Y-41.106
X-106.19 Y-40.195
X-107.205 Y-39.316
X-108.246 Y-38.47
X-109.315 Y-37.658
X-110.408 Y-36.88
X-111.526 Y-36.137
X-112.667 Y-35.43
X-113.83 Y-34.76
X-115.014 Y-34.129
X-116.218 Y-33.535
X-117.44 Y-32.981
X-118.68 Y-32.465
X-119.935 Y-31.989
X-121.204 Y-31.553
X-122.486 Y-31.157
X-123.781 Y-30.802
X-125.086 Y-30.489
X-126.4 Y-30.216
X-127.722 Y-29.985
X-129.051 Y-29.796
X-130.385 Y-29.649
X-131.723 Y-29.545
X-133.064 Y-29.482
X-134.406 Y-29.463
X-135.748 Y-29.487
X-137.088 Y-29.553
X-138.426 Y-29.661
X-139.76 Y-29.811
X-141.088 Y-30.003
X-142.41 Y-30.237
X-143.723 Y-30.512
X-145.028 Y-30.827
X-146.322 Y-31.184
X-147.604 Y-31.581
X-148.873 Y-32.017
X-150.128 Y-32.494
X-151.367 Y-33.009
X-152.59 Y-33.563
X-153.794 Y-34.156
X-154.979 Y-34.786
X-156.143 Y-35.454
X-157.286 Y-36.157
X-158.406 Y-36.896
X-159.503 Y-37.67
X-160.576 Y-38.477
X-161.622 Y-39.317
X-162.642 Y-40.19
X-163.635 Y-41.093
X-164.598 Y-42.027
X-165.533 Y-42.991
X-166.437 Y-43.983
X-167.31 Y-45.002
X-168.15 Y-46.049
X-168.957 Y-47.121
X-169.731 Y-48.218
X-170.469 Y-49.339
X-171.172 Y-50.482
X-171.838 Y-51.647
X-172.469 Y-52.832
X-173.062 Y-54.036
X-173.618 Y-55.258
X-174.136 Y-56.496
X-174.615 Y-57.749
X-175.056 Y-59.017
X-175.457 Y-60.298
X-175.818 Y-61.591
X-176.139 Y-62.894
X-176.419 Y-64.207
X-176.659 Y-65.527
X-176.857 Y-66.855
X-177.013 Y-68.188
X-177.128 Y-69.525
X-177.201 Y-70.865
X-177.232 Y-72.207
X-177.222 Y-73.549
X-177.17 Y-74.89
X-177.077 Y-76.229
X-176.943 Y-77.564
X-176.768 Y-78.895
X-176.552 Y-80.22
X-176.295 Y-81.537
X-175.998 Y-82.846
X-175.66 Y-84.145
X-175.282 Y-85.433
X-174.865 Y-86.708
X-174.408 Y-87.97
X-173.911 Y-89.217
X-173.376 Y-90.448
X-172.803 Y-91.662
X-172.193 Y-92.857
X-171.546 Y-94.033
X-170.864 Y-95.189
X-170.146 Y-96.323
X-169.393 Y-97.434
X-168.607 Y-98.522
X-167.788 Y-99.585
X-166.936 Y-100.622
X-166.053 Y-101.633
X-165.138 Y-102.616
X-164.194 Y-103.57
X-163.221 Y-104.494
X-162.22 Y-105.387
X-161.191 Y-106.249
X-160.135 Y-107.078
X-159.055 Y-107.874
X-157.95 Y-108.637
X-156.823 Y-109.365
X-155.674 Y-110.058
X-154.504 Y-110.716
X-153.314 Y-111.337
X-152.106 Y-111.922
X-150.88 Y-112.469
X-149.638 Y-112.978
X-148.381 Y-113.448
X-147.11 Y-113.88
X-145.827 Y-114.272
X-144.532 Y-114.625
X-143.226 Y-114.936
X-141.912 Y-115.207
X-140.589 Y-115.437
X-139.261 Y-115.627
X-137.927 Y-115.775
X-136.589 Y-115.883
X-135.248 Y-115.949
X-133.907 Y-115.975
X-132.564 Y-115.96
X-131.224 Y-115.903
X-129.885 Y-115.806
X-128.55 Y-115.668
X-127.22 Y-115.489
X-125.896 Y-115.27
X-124.579 Y-115.01
X-123.271 Y-114.71
X-121.972 Y-114.369
X-120.685 Y-113.989
X-119.41 Y-113.57
X-118.149 Y-113.112
X-116.902 Y-112.616
X-115.67 Y-112.082
X-114.455 Y-111.512
X-113.258 Y-110.905
X-112.08 Y-110.262
X-110.921 Y-109.584
X-109.784 Y-108.872
X-108.668 Y-108.126
X-107.576 Y-107.346
X-106.508 Y-106.533
X-105.464 Y-105.689
X-104.447 Y-104.814
X-103.457 Y-103.907
X-102.495 Y-102.971
X-101.562 Y-102.007
X-100.658 Y-101.015
X-99.784 Y-99.996
X-98.941 Y-98.951
X-98.13 Y-97.882
X-97.351 Y-96.789
X-96.606 Y-95.673
X-95.894 Y-94.535
X-95.216 Y-93.377
X-94.573 Y-92.199
X-93.966 Y-91.002
X-93.395 Y-89.787
X-92.861 Y-88.556
X-92.365 Y-87.309
X-91.906 Y-86.047
X-91.486 Y-84.773
X-91.105 Y-83.486
X-90.762 Y-82.188
X-90.459 Y-80.881
X-90.195 Y-79.565
X-89.97 Y-78.241
X-89.785 Y-76.912
X-89.64 Y-75.578
X-89.535 Y-74.24
X-89.47 Y-72.899
X-89.445 Y-71.557
X-89.461 Y-70.215
X-89.516 Y-68.874
X-89.612 Y-67.536
X-89.749 Y-66.2
X-89.926 Y-64.87
X-90.143 Y-63.545
X-90.401 Y-62.228
X-90.698 Y-60.919
X-91.034 Y-59.62
X-91.409 Y-58.331
X-91.822 Y-57.054
X-92.273 Y-55.79
X-92.762 Y-54.54
X-93.288 Y-53.306
X-93.851 Y-52.087
X-94.45 Y-50.886
X-95.085 Y-49.703
X-95.754 Y-48.54
X-96.459 Y-47.398
X-97.198 Y-46.277
X-97.97 Y-45.18
X-98.776 Y-44.106
X-99.613 Y-43.057
X-100.482 Y-42.034
X-101.38 Y-41.037
X-102.309 Y-40.068
X-103.266 Y-39.127
X-104.25 Y-38.215
X-105.261 Y-37.332
X-106.298 Y-36.48
X-107.36 Y-35.659
X-108.446 Y-34.871
X-109.555 Y-34.115
X-110.686 Y-33.392
X-111.839 Y-32.704
X-113.011 Y-32.051
X-114.203 Y-31.433
X-115.412 Y-30.852
X-116.639 Y-30.308
X-117.882 Y-29.8
X-119.139 Y-29.33
X-120.409 Y-28.897
X-121.692 Y-28.502
X-122.986 Y-28.146
X-124.29 Y-27.827
X-125.603 Y-27.548
X-126.923 Y-27.308
X-128.25 Y-27.106
X-129.582 Y-26.944
X-130.919 Y-26.822
X-132.258 Y-26.739
X-133.6 Y-26.697
X-134.942 Y-26.694
X-136.284 Y-26.732
X-137.624 Y-26.809
X-138.961 Y-26.927
X-140.294 Y-27.084
X-141.621 Y-27.28
X-142.943 Y-27.515
X-144.257 Y-27.789
X-145.562 Y-28.102
X-146.857 Y-28.452
X-148.142 Y-28.841
X-149.415 Y-29.267
X-150.675 Y-29.73
X-151.92 Y-30.23
X-153.15 Y-30.766
X-154.364 Y-31.339
X-155.561 Y-31.947
X-156.738 Y-32.591
X-157.897 Y-33.269
X-159.034 Y-33.981
X-160.15 Y-34.727
X-161.244 Y-35.505
X-162.315 Y-36.314
X-163.361 Y-37.155
X-164.382 Y-38.025
X-165.378 Y-38.925
X-166.347 Y-39.854
X-167.289 Y-40.81
X-168.202 Y-41.794
X-169.086 Y-42.803
X-169.941 Y-43.839
X-170.764 Y-44.898
X-171.556 Y-45.982
X-172.316 Y-47.088
X-173.043 Y-48.217
X-173.736 Y-49.366
X-174.395 Y-50.535
X-175.02 Y-51.723
X-175.61 Y-52.929
X-176.164 Y-54.151
X-176.683 Y-55.389
X-177.165 Y-56.641
X-177.611 Y-57.907
X-178.02 Y-59.185
X-178.392 Y-60.475
X-178.726 Y-61.775
X-179.023 Y-63.084
X-179.281 Y-64.401
X-179.5 Y-65.725
X-179.681 Y-67.055
X-179.822 Y-68.39
X-179.924 Y-69.728
X-179.987 Y-71.069
X-180.01 Y-72.411
X-179.995 Y-73.753
X-179.94 Y-75.094
X-179.846 Y-76.433
X-179.714 Y-77.768
X-179.543 Y-79.1
X-179.334 Y-80.425
X-179.087 Y-81.744
X-178.801 Y-83.056
X-178.478 Y-84.358
X-178.117 Y-85.651
X-177.718 Y-86.933
X-177.282 Y-88.202
X-176.81 Y-89.458
X-176.3 Y-90.7
X-175.754 Y-91.926
X-175.173 Y-93.136
X-174.557 Y-94.328
X-173.906 Y-95.502
X-173.221 Y-96.656
X-172.504 Y-97.791
X-171.754 Y-98.904
X-170.972 Y-99.994
X-170.159 Y-101.062
X-169.315 Y-102.106
X-168.442 Y-103.125
X-167.539 Y-104.119
X-166.608 Y-105.085
X-165.649 Y-106.025
X-164.664 Y-106.936
X-163.652 Y-107.817
X-162.614 Y-108.669
X-161.552 Y-109.489
X-160.467 Y-110.279
X-159.359 Y-111.036
X-158.229 Y-111.761
X-157.079 Y-112.453
X-155.91 Y-113.112
X-154.722 Y-113.737
X-153.517 Y-114.327
X-152.295 Y-114.882
X-151.057 Y-115.402
X-149.805 Y-115.885
X-148.54 Y-116.333
X-147.262 Y-116.743
X-145.973 Y-117.116
X-144.673 Y-117.452
X-143.364 Y-117.749
X-142.047 Y-118.008
X-140.723 Y-118.228
X-139.394 Y-118.41
X-138.059 Y-118.553
X-136.721 Y-118.658
X-135.381 Y-118.724
X-134.039 Y-118.752
X-132.697 Y-118.741
X-131.355 Y-118.692
X-130.016 Y-118.605
X-128.68 Y-118.479
X-127.348 Y-118.314
X-126.021 Y-118.112
X-124.701 Y-117.872
X-123.388 Y-117.593
X-122.083 Y-117.277
X-120.788 Y-116.923
X-119.505 Y-116.532
X-118.233 Y-116.104
X-116.973 Y-115.639
X-115.728 Y-115.139
X-114.497 Y-114.604
X-113.282 Y-114.033
X-112.084 Y-113.429
X-110.903 Y-112.79
X-109.741 Y-112.119
X-108.599 Y-111.415
X-107.476 Y-110.679
X-106.375 Y-109.911
X-105.297 Y-109.112
X-104.241 Y-108.284
X-103.209 Y-107.425
X-102.203 Y-106.537
X-101.222 Y-105.621
X-100.268 Y-104.677
X-99.341 Y-103.706
X-98.442 Y-102.709
X-97.572 Y-101.688
X-96.731 Y-100.642
X-95.92 Y-99.572
X-95.139 Y-98.481
X-94.389 Y-97.368
X-93.671 Y-96.234
X-92.985 Y-95.08
X-92.332 Y-93.908
X-91.712 Y-92.717
X-91.125 Y-91.51
X-90.574 Y-90.287
X-90.057 Y-89.048
X-89.575 Y-87.795
X-89.13 Y-86.529
X-88.721 Y-85.251
X-88.349 Y-83.961
X-88.013 Y-82.662
X-87.714 Y-81.353
X-87.452 Y-80.037
X-87.228 Y-78.714
X-87.041 Y-77.385
X-86.891 Y-76.051
X-86.779 Y-74.713
X-86.704 Y-73.373
X-86.667 Y-72.032
X-86.668 Y-70.69
X-86.707 Y-69.348
X-86.784 Y-68.008
X-86.899 Y-66.671
X-87.052 Y-65.337
X-87.243 Y-64.009
X-87.472 Y-62.686
X-87.738 Y-61.371
X-88.042 Y-60.064
X-88.383 Y-58.766
X-88.76 Y-57.478
X-89.174 Y-56.201
X-89.623 Y-54.936
X-90.107 Y-53.684
X-90.627 Y-52.447
X-91.181 Y-51.224
X-91.769 Y-50.018
X-92.391 Y-48.829
X-93.047 Y-47.657
X-93.735 Y-46.505
X-94.455 Y-45.373
X-95.208 Y-44.261
X-95.992 Y-43.172
X-96.807 Y-42.105
X-97.651 Y-41.062
X-98.525 Y-40.044
X-99.428 Y-39.05
X-100.358 Y-38.083
X-101.315 Y-37.142
X-102.298 Y-36.228
X-103.306 Y-35.342
X-104.339 Y-34.485
X-105.395 Y-33.657
X-106.474 Y-32.859
X-107.575 Y-32.091
X-108.697 Y-31.355
X-109.84 Y-30.65
X-111.002 Y-29.978
X-112.182 Y-29.34
X-113.38 Y-28.735
X-114.595 Y-28.165
X-115.826 Y-27.629
X-117.071 Y-27.128
X-118.33 Y-26.662
X-119.601 Y-26.232
X-120.884 Y-25.838
X-122.178 Y-25.48
X-123.48 Y-25.157
X-124.792 Y-24.871
X-126.111 Y-24.622
X-127.436 Y-24.41
X-128.766 Y-24.234
X-130.101 Y-24.096
X-131.44 Y-23.995
X-132.78 Y-23.931
X-134.122 Y-23.905
X-135.464 Y-23.917
X-136.806 Y-23.967
X-138.145 Y-24.055
X-139.481 Y-24.18
X-140.814 Y-24.343
X-142.141 Y-24.542
X-143.462 Y-24.778
X-144.776 Y-25.051
X-146.082 Y-25.36
X-147.379 Y-25.705
X-148.666 Y-26.086
X-149.942 Y-26.502
X-151.206 Y-26.953
X-152.458 Y-27.439
X-153.695 Y-27.959
X-154.917 Y-28.514
X-156.123 Y-29.102
X-157.313 Y-29.724
X-158.484 Y-30.379
X-159.637 Y-31.066
X-160.77 Y-31.786
X-161.883 Y-32.536
X-162.974 Y-33.317
X-164.044 Y-34.128
X-165.09 Y-34.968
X-166.114 Y-35.837
X-167.113 Y-36.733
X-168.087 Y-37.657
X-169.035 Y-38.606
X-169.957 Y-39.582
X-170.852 Y-40.582
X-171.719 Y-41.607
X-172.557 Y-42.655
X-173.366 Y-43.726
X-174.145 Y-44.819
X-174.893 Y-45.933
X-175.61 Y-47.067
X-176.295 Y-48.222
X-176.948 Y-49.394
X-177.568 Y-50.585
X-178.156 Y-51.792
X-178.709 Y-53.014
X-179.23 Y-54.251
X-179.716 Y-55.502
X-180.168 Y-56.766
X-180.585 Y-58.042
X-180.967 Y-59.328
X-181.314 Y-60.625
X-181.625 Y-61.931
X-181.9 Y-63.244
X-182.139 Y-64.565
X-182.342 Y-65.892
X-182.508 Y-67.223
X-182.636 Y-68.559
X-182.727 Y-69.899
X-182.782 Y-71.24
X-182.799 Y-72.582
X-182.779 Y-73.924
X-182.723 Y-75.265
X-182.63 Y-76.604
X-182.501 Y-77.939
X-182.335 Y-79.271
X-182.133 Y-80.598
X-181.895 Y-81.919
X-181.62 Y-83.233
X-181.311 Y-84.539
X-180.965 Y-85.836
X-180.585 Y-87.123
X-180.169 Y-88.399
X-179.718 Y-89.663
X-179.232 Y-90.914
X-178.711 Y-92.151
X-178.157 Y-93.373
X-177.569 Y-94.58
X-176.948 Y-95.77
X-176.295 Y-96.942
X-175.609 Y-98.096
X-174.893 Y-99.231
X-174.146 Y-100.346
X-173.369 Y-101.441
X-172.563 Y-102.514
X-171.727 Y-103.564
X-170.863 Y-104.591
X-169.972 Y-105.595
X-169.053 Y-106.573
X-168.109 Y-107.526
X-167.138 Y-108.453
X-166.142 Y-109.353
X-165.121 Y-110.225
X-164.077 Y-111.068
X-163.01 Y-111.882
X-161.921 Y-112.666
X-160.81 Y-113.42
X-159.68 Y-114.143
X-158.53 Y-114.836
X-157.362 Y-115.497
X-156.176 Y-116.125
X-154.974 Y-116.722
X-153.756 Y-117.285
X-152.523 Y-117.815
X-151.276 Y-118.312
X-150.016 Y-118.774
X-148.743 Y-119.202
X-147.46 Y-119.595
X-146.166 Y-119.952
X-144.863 Y-120.274
X-143.552 Y-120.56
X-142.233 Y-120.809
X-140.908 Y-121.021
X-139.577 Y-121.198
X-138.243 Y-121.338
X-136.904 Y-121.442
X-135.564 Y-121.509
X-134.222 Y-121.54
X-132.88 Y-121.535
X-131.539 Y-121.494
X-130.199 Y-121.416
X-128.861 Y-121.302
X-127.528 Y-121.152
X-126.198 Y-120.967
X-124.875 Y-120.745
X-123.557 Y-120.487
X-122.248 Y-120.194
X-120.947 Y-119.865
X-119.655 Y-119.5
X-118.374 Y-119.1
X-117.104 Y-118.665
X-115.846 Y-118.196
X-114.602 Y-117.694
X-113.371 Y-117.158
X-112.156 Y-116.589
X-110.956 Y-115.988
X-109.772 Y-115.355
X-108.606 Y-114.691
X-107.458 Y-113.996
X-106.329 Y-113.27
X-105.219 Y-112.515
X-104.131 Y-111.73
X-103.063 Y-110.916
X-102.018 Y-110.074
X-100.996 Y-109.204
X-99.998 Y-108.306
X-99.025 Y-107.382
X-98.077 Y-106.432
X-97.155 Y-105.457
X-96.26 Y-104.457
X-95.391 Y-103.434
X-94.55 Y-102.387
X-93.738 Y-101.319
X-92.954 Y-100.23
X-92.199 Y-99.12
X-91.474 Y-97.991
X-90.779 Y-96.843
X-90.115 Y-95.676
X-89.482 Y-94.493
X-88.88 Y-93.293
X-88.311 Y-92.077
X-87.775 Y-90.847
X-87.272 Y-89.603
X-86.802 Y-88.345
X-86.367 Y-87.076
X-85.967 Y-85.795
X-85.601 Y-84.503
X-85.269 Y-83.203
X-84.973 Y-81.894
X-84.712 Y-80.577
X-84.485 Y-79.254
X-84.294 Y-77.926
X-84.138 Y-76.593
X-84.018 Y-75.256
X-83.933 Y-73.917
X-83.884 Y-72.575
X-83.87 Y-71.233
X-83.892 Y-69.891
X-83.95 Y-68.55
X-84.043 Y-67.212
X-84.173 Y-65.876
X-84.339 Y-64.544
X-84.541 Y-63.217
X-84.778 Y-61.896
X-85.051 Y-60.582
X-85.36 Y-59.276
X-85.703 Y-57.978
X-86.08 Y-56.69
X-86.491 Y-55.413
X-86.937 Y-54.146
X-87.416 Y-52.893
X-87.927 Y-51.652
X-88.472 Y-50.425
X-89.049 Y-49.213
X-89.658 Y-48.017
X-90.298 Y-46.838
X-90.97 Y-45.676
X-91.673 Y-44.532
X-92.406 Y-43.408
X-93.169 Y-42.304
X-93.961 Y-41.221
X-94.783 Y-40.16
X-95.633 Y-39.121
X-96.51 Y-38.105
X-97.415 Y-37.113
X-98.345 Y-36.146
X-99.3 Y-35.203
X-100.28 Y-34.286
X-101.285 Y-33.396
X-102.312 Y-32.532
X-103.362 Y-31.696
X-104.433 Y-30.888
X-105.526 Y-30.108
X-106.639 Y-29.358
X-107.771 Y-28.637
X-108.922 Y-27.947
X-110.091 Y-27.288
X-111.278 Y-26.661
X-112.481 Y-26.066
X-113.699 Y-25.503
X-114.933 Y-24.973
X-116.18 Y-24.477
X-117.439 Y-24.013
X-118.711 Y-23.583
X-119.993 Y-23.187
X-121.285 Y-22.825
X-122.587 Y-22.497
X-123.896 Y-22.203
X-125.213 Y-21.943
X-126.536 Y-21.719
X-127.865 Y-21.529
X-129.198 Y-21.374
X-130.535 Y-21.255
X-131.874 Y-21.17
X-133.216 Y-21.121
X-134.558 Y-21.109
X-135.9 Y-21.132
X-137.241 Y-21.191
X-138.579 Y-21.285
X-139.915 Y-21.415
X-141.247 Y-21.58
X-142.574 Y-21.78
X-143.896 Y-22.015
X-145.211 Y-22.284
X-146.518 Y-22.587
X-147.817 Y-22.925
X-149.107 Y-23.296
X-150.387 Y-23.701
X-151.655 Y-24.139
X-152.912 Y-24.61
X-154.156 Y-25.114
X-155.387 Y-25.65
X-156.603 Y-26.218
X-157.803 Y-26.818
X-158.987 Y-27.45
X-160.154 Y-28.113
X-161.303 Y-28.807
X-162.433 Y-29.531
X-163.544 Y-30.284
X-164.635 Y-31.066
X-165.705 Y-31.877
X-166.753 Y-32.714
X-167.78 Y-33.579
X-168.783 Y-34.47
X-169.764 Y-35.387
X-170.72 Y-36.329
X-171.651 Y-37.295
X-172.557 Y-38.285
X-173.437 Y-39.299
X-174.291 Y-40.335
X-175.117 Y-41.392
X-175.915 Y-42.472
X-176.684 Y-43.571
X-177.424 Y-44.691
X-178.133 Y-45.83
X-178.813 Y-46.988
X-179.463 Y-48.162
X-180.081 Y-49.353
X-180.669 Y-50.56
X-181.224 Y-51.782
X-181.748 Y-53.017
X-182.24 Y-54.266
X-182.7 Y-55.527
X-183.127 Y-56.8
X-183.521 Y-58.083
X-183.881 Y-59.376
X-184.208 Y-60.677
X-184.501 Y-61.987
X-184.761 Y-63.304
X-184.985 Y-64.627
X-185.175 Y-65.956
X-185.33 Y-67.289
X-185.449 Y-68.626
X-185.534 Y-69.965
X-185.583 Y-71.307
X-185.598 Y-72.649
X-185.577 Y-73.991
X-185.522 Y-75.332
X-185.432 Y-76.671
X-185.308 Y-78.007
X-185.15 Y-79.34
X-184.957 Y-80.668
X-184.73 Y-81.991
X-184.469 Y-83.307
X-184.174 Y-84.617
X-183.845 Y-85.918
X-183.483 Y-87.211
X-183.088 Y-88.493
X-182.659 Y-89.765
X-182.197 Y-91.025
X-181.701 Y-92.272
X-181.173 Y-93.506
X-180.614 Y-94.726
X-180.022 Y-95.931
X-179.4 Y-97.12
X-178.747 Y-98.293
X-178.063 Y-99.448
X-177.351 Y-100.585
X-176.609 Y-101.704
X-175.839 Y-102.803
X-175.041 Y-103.882
X-174.215 Y-104.94
X-173.362 Y-105.976
X-172.483 Y-106.991
X-171.578 Y-107.982
X-170.648 Y-108.949
X-169.693 Y-109.892
X-168.713 Y-110.81
X-167.71 Y-111.701
X-166.683 Y-112.566
X-165.635 Y-113.403
X-164.564 Y-114.213
X-163.474 Y-114.995
X-162.363 Y-115.749
X-161.233 Y-116.474
X-160.085 Y-117.169
X-158.92 Y-117.834
X-157.737 Y-118.469
X-156.539 Y-119.074
X-155.326 Y-119.648
X-154.098 Y-120.19
X-152.857 Y-120.701
X-151.603 Y-121.179
X-150.337 Y-121.626
X-149.06 Y-122.039
X-147.773 Y-122.419
X-146.476 Y-122.765
X-145.171 Y-123.076
X-143.857 Y-123.354
X-142.537 Y-123.597
X-141.212 Y-123.806
X-139.881 Y-123.981
X-138.546 Y-124.122
X-137.208 Y-124.228
X-135.868 Y-124.299
X-134.526 Y-124.337
X-133.184 Y-124.34
X-131.842 Y-124.308
X-130.502 Y-124.243
X-129.163 Y-124.143
X-127.828 Y-124.01
X-126.496 Y-123.842
X-125.169 Y-123.64
X-123.848 Y-123.404
X-122.534 Y-123.134
X-121.226 Y-122.829
X-119.927 Y-122.491
X-118.638 Y-122.12
X-117.358 Y-121.715
X-116.089 Y-121.277
X-114.832 Y-120.808
X-113.587 Y-120.306
X-112.355 Y-119.773
X-111.138 Y-119.209
X-109.935 Y-118.614
X-108.747 Y-117.988
X-107.575 Y-117.333
X-106.421 Y-116.649
X-105.284 Y-115.936
X-104.165 Y-115.194
X-103.066 Y-114.424
X-101.987 Y-113.627
X-100.928 Y-112.802
X-99.89 Y-111.95
X-98.875 Y-111.072
X-97.883 Y-110.168
X-96.915 Y-109.239
X-95.97 Y-108.286
X-95.05 Y-107.308
X-94.155 Y-106.308
X-93.286 Y-105.286
X-92.442 Y-104.242
X-91.626 Y-103.177
X-90.836 Y-102.091
X-90.074 Y-100.987
X-89.339 Y-99.863
X-88.634 Y-98.721
X-87.957 Y-97.562
X-87.309 Y-96.387
X-86.691 Y-95.195
X-86.104 Y-93.989
X-85.547 Y-92.767
X-85.022 Y-91.532
X-84.529 Y-90.284
X-84.068 Y-89.024
X-83.639 Y-87.752
X-83.243 Y-86.469
X-82.879 Y-85.177
X-82.548 Y-83.877
X-82.251 Y-82.568
X-81.986 Y-81.252
X-81.754 Y-79.93
X-81.556 Y-78.603
X-81.391 Y-77.271
X-81.26 Y-75.935
X-81.162 Y-74.596
X-81.098 Y-73.256
X-81.068 Y-71.914
X-81.071 Y-70.572
X-81.108 Y-69.23
X-81.18 Y-67.89
X-81.285 Y-66.552
X-81.426 Y-65.217
X-81.6 Y-63.886
X-81.808 Y-62.56
X-82.05 Y-61.24
X-82.325 Y-59.927
X-82.634 Y-58.62
X-82.975 Y-57.322
X-83.349 Y-56.034
X-83.756 Y-54.754
X-84.194 Y-53.486
X-84.664 Y-52.229
X-85.166 Y-50.984
X-85.699 Y-49.752
X-86.262 Y-48.534
X-86.856 Y-47.33
X-87.48 Y-46.142
X-88.133 Y-44.969
X-88.817 Y-43.814
X-89.529 Y-42.677
X-90.271 Y-41.558
X-91.041 Y-40.459
X-91.839 Y-39.38
X-92.664 Y-38.321
X-93.515 Y-37.284
X-94.393 Y-36.268
X-95.295 Y-35.275
X-96.223 Y-34.305
X-97.175 Y-33.358
X-98.15 Y-32.436
X-99.148 Y-31.539
X-100.168 Y-30.666
X-101.209 Y-29.82
X-102.272 Y-29
X-103.354 Y-28.206
X-104.456 Y-27.44
X-105.577 Y-26.702
X-106.717 Y-25.993
X-107.874 Y-25.313
X-109.048 Y-24.663
X-110.238 Y-24.043
X-111.444 Y-23.453
X-112.664 Y-22.894
X-113.898 Y-22.367
X-115.145 Y-21.87
X-116.404 Y-21.405
X-117.675 Y-20.971
X-118.955 Y-20.57
X-120.246 Y-20.2
X-121.545 Y-19.863
X-122.852 Y-19.558
X-124.166 Y-19.286
X-125.487 Y-19.047
X-126.813 Y-18.84
X-128.144 Y-18.667
X-129.478 Y-18.527
X-130.816 Y-18.42
X-132.157 Y-18.347
X-133.498 Y-18.309
X-134.84 Y-18.304
X-136.182 Y-18.334
X-137.523 Y-18.397
X-138.861 Y-18.493
X-140.197 Y-18.624
X-141.529 Y-18.787
X-142.857 Y-18.984
X-144.18 Y-19.213
X-145.496 Y-19.475
X-146.805 Y-19.77
X-148.107 Y-20.097
X-149.4 Y-20.456
X-150.684 Y-20.846
X-151.958 Y-21.269
X-153.221 Y-21.723
X-154.473 Y-22.208
X-155.712 Y-22.723
X-156.938 Y-23.27
X-158.149 Y-23.848
X-159.346 Y-24.456
X-160.526 Y-25.094
X-161.691 Y-25.761
X-162.838 Y-26.457
X-163.968 Y-27.182
X-165.08 Y-27.934
X-166.172 Y-28.714
X-167.245 Y-29.52
X-168.298 Y-30.352
X-169.33 Y-31.21
X-170.341 Y-32.094
X-171.329 Y-33.001
X-172.295 Y-33.933
X-173.238 Y-34.889
X-174.157 Y-35.867
X-175.052 Y-36.867
X-175.922 Y-37.889
X-176.766 Y-38.933
X-177.583 Y-39.997
X-178.374 Y-41.082
X-179.137 Y-42.186
X-179.872 Y-43.309
X-180.579 Y-44.45
X-181.258 Y-45.607
X-181.908 Y-46.782
X-182.528 Y-47.972
X-183.12 Y-49.177
X-183.681 Y-50.396
X-184.213 Y-51.628
X-184.714 Y-52.873
X-185.184 Y-54.13
X-185.623 Y-55.399
X-186.032 Y-56.677
X-186.409 Y-57.965
X-186.754 Y-59.262
X-187.067 Y-60.567
X-187.348 Y-61.88
X-187.597 Y-63.199
X-187.812 Y-64.524
X-187.993 Y-65.853
X-188.142 Y-67.187
X-188.258 Y-68.524
X-188.34 Y-69.864
X-188.389 Y-71.205
X-188.405 Y-72.547
X-188.389 Y-73.889
X-188.339 Y-75.231
X-188.257 Y-76.57
X-188.141 Y-77.907
X-187.994 Y-79.241
X-187.813 Y-80.571
X-187.6 Y-81.897
X-187.355 Y-83.216
X-187.078 Y-84.529
X-186.769 Y-85.835
X-186.428 Y-87.133
X-186.054 Y-88.423
X-185.649 Y-89.702
X-185.212 Y-90.971
X-184.743 Y-92.229
X-184.243 Y-93.474
X-183.713 Y-94.707
X-183.152 Y-95.927
X-182.562 Y-97.132
X-181.942 Y-98.322
X-181.293 Y-99.497
X-180.615 Y-100.656
X-179.909 Y-101.797
X-179.176 Y-102.921
X-178.416 Y-104.027
X-177.628 Y-105.114
X-176.815 Y-106.182
X-175.976 Y-107.229
X-175.111 Y-108.256
X-174.222 Y-109.261
X-173.308 Y-110.244
X-172.369 Y-111.204
X-171.408 Y-112.14
X-170.423 Y-113.052
X-169.416 Y-113.939
X-168.387 Y-114.801
X-167.337 Y-115.637
X-166.267 Y-116.447
X-165.177 Y-117.231
X-164.069 Y-117.987
X-162.942 Y-118.717
X-161.798 Y-119.418
X-160.637 Y-120.092
X-159.46 Y-120.737
X-158.268 Y-121.353
X-157.061 Y-121.94
X-155.84 Y-122.497
X-154.606 Y-123.025
X-153.359 Y-123.522
X-152.101 Y-123.989
X-150.831 Y-124.424
X-149.551 Y-124.828
X-148.261 Y-125.199
X-146.963 Y-125.539
X-145.656 Y-125.846
X-144.343 Y-126.121
X-143.023 Y-126.364
X-141.697 Y-126.574
X-140.367 Y-126.752
X-139.032 Y-126.897
X-137.695 Y-127.01
X-136.355 Y-127.09
X-135.014 Y-127.137
X-133.672 Y-127.152
X-132.33 Y-127.135
X-130.989 Y-127.085
X-129.649 Y-127.003
X-128.312 Y-126.888
X-126.978 Y-126.741
X-125.648 Y-126.561
X-124.322 Y-126.349
X-123.003 Y-126.104
X-121.69 Y-125.826
X-120.384 Y-125.516
X-119.086 Y-125.174
X-117.797 Y-124.801
X-116.517 Y-124.396
X-115.247 Y-123.961
X-113.989 Y-123.495
X-112.742 Y-122.998
X-111.507 Y-122.472
X-110.286 Y-121.916
X-109.078 Y-121.33
X-107.884 Y-120.716
X-106.706 Y-120.074
X-105.543 Y-119.403
X-104.397 Y-118.705
X-103.268 Y-117.98
X-102.157 Y-117.227
X-101.064 Y-116.448
X-99.99 Y-115.643
X-98.937 Y-114.811
X-97.904 Y-113.954
X-96.892 Y-113.072
X-95.902 Y-112.165
X-94.935 Y-111.235
X-93.99 Y-110.282
X-93.068 Y-109.307
X-92.17 Y-108.309
X-91.296 Y-107.291
X-90.447 Y-106.251
X-89.623 Y-105.192
X-88.824 Y-104.113
X-88.051 Y-103.016
X-87.305 Y-101.9
X-86.586 Y-100.767
X-85.893 Y-99.618
X-85.229 Y-98.452
X-84.592 Y-97.27
X-83.984 Y-96.073
X-83.405 Y-94.862
X-82.857 Y-93.638
X-82.338 Y-92.4
X-81.849 Y-91.15
X-81.391 Y-89.888
X-80.963 Y-88.616
X-80.566 Y-87.334
X-80.2 Y-86.043
X-79.865 Y-84.743
X-79.561 Y-83.436
X-79.289 Y-82.121
X-79.048 Y-80.801
X-78.839 Y-79.475
X-78.661 Y-78.145
X-78.515 Y-76.811
X-78.401 Y-75.474
X-78.319 Y-74.134
X-78.268 Y-72.793
X-78.25 Y-71.451
X-78.264 Y-70.109
X-78.311 Y-68.767
X-78.391 Y-67.428
X-78.503 Y-66.09
X-78.648 Y-64.756
X-78.825 Y-63.425
X-79.034 Y-62.1
X-79.275 Y-60.779
X-79.548 Y-59.465
X-79.852 Y-58.158
X-80.187 Y-56.858
X-80.553 Y-55.567
X-80.95 Y-54.285
X-81.378 Y-53.013
X-81.835 Y-51.751
X-82.323 Y-50.5
X-82.84 Y-49.262
X-83.387 Y-48.036
X-83.962 Y-46.824
X-84.567 Y-45.625
X-85.2 Y-44.442
X-85.862 Y-43.274
X-86.552 Y-42.123
X-87.27 Y-40.989
X-88.016 Y-39.873
X-88.788 Y-38.775
X-89.586 Y-37.696
X-90.41 Y-36.637
X-91.259 Y-35.597
X-92.133 Y-34.579
X-93.031 Y-33.581
X-93.952 Y-32.605
X-94.897 Y-31.652
X-95.864 Y-30.721
X-96.852 Y-29.813
X-97.862 Y-28.93
X-98.893 Y-28.07
X-99.944 Y-27.235
X-101.014 Y-26.425
X-102.104 Y-25.642
X-103.212 Y-24.884
X-104.338 Y-24.154
X-105.482 Y-23.451
X-106.642 Y-22.777
X-107.818 Y-22.13
X-109.009 Y-21.512
X-110.215 Y-20.923
X-111.435 Y-20.363
X-112.668 Y-19.832
X-113.913 Y-19.331
X-115.169 Y-18.859
X-116.437 Y-18.418
X-117.714 Y-18.006
X-119.001 Y-17.626
X-119.597 Y-17.464
X-119.88 Y-17.401
X-120.168 Y-17.363
X-120.459 Y-17.35
X-144.858
X-146.198 Y-17.417
X-146.867 Y-17.478
X-148.15 Y-17.633
X-149.472 Y-17.866
X-150.781 Y-18.162
X-152.077 Y-18.509
X-153.36 Y-18.903
X-154.63 Y-19.338
X-155.886 Y-19.811
X-157.128 Y-20.32
X-158.355 Y-20.863
X-159.568 Y-21.438
X-160.766 Y-22.044
X-161.948 Y-22.68
X-163.114 Y-23.344
X-164.263 Y-24.037
X-165.395 Y-24.758
X-166.51 Y-25.505
X-167.607 Y-26.279
X-168.685 Y-27.079
X-169.744 Y-27.903
X-170.783 Y-28.753
X-171.802 Y-29.626
X-172.8 Y-30.523
X-173.777 Y-31.444
X-174.733 Y-32.386
X-175.666 Y-33.351
X-176.576 Y-34.338
X-177.462 Y-35.345
X-178.324 Y-36.374
X-179.162 Y-37.423
X-179.974 Y-38.491
X-180.76 Y-39.579
X-181.521 Y-40.685
X-182.255 Y-41.808
X-182.963 Y-42.949
X-183.643 Y-44.106
X-184.296 Y-45.278
X-184.922 Y-46.466
X-185.519 Y-47.667
X-186.089 Y-48.883
X-186.63 Y-50.111
X-187.142 Y-51.352
X-187.625 Y-52.604
X-188.079 Y-53.867
X-188.504 Y-55.14
X-188.898 Y-56.423
X-189.026 Y-56.874
X-189.095 Y-57.168
X-189.136 Y-57.468
X-189.15 Y-57.771
Y-83.717
X-189.083 Y-85.057
X-189.03 Y-85.726
X-188.896 Y-86.907
X-188.673 Y-88.231
X-188.383 Y-89.541
X-188.036 Y-90.838
X-187.641 Y-92.12
X-187.202 Y-93.389
X-186.724 Y-94.643
X-186.211 Y-95.883
X-185.663 Y-97.108
X-185.083 Y-98.319
X-184.473 Y-99.514
X-183.833 Y-100.694
X-183.164 Y-101.857
X-182.468 Y-103.005
X-181.744 Y-104.135
X-180.994 Y-105.248
X-180.218 Y-106.343
X-179.417 Y-107.42
X-178.59 Y-108.477
X-177.739 Y-109.515
X-176.864 Y-110.533
X-175.965 Y-111.53
X-175.043 Y-112.505
X-174.098 Y-113.458
X-173.131 Y-114.388
X-172.142 Y-115.295
X-171.131 Y-116.179
X-170.101 Y-117.039
X-169.05 Y-117.874
X-167.98 Y-118.684
X-166.892 Y-119.469
X-165.785 Y-120.229
X-164.661 Y-120.963
X-163.521 Y-121.67
X-162.364 Y-122.351
X-161.192 Y-123.005
X-160.005 Y-123.632
X-158.804 Y-124.231
X-157.589 Y-124.802
X-156.362 Y-125.344
X-155.122 Y-125.858
X-153.871 Y-126.343
X-152.608 Y-126.799
X-151.335 Y-127.224
X-150.429 Y-127.504
X-150.111 Y-127.585
X-149.786 Y-127.634
X-149.457 Y-127.65
X-121.619
X-120.279 Y-127.583
X-119.61 Y-127.525
X-118.458 Y-127.384
X-117.136 Y-127.149
X-115.829 Y-126.844
X-114.536 Y-126.483
X-113.258 Y-126.073
X-111.995 Y-125.619
X-110.746 Y-125.127
X-109.512 Y-124.6
X-108.293 Y-124.039
X-107.089 Y-123.446
X-105.899 Y-122.824
X-104.726 Y-122.173
X-103.568 Y-121.494
X-102.427 Y-120.787
X-101.303 Y-120.054
X-100.197 Y-119.294
X-99.109 Y-118.508
X-98.039 Y-117.697
X-96.99 Y-116.861
X-95.959 Y-116.001
X-94.949 Y-115.117
X-93.96 Y-114.209
X-92.992 Y-113.28
X-92.046 Y-112.328
X-91.121 Y-111.355
X-90.219 Y-110.361
X-89.34 Y-109.347
X-88.485 Y-108.313
X-87.653 Y-107.26
X-86.845 Y-106.188
X-86.062 Y-105.098
X-85.303 Y-103.99
X-84.57 Y-102.866
X-83.863 Y-101.726
X-83.182 Y-100.569
X-82.527 Y-99.397
X-81.9 Y-98.211
X-81.3 Y-97.01
X-80.729 Y-95.796
X-80.185 Y-94.569
X-79.67 Y-93.329
X-79.184 Y-92.078
X-78.727 Y-90.816
X-78.299 Y-89.544
X-77.899 Y-88.263
X-77.53 Y-86.973
X-77.19 Y-85.674
X-76.879 Y-84.369
X-76.598 Y-83.056
X-76.347 Y-81.738
X-76.127 Y-80.414
X-75.936 Y-79.085
X-75.775 Y-77.753
X-75.645 Y-76.417
X-75.544 Y-75.079
X-75.475 Y-73.738
X-75.436 Y-72.397
X-75.428 Y-71.054
X-75.451 Y-69.713
X-75.506 Y-68.371
X-75.591 Y-67.032
X-75.707 Y-65.695
X-75.854 Y-64.361
X-76.032 Y-63.031
X-76.24 Y-61.705
X-76.479 Y-60.384
X-76.747 Y-59.069
X-77.046 Y-57.76
X-77.374 Y-56.459
X-77.732 Y-55.165
X-78.119 Y-53.88
X-78.535 Y-52.604
X-78.979 Y-51.338
X-79.453 Y-50.082
X-79.955 Y-48.837
X-80.484 Y-47.604
X-81.042 Y-46.383
X-81.628 Y-45.175
X-82.241 Y-43.982
X-82.882 Y-42.802
X-83.55 Y-41.638
X-84.245 Y-40.49
X-84.966 Y-39.358
X-85.713 Y-38.243
X-86.485 Y-37.145
X-87.282 Y-36.066
X-88.104 Y-35.004
X-88.95 Y-33.962
X-89.819 Y-32.939
X-90.711 Y-31.937
X-91.626 Y-30.955
X-92.563 Y-29.994
X-93.521 Y-29.054
X-94.5 Y-28.136
X-95.5 Y-27.241
X-96.52 Y-26.368
X-97.559 Y-25.519
X-98.618 Y-24.693
X-99.694 Y-23.892
X-100.79 Y-23.116
X-101.902 Y-22.366
X-103.032 Y-21.641
X-104.178 Y-20.943
X-105.34 Y-20.271
X-106.517 Y-19.626
X-107.709 Y-19.008
X-108.914 Y-18.418
X-110.132 Y-17.855
X-110.664 Y-17.624
X-111.088 Y-17.473
X-111.53 Y-17.381
X-111.98 Y-17.35
X-120.459
G3 X-120.941 Y-17.464 I0.044 J-1.269
G1 X-121.07 Y-17.523 Z35.018
X-121.198 Y-17.581 Z35.042
X-121.323 Y-17.638 Z35.081
X-121.442 Y-17.692 Z35.136
X-121.556 Y-17.744 Z35.205
X-121.661 Y-17.792 Z35.287
X-121.758 Y-17.836 Z35.382
X-121.844 Y-17.875 Z35.488
X-121.919 Y-17.91 Z35.604
X-121.982 Y-17.938 Z35.729
X-122.032 Y-17.961 Z35.861
X-122.068 Y-17.977 Z35.997
X-122.089 Y-17.987 Z36.138
X-122.097 Y-17.99 Z36.28
G0 Z52
X-188.36 Y-82.146
Z37.55
G1 Z36.28 F850
X-188.364 Y-82.153 Z36.138
X-188.377 Y-82.174 Z35.997
X-188.397 Y-82.208 Z35.861
X-188.425 Y-82.255 Z35.729
X-188.46 Y-82.314 Z35.604
X-188.502 Y-82.385 Z35.488
X-188.551 Y-82.466 Z35.382
X-188.605 Y-82.557 Z35.287
X-188.664 Y-82.657 Z35.205
X-188.728 Y-82.764 Z35.136
X-188.795 Y-82.877 Z35.081
X-188.865 Y-82.995 Z35.042
X-188.937 Y-83.116 Z35.018
X-189.009 Y-83.238 Z35.01
G3 X-189.15 Y-83.717 I0.864 J-0.514
G1 Y-92.081
X-189.101 Y-93.066
X-189.024 Y-93.797
X-188.891 Y-94.629
X-188.679 Y-95.61
X-188.365 Y-96.759
X-187.942 Y-98.032
X-187.453 Y-99.282
X-186.911 Y-100.51
X-186.323 Y-101.717
X-185.696 Y-102.903
X-185.032 Y-104.07
X-184.336 Y-105.218
X-183.61 Y-106.346
X-182.855 Y-107.456
X-182.074 Y-108.547
X-181.266 Y-109.619
X-180.433 Y-110.671
X-179.576 Y-111.704
X-178.695 Y-112.717
X-177.791 Y-113.709
X-176.864 Y-114.68
X-175.916 Y-115.629
X-174.946 Y-116.557
X-173.955 Y-117.462
X-172.944 Y-118.345
X-171.913 Y-119.205
X-170.864 Y-120.041
X-169.796 Y-120.854
X-168.71 Y-121.643
X-167.607 Y-122.408
X-166.488 Y-123.148
X-165.352 Y-123.863
X-164.201 Y-124.553
X-163.034 Y-125.218
X-161.854 Y-125.856
X-160.659 Y-126.468
X-159.452 Y-127.054
X-158.806 Y-127.35
X-158.364 Y-127.516
X-157.902 Y-127.616
X-157.432 Y-127.65
X-149.457
G3 X-148.975 Y-127.536 I-0.044 J1.269
X-148.656 Y-125.433 I-0.527 J1.156
G1 X-187.035 Y-91.178
G3 X-189.15 Y-92.081 I-0.846 J-0.947
G1 Y-98.165
X-189.104 Y-99.09
X-189.045 Y-99.652
X-188.94 Y-100.308
X-188.777 Y-101.064
X-188.544 Y-101.916
X-188.213 Y-102.912
X-187.758 Y-104.065
X-187.199 Y-105.285
X-186.581 Y-106.476
X-185.913 Y-107.64
X-185.203 Y-108.78
X-184.457 Y-109.895
X-183.678 Y-110.988
X-182.869 Y-112.059
X-182.032 Y-113.108
X-181.169 Y-114.136
X-180.282 Y-115.143
X-179.371 Y-116.129
X-178.438 Y-117.094
X-177.483 Y-118.037
X-176.508 Y-118.959
X-175.512 Y-119.859
X-174.497 Y-120.737
X-173.463 Y-121.592
X-172.41 Y-122.425
X-171.34 Y-123.235
X-170.253 Y-124.022
X-169.149 Y-124.786
X-168.029 Y-125.526
X-166.894 Y-126.242
X-165.744 Y-126.933
X-165.255 Y-127.213
X-164.87 Y-127.402
X-164.464 Y-127.539
X-164.043 Y-127.622
X-163.615 Y-127.65
X-157.432
G3 X-156.949 Y-127.536 I-0.044 J1.269
X-156.613 Y-125.449 I-0.527 J1.156
G1 X-187.018 Y-97.278
G3 X-189.15 Y-98.165 I-0.863 J-0.932
G1 Y-103.488
X-189.11 Y-104.285
X-189.058 Y-104.781
X-188.97 Y-105.335
X-188.831 Y-105.975
X-188.638 Y-106.684
X-188.362 Y-107.512
X-187.989 Y-108.458
X-187.5 Y-109.526
X-186.876 Y-110.714
X-186.19 Y-111.868
X-185.455 Y-112.99
X-184.677 Y-114.084
X-183.862 Y-115.151
X-183.016 Y-116.192
X-182.14 Y-117.209
X-181.238 Y-118.203
X-180.311 Y-119.174
X-179.362 Y-120.123
X-178.391 Y-121.049
X-177.399 Y-121.953
X-176.387 Y-122.835
X-175.357 Y-123.695
X-174.309 Y-124.533
X-173.243 Y-125.349
X-172.16 Y-126.143
X-171.062 Y-126.913
X-170.799 Y-127.09
X-170.375 Y-127.331
X-169.921 Y-127.507
X-169.445 Y-127.614
X-168.959 Y-127.65
X-163.615
G3 X-163.132 Y-127.536 I-0.044 J1.269
X-162.787 Y-125.457 I-0.527 J1.156
G1 X-187.009 Y-102.609
G3 X-189.036 Y-103.006 I-0.871 J-0.924
X-189.15 Y-103.488 I1.156 J-0.527
G1 Y-108.431
X-189.122 Y-108.988
X-189.074 Y-109.448
X-188.997 Y-109.931
X-188.871 Y-110.511
X-188.703 Y-111.128
X-188.462 Y-111.851
X-188.142 Y-112.664
X-187.728 Y-113.568
X-187.182 Y-114.606
X-186.494 Y-115.759
X-185.747 Y-116.873
X-184.951 Y-117.954
X-184.114 Y-119.003
X-183.242 Y-120.023
X-182.339 Y-121.016
X-181.408 Y-121.984
X-180.453 Y-122.926
X-179.475 Y-123.845
X-178.475 Y-124.741
X-177.455 Y-125.614
X-176.417 Y-126.464
X-175.8 Y-126.947
X-175.438 Y-127.194
X-175.046 Y-127.391
X-174.632 Y-127.534
X-174.202 Y-127.621
X-173.765 Y-127.65
X-168.959
G3 X-168.477 Y-127.536 I-0.044 J1.269
X-168.13 Y-125.459 I-0.527 J1.156
G1 X-187.007 Y-107.554
G3 X-189.036 Y-107.949 I-0.874 J-0.921
X-189.15 Y-108.431 I1.156 J-0.527
G1 Y-112.994
X-189.131 Y-113.375
X-189.089 Y-113.771
X-189.015 Y-114.236
X-188.904 Y-114.753
X-188.746 Y-115.329
X-188.532 Y-115.972
X-188.241 Y-116.71
X-187.876 Y-117.507
X-187.396 Y-118.421
X-186.778 Y-119.457
X-186.028 Y-120.57
X-185.223 Y-121.644
X-184.372 Y-122.681
X-183.482 Y-123.686
X-182.559 Y-124.661
X-181.607 Y-125.607
X-180.63 Y-126.527
X-180.277 Y-126.835
X-179.899 Y-127.12
X-179.484 Y-127.348
X-179.041 Y-127.515
X-178.578 Y-127.616
X-178.106 Y-127.65
X-173.765
G3 X-173.282 Y-127.536 I-0.044 J1.269
X-172.935 Y-125.459 I-0.527 J1.156
G1 X-187.007 Y-112.116
G3 X-189.15 Y-112.994 I-0.874 J-0.922
G1 Y-117.176
X-189.134 Y-117.499
X-189.094 Y-117.883
X-189.022 Y-118.334
X-188.921 Y-118.798
X-188.769 Y-119.353
X-188.577 Y-119.932
X-188.309 Y-120.612
X-187.974 Y-121.343
X-187.541 Y-122.168
X-186.984 Y-123.101
X-186.279 Y-124.148
X-185.471 Y-125.22
X-184.702 Y-126.139
X-184.272 Y-126.601
X-183.942 Y-126.909
X-183.574 Y-127.169
X-183.174 Y-127.376
X-182.749 Y-127.527
X-182.308 Y-127.619
X-181.858 Y-127.65
X-178.106
G3 X-177.624 Y-127.536 I-0.044 J1.269
X-177.28 Y-125.456 I-0.527 J1.156
G1 X-187.01 Y-116.296
G3 X-189.036 Y-116.694 I-0.871 J-0.925
X-189.15 Y-117.176 I1.156 J-0.527
G1 Y-120.978
X-189.126 Y-121.461
X-189.086 Y-121.845
X-189.022 Y-122.245
X-188.923 Y-122.703
X-188.782 Y-123.217
X-188.599 Y-123.769
X-188.362 Y-124.368
X-188.09 Y-124.964
X-187.8 Y-125.516
X-187.531 Y-125.967
X-187.379 Y-126.192
X-187.095 Y-126.556
X-186.764 Y-126.876
X-186.391 Y-127.147
X-185.985 Y-127.364
X-185.551 Y-127.522
X-185.101 Y-127.618
X-184.641 Y-127.65
G3 X-184.159 Y-127.536 I-0.044 J1.269
X-183.594 Y-125.73 I-0.527 J1.156
G1 X-186.79 Y-120.372
G3 X-189.15 Y-120.978 I-1.091 J-0.651
G1 Y-124.609
X-189.131 Y-124.992
X-189.108 Y-125.211
X-189.073 Y-125.432
X-189.022 Y-125.666
X-188.873 Y-126.078
X-188.658 Y-126.46
X-188.385 Y-126.802
X-188.06 Y-127.096
X-187.691 Y-127.333
X-187.29 Y-127.507
X-186.865 Y-127.613
X-186.428 Y-127.65
G3 X-185.946 Y-127.537 I-0.042 J1.269
X-185.487 Y-125.577 I-0.524 J1.157
G1 X-186.897 Y-123.85
G3 X-189.15 Y-124.609 I-0.984 J-0.803
G1 Y-125.921
X-189.136 Y-126.301
X-189.117 Y-126.492
X-189.08 Y-126.682
X-189.049 Y-126.777
X-188.987 Y-126.919
X-188.902 Y-127.062
X-188.8 Y-127.19
X-188.668 Y-127.319
X-188.498 Y-127.442
X-188.393 Y-127.5
X-188.287 Y-127.545
X-188.097 Y-127.6
X-187.906 Y-127.626
X-187.525 Y-127.642
X-186.763 Y-127.649
X-185.62 Y-127.65
X-181.858
G3 X-181.376 Y-127.536 I-0.044 J1.269
G1 X-181.246 Y-127.477 Z35.018
X-181.119 Y-127.419 Z35.042
X-180.994 Y-127.362 Z35.081
X-180.874 Y-127.308 Z35.136
X-180.761 Y-127.256 Z35.205
X-180.655 Y-127.208 Z35.287
X-180.559 Y-127.164 Z35.382
X-180.472 Y-127.125 Z35.488
X-180.397 Y-127.09 Z35.604
X-180.335 Y-127.062 Z35.729
X-180.285 Y-127.039 Z35.861
X-180.249 Y-127.023 Z35.997
X-180.227 Y-127.013 Z36.138
X-180.22 Y-127.01 Z36.28
G0 Z52
X-143.288 Y-18.14
Z37.55
G1 Z36.28 F850
X-143.295 Y-18.136 Z36.138
X-143.315 Y-18.123 Z35.997
X-143.349 Y-18.103 Z35.861
X-143.396 Y-18.075 Z35.729
X-143.455 Y-18.04 Z35.604
X-143.526 Y-17.998 Z35.488
X-143.607 Y-17.949 Z35.382
X-143.699 Y-17.895 Z35.287
X-143.798 Y-17.836 Z35.205
X-143.906 Y-17.772 Z35.136
X-144.019 Y-17.705 Z35.081
X-144.136 Y-17.635 Z35.042
X-144.257 Y-17.563 Z35.018
X-144.379 Y-17.491 Z35.01
G3 X-144.858 Y-17.35 I-0.514 J-0.864
G1 X-153.239
X-154.248 Y-17.401
X-154.992 Y-17.478
X-155.84 Y-17.614
X-156.842 Y-17.83
X-158.012 Y-18.15
X-159.286 Y-18.574
X-160.536 Y-19.061
X-161.765 Y-19.601
X-162.973 Y-20.187
X-164.16 Y-20.812
X-165.328 Y-21.473
X-166.477 Y-22.167
X-167.608 Y-22.891
X-168.719 Y-23.643
X-169.811 Y-24.423
X-170.884 Y-25.229
X-171.938 Y-26.06
X-172.972 Y-26.916
X-173.987 Y-27.795
X-174.981 Y-28.697
X-175.954 Y-29.621
X-176.905 Y-30.568
X-177.835 Y-31.535
X-178.743 Y-32.524
X-179.628 Y-33.533
X-180.489 Y-34.562
X-181.328 Y-35.61
X-182.142 Y-36.677
X-182.932 Y-37.762
X-183.698 Y-38.864
X-184.439 Y-39.984
X-185.154 Y-41.119
X-185.844 Y-42.271
X-186.508 Y-43.437
X-187.145 Y-44.618
X-187.757 Y-45.813
X-188.341 Y-47.021
X-188.852 Y-48.139
X-189.016 Y-48.58
X-189.116 Y-49.04
X-189.15 Y-49.51
Y-57.771
G3 X-189.036 Y-58.253 I1.269 J0.044
X-186.93 Y-58.568 I1.156 J0.527
G1 X-152.332 Y-19.461
G3 X-152.757 Y-17.464 I-0.951 J0.842
X-153.239 Y-17.35 I-0.527 J-1.156
G1 X-159.715
X-160.294 Y-17.379
X-160.861 Y-17.438
X-161.525 Y-17.544
X-162.288 Y-17.709
X-163.15 Y-17.945
X-164.158 Y-18.28
X-165.323 Y-18.739
X-166.543 Y-19.298
X-167.735 Y-19.916
X-168.9 Y-20.583
X-170.04 Y-21.291
X-171.156 Y-22.036
X-172.25 Y-22.814
X-173.322 Y-23.621
X-174.373 Y-24.456
X-175.403 Y-25.317
X-176.411 Y-26.203
X-177.399 Y-27.111
X-178.366 Y-28.042
X-179.311 Y-28.995
X-180.235 Y-29.969
X-181.137 Y-30.963
X-182.016 Y-31.976
X-182.874 Y-33.009
X-183.708 Y-34.061
X-184.519 Y-35.13
X-185.307 Y-36.216
X-186.071 Y-37.32
X-186.812 Y-38.439
X-187.528 Y-39.574
X-188.22 Y-40.724
X-188.713 Y-41.586
X-188.902 Y-41.971
X-189.039 Y-42.378
X-189.122 Y-42.799
X-189.15 Y-43.226
Y-49.51
G3 X-189.036 Y-49.992 I1.269 J0.044
X-186.942 Y-50.321 I1.156 J0.527
G1 X-158.821 Y-19.475
G3 X-159.715 Y-17.35 I-0.939 J0.856
G1 X-165.049
X-165.521 Y-17.374
X-166.019 Y-17.426
X-166.576 Y-17.515
X-167.219 Y-17.654
X-167.933 Y-17.849
X-168.766 Y-18.126
X-169.718 Y-18.501
X-170.794 Y-18.994
X-171.983 Y-19.619
X-173.137 Y-20.304
X-174.26 Y-21.038
X-175.354 Y-21.815
X-176.422 Y-22.628
X-177.465 Y-23.473
X-178.484 Y-24.347
X-179.479 Y-25.248
X-180.451 Y-26.173
X-181.401 Y-27.121
X-182.329 Y-28.09
X-183.235 Y-29.081
X-184.119 Y-30.091
X-184.98 Y-31.12
X-185.819 Y-32.168
X-186.636 Y-33.233
X-187.43 Y-34.315
X-188.201 Y-35.413
X-188.589 Y-35.991
X-188.831 Y-36.414
X-189.007 Y-36.869
X-189.114 Y-37.344
X-189.15 Y-37.831
Y-43.226
G3 X-189.036 Y-43.709 I1.269 J0.044
X-186.95 Y-44.046 I1.156 J0.527
G1 X-164.162 Y-19.483
G3 X-165.049 Y-17.35 I-0.931 J0.864
G1 X-169.62
X-170.275 Y-17.383
X-170.734 Y-17.431
X-171.218 Y-17.508
X-171.798 Y-17.633
X-172.417 Y-17.803
X-173.14 Y-18.043
X-173.957 Y-18.365
X-174.864 Y-18.78
X-175.906 Y-19.328
X-177.058 Y-20.016
X-178.173 Y-20.763
X-179.254 Y-21.559
X-180.304 Y-22.395
X-181.325 Y-23.267
X-182.318 Y-24.169
X-183.286 Y-25.098
X-184.23 Y-26.053
X-185.149 Y-27.031
X-186.046 Y-28.03
X-186.919 Y-29.049
X-187.77 Y-30.087
X-188.446 Y-30.949
X-188.694 Y-31.311
X-188.891 Y-31.703
X-189.034 Y-32.118
X-189.121 Y-32.548
X-189.15 Y-32.986
Y-37.831
G3 X-189.036 Y-38.313 I1.269 J0.044
X-186.96 Y-38.661 I1.156 J0.527
G1 X-168.744 Y-19.494
G3 X-169.62 Y-17.35 I-0.921 J0.875
G1 X-174.192
X-174.665 Y-17.374
X-175.063 Y-17.415
X-175.528 Y-17.49
X-176.046 Y-17.602
X-176.623 Y-17.759
X-177.269 Y-17.974
X-178.009 Y-18.266
X-178.808 Y-18.632
X-179.724 Y-19.114
X-180.764 Y-19.734
X-181.877 Y-20.483
X-182.951 Y-21.288
X-183.989 Y-22.139
X-184.994 Y-23.029
X-185.969 Y-23.951
X-186.916 Y-24.903
X-187.836 Y-25.88
X-188.322 Y-26.43
X-188.612 Y-26.81
X-188.844 Y-27.227
X-189.013 Y-27.673
X-189.115 Y-28.14
X-189.15 Y-28.616
Y-32.986
G3 X-189.036 Y-33.468 I1.269 J0.044
X-186.961 Y-33.818 I1.156 J0.527
G1 X-173.316 Y-19.495
G3 X-173.709 Y-17.464 I-0.92 J0.876
X-174.192 Y-17.35 I-0.527 J-1.156
G1 X-178.382
X-178.795 Y-17.371
X-179.18 Y-17.411
X-179.632 Y-17.483
X-180.096 Y-17.583
X-180.652 Y-17.736
X-181.232 Y-17.928
X-181.914 Y-18.197
X-182.646 Y-18.532
X-183.473 Y-18.967
X-184.408 Y-19.525
X-185.457 Y-20.231
X-186.529 Y-21.04
X-187.546 Y-21.89
X-188.187 Y-22.486
X-188.227 Y-22.528
X-188.499 Y-22.85
X-188.728 Y-23.203
X-188.911 Y-23.583
X-189.043 Y-23.983
X-189.123 Y-24.397
X-189.15 Y-24.817
Y-28.616
G3 X-189.036 Y-29.098 I1.269 J0.044
X-186.96 Y-29.446 I1.156 J0.527
G1 X-177.506 Y-19.494
G3 X-178.382 Y-17.35 I-0.921 J0.875
G1 X-182.192
X-182.761 Y-17.379
X-183.146 Y-17.419
X-183.547 Y-17.483
X-184.004 Y-17.582
X-184.52 Y-17.723
X-185.072 Y-17.906
X-185.691 Y-18.15
X-186.337 Y-18.446
X-186.896 Y-18.74
X-187.401 Y-19.041
X-187.838 Y-19.336
X-188.167 Y-19.62
X-188.457 Y-19.946
X-188.7 Y-20.307
X-188.894 Y-20.697
X-189.036 Y-21.108
X-189.121 Y-21.535
X-189.15 Y-21.97
G3 X-189.036 Y-22.452 I1.269 J0.044
X-187.239 Y-23.021 I1.156 J0.527
G1 X-181.594 Y-19.715
G3 X-182.192 Y-17.35 I-0.642 J1.096
G1 X-186.001
X-186.352 Y-17.368
X-186.6 Y-17.393
X-186.837 Y-17.431
X-187.067 Y-17.481
X-187.312 Y-17.548
X-187.698 Y-17.711
X-188.054 Y-17.932
X-188.372 Y-18.206
X-188.643 Y-18.525
X-188.86 Y-18.884
X-189.02 Y-19.271
X-189.117 Y-19.679
X-189.15 Y-20.097
G3 X-189.036 Y-20.579 I1.269 J0.044
X-187.099 Y-21.053 I1.156 J0.527
G1 X-185.264 Y-19.62
G3 X-186.001 Y-17.35 I-0.782 J1.001
G1 X-186.763 Y-17.351
X-187.525 Y-17.357
X-187.906 Y-17.374
X-188.097 Y-17.4
X-188.287 Y-17.455
X-188.393 Y-17.5
X-188.498 Y-17.558
X-188.668 Y-17.681
X-188.8 Y-17.81
X-188.902 Y-17.938
X-188.987 Y-18.081
X-189.049 Y-18.223
X-189.08 Y-18.318
X-189.117 Y-18.508
X-189.136 Y-18.699
X-189.15 Y-19.079
Y-24.817
G3 X-189.036 Y-25.299 I1.269 J0.044
G1 X-188.977 Y-25.429 Z35.018
X-188.919 Y-25.557 Z35.042
X-188.862 Y-25.681 Z35.081
X-188.808 Y-25.801 Z35.136
X-188.756 Y-25.914 Z35.205
X-188.708 Y-26.02 Z35.287
X-188.664 Y-26.117 Z35.382
X-188.625 Y-26.203 Z35.488
X-188.59 Y-26.278 Z35.604
X-188.562 Y-26.341 Z35.729
X-188.539 Y-26.39 Z35.861
X-188.523 Y-26.426 Z35.997
X-188.513 Y-26.448 Z36.138
X-188.51 Y-26.455 Z36.28
G0 Z52
X-123.189 Y-126.86
Z37.55
G1 Z36.28 F850
X-123.183 Y-126.864 Z36.138
X-123.162 Y-126.877 Z35.997
X-123.128 Y-126.897 Z35.861
X-123.081 Y-126.925 Z35.729
X-123.022 Y-126.96 Z35.604
X-122.951 Y-127.002 Z35.488
X-122.87 Y-127.051 Z35.382
X-122.778 Y-127.105 Z35.287
X-122.679 Y-127.164 Z35.205
X-122.571 Y-127.228 Z35.136
X-122.458 Y-127.295 Z35.081
X-122.341 Y-127.365 Z35.042
X-122.22 Y-127.437 Z35.018
X-122.098 Y-127.509 Z35.01
G3 X-121.619 Y-127.65 I0.514 J0.864
G1 X-113.619
X-112.571 Y-127.598
X-111.872 Y-127.524
X-111.046 Y-127.392
X-110.076 Y-127.183
X-108.946 Y-126.874
X-107.673 Y-126.45
X-106.423 Y-125.96
X-105.196 Y-125.416
X-103.991 Y-124.826
X-102.806 Y-124.196
X-101.641 Y-123.53
X-100.495 Y-122.831
X-99.368 Y-122.102
X-98.26 Y-121.344
X-97.172 Y-120.559
X-96.103 Y-119.748
X-95.053 Y-118.911
X-94.023 Y-118.051
X-93.013 Y-117.167
X-92.023 Y-116.261
X-91.053 Y-115.333
X-90.104 Y-114.384
X-89.177 Y-113.413
X-88.271 Y-112.423
X-87.387 Y-111.413
X-86.525 Y-110.384
X-85.686 Y-109.337
X-84.869 Y-108.272
X-84.076 Y-107.189
X-83.307 Y-106.089
X-82.562 Y-104.973
X-81.841 Y-103.841
X-81.144 Y-102.694
X-80.473 Y-101.531
X-79.828 Y-100.354
X-79.209 Y-99.164
X-78.616 Y-97.959
X-78.051 Y-96.742
X-77.512 Y-95.513
X-77 Y-94.272
X-76.516 Y-93.02
X-76.059 Y-91.758
X-75.63 Y-90.487
X-75.229 Y-89.206
X-74.856 Y-87.917
X-74.511 Y-86.62
X-74.194 Y-85.315
X-73.905 Y-84.005
X-73.645 Y-82.688
X-73.413 Y-81.366
X-73.21 Y-80.039
X-73.036 Y-78.708
X-72.891 Y-77.374
X-72.774 Y-76.037
X-72.687 Y-74.698
X-72.629 Y-73.357
X-72.6 Y-72.015
X-72.601 Y-70.673
X-72.632 Y-69.331
X-72.693 Y-67.99
X-72.783 Y-66.651
X-72.902 Y-65.314
X-73.051 Y-63.98
X-73.229 Y-62.65
X-73.436 Y-61.324
X-73.672 Y-60.003
X-73.936 Y-58.687
X-74.229 Y-57.377
X-74.551 Y-56.074
X-74.9 Y-54.778
X-75.278 Y-53.49
X-75.683 Y-52.211
X-76.116 Y-50.94
X-76.576 Y-49.68
X-77.063 Y-48.429
X-77.578 Y-47.189
X-78.119 Y-45.961
X-78.687 Y-44.745
X-79.282 Y-43.542
X-79.903 Y-42.352
X-80.55 Y-41.176
X-81.223 Y-40.015
X-81.921 Y-38.869
X-82.645 Y-37.738
X-83.393 Y-36.624
X-84.165 Y-35.526
X-84.961 Y-34.446
X-85.78 Y-33.383
X-86.622 Y-32.338
X-87.487 Y-31.311
X-88.374 Y-30.304
X-89.282 Y-29.315
X-90.212 Y-28.347
X-91.162 Y-27.399
X-92.132 Y-26.472
X-93.122 Y-25.566
X-94.132 Y-24.681
X-95.16 Y-23.819
X-96.207 Y-22.979
X-97.272 Y-22.162
X-98.354 Y-21.369
X-99.454 Y-20.6
X-100.571 Y-19.855
X-101.704 Y-19.135
X-102.852 Y-18.44
X-104.015 Y-17.77
X-104.043 Y-17.755
X-104.417 Y-17.58
X-104.809 Y-17.453
X-105.215 Y-17.376
X-105.627 Y-17.35
X-111.98
G3 X-112.462 Y-17.464 I0.044 J-1.269
G1 X-112.591 Y-17.523 Z35.018
X-112.719 Y-17.581 Z35.042
X-112.844 Y-17.638 Z35.081
X-112.963 Y-17.692 Z35.136
X-113.077 Y-17.744 Z35.205
X-113.182 Y-17.792 Z35.287
X-113.279 Y-17.836 Z35.382
X-113.365 Y-17.875 Z35.488
X-113.44 Y-17.91 Z35.604
X-113.503 Y-17.938 Z35.729
X-113.553 Y-17.961 Z35.861
X-113.589 Y-17.977 Z35.997
X-113.61 Y-17.987 Z36.138
X-113.618 Y-17.99 Z36.28
G0 Z52
X-115.189 Y-126.86
Z37.55
G1 Z36.28 F850
X-115.182 Y-126.864 Z36.138
X-115.162 Y-126.877 Z35.997
X-115.128 Y-126.897 Z35.861
X-115.081 Y-126.925 Z35.729
X-115.022 Y-126.96 Z35.604
X-114.951 Y-127.002 Z35.488
X-114.87 Y-127.051 Z35.382
X-114.778 Y-127.105 Z35.287
X-114.678 Y-127.164 Z35.205
X-114.571 Y-127.228 Z35.136
X-114.458 Y-127.295 Z35.081
X-114.341 Y-127.365 Z35.042
X-114.22 Y-127.437 Z35.018
X-114.098 Y-127.509 Z35.01
G3 X-113.619 Y-127.65 I0.514 J0.864
G1 X-107.524
X-106.614 Y-127.604
X-106.056 Y-127.546
X-105.405 Y-127.442
X-104.656 Y-127.28
X-103.811 Y-127.049
X-102.824 Y-126.721
X-101.682 Y-126.271
X-100.462 Y-125.712
X-99.271 Y-125.093
X-98.108 Y-124.424
X-96.97 Y-123.712
X-95.856 Y-122.964
X-94.764 Y-122.183
X-93.695 Y-121.372
X-92.647 Y-120.533
X-91.62 Y-119.669
X-90.614 Y-118.78
X-89.629 Y-117.869
X-88.664 Y-116.936
X-87.721 Y-115.981
X-86.798 Y-115.007
X-85.896 Y-114.012
X-85.016 Y-112.999
X-84.158 Y-111.967
X-83.322 Y-110.917
X-82.508 Y-109.85
X-81.717 Y-108.766
X-80.949 Y-107.665
X-80.203 Y-106.549
X-79.481 Y-105.418
X-78.783 Y-104.271
X-78.109 Y-103.111
X-77.46 Y-101.936
X-76.835 Y-100.748
X-76.236 Y-99.547
X-75.662 Y-98.334
X-75.113 Y-97.109
X-74.591 Y-95.873
X-74.094 Y-94.626
X-73.623 Y-93.369
X-73.179 Y-92.103
X-72.761 Y-90.827
X-72.37 Y-89.543
X-72.005 Y-88.252
X-71.668 Y-86.953
X-71.358 Y-85.647
X-71.075 Y-84.335
X-70.819 Y-83.017
X-70.591 Y-81.695
X-70.39 Y-80.368
X-70.217 Y-79.037
X-70.072 Y-77.702
X-69.954 Y-76.365
X-69.864 Y-75.026
X-69.803 Y-73.686
X-69.769 Y-72.344
X-69.764 Y-71.002
X-69.786 Y-69.66
X-69.837 Y-68.319
X-69.916 Y-66.979
X-70.023 Y-65.641
X-70.158 Y-64.306
X-70.321 Y-62.973
X-70.512 Y-61.645
X-70.73 Y-60.32
X-70.976 Y-59.001
X-71.249 Y-57.687
X-71.549 Y-56.379
X-71.877 Y-55.077
X-72.232 Y-53.783
X-72.613 Y-52.496
X-73.022 Y-51.218
X-73.456 Y-49.948
X-73.917 Y-48.687
X-74.404 Y-47.437
X-74.917 Y-46.196
X-75.456 Y-44.967
X-76.02 Y-43.749
X-76.61 Y-42.543
X-77.225 Y-41.35
X-77.864 Y-40.171
X-78.529 Y-39.004
X-79.217 Y-37.852
X-79.93 Y-36.715
X-80.666 Y-35.593
X-81.425 Y-34.486
X-82.208 Y-33.395
X-83.012 Y-32.321
X-83.839 Y-31.264
X-84.688 Y-30.224
X-85.558 Y-29.202
X-86.449 Y-28.199
X-87.361 Y-27.214
X-88.294 Y-26.249
X-89.246 Y-25.303
X-90.217 Y-24.377
X-91.208 Y-23.471
X-92.216 Y-22.586
X-93.243 Y-21.722
X-94.288 Y-20.879
X-95.351 Y-20.059
X-96.43 Y-19.261
X-97.525 Y-18.486
X-98.366 Y-17.917
X-98.791 Y-17.673
X-99.248 Y-17.495
X-99.726 Y-17.386
X-100.215 Y-17.35
X-105.627
G3 X-106.109 Y-17.464 I0.044 J-1.269
G1 X-106.238 Y-17.523 Z35.018
X-106.366 Y-17.581 Z35.042
X-106.491 Y-17.638 Z35.081
X-106.61 Y-17.692 Z35.136
X-106.724 Y-17.744 Z35.205
X-106.83 Y-17.792 Z35.287
X-106.926 Y-17.836 Z35.382
X-107.013 Y-17.875 Z35.488
X-107.087 Y-17.91 Z35.604
X-107.15 Y-17.938 Z35.729
X-107.2 Y-17.961 Z35.861
X-107.236 Y-17.977 Z35.997
X-107.257 Y-17.987 Z36.138
X-107.265 Y-17.99 Z36.28
G0 Z52
X-109.094 Y-126.86
Z37.55
G1 Z36.28 F850
X-109.087 Y-126.864 Z36.138
X-109.067 Y-126.877 Z35.997
X-109.033 Y-126.897 Z35.861
X-108.986 Y-126.925 Z35.729
X-108.927 Y-126.96 Z35.604
X-108.856 Y-127.002 Z35.488
X-108.774 Y-127.051 Z35.382
X-108.683 Y-127.105 Z35.287
X-108.583 Y-127.164 Z35.205
X-108.476 Y-127.228 Z35.136
X-108.363 Y-127.295 Z35.081
X-108.245 Y-127.365 Z35.042
X-108.125 Y-127.437 Z35.018
X-108.002 Y-127.509 Z35.01
G3 X-107.524 Y-127.65 I0.514 J0.864
G1 X-102.19
X-101.447 Y-127.613
X-100.954 Y-127.561
X-100.403 Y-127.473
X-99.767 Y-127.336
X-99.063 Y-127.143
X-98.241 Y-126.87
X-97.302 Y-126.5
X-96.244 Y-126.015
X-95.056 Y-125.391
X-93.903 Y-124.705
X-92.78 Y-123.969
X-91.687 Y-123.19
X-90.621 Y-122.375
X-89.579 Y-121.528
X-88.562 Y-120.653
X-87.568 Y-119.751
X-86.597 Y-118.825
X-85.647 Y-117.876
X-84.719 Y-116.906
X-83.813 Y-115.916
X-82.929 Y-114.907
X-82.066 Y-113.879
X-81.224 Y-112.833
X-80.405 Y-111.77
X-79.607 Y-110.691
X-78.831 Y-109.596
X-78.078 Y-108.485
X-77.347 Y-107.359
X-76.64 Y-106.219
X-75.955 Y-105.064
X-75.293 Y-103.897
X-74.656 Y-102.716
X-74.042 Y-101.522
X-73.452 Y-100.317
X-72.886 Y-99.099
X-72.345 Y-97.871
X-71.829 Y-96.632
X-71.338 Y-95.383
X-70.872 Y-94.124
X-70.432 Y-92.857
X-70.016 Y-91.58
X-69.627 Y-90.296
X-69.263 Y-89.004
X-68.925 Y-87.705
X-68.613 Y-86.4
X-68.327 Y-85.088
X-68.068 Y-83.772
X-67.834 Y-82.45
X-67.627 Y-81.124
X-67.446 Y-79.794
X-67.292 Y-78.461
X-67.164 Y-77.125
X-67.063 Y-75.786
X-66.989 Y-74.446
X-66.941 Y-73.105
X-66.921 Y-71.763
X-66.927 Y-70.421
X-66.96 Y-69.079
X-67.02 Y-67.738
X-67.107 Y-66.399
X-67.221 Y-65.061
X-67.362 Y-63.727
X-67.529 Y-62.395
X-67.723 Y-61.067
X-67.944 Y-59.743
X-68.191 Y-58.424
X-68.465 Y-57.11
X-68.764 Y-55.802
X-69.09 Y-54.5
X-69.441 Y-53.204
X-69.818 Y-51.916
X-70.221 Y-50.636
X-70.649 Y-49.364
X-71.102 Y-48.1
X-71.58 Y-46.846
X-72.083 Y-45.602
X-72.611 Y-44.368
X-73.164 Y-43.145
X-73.74 Y-41.933
X-74.341 Y-40.733
X-74.966 Y-39.545
X-75.614 Y-38.37
X-76.286 Y-37.208
X-76.981 Y-36.06
X-77.699 Y-34.926
X-78.44 Y-33.806
X-79.203 Y-32.702
X-79.987 Y-31.613
X-80.794 Y-30.54
X-81.622 Y-29.484
X-82.47 Y-28.444
X-83.339 Y-27.421
X-84.229 Y-26.416
X-85.138 Y-25.429
X-86.066 Y-24.46
X-87.014 Y-23.509
X-87.98 Y-22.578
X-88.965 Y-21.665
X-89.967 Y-20.773
X-90.987 Y-19.901
X-92.024 Y-19.049
X-93.078 Y-18.218
X-93.358 Y-18.008
X-93.713 Y-17.776
X-94.095 Y-17.592
X-94.497 Y-17.458
X-94.913 Y-17.377
X-95.336 Y-17.35
X-100.215
G3 X-100.697 Y-17.464 I0.044 J-1.269
G1 X-100.827 Y-17.523 Z35.018
X-100.955 Y-17.581 Z35.042
X-101.079 Y-17.638 Z35.081
X-101.199 Y-17.692 Z35.136
X-101.312 Y-17.744 Z35.205
X-101.418 Y-17.792 Z35.287
X-101.515 Y-17.836 Z35.382
X-101.601 Y-17.875 Z35.488
X-101.676 Y-17.91 Z35.604
X-101.739 Y-17.938 Z35.729
X-101.788 Y-17.961 Z35.861
X-101.824 Y-17.977 Z35.997
X-101.846 Y-17.987 Z36.138
X-101.853 Y-17.99 Z36.28
G0 Z52
X-103.761 Y-126.86
Z37.55
G1 Z36.28 F850
X-103.754 Y-126.864 Z36.138
X-103.733 Y-126.877 Z35.997
X-103.699 Y-126.897 Z35.861
X-103.652 Y-126.925 Z35.729
X-103.593 Y-126.96 Z35.604
X-103.522 Y-127.002 Z35.488
X-103.441 Y-127.051 Z35.382
X-103.35 Y-127.105 Z35.287
X-103.25 Y-127.164 Z35.205
X-103.143 Y-127.228 Z35.136
X-103.029 Y-127.295 Z35.081
X-102.912 Y-127.365 Z35.042
X-102.791 Y-127.437 Z35.018
X-102.669 Y-127.509 Z35.01
G3 X-102.19 Y-127.65 I0.514 J0.864
G1 X-97.238
X-96.764 Y-127.626
X-96.307 Y-127.578
X-95.824 Y-127.501
X-95.246 Y-127.376
X-94.631 Y-127.208
X-93.911 Y-126.969
X-93.1 Y-126.649
X-92.198 Y-126.236
X-91.161 Y-125.691
X-90.009 Y-125.003
X-88.894 Y-124.256
X-87.813 Y-123.46
X-86.764 Y-122.623
X-85.743 Y-121.751
X-84.75 Y-120.849
X-83.781 Y-119.92
X-82.837 Y-118.966
X-81.916 Y-117.989
X-81.019 Y-116.992
X-80.143 Y-115.974
X-79.29 Y-114.939
X-78.458 Y-113.885
X-77.649 Y-112.815
X-76.861 Y-111.728
X-76.095 Y-110.626
X-75.351 Y-109.509
X-74.629 Y-108.377
X-73.929 Y-107.232
X-73.252 Y-106.073
X-72.597 Y-104.902
X-71.965 Y-103.718
X-71.357 Y-102.521
X-70.771 Y-101.313
X-70.21 Y-100.095
X-69.672 Y-98.865
X-69.158 Y-97.625
X-68.668 Y-96.376
X-68.202 Y-95.117
X-67.76 Y-93.849
X-67.343 Y-92.574
X-66.95 Y-91.29
X-66.582 Y-90
X-66.239 Y-88.702
X-65.921 Y-87.398
X-65.627 Y-86.089
X-65.359 Y-84.774
X-65.115 Y-83.454
X-64.897 Y-82.129
X-64.705 Y-80.801
X-64.537 Y-79.469
X-64.395 Y-78.135
X-64.279 Y-76.798
X-64.188 Y-75.459
X-64.123 Y-74.118
X-64.083 Y-72.777
X-64.07 Y-71.434
X-64.082 Y-70.092
X-64.12 Y-68.751
X-64.184 Y-67.41
X-64.274 Y-66.071
X-64.39 Y-64.734
X-64.532 Y-63.399
X-64.699 Y-62.067
X-64.891 Y-60.739
X-65.11 Y-59.415
X-65.353 Y-58.095
X-65.622 Y-56.78
X-65.915 Y-55.47
X-66.234 Y-54.167
X-66.577 Y-52.869
X-66.946 Y-51.578
X-67.338 Y-50.295
X-67.755 Y-49.019
X-68.197 Y-47.752
X-68.662 Y-46.493
X-69.151 Y-45.243
X-69.665 Y-44.003
X-70.201 Y-42.773
X-70.762 Y-41.553
X-71.345 Y-40.345
X-71.952 Y-39.147
X-72.581 Y-37.962
X-73.234 Y-36.789
X-73.909 Y-35.629
X-74.606 Y-34.482
X-75.326 Y-33.349
X-76.066 Y-32.23
X-76.829 Y-31.125
X-77.612 Y-30.035
X-78.416 Y-28.961
X-79.24 Y-27.902
X-80.085 Y-26.858
X-80.949 Y-25.831
X-81.832 Y-24.821
X-82.735 Y-23.828
X-83.657 Y-22.852
X-84.596 Y-21.894
X-85.554 Y-20.954
X-86.53 Y-20.032
X-87.523 Y-19.129
X-88.533 Y-18.245
X-88.723 Y-18.091
X-89.091 Y-17.831
X-89.491 Y-17.624
X-89.915 Y-17.473
X-90.357 Y-17.381
X-90.806 Y-17.35
X-95.336
G3 X-95.818 Y-17.464 I0.044 J-1.269
G1 X-95.947 Y-17.523 Z35.018
X-96.075 Y-17.581 Z35.042
X-96.2 Y-17.638 Z35.081
X-96.319 Y-17.692 Z35.136
X-96.433 Y-17.744 Z35.205
X-96.538 Y-17.792 Z35.287
X-96.635 Y-17.836 Z35.382
X-96.721 Y-17.875 Z35.488
X-96.796 Y-17.91 Z35.604
X-96.859 Y-17.938 Z35.729
X-96.909 Y-17.961 Z35.861
X-96.945 Y-17.977 Z35.997
X-96.966 Y-17.987 Z36.138
X-96.974 Y-17.99 Z36.28
G0 Z52
X-98.808 Y-126.86
Z37.55
G1 Z36.28 F850
X-98.801 Y-126.864 Z36.138
X-98.781 Y-126.877 Z35.997
X-98.747 Y-126.897 Z35.861
X-98.7 Y-126.925 Z35.729
X-98.641 Y-126.96 Z35.604
X-98.57 Y-127.002 Z35.488
X-98.488 Y-127.051 Z35.382
X-98.397 Y-127.105 Z35.287
X-98.297 Y-127.164 Z35.205
X-98.19 Y-127.228 Z35.136
X-98.077 Y-127.295 Z35.081
X-97.959 Y-127.365 Z35.042
X-97.839 Y-127.437 Z35.018
X-97.716 Y-127.509 Z35.01
G3 X-97.238 Y-127.65 I0.514 J0.864
G1 X-93.047
X-92.353 Y-127.615
X-91.96 Y-127.574
X-91.495 Y-127.5
X-90.983 Y-127.389
X-90.407 Y-127.232
X-89.767 Y-127.019
X-89.029 Y-126.728
X-88.234 Y-126.364
X-87.321 Y-125.884
X-86.284 Y-125.265
X-85.17 Y-124.516
X-84.097 Y-123.711
X-83.059 Y-122.86
X-82.053 Y-121.97
X-81.078 Y-121.049
X-80.131 Y-120.098
X-79.209 Y-119.122
X-78.313 Y-118.123
X-77.44 Y-117.103
X-76.591 Y-116.064
X-75.765 Y-115.006
X-74.961 Y-113.932
X-74.179 Y-112.841
X-73.418 Y-111.735
X-72.68 Y-110.614
X-71.964 Y-109.479
X-71.269 Y-108.331
X-70.597 Y-107.169
X-69.946 Y-105.995
X-69.318 Y-104.809
X-68.713 Y-103.611
X-68.131 Y-102.402
X-67.571 Y-101.182
X-67.034 Y-99.952
X-66.52 Y-98.712
X-66.029 Y-97.463
X-65.561 Y-96.205
X-65.116 Y-94.939
X-64.695 Y-93.664
X-64.298 Y-92.382
X-63.924 Y-91.093
X-63.574 Y-89.797
X-63.248 Y-88.495
X-62.946 Y-87.188
X-62.667 Y-85.875
X-62.413 Y-84.557
X-62.183 Y-83.235
X-61.977 Y-81.908
X-61.796 Y-80.579
X-61.639 Y-79.246
X-61.506 Y-77.91
X-61.398 Y-76.572
X-61.315 Y-75.233
X-61.256 Y-73.892
X-61.223 Y-72.55
X-61.214 Y-71.208
X-61.23 Y-69.866
X-61.272 Y-68.524
X-61.338 Y-67.184
X-61.429 Y-65.845
X-61.544 Y-64.508
X-61.685 Y-63.173
X-61.849 Y-61.841
X-62.039 Y-60.512
X-62.253 Y-59.187
X-62.491 Y-57.866
X-62.753 Y-56.55
X-63.039 Y-55.239
X-63.35 Y-53.933
X-63.684 Y-52.633
X-64.042 Y-51.34
X-64.424 Y-50.053
X-64.829 Y-48.773
X-65.257 Y-47.501
X-65.709 Y-46.237
X-66.184 Y-44.982
X-66.682 Y-43.736
X-67.202 Y-42.499
X-67.745 Y-41.271
X-68.311 Y-40.054
X-68.9 Y-38.848
X-69.51 Y-37.653
X-70.143 Y-36.469
X-70.798 Y-35.298
X-71.474 Y-34.138
X-72.172 Y-32.992
X-72.891 Y-31.858
X-73.63 Y-30.738
X-74.39 Y-29.632
X-75.17 Y-28.54
X-75.97 Y-27.462
X-76.79 Y-26.399
X-77.629 Y-25.352
X-78.487 Y-24.32
X-79.364 Y-23.304
X-80.259 Y-22.304
X-81.173 Y-21.32
X-82.104 Y-20.354
X-83.053 Y-19.404
X-84.019 Y-18.473
X-84.344 Y-18.184
X-84.725 Y-17.892
X-85.143 Y-17.659
X-85.591 Y-17.488
X-86.059 Y-17.385
X-86.537 Y-17.35
X-90.806
G3 X-91.289 Y-17.464 I0.044 J-1.269
G1 X-91.418 Y-17.523 Z35.018
X-91.546 Y-17.581 Z35.042
X-91.67 Y-17.638 Z35.081
X-91.79 Y-17.692 Z35.136
X-91.904 Y-17.744 Z35.205
X-92.009 Y-17.792 Z35.287
X-92.106 Y-17.836 Z35.382
X-92.192 Y-17.875 Z35.488
X-92.267 Y-17.91 Z35.604
X-92.33 Y-17.938 Z35.729
X-92.38 Y-17.961 Z35.861
X-92.415 Y-17.977 Z35.997
X-92.437 Y-17.987 Z36.138
X-92.444 Y-17.99 Z36.28
G0 Z52
X-94.618 Y-126.86
Z37.55
G1 Z36.28 F850
X-94.611 Y-126.864 Z36.138
X-94.59 Y-126.877 Z35.997
X-94.556 Y-126.897 Z35.861
X-94.509 Y-126.925 Z35.729
X-94.45 Y-126.96 Z35.604
X-94.379 Y-127.002 Z35.488
X-94.298 Y-127.051 Z35.382
X-94.207 Y-127.105 Z35.287
X-94.107 Y-127.164 Z35.205
X-94 Y-127.228 Z35.136
X-93.886 Y-127.295 Z35.081
X-93.769 Y-127.365 Z35.042
X-93.648 Y-127.437 Z35.018
X-93.526 Y-127.509 Z35.01
G3 X-93.047 Y-127.65 I0.514 J0.864
G1 X-88.857
X-88.239 Y-127.619
X-87.855 Y-127.579
X-87.404 Y-127.507
X-86.94 Y-127.407
X-86.384 Y-127.255
X-85.805 Y-127.062
X-85.125 Y-126.794
X-84.392 Y-126.458
X-83.565 Y-126.024
X-82.629 Y-125.465
X-81.576 Y-124.757
X-80.505 Y-123.948
X-79.474 Y-123.089
X-78.48 Y-122.187
X-77.519 Y-121.25
X-76.588 Y-120.284
X-75.685 Y-119.29
X-74.809 Y-118.273
X-73.959 Y-117.235
X-73.132 Y-116.178
X-72.329 Y-115.102
X-71.549 Y-114.01
X-70.791 Y-112.903
X-70.055 Y-111.78
X-69.341 Y-110.644
X-68.649 Y-109.494
X-67.979 Y-108.331
X-67.331 Y-107.155
X-66.705 Y-105.968
X-66.101 Y-104.769
X-65.52 Y-103.56
X-64.96 Y-102.34
X-64.422 Y-101.11
X-63.906 Y-99.871
X-63.413 Y-98.623
X-62.942 Y-97.366
X-62.493 Y-96.101
X-62.068 Y-94.828
X-61.664 Y-93.548
X-61.284 Y-92.261
X-60.926 Y-90.968
X-60.591 Y-89.668
X-60.279 Y-88.363
X-59.991 Y-87.052
X-59.725 Y-85.736
X-59.483 Y-84.416
X-59.264 Y-83.092
X-59.068 Y-81.764
X-58.895 Y-80.433
X-58.747 Y-79.099
X-58.621 Y-77.763
X-58.52 Y-76.425
X-58.443 Y-75.085
X-58.389 Y-73.744
X-58.36 Y-72.402
X-58.354 Y-71.06
X-58.373 Y-69.718
X-58.415 Y-68.376
X-58.482 Y-67.036
X-58.572 Y-65.697
X-58.686 Y-64.359
X-58.824 Y-63.024
X-58.985 Y-61.692
X-59.17 Y-60.362
X-59.378 Y-59.036
X-59.61 Y-57.715
X-59.865 Y-56.397
X-60.144 Y-55.084
X-60.445 Y-53.776
X-60.769 Y-52.474
X-61.117 Y-51.177
X-61.487 Y-49.887
X-61.879 Y-48.604
X-62.295 Y-47.327
X-62.732 Y-46.058
X-63.192 Y-44.798
X-63.674 Y-43.545
X-64.178 Y-42.301
X-64.705 Y-41.066
X-65.253 Y-39.841
X-65.823 Y-38.626
X-66.415 Y-37.422
X-67.028 Y-36.228
X-67.662 Y-35.045
X-68.318 Y-33.874
X-68.994 Y-32.714
X-69.69 Y-31.567
X-70.407 Y-30.432
X-71.144 Y-29.311
X-71.901 Y-28.202
X-72.677 Y-27.107
X-73.472 Y-26.026
X-74.286 Y-24.959
X-75.119 Y-23.906
X-75.97 Y-22.869
X-76.84 Y-21.846
X-77.727 Y-20.839
X-78.632 Y-19.848
X-79.555 Y-18.874
X-80.147 Y-18.294
X-80.47 Y-18.016
X-80.826 Y-17.781
X-81.21 Y-17.595
X-81.614 Y-17.46
X-82.032 Y-17.378
X-82.458 Y-17.35
X-86.537
G3 X-87.019 Y-17.464 I0.044 J-1.269
G1 X-87.149 Y-17.523 Z35.018
X-87.277 Y-17.581 Z35.042
X-87.401 Y-17.638 Z35.081
X-87.521 Y-17.692 Z35.136
X-87.634 Y-17.744 Z35.205
X-87.74 Y-17.792 Z35.287
X-87.837 Y-17.836 Z35.382
X-87.923 Y-17.875 Z35.488
X-87.998 Y-17.91 Z35.604
X-88.061 Y-17.938 Z35.729
X-88.11 Y-17.961 Z35.861
X-88.146 Y-17.977 Z35.997
X-88.168 Y-17.987 Z36.138
X-88.175 Y-17.99 Z36.28
G0 Z52
X-90.427 Y-126.86
Z37.55
G1 Z36.28 F850
X-90.42 Y-126.864 Z36.138
X-90.4 Y-126.877 Z35.997
X-90.366 Y-126.897 Z35.861
X-90.319 Y-126.925 Z35.729
X-90.26 Y-126.96 Z35.604
X-90.189 Y-127.002 Z35.488
X-90.107 Y-127.051 Z35.382
X-90.016 Y-127.105 Z35.287
X-89.916 Y-127.164 Z35.205
X-89.809 Y-127.228 Z35.136
X-89.696 Y-127.295 Z35.081
X-89.578 Y-127.365 Z35.042
X-89.458 Y-127.437 Z35.018
X-89.335 Y-127.509 Z35.01
G3 X-88.857 Y-127.65 I0.514 J0.864
G1 X-84.666
X-84.306 Y-127.632
X-83.922 Y-127.592
X-83.516 Y-127.527
X-83.058 Y-127.428
X-82.539 Y-127.286
X-81.984 Y-127.102
X-81.352 Y-126.853
X-80.657 Y-126.534
X-79.895 Y-126.134
X-79.031 Y-125.618
X-78.065 Y-124.968
X-76.994 Y-124.16
X-75.968 Y-123.295
X-74.982 Y-122.384
X-74.032 Y-121.436
X-73.115 Y-120.456
X-72.229 Y-119.448
X-71.37 Y-118.416
X-70.538 Y-117.363
X-69.732 Y-116.29
X-68.949 Y-115.2
X-68.191 Y-114.093
X-67.455 Y-112.97
X-66.741 Y-111.833
X-66.05 Y-110.683
X-65.381 Y-109.52
X-64.733 Y-108.344
X-64.107 Y-107.156
X-63.503 Y-105.958
X-62.921 Y-104.749
X-62.36 Y-103.53
X-61.82 Y-102.301
X-61.302 Y-101.062
X-60.806 Y-99.815
X-60.331 Y-98.56
X-59.878 Y-97.297
X-59.447 Y-96.026
X-59.038 Y-94.747
X-58.65 Y-93.462
X-58.285 Y-92.171
X-57.941 Y-90.874
X-57.62 Y-89.57
X-57.321 Y-88.262
X-57.044 Y-86.949
X-56.79 Y-85.631
X-56.558 Y-84.309
X-56.348 Y-82.983
X-56.161 Y-81.654
X-55.997 Y-80.322
X-55.855 Y-78.987
X-55.737 Y-77.651
X-55.641 Y-76.312
X-55.568 Y-74.972
X-55.519 Y-73.63
X-55.493 Y-72.288
X-55.49 Y-70.946
X-55.51 Y-69.604
X-55.553 Y-68.263
X-55.619 Y-66.922
X-55.708 Y-65.583
X-55.82 Y-64.246
X-55.955 Y-62.91
X-56.112 Y-61.577
X-56.292 Y-60.247
X-56.495 Y-58.921
X-56.72 Y-57.598
X-56.968 Y-56.278
X-57.238 Y-54.964
X-57.531 Y-53.654
X-57.845 Y-52.349
X-58.182 Y-51.05
X-58.54 Y-49.756
X-58.921 Y-48.469
X-59.323 Y-47.189
X-59.747 Y-45.916
X-60.193 Y-44.649
X-60.66 Y-43.391
X-61.148 Y-42.141
X-61.658 Y-40.9
X-62.189 Y-39.667
X-62.742 Y-38.444
X-63.315 Y-37.23
X-63.909 Y-36.027
X-64.524 Y-34.834
X-65.159 Y-33.651
X-65.815 Y-32.48
X-66.49 Y-31.32
X-67.185 Y-30.172
X-67.9 Y-29.036
X-68.634 Y-27.912
X-69.387 Y-26.801
X-70.158 Y-25.703
X-70.949 Y-24.618
X-71.757 Y-23.547
X-72.584 Y-22.49
X-73.428 Y-21.447
X-74.291 Y-20.418
X-75.171 Y-19.405
X-75.984 Y-18.525
X-76.232 Y-18.284
X-76.554 Y-18.009
X-76.909 Y-17.777
X-77.291 Y-17.592
X-77.693 Y-17.458
X-78.109 Y-17.377
X-78.532 Y-17.35
X-82.458
G3 X-82.94 Y-17.464 I0.044 J-1.269
G1 X-83.069 Y-17.523 Z35.018
X-83.197 Y-17.581 Z35.042
X-83.322 Y-17.638 Z35.081
X-83.441 Y-17.692 Z35.136
X-83.555 Y-17.744 Z35.205
X-83.66 Y-17.792 Z35.287
X-83.757 Y-17.836 Z35.382
X-83.843 Y-17.875 Z35.488
X-83.918 Y-17.91 Z35.604
X-83.981 Y-17.938 Z35.729
X-84.031 Y-17.961 Z35.861
X-84.067 Y-17.977 Z35.997
X-84.088 Y-17.987 Z36.138
X-84.096 Y-17.99 Z36.28
G0 Z52
X-86.236 Y-126.86
Z37.55
G1 Z36.28 F850
X-86.23 Y-126.864 Z36.138
X-86.209 Y-126.877 Z35.997
X-86.175 Y-126.897 Z35.861
X-86.128 Y-126.925 Z35.729
X-86.069 Y-126.96 Z35.604
X-85.998 Y-127.002 Z35.488
X-85.917 Y-127.051 Z35.382
X-85.825 Y-127.105 Z35.287
X-85.726 Y-127.164 Z35.205
X-85.618 Y-127.228 Z35.136
X-85.505 Y-127.295 Z35.081
X-85.388 Y-127.365 Z35.042
X-85.267 Y-127.437 Z35.018
X-85.145 Y-127.509 Z35.01
G3 X-84.666 Y-127.65 I0.514 J0.864
G1 X-80.857
X-80.48 Y-127.631
X-80.113 Y-127.593
X-79.731 Y-127.532
X-79.273 Y-127.433
X-78.797 Y-127.303
X-78.254 Y-127.122
X-77.666 Y-126.89
X-76.998 Y-126.584
X-76.29 Y-126.212
X-75.483 Y-125.731
X-74.583 Y-125.125
X-73.584 Y-124.371
X-72.558 Y-123.506
X-71.577 Y-122.591
X-70.635 Y-121.635
X-69.728 Y-120.645
X-68.854 Y-119.627
X-68.01 Y-118.583
X-67.194 Y-117.517
X-66.404 Y-116.432
X-65.64 Y-115.329
X-64.9 Y-114.209
X-64.183 Y-113.074
X-63.49 Y-111.925
X-62.818 Y-110.763
X-62.169 Y-109.589
X-61.541 Y-108.402
X-60.935 Y-107.205
X-60.35 Y-105.997
X-59.786 Y-104.779
X-59.243 Y-103.551
X-58.722 Y-102.315
X-58.221 Y-101.07
X-57.741 Y-99.816
X-57.283 Y-98.555
X-56.845 Y-97.286
X-56.429 Y-96.01
X-56.034 Y-94.727
X-55.66 Y-93.438
X-55.308 Y-92.143
X-54.977 Y-90.842
X-54.667 Y-89.536
X-54.379 Y-88.226
X-54.112 Y-86.91
X-53.867 Y-85.591
X-53.643 Y-84.267
X-53.441 Y-82.94
X-53.262 Y-81.61
X-53.104 Y-80.277
X-52.968 Y-78.942
X-52.854 Y-77.605
X-52.763 Y-76.266
X-52.694 Y-74.925
X-52.647 Y-73.584
X-52.623 Y-72.242
X-52.621 Y-70.9
X-52.641 Y-69.558
X-52.683 Y-68.216
X-52.748 Y-66.876
X-52.835 Y-65.537
X-52.943 Y-64.199
X-53.074 Y-62.863
X-53.227 Y-61.53
X-53.402 Y-60.199
X-53.598 Y-58.871
X-53.816 Y-57.547
X-54.056 Y-56.226
X-54.317 Y-54.91
X-54.6 Y-53.598
X-54.905 Y-52.291
