%
(1001)
(z0 mdf bottom machine -5-5)
(T1  D=12.7 CR=0 - ZMIN=10 - flat end mill)
G90 G94
G17
G21

(2D Adaptive2_tidy bottom)
M9
T1 M6
S8000 M3
G54
M9
G0 X-139.105 Y-74.965
Z62
Z52
Z19.77
G1 Z18.5 F850
G3 X-128.466 Y-69.274 Z17.838 I5.319 J2.846 F283.3
X-139.105 Y-74.965 Z17.176 I-5.319 J-2.846
X-128.466 Y-69.274 Z16.515 I5.319 J2.846
X-139.105 Y-74.965 Z15.853 I-5.319 J-2.846
X-128.466 Y-69.274 Z15.191 I5.319 J2.846
X-139.105 Y-74.965 Z14.529 I-5.319 J-2.846
X-128.466 Y-69.274 Z13.867 I5.319 J2.846
X-139.105 Y-74.965 Z13.206 I-5.319 J-2.846
X-128.466 Y-69.274 Z12.544 I5.319 J2.846
X-139.105 Y-74.965 Z11.882 I-5.319 J-2.846
X-128.466 Y-69.274 Z11.22 I5.319 J2.846
X-139.105 Y-74.965 Z10.558 I-5.319 J-2.846
X-127.753 Y-72.119 Z10 I5.319 J2.846
X-139.818 I-6.033
X-128.029 Y-73.924 I6.032
X-127.753 Y-72.119 I-5.756 J1.805
G1 X-127.749 Y-71.796 F850
X-127.63 Y-70.51
X-127.606 Y-70.433
X-127.567 Y-70.288
X-127.537 Y-70.141
X-127.517 Y-69.992
X-127.503 Y-69.831
X-127.498 Y-69.656
X-127.503 Y-69.47
X-127.518 Y-69.272
X-127.546 Y-69.063
X-127.588 Y-68.844
X-127.644 Y-68.617
X-127.716 Y-68.382
X-127.804 Y-68.141
X-127.909 Y-67.895
X-128.032 Y-67.646
X-128.174 Y-67.395
X-128.334 Y-67.143
X-128.513 Y-66.893
X-128.711 Y-66.646
X-128.927 Y-66.404
X-129.163 Y-66.168
X-129.416 Y-65.94
X-129.687 Y-65.722
X-129.975 Y-65.515
X-130.279 Y-65.32
X-130.598 Y-65.139
X-130.931 Y-64.973
X-131.278 Y-64.824
X-131.435 Y-64.766
X-131.806 Y-64.653
X-132.188 Y-64.585
X-132.576 Y-64.563
X-133.786
X-134.547 Y-64.602
X-135.308 Y-64.716
X-136.069 Y-64.908
X-136.831 Y-65.181
X-137.048 Y-65.268
X-137.592 Y-65.55
X-138.353 Y-66.015
X-138.374 Y-66.03
X-139.114 Y-66.631
X-139.286 Y-66.791
X-139.876 Y-67.422
X-139.98 Y-67.552
X-140.565 Y-68.458
X-140.754 Y-68.787
X-140.926 Y-69.131
X-141.081 Y-69.487
X-141.218 Y-69.854
X-141.336 Y-70.231
X-141.434 Y-70.618
X-141.512 Y-71.012
X-141.568 Y-71.412
X-141.603 Y-71.817
X-141.616 Y-72.225
X-141.606 Y-72.636
X-141.575 Y-73.047
X-141.52 Y-73.457
X-141.444 Y-73.865
X-141.345 Y-74.27
X-141.224 Y-74.67
X-141.081 Y-75.064
X-140.917 Y-75.45
X-140.731 Y-75.828
X-140.525 Y-76.196
X-140.299 Y-76.552
X-140.054 Y-76.896
X-139.789 Y-77.227
X-139.508 Y-77.544
X-139.208 Y-77.845
X-138.893 Y-78.13
X-138.563 Y-78.397
X-138.218 Y-78.647
X-137.86 Y-78.877
X-137.49 Y-79.088
X-137.109 Y-79.278
X-136.717 Y-79.448
X-136.317 Y-79.596
X-135.91 Y-79.723
X-135.496 Y-79.827
X-135.076 Y-79.909
X-134.653 Y-79.968
X-134.227 Y-80.003
X-133.8 Y-80.016
X-133.373 Y-80.006
X-132.946 Y-79.972
X-132.522 Y-79.915
X-132.102 Y-79.836
X-131.687 Y-79.733
X-131.277 Y-79.609
X-130.875 Y-79.462
X-130.482 Y-79.294
X-130.098 Y-79.104
X-129.725 Y-78.895
X-129.364 Y-78.665
X-129.016 Y-78.416
X-128.682 Y-78.148
X-128.362 Y-77.863
X-128.059 Y-77.56
X-127.773 Y-77.242
X-127.504 Y-76.909
X-127.254 Y-76.561
X-127.022 Y-76.201
X-126.811 Y-75.829
X-126.58 Y-75.365
X-126.205 Y-74.494
X-125.939 Y-73.774
X-125.749 Y-73.157
X-125.609 Y-72.597
X-125.508 Y-72.077
X-125.44 Y-71.577
X-125.4 Y-71.098
X-125.388 Y-70.636
X-125.399 Y-70.185
X-125.435 Y-69.744
X-125.494 Y-69.31
X-125.575 Y-68.883
X-125.68 Y-68.463
X-125.806 Y-68.05
X-125.955 Y-67.644
X-126.126 Y-67.245
X-126.32 Y-66.855
X-126.535 Y-66.474
X-126.772 Y-66.103
X-126.891 Y-65.938
X-127.175 Y-65.593
X-127.504 Y-65.291
X-127.87 Y-65.035
X-128.267 Y-64.831
X-128.689 Y-64.683
X-129.126 Y-64.593
X-129.571 Y-64.563
X-132.576
G3 X-132.996 Y-64.65 I0.044 J-1.269
G1 X-133.059 Y-64.674
X-139.484 Y-67.2
G3 X-139.589 Y-67.247 I0.465 J-1.182
X-139.98 Y-67.552 I0.57 J-1.135
G1 X-140.528 Y-68.313
X-140.637 Y-68.496
X-140.932 Y-69.074
X-141.254 Y-69.836
X-141.398 Y-70.252
X-141.484 Y-70.597
X-141.636 Y-71.358
X-141.713 Y-72.119
Y-72.881
X-141.636 Y-73.642
X-141.484 Y-74.403
X-141.398 Y-74.748
X-141.254 Y-75.164
X-140.932 Y-75.926
X-140.637 Y-76.504
X-140.528 Y-76.687
X-139.98 Y-77.448
X-139.876 Y-77.578
X-139.286 Y-78.209
X-139.114 Y-78.369
X-138.374 Y-78.97
X-138.353 Y-78.985
X-137.592 Y-79.45
X-137.048 Y-79.732
X-136.831 Y-79.819
X-136.069 Y-80.092
X-135.308 Y-80.284
X-134.547 Y-80.398
X-133.786 Y-80.438
X-130.895
X-130.533 Y-80.419
X-130.267 Y-80.392
X-129.986 Y-80.347
X-129.699 Y-80.285
X-129.398 Y-80.202
X-129.084 Y-80.098
X-128.762 Y-79.971
X-128.439 Y-79.823
X-128.113 Y-79.652
X-127.781 Y-79.454
X-127.448 Y-79.23
X-127.114 Y-78.977
X-126.786 Y-78.701
X-126.422 Y-78.358
X-126.067 Y-77.986
X-125.709 Y-77.567
X-125.357 Y-77.108
X-125.023 Y-76.617
X-124.711 Y-76.103
X-124.427 Y-75.571
X-124.172 Y-75.025
X-123.949 Y-74.469
X-123.757 Y-73.906
X-123.598 Y-73.338
X-123.471 Y-72.768
X-123.376 Y-72.196
X-123.312 Y-71.624
X-123.28 Y-71.054
X-123.278 Y-70.486
X-123.307 Y-69.922
X-123.367 Y-69.362
X-123.456 Y-68.809
X-123.575 Y-68.263
X-123.712 Y-67.768
X-123.869 Y-67.297
X-124.035 Y-66.88
X-124.214 Y-66.489
X-124.403 Y-66.131
X-124.677 Y-65.743
X-125.004 Y-65.399
X-125.378 Y-65.107
X-125.792 Y-64.872
X-126.235 Y-64.702
X-126.698 Y-64.597
X-127.172 Y-64.563
X-129.571
G3 X-130.054 Y-64.676 I0.044 J-1.269
X-130.791 Y-65.706 I0.527 J-1.156
G1 X-132.114 Y-79.043
G3 X-131.377 Y-80.324 I1.264 J-0.125
X-130.895 Y-80.438 I0.527 J1.156
G1 X-128.227
X-128.012 Y-80.427
X-127.8 Y-80.405
X-127.583 Y-80.37
X-127.339 Y-80.317
X-127.084 Y-80.247
X-126.814 Y-80.158
X-126.52 Y-80.042
X-126.224 Y-79.906
X-125.907 Y-79.739
X-125.576 Y-79.542
X-125.247 Y-79.321
X-124.904 Y-79.062
X-124.553 Y-78.765
X-124.21 Y-78.443
X-123.87 Y-78.086
X-123.532 Y-77.692
X-123.203 Y-77.261
X-122.887 Y-76.798
X-122.591 Y-76.309
X-122.316 Y-75.795
X-122.064 Y-75.255
X-121.837 Y-74.69
X-121.637 Y-74.102
X-121.467 Y-73.497
X-121.329 Y-72.875
X-121.223 Y-72.242
X-121.152 Y-71.598
X-121.115 Y-70.954
X-121.114 Y-70.313
X-121.146 Y-69.684
X-121.212 Y-69.069
X-121.302 Y-68.508
X-121.413 Y-67.998
X-121.537 Y-67.549
X-121.681 Y-67.119
X-121.833 Y-66.735
X-122.001 Y-66.371
X-122.18 Y-66.03
X-122.436 Y-65.667
X-122.743 Y-65.345
X-123.093 Y-65.072
X-123.479 Y-64.853
X-123.894 Y-64.693
X-124.327 Y-64.595
X-124.771 Y-64.563
X-127.172
G3 X-128.394 Y-65.732 I0.044 J-1.269
G1 X-129.448 Y-79.068
G3 X-128.709 Y-80.324 I1.266 J-0.1
X-128.227 Y-80.438 I0.527 J1.156
G1 X-125.943
X-125.709 Y-80.426
X-125.504 Y-80.404
X-125.29 Y-80.37
X-125.058 Y-80.32
X-124.805 Y-80.251
X-124.548 Y-80.165
X-124.266 Y-80.054
X-123.975 Y-79.921
X-123.676 Y-79.764
X-123.357 Y-79.573
X-123.036 Y-79.358
X-122.712 Y-79.113
X-122.377 Y-78.83
X-122.039 Y-78.512
X-121.711 Y-78.168
X-121.383 Y-77.785
X-121.059 Y-77.361
X-120.744 Y-76.899
X-120.447 Y-76.409
X-120.169 Y-75.889
X-119.91 Y-75.333
X-119.673 Y-74.744
X-119.463 Y-74.125
X-119.282 Y-73.483
X-119.135 Y-72.821
X-119.023 Y-72.151
X-118.949 Y-71.482
X-118.911 Y-70.822
X-118.91 Y-70.174
X-118.942 Y-69.544
X-119.007 Y-68.933
X-119.096 Y-68.383
X-119.206 Y-67.878
X-119.326 Y-67.442
X-119.468 Y-67.018
X-119.615 Y-66.646
X-119.781 Y-66.287
X-120.048 Y-65.863
X-120.378 Y-65.486
X-120.761 Y-65.164
X-121.19 Y-64.906
X-121.654 Y-64.717
X-122.141 Y-64.601
X-122.64 Y-64.563
X-124.771
G3 X-125.253 Y-64.676 I0.044 J-1.269
X-125.991 Y-65.721 I0.527 J-1.156
G1 X-127.164 Y-79.057
G3 X-125.943 Y-80.438 I1.265 J-0.111
G1 X-123.659
X-123.467 Y-80.428
X-123.27 Y-80.407
X-123.056 Y-80.373
X-122.834 Y-80.325
X-122.586 Y-80.257
X-122.334 Y-80.173
X-122.062 Y-80.066
X-121.773 Y-79.934
X-121.482 Y-79.781
X-121.172 Y-79.596
X-120.852 Y-79.381
X-120.535 Y-79.141
X-120.204 Y-78.862
X-119.867 Y-78.545
X-119.54 Y-78.202
X-119.211 Y-77.818
X-118.883 Y-77.389
X-118.564 Y-76.922
X-118.264 Y-76.427
X-117.98 Y-75.894
X-117.713 Y-75.321
X-117.469 Y-74.715
X-117.254 Y-74.082
X-117.07 Y-73.426
X-116.92 Y-72.754
X-116.807 Y-72.075
X-116.731 Y-71.398
X-116.694 Y-70.735
X-116.692 Y-70.085
X-116.725 Y-69.455
X-116.787 Y-68.872
X-116.871 Y-68.354
X-116.974 Y-67.881
X-117.092 Y-67.451
X-117.229 Y-67.041
X-117.372 Y-66.681
X-117.541 Y-66.314
X-117.775 Y-65.935
X-118.058 Y-65.591
X-118.385 Y-65.289
X-118.749 Y-65.034
X-119.145 Y-64.831
X-119.565 Y-64.683
X-120.001 Y-64.593
X-120.445 Y-64.563
X-122.64
G3 X-123.862 Y-65.735 I0.044 J-1.269
G1 X-124.881 Y-79.072
G3 X-123.659 Y-80.438 I1.266 J-0.097
G1 X-121.479
X-121.258 Y-80.426
X-121.065 Y-80.406
X-120.853 Y-80.372
X-120.633 Y-80.325
X-120.389 Y-80.258
X-120.137 Y-80.174
X-119.869 Y-80.068
X-119.58 Y-79.936
X-119.291 Y-79.784
X-118.982 Y-79.6
X-118.662 Y-79.385
X-118.345 Y-79.145
X-118.013 Y-78.865
X-117.674 Y-78.547
X-117.346 Y-78.202
X-117.013 Y-77.814
X-116.681 Y-77.379
X-116.36 Y-76.909
X-116.058 Y-76.41
X-115.769 Y-75.869
X-115.498 Y-75.289
X-115.252 Y-74.675
X-115.034 Y-74.035
X-114.849 Y-73.373
X-114.698 Y-72.7
X-114.586 Y-72.024
X-114.511 Y-71.356
X-114.474 Y-70.7
X-114.473 Y-70.059
X-114.505 Y-69.439
X-114.565 Y-68.868
X-114.65 Y-68.347
X-114.748 Y-67.894
X-114.871 Y-67.447
X-115 Y-67.062
X-115.154 Y-66.673
X-115.309 Y-66.337
X-115.317 Y-66.322
X-115.552 Y-65.942
X-115.836 Y-65.597
X-116.165 Y-65.293
X-116.531 Y-65.036
X-116.929 Y-64.832
X-117.351 Y-64.683
X-117.789 Y-64.593
X-118.235 Y-64.563
X-120.445
G3 X-120.927 Y-64.676 I0.044 J-1.269
X-121.667 Y-65.734 I0.527 J-1.156
G1 X-122.701 Y-79.07
G3 X-121.961 Y-80.324 I1.266 J-0.098
X-121.479 Y-80.438 I0.527 J1.156
G1 X-119.322
X-119.062 Y-80.424
X-118.87 Y-80.404
X-118.657 Y-80.37
X-118.438 Y-80.323
X-118.193 Y-80.256
X-117.941 Y-80.172
X-117.672 Y-80.066
X-117.383 Y-79.934
X-117.093 Y-79.781
X-116.782 Y-79.596
X-116.462 Y-79.381
X-116.143 Y-79.14
X-115.808 Y-78.857
X-115.469 Y-78.538
X-115.138 Y-78.191
X-114.803 Y-77.799
X-114.468 Y-77.361
X-114.146 Y-76.889
X-113.841 Y-76.387
X-113.551 Y-75.842
X-113.279 Y-75.26
X-113.032 Y-74.646
X-112.815 Y-74.006
X-112.629 Y-73.346
X-112.48 Y-72.676
X-112.368 Y-72.003
X-112.294 Y-71.34
X-112.257 Y-70.686
X-112.255 Y-70.05
X-112.288 Y-69.43
X-112.348 Y-68.867
X-112.432 Y-68.347
X-112.53 Y-67.896
X-112.653 Y-67.449
X-112.781 Y-67.065
X-112.935 Y-66.676
X-113.09 Y-66.34
X-113.099 Y-66.322
X-113.335 Y-65.942
X-113.619 Y-65.597
X-113.947 Y-65.293
X-114.314 Y-65.036
X-114.712 Y-64.832
X-115.134 Y-64.683
X-115.572 Y-64.593
X-116.018 Y-64.563
X-118.235
G3 X-119.457 Y-65.729 I0.044 J-1.269
G1 X-120.543 Y-79.065
G3 X-119.804 Y-80.324 I1.266 J-0.103
X-119.322 Y-80.438 I0.527 J1.156
G1 X-117.038
X-116.87 Y-80.429
X-116.677 Y-80.409
X-116.463 Y-80.375
X-116.243 Y-80.327
X-115.996 Y-80.26
X-115.744 Y-80.176
X-115.472 Y-80.069
X-115.183 Y-79.936
X-114.891 Y-79.783
X-114.578 Y-79.596
X-114.258 Y-79.38
X-113.936 Y-79.138
X-113.599 Y-78.853
X-113.259 Y-78.533
X-112.926 Y-78.185
X-112.589 Y-77.79
X-112.252 Y-77.35
X-111.93 Y-76.878
X-111.625 Y-76.374
X-111.334 Y-75.829
X-111.062 Y-75.246
X-110.815 Y-74.632
X-110.598 Y-73.993
X-110.413 Y-73.333
X-110.264 Y-72.664
X-110.152 Y-71.993
X-110.078 Y-71.332
X-110.041 Y-70.68
X-110.04 Y-70.045
X-110.072 Y-69.426
X-110.132 Y-68.864
X-110.215 Y-68.345
X-110.314 Y-67.894
X-110.436 Y-67.448
X-110.565 Y-67.064
X-110.719 Y-66.675
X-110.874 Y-66.339
X-110.883 Y-66.322
X-111.118 Y-65.942
X-111.402 Y-65.597
X-111.731 Y-65.293
X-112.097 Y-65.036
X-112.495 Y-64.832
X-112.917 Y-64.683
X-113.355 Y-64.593
X-113.801 Y-64.563
X-116.018
G3 X-116.5 Y-64.676 I0.044 J-1.269
X-117.24 Y-65.735 I0.527 J-1.156
G1 X-118.26 Y-79.071
G3 X-117.038 Y-80.438 I1.266 J-0.097
G1 X-114.909
X-114.661 Y-80.425
X-114.467 Y-80.405
X-114.254 Y-80.371
X-114.033 Y-80.323
X-113.786 Y-80.256
X-113.534 Y-80.172
X-113.261 Y-80.064
X-112.972 Y-79.931
X-112.68 Y-79.778
X-112.366 Y-79.591
X-112.045 Y-79.375
X-111.723 Y-79.132
X-111.385 Y-78.846
X-111.044 Y-78.526
X-110.711 Y-78.177
X-110.374 Y-77.782
X-110.037 Y-77.342
X-109.714 Y-76.869
X-109.409 Y-76.365
X-109.118 Y-75.82
X-108.846 Y-75.237
X-108.599 Y-74.623
X-108.382 Y-73.984
X-108.197 Y-73.326
X-108.048 Y-72.658
X-107.937 Y-71.987
X-107.863 Y-71.327
X-107.826 Y-70.675
X-107.825 Y-70.041
X-107.857 Y-69.423
X-107.916 Y-68.862
X-108 Y-68.343
X-108.098 Y-67.893
X-108.221 Y-67.447
X-108.35 Y-67.063
X-108.503 Y-66.674
X-108.658 Y-66.339
X-108.666 Y-66.322
X-108.902 Y-65.942
X-109.186 Y-65.597
X-109.514 Y-65.293
X-109.881 Y-65.036
X-110.279 Y-64.832
X-110.701 Y-64.683
X-111.139 Y-64.593
X-111.585 Y-64.563
X-113.801
G3 X-114.283 Y-64.676 I0.044 J-1.269
X-115.022 Y-65.727 I0.527 J-1.156
G1 X-116.13 Y-79.063
G3 X-114.909 Y-80.438 I1.266 J-0.105
G1 X-112.625
X-112.459 Y-80.429
X-112.263 Y-80.409
X-112.05 Y-80.375
X-111.828 Y-80.327
X-111.58 Y-80.259
X-111.327 Y-80.175
X-111.053 Y-80.067
X-110.763 Y-79.934
X-110.47 Y-79.78
X-110.155 Y-79.592
X-109.835 Y-79.376
X-109.511 Y-79.132
X-109.172 Y-78.846
X-108.832 Y-78.526
X-108.498 Y-78.176
X-108.16 Y-77.78
X-107.822 Y-77.339
X-107.5 Y-76.867
X-107.194 Y-76.362
X-106.903 Y-75.816
X-106.631 Y-75.234
X-106.384 Y-74.62
X-106.167 Y-73.981
X-105.982 Y-73.322
X-105.833 Y-72.654
X-105.722 Y-71.984
X-105.648 Y-71.324
X-105.611 Y-70.672
X-105.61 Y-70.039
X-105.642 Y-69.42
X-105.701 Y-68.86
X-105.785 Y-68.341
X-105.883 Y-67.891
X-106.006 Y-67.446
X-106.134 Y-67.062
X-106.288 Y-66.674
X-106.442 Y-66.338
X-106.451 Y-66.322
X-106.686 Y-65.942
X-106.97 Y-65.597
X-107.299 Y-65.293
X-107.665 Y-65.036
X-108.063 Y-64.832
X-108.485 Y-64.683
X-108.923 Y-64.593
X-109.369 Y-64.563
X-111.585
G3 X-112.807 Y-65.733 I0.044 J-1.269
G1 X-113.847 Y-79.07
G3 X-113.107 Y-80.324 I1.266 J-0.099
X-112.625 Y-80.438 I0.527 J1.156
G1 X-110.529
X-110.24 Y-80.423
X-110.045 Y-80.403
X-109.832 Y-80.369
X-109.611 Y-80.321
X-109.363 Y-80.253
X-109.11 Y-80.169
X-108.837 Y-80.061
X-108.547 Y-79.928
X-108.254 Y-79.774
X-107.939 Y-79.587
X-107.619 Y-79.371
X-107.296 Y-79.127
X-106.956 Y-78.841
X-106.616 Y-78.521
X-106.283 Y-78.171
X-105.944 Y-77.775
X-105.607 Y-77.335
X-105.285 Y-76.862
X-104.979 Y-76.358
X-104.687 Y-75.812
X-104.416 Y-75.229
X-104.169 Y-74.616
X-103.952 Y-73.977
X-103.767 Y-73.318
X-103.618 Y-72.651
X-103.507 Y-71.981
X-103.433 Y-71.321
X-103.396 Y-70.67
X-103.395 Y-70.036
X-103.427 Y-69.418
X-103.486 Y-68.858
X-103.57 Y-68.34
X-103.668 Y-67.89
X-103.791 Y-67.445
X-103.919 Y-67.061
X-104.073 Y-66.673
X-104.227 Y-66.338
X-104.241 Y-66.312
X-104.475 Y-65.933
X-104.757 Y-65.59
X-105.084 Y-65.288
X-105.448 Y-65.034
X-105.844 Y-64.83
X-106.263 Y-64.682
X-106.698 Y-64.593
X-107.142 Y-64.563
X-109.369
G3 X-110.59 Y-65.722 I0.044 J-1.269
G1 X-111.75 Y-79.058
G3 X-110.529 Y-80.438 I1.265 J-0.11
G1 X-108.246
X-108.034 Y-80.427
X-107.838 Y-80.406
X-107.624 Y-80.372
X-107.402 Y-80.324
X-107.154 Y-80.256
X-106.901 Y-80.172
X-106.627 Y-80.064
X-106.336 Y-79.931
X-106.043 Y-79.777
X-105.727 Y-79.589
X-105.407 Y-79.373
X-105.083 Y-79.129
X-104.743 Y-78.842
X-104.403 Y-78.522
X-104.069 Y-78.172
X-103.73 Y-77.776
X-103.393 Y-77.334
X-103.07 Y-76.862
X-102.765 Y-76.357
X-102.473 Y-75.811
X-102.201 Y-75.228
X-101.955 Y-74.614
X-101.737 Y-73.975
X-101.553 Y-73.317
X-101.404 Y-72.649
X-101.292 Y-71.979
X-101.219 Y-71.319
X-101.182 Y-70.668
X-101.18 Y-70.035
X-101.212 Y-69.417
X-101.272 Y-68.856
X-101.356 Y-68.337
X-101.454 Y-67.886
X-101.577 Y-67.44
X-101.705 Y-67.056
X-101.859 Y-66.668
X-101.979 Y-66.407
X-102.196 Y-66.011
X-102.468 Y-65.651
X-102.787 Y-65.333
X-103.149 Y-65.063
X-103.545 Y-64.847
X-103.967 Y-64.69
X-104.408 Y-64.595
X-104.858 Y-64.563
X-107.142
G3 X-108.363 Y-65.727 I0.044 J-1.269
G1 X-109.467 Y-79.064
G3 X-108.246 Y-80.438 I1.266 J-0.105
G1 X-106.15
X-105.813 Y-80.421
X-105.618 Y-80.4
X-105.405 Y-80.366
X-105.183 Y-80.318
X-104.935 Y-80.251
X-104.683 Y-80.167
X-104.409 Y-80.059
X-104.119 Y-79.926
X-103.826 Y-79.772
X-103.511 Y-79.584
X-103.19 Y-79.368
X-102.867 Y-79.124
X-102.528 Y-78.838
X-102.187 Y-78.517
X-101.854 Y-78.168
X-101.515 Y-77.772
X-101.178 Y-77.331
X-100.855 Y-76.858
X-100.55 Y-76.354
X-100.258 Y-75.808
X-99.986 Y-75.225
X-99.74 Y-74.612
X-99.523 Y-73.973
X-99.338 Y-73.314
X-99.189 Y-72.647
X-99.077 Y-71.977
X-99.004 Y-71.317
X-98.967 Y-70.665
X-98.965 Y-70.032
X-98.997 Y-69.414
X-99.057 Y-68.85
X-99.143 Y-68.32
X-99.245 Y-67.853
X-99.364 Y-67.419
X-99.498 Y-67.02
X-99.647 Y-66.645
X-99.781 Y-66.352
X-99.992 Y-65.968
X-100.255 Y-65.619
X-100.565 Y-65.31
X-100.916 Y-65.048
X-101.3 Y-64.839
X-101.71 Y-64.686
X-102.138 Y-64.594
X-102.574 Y-64.563
X-104.858
G3 X-105.34 Y-64.676 I0.044 J-1.269
X-106.078 Y-65.709 I0.527 J-1.156
G1 X-107.37 Y-79.046
G3 X-106.633 Y-80.324 I1.264 J-0.122
X-106.15 Y-80.438 I0.527 J1.156
G1 X-103.867
X-103.606 Y-80.424
X-103.41 Y-80.404
X-103.196 Y-80.37
X-102.974 Y-80.322
X-102.726 Y-80.254
X-102.473 Y-80.17
X-102.198 Y-80.062
X-101.908 Y-79.929
X-101.614 Y-79.774
X-101.299 Y-79.586
X-100.978 Y-79.37
X-100.654 Y-79.126
X-100.314 Y-78.839
X-99.974 Y-78.519
X-99.64 Y-78.169
X-99.301 Y-77.772
X-98.964 Y-77.331
X-98.641 Y-76.859
X-98.335 Y-76.354
X-98.044 Y-75.807
X-97.772 Y-75.225
X-97.525 Y-74.611
X-97.308 Y-73.972
X-97.123 Y-73.313
X-96.974 Y-72.645
X-96.862 Y-71.973
X-96.788 Y-71.308
X-96.751 Y-70.655
X-96.749 Y-70.017
X-96.782 Y-69.398
X-96.842 Y-68.827
X-96.929 Y-68.291
X-97.031 Y-67.823
X-97.151 Y-67.388
X-97.284 Y-66.989
X-97.432 Y-66.616
X-97.589 Y-66.274
X-97.653 Y-66.153
X-97.9 Y-65.762
X-98.204 Y-65.414
X-98.558 Y-65.118
X-98.953 Y-64.879
X-99.381 Y-64.705
X-99.83 Y-64.598
X-100.291 Y-64.563
X-102.574
G3 X-103.794 Y-65.709 I0.044 J-1.269
G1 X-105.086 Y-79.046
G3 X-103.867 Y-80.438 I1.264 J-0.122
G1 X-101.583
X-101.395 Y-80.428
X-101.199 Y-80.408
X-100.985 Y-80.373
X-100.763 Y-80.325
X-100.514 Y-80.257
X-100.261 Y-80.173
X-99.986 Y-80.065
X-99.696 Y-79.932
X-99.402 Y-79.777
X-99.086 Y-79.589
X-98.765 Y-79.373
X-98.441 Y-79.128
X-98.101 Y-78.842
X-97.761 Y-78.521
X-97.426 Y-78.171
X-97.087 Y-77.774
X-96.749 Y-77.333
X-96.427 Y-76.86
X-96.121 Y-76.355
X-95.829 Y-75.808
X-95.556 Y-75.224
X-95.309 Y-74.608
X-95.091 Y-73.968
X-94.906 Y-73.308
X-94.756 Y-72.637
X-94.644 Y-71.962
X-94.57 Y-71.294
X-94.532 Y-70.638
X-94.531 Y-69.999
X-94.563 Y-69.377
X-94.625 Y-68.795
X-94.71 Y-68.272
X-94.814 Y-67.794
X-94.932 Y-67.364
X-95.068 Y-66.958
X-95.21 Y-66.599
X-95.375 Y-66.24
X-95.635 Y-65.828
X-95.956 Y-65.461
X-96.329 Y-65.148
X-96.747 Y-64.897
X-97.198 Y-64.713
X-97.672 Y-64.6
X-98.158 Y-64.563
X-100.291
G3 X-100.773 Y-64.676 I0.044 J-1.269
X-101.51 Y-65.709 I0.527 J-1.156
G1 X-102.803 Y-79.046
G3 X-102.065 Y-80.324 I1.264 J-0.122
X-101.583 Y-80.438 I0.527 J1.156
G1 X-99.403
X-99.177 Y-80.426
X-98.982 Y-80.406
X-98.768 Y-80.372
X-98.546 Y-80.324
X-98.297 Y-80.256
X-98.045 Y-80.172
X-97.77 Y-80.063
X-97.48 Y-79.93
X-97.186 Y-79.776
X-96.87 Y-79.588
X-96.55 Y-79.372
X-96.226 Y-79.127
X-95.886 Y-78.841
X-95.545 Y-78.52
X-95.211 Y-78.17
X-94.871 Y-77.773
X-94.533 Y-77.331
X-94.211 Y-76.858
X-93.904 Y-76.352
X-93.611 Y-75.804
X-93.339 Y-75.219
X-93.091 Y-74.602
X-92.872 Y-73.959
X-92.687 Y-73.298
X-92.536 Y-72.624
X-92.424 Y-71.948
X-92.349 Y-71.278
X-92.312 Y-70.621
X-92.31 Y-69.979
X-92.342 Y-69.358
X-92.403 Y-68.79
X-92.486 Y-68.277
X-92.586 Y-67.816
X-92.704 Y-67.389
X-92.838 Y-66.989
X-92.979 Y-66.632
X-93.144 Y-66.272
X-93.41 Y-65.852
X-93.736 Y-65.479
X-94.117 Y-65.16
X-94.542 Y-64.903
X-95.002 Y-64.715
X-95.485 Y-64.601
X-95.98 Y-64.563
X-98.158
G3 X-99.378 Y-65.714 I0.044 J-1.269
G1 X-100.623 Y-79.05
G3 X-99.885 Y-80.324 I1.265 J-0.118
X-99.403 Y-80.438 I0.527 J1.156
G1 X-97.246
X-96.959 Y-80.423
X-96.764 Y-80.403
X-96.551 Y-80.369
X-96.329 Y-80.321
X-96.08 Y-80.253
X-95.828 Y-80.169
X-95.553 Y-80.061
X-95.263 Y-79.928
X-94.969 Y-79.773
X-94.654 Y-79.585
X-94.333 Y-79.369
X-94.009 Y-79.125
X-93.669 Y-78.837
X-93.328 Y-78.517
X-92.994 Y-78.166
X-92.654 Y-77.769
X-92.315 Y-77.326
X-91.992 Y-76.853
X-91.685 Y-76.347
X-91.392 Y-75.797
X-91.118 Y-75.211
X-90.87 Y-74.592
X-90.651 Y-73.949
X-90.465 Y-73.286
X-90.315 Y-72.613
X-90.203 Y-71.939
X-90.129 Y-71.273
X-90.092 Y-70.621
X-90.09 Y-69.984
X-90.122 Y-69.368
X-90.182 Y-68.806
X-90.265 Y-68.294
X-90.364 Y-67.836
X-90.482 Y-67.409
X-90.616 Y-67.008
X-90.757 Y-66.651
X-90.924 Y-66.289
X-91.192 Y-65.865
X-91.522 Y-65.488
X-91.906 Y-65.165
X-92.335 Y-64.906
X-92.8 Y-64.717
X-93.288 Y-64.601
X-93.788 Y-64.563
X-95.98
G3 X-96.463 Y-64.676 I0.044 J-1.269
X-97.2 Y-65.712 I0.527 J-1.156
G1 X-98.466 Y-79.048
G3 X-97.246 Y-80.438 I1.264 J-0.12
G1 X-94.962
X-94.75 Y-80.427
X-94.554 Y-80.406
X-94.34 Y-80.372
X-94.117 Y-80.324
X-93.868 Y-80.256
X-93.615 Y-80.172
X-93.34 Y-80.063
X-93.05 Y-79.93
X-92.755 Y-79.776
X-92.439 Y-79.587
X-92.118 Y-79.371
X-91.793 Y-79.126
X-91.452 Y-78.838
X-91.111 Y-78.517
X-90.776 Y-78.166
X-90.435 Y-77.767
X-90.096 Y-77.324
X-89.773 Y-76.85
X-89.465 Y-76.343
X-89.172 Y-75.793
X-88.898 Y-75.206
X-88.65 Y-74.589
X-88.431 Y-73.946
X-88.246 Y-73.285
X-88.096 Y-72.614
X-87.984 Y-71.943
X-87.911 Y-71.28
X-87.874 Y-70.629
X-87.872 Y-69.994
X-87.904 Y-69.379
X-87.964 Y-68.819
X-88.046 Y-68.307
X-88.146 Y-67.849
X-88.264 Y-67.422
X-88.398 Y-67.02
X-88.54 Y-66.662
X-88.707 Y-66.3
X-88.939 Y-65.924
X-89.22 Y-65.583
X-89.544 Y-65.283
X-89.906 Y-65.03
X-90.298 Y-64.829
X-90.715 Y-64.682
X-91.147 Y-64.592
X-91.588 Y-64.563
X-93.788
G3 X-94.27 Y-64.676 I0.044 J-1.269
X-95.009 Y-65.72 I0.527 J-1.156
G1 X-96.183 Y-79.057
G3 X-95.444 Y-80.324 I1.265 J-0.111
X-94.962 Y-80.438 I0.527 J1.156
G1 X-92.832
X-92.527 Y-80.422
X-92.332 Y-80.402
X-92.118 Y-80.368
X-91.896 Y-80.32
X-91.648 Y-80.252
X-91.395 Y-80.168
X-91.119 Y-80.059
X-90.829 Y-79.926
X-90.535 Y-79.772
X-90.218 Y-79.583
X-89.898 Y-79.367
X-89.573 Y-79.122
X-89.232 Y-78.834
X-88.891 Y-78.513
X-88.556 Y-78.162
X-88.215 Y-77.763
X-87.876 Y-77.32
X-87.553 Y-76.847
X-87.246 Y-76.34
X-86.952 Y-75.791
X-86.68 Y-75.205
X-86.432 Y-74.589
X-86.214 Y-73.948
X-86.029 Y-73.288
X-85.879 Y-72.618
X-85.768 Y-71.948
X-85.694 Y-71.287
X-85.657 Y-70.637
X-85.656 Y-70.002
X-85.688 Y-69.388
X-85.747 Y-68.828
X-85.831 Y-68.311
X-85.928 Y-67.864
X-86.05 Y-67.421
X-86.178 Y-67.039
X-86.331 Y-66.653
X-86.484 Y-66.32
X-86.719 Y-65.94
X-87.003 Y-65.595
X-87.331 Y-65.292
X-87.697 Y-65.036
X-88.094 Y-64.832
X-88.516 Y-64.683
X-88.953 Y-64.593
X-89.399 Y-64.563
X-91.588
G3 X-92.07 Y-64.676 I0.044 J-1.269
X-92.808 Y-65.714 I0.527 J-1.156
G1 X-94.052 Y-79.05
G3 X-92.832 Y-80.438 I1.265 J-0.118
G1 X-90.549
X-90.315 Y-80.426
X-90.119 Y-80.405
X-89.905 Y-80.371
X-89.682 Y-80.323
X-89.433 Y-80.255
X-89.18 Y-80.171
X-88.904 Y-80.062
X-88.614 Y-79.929
X-88.319 Y-79.774
X-88.002 Y-79.585
X-87.681 Y-79.369
X-87.356 Y-79.123
X-87.014 Y-78.835
X-86.673 Y-78.515
X-86.338 Y-78.163
X-85.997 Y-77.765
X-85.659 Y-77.322
X-85.335 Y-76.848
X-85.028 Y-76.342
X-84.736 Y-75.793
X-84.463 Y-75.208
X-84.215 Y-74.593
X-83.998 Y-73.952
X-83.813 Y-73.292
X-83.664 Y-72.624
X-83.552 Y-71.954
X-83.478 Y-71.294
X-83.441 Y-70.643
X-83.44 Y-70.01
X-83.472 Y-69.393
X-83.531 Y-68.838
X-83.614 Y-68.322
X-83.711 Y-67.876
X-83.833 Y-67.433
X-83.961 Y-67.051
X-84.114 Y-66.665
X-84.268 Y-66.331
X-84.272 Y-66.322
X-84.508 Y-65.942
X-84.792 Y-65.597
X-85.12 Y-65.293
X-85.487 Y-65.036
X-85.885 Y-64.832
X-86.307 Y-64.683
X-86.745 Y-64.593
X-87.191 Y-64.563
X-89.399
G3 X-89.881 Y-64.676 I0.044 J-1.269
X-90.62 Y-65.723 I0.527 J-1.156
G1 X-91.77 Y-79.059
G3 X-91.031 Y-80.324 I1.265 J-0.109
X-90.549 Y-80.438 I0.527 J1.156
G1 X-88.265
X-88.1 Y-80.429
X-87.903 Y-80.409
X-87.69 Y-80.375
X-87.466 Y-80.326
X-87.217 Y-80.258
X-86.964 Y-80.174
X-86.688 Y-80.065
X-86.397 Y-79.932
X-86.102 Y-79.777
X-85.785 Y-79.588
X-85.464 Y-79.372
X-85.139 Y-79.126
X-84.797 Y-78.838
X-84.457 Y-78.518
X-84.121 Y-78.166
X-83.781 Y-77.768
X-83.442 Y-77.325
X-83.119 Y-76.852
X-82.812 Y-76.345
X-82.519 Y-75.797
X-82.247 Y-75.212
X-82 Y-74.597
X-81.782 Y-73.957
X-81.597 Y-73.297
X-81.448 Y-72.629
X-81.336 Y-71.96
X-81.263 Y-71.301
X-81.226 Y-70.651
X-81.225 Y-70.019
X-81.257 Y-69.402
X-81.316 Y-68.846
X-81.399 Y-68.329
X-81.497 Y-67.882
X-81.619 Y-67.438
X-81.747 Y-67.056
X-81.9 Y-66.668
X-82.054 Y-66.334
X-82.06 Y-66.322
X-82.296 Y-65.942
X-82.58 Y-65.597
X-82.908 Y-65.293
X-83.275 Y-65.036
X-83.673 Y-64.832
X-84.095 Y-64.683
X-84.533 Y-64.593
X-84.979 Y-64.563
X-87.191
G3 X-87.673 Y-64.676 I0.044 J-1.269
X-88.413 Y-65.73 I0.527 J-1.156
G1 X-89.486 Y-79.066
G3 X-88.747 Y-80.324 I1.266 J-0.102
X-88.265 Y-80.438 I0.527 J1.156
G1 X-86.169
X-85.873 Y-80.423
X-85.678 Y-80.402
X-85.464 Y-80.368
X-85.242 Y-80.32
X-84.993 Y-80.252
X-84.74 Y-80.168
X-84.465 Y-80.06
X-84.175 Y-79.927
X-83.881 Y-79.772
X-83.564 Y-79.583
X-83.244 Y-79.368
X-82.919 Y-79.122
X-82.578 Y-78.835
X-82.238 Y-78.515
X-81.903 Y-78.164
X-81.563 Y-77.766
X-81.225 Y-77.324
X-80.902 Y-76.851
X-80.596 Y-76.345
X-80.303 Y-75.798
X-80.031 Y-75.214
X-79.784 Y-74.6
X-79.567 Y-73.96
X-79.382 Y-73.302
X-79.233 Y-72.634
X-79.122 Y-71.965
X-79.048 Y-71.306
X-79.012 Y-70.656
X-79.01 Y-70.024
X-79.042 Y-69.407
X-79.101 Y-68.85
X-79.185 Y-68.333
X-79.282 Y-67.885
X-79.405 Y-67.44
X-79.533 Y-67.057
X-79.686 Y-66.67
X-79.84 Y-66.335
X-79.847 Y-66.322
X-80.082 Y-65.942
X-80.367 Y-65.597
X-80.695 Y-65.293
X-81.062 Y-65.036
X-81.46 Y-64.832
X-81.881 Y-64.683
X-82.32 Y-64.593
X-82.766 Y-64.563
X-84.979
G3 X-85.461 Y-64.676 I0.044 J-1.269
X-86.2 Y-65.719 I0.527 J-1.156
G1 X-87.39 Y-79.055
G3 X-86.169 Y-80.438 I1.265 J-0.113
G1 X-83.886
X-83.661 Y-80.426
X-83.465 Y-80.406
X-83.251 Y-80.372
X-83.029 Y-80.323
X-82.78 Y-80.255
X-82.526 Y-80.171
X-82.251 Y-80.063
X-81.96 Y-79.93
X-81.666 Y-79.775
X-81.349 Y-79.586
X-81.029 Y-79.37
X-80.704 Y-79.125
X-80.363 Y-78.837
X-80.022 Y-78.517
X-79.688 Y-78.166
X-79.348 Y-77.769
X-79.01 Y-77.327
X-78.687 Y-76.854
X-78.381 Y-76.348
X-78.089 Y-75.801
X-77.817 Y-75.218
X-77.57 Y-74.603
X-77.352 Y-73.964
X-77.168 Y-73.306
X-77.019 Y-72.638
X-76.907 Y-71.969
X-76.834 Y-71.31
X-76.797 Y-70.66
X-76.796 Y-70.027
X-76.827 Y-69.41
X-76.887 Y-68.852
X-76.97 Y-68.335
X-77.068 Y-67.886
X-77.191 Y-67.441
X-77.319 Y-67.058
X-77.472 Y-66.671
X-77.626 Y-66.336
X-77.659 Y-66.275
X-77.924 Y-65.854
X-78.251 Y-65.48
X-78.632 Y-65.16
X-79.058 Y-64.904
X-79.519 Y-64.716
X-80.002 Y-64.601
X-80.498 Y-64.563
X-82.766
G3 X-83.987 Y-65.725 I0.044 J-1.269
G1 X-85.107 Y-79.062
G3 X-84.368 Y-80.324 I1.266 J-0.106
X-83.886 Y-80.438 I0.527 J1.156
G1 X-81.63
X-81.446 Y-80.428
X-81.249 Y-80.408
X-81.036 Y-80.374
X-80.813 Y-80.325
X-80.564 Y-80.257
X-80.311 Y-80.173
X-80.035 Y-80.065
X-79.745 Y-79.932
X-79.451 Y-79.777
X-79.134 Y-79.588
X-78.813 Y-79.372
X-78.489 Y-79.127
X-78.148 Y-78.84
X-77.807 Y-78.519
X-77.473 Y-78.168
X-77.133 Y-77.771
X-76.795 Y-77.329
X-76.472 Y-76.857
X-76.166 Y-76.351
X-75.874 Y-75.804
X-75.602 Y-75.221
X-75.355 Y-74.606
X-75.138 Y-73.967
X-74.953 Y-73.309
X-74.804 Y-72.641
X-74.693 Y-71.972
X-74.619 Y-71.312
X-74.582 Y-70.662
X-74.581 Y-70.029
X-74.613 Y-69.412
X-74.673 Y-68.846
X-74.757 Y-68.33
X-74.858 Y-67.862
X-74.977 Y-67.433
X-75.113 Y-67.026
X-75.255 Y-66.667
X-75.341 Y-66.481
X-75.555 Y-66.087
X-75.821 Y-65.726
X-76.134 Y-65.405
X-76.487 Y-65.129
X-76.874 Y-64.903
X-77.288 Y-64.732
X-77.722 Y-64.619
X-78.167 Y-64.565
X-78.214 Y-64.563
X-80.498
G3 X-80.98 Y-64.676 I0.044 J-1.269
X-81.719 Y-65.724 I0.527 J-1.156
G1 X-82.851 Y-79.061
G3 X-81.63 Y-80.438 I1.265 J-0.107
G1 X-79.507
X-79.223 Y-80.423
X-79.027 Y-80.403
X-78.814 Y-80.369
X-78.592 Y-80.321
X-78.343 Y-80.253
X-78.091 Y-80.169
X-77.816 Y-80.06
X-77.526 Y-79.928
X-77.232 Y-79.773
X-76.916 Y-79.585
X-76.595 Y-79.369
X-76.271 Y-79.124
X-75.931 Y-78.837
X-75.591 Y-78.517
X-75.257 Y-78.167
X-74.917 Y-77.77
X-74.58 Y-77.328
X-74.257 Y-76.856
X-73.951 Y-76.351
X-73.659 Y-75.804
X-73.387 Y-75.221
X-73.141 Y-74.607
X-72.923 Y-73.968
X-72.739 Y-73.31
X-72.59 Y-72.641
X-72.478 Y-71.971
X-72.404 Y-71.308
X-72.367 Y-70.657
X-72.366 Y-70.02
X-72.397 Y-69.408
X-72.456 Y-68.853
X-72.538 Y-68.345
X-72.641 Y-67.874
X-72.706 Y-67.637
X-72.874 Y-67.169
X-73.11 Y-66.732
X-73.408 Y-66.336
X-73.763 Y-65.988
X-74.166 Y-65.698
X-74.408 Y-65.55
X-74.952 Y-65.268
X-75.169 Y-65.181
X-75.931 Y-64.908
X-76.692 Y-64.716
X-77.453 Y-64.602
X-78.167 Y-64.565
G3 X-79.453 Y-65.714 I-0.022 J-1.27
G1 X-80.727 Y-79.048
G3 X-79.507 Y-80.438 I1.264 J-0.121
G1 X-78.214
X-77.453 Y-80.398
X-76.692 Y-80.284
X-75.858 Y-80.029
X-75.601 Y-79.935
X-75.331 Y-79.82
X-75.053 Y-79.683
X-74.752 Y-79.513
X-74.452 Y-79.322
X-74.138 Y-79.096
X-73.808 Y-78.833
X-73.486 Y-78.544
X-73.156 Y-78.215
X-72.819 Y-77.839
X-72.491 Y-77.433
X-72.174 Y-76.993
X-71.863 Y-76.507
X-71.564 Y-75.979
X-71.284 Y-75.416
X-71.03 Y-74.827
X-70.804 Y-74.213
X-70.608 Y-73.574
X-70.443 Y-72.916
X-70.38 Y-72.584
X-70.334 Y-72.267
X-70.32 Y-71.947
X-70.337 Y-71.628
X-70.364 Y-71.358
X-70.516 Y-70.597
X-70.602 Y-70.252
X-70.746 Y-69.836
X-71.068 Y-69.074
X-71.363 Y-68.496
X-71.472 Y-68.313
X-72.02 Y-67.552
X-72.124 Y-67.422
X-72.714 Y-66.791
X-72.886 Y-66.631
X-73.626 Y-66.03
X-73.647 Y-66.015
X-74.166 Y-65.698
G3 X-76.043 Y-66.594 I-0.624 J-1.106
G1 X-78.089 Y-78.812
G3 X-76.692 Y-80.284 I1.253 J-0.21
G1 X-75.931 Y-80.092
X-75.169 Y-79.819
X-74.952 Y-79.732
X-74.408 Y-79.45
X-73.647 Y-78.985
X-73.626 Y-78.97
X-72.886 Y-78.369
X-72.714 Y-78.209
X-72.124 Y-77.578
X-72.02 Y-77.448
X-71.472 Y-76.687
X-71.363 Y-76.504
X-71.068 Y-75.926
X-70.746 Y-75.164
X-70.602 Y-74.748
X-70.516 Y-74.403
X-70.364 Y-73.642
X-70.287 Y-72.881
Y-72.119
X-70.337 Y-71.628
X-70.22 Y-71.616
X-70.13 Y-71.496
X-70.052 Y-71.368
X-69.985 Y-71.234
X-69.928 Y-71.095
X-69.876 Y-70.943
X-69.828 Y-70.771
X-69.788 Y-70.588
X-69.752 Y-70.371
X-69.728 Y-70.152
X-69.716 Y-69.936
Y-69.697
X-69.731 Y-69.413
X-69.762 Y-69.129
X-69.807 Y-68.854
X-69.877 Y-68.534
X-69.967 Y-68.209
X-70.072 Y-67.895
X-70.205 Y-67.562
X-70.374 Y-67.195
X-70.544 Y-66.875
X-70.748 Y-66.535
X-70.986 Y-66.184
X-71.256 Y-65.829
X-71.529 Y-65.508
X-71.821 Y-65.2
X-72.17 Y-64.869
X-72.508 Y-64.582
X-72.904 Y-64.281
X-73.284 Y-64.023
X-73.721 Y-63.76
X-74.139 Y-63.539
X-74.613 Y-63.32
X-75.145 Y-63.108
X-75.818 Y-62.881
X-76.685 Y-62.641
X-77.838 Y-62.388
X-79.113 Y-62.18
X-80.396 Y-62.026
X-81.683 Y-61.912
X-82.972 Y-61.827
X-84.263 Y-61.762
X-85.554 Y-61.714
X-86.845 Y-61.677
X-88.137 Y-61.65
X-89.429 Y-61.629
X-90.721 Y-61.613
X-92.013 Y-61.601
X-93.305 Y-61.592
X-94.597 Y-61.585
X-95.889 Y-61.579
X-98.473 Y-61.572
X-101.057 Y-61.568
X-106.226 Y-61.564
X-113.978 Y-61.563
X-129.483
X-130.775 Y-61.574
X-132.066 Y-61.626
X-133.111 Y-61.722
X-134.048 Y-61.859
X-134.843 Y-62.02
X-135.617 Y-62.221
X-136.285 Y-62.434
X-136.955 Y-62.688
X-137.564 Y-62.957
X-138.139 Y-63.25
X-138.698 Y-63.574
X-139.203 Y-63.904
X-139.724 Y-64.287
X-140.161 Y-64.646
X-140.594 Y-65.043
X-141.002 Y-65.46
X-141.4 Y-65.914
X-141.753 Y-66.362
X-142.065 Y-66.807
X-142.379 Y-67.311
X-142.641 Y-67.786
X-142.894 Y-68.311
X-143.103 Y-68.811
X-143.288 Y-69.335
X-143.445 Y-69.866
X-143.567 Y-70.384
X-143.668 Y-70.943
X-143.738 Y-71.506
X-143.775 Y-72.032
X-143.783 Y-72.547
X-143.761 Y-73.117
X-143.708 Y-73.683
X-143.627 Y-74.225
X-143.527 Y-74.716
X-143.382 Y-75.27
X-143.222 Y-75.769
X-143.025 Y-76.287
X-142.801 Y-76.791
X-142.567 Y-77.249
X-142.272 Y-77.756
X-141.993 Y-78.181
X-141.664 Y-78.627
X-141.316 Y-79.049
X-140.939 Y-79.459
X-140.574 Y-79.815
X-140.145 Y-80.19
X-139.735 Y-80.511
X-139.269 Y-80.837
X-138.823 Y-81.114
X-138.333 Y-81.383
X-137.847 Y-81.616
X-137.321 Y-81.834
X-136.69 Y-82.057
X-135.882 Y-82.293
X-134.818 Y-82.543
X-133.546 Y-82.77
X-132.264 Y-82.936
X-130.978 Y-83.06
X-129.689 Y-83.153
X-128.399 Y-83.222
X-127.108 Y-83.274
X-125.817 Y-83.314
X-124.525 Y-83.344
X-123.233 Y-83.366
X-121.941 Y-83.383
X-120.649 Y-83.396
X-119.357 Y-83.406
X-118.065 Y-83.414
X-116.773 Y-83.419
X-115.481 Y-83.424
X-112.897 Y-83.43
X-109.021 Y-83.434
X-102.561 Y-83.437
X-84.472
X-83.18
X-81.888 Y-83.434
X-80.596 Y-83.406
X-79.406 Y-83.33
X-78.379 Y-83.208
X-77.555 Y-83.065
X-76.794 Y-82.89
X-76.025 Y-82.668
X-75.399 Y-82.45
X-74.734 Y-82.178
X-74.164 Y-81.908
X-73.569 Y-81.584
X-73.061 Y-81.272
X-72.523 Y-80.899
X-72.051 Y-80.532
X-71.622 Y-80.161
X-71.213 Y-79.766
X-70.794 Y-79.313
X-70.414 Y-78.857
X-70.089 Y-78.42
X-69.781 Y-77.955
X-69.491 Y-77.462
X-69.227 Y-76.95
X-68.697 Y-75.771
X-68.291 Y-74.748
X-68.029 Y-73.965
X-67.841 Y-73.282
X-67.703 Y-72.652
X-67.607 Y-72.055
X-67.546 Y-71.484
X-67.517 Y-70.932
X-67.518 Y-70.392
X-67.548 Y-69.856
X-67.607 Y-69.331
X-67.693 Y-68.812
X-67.808 Y-68.298
X-67.951 Y-67.787
X-68.122 Y-67.285
X-68.32 Y-66.792
X-68.547 Y-66.303
X-68.802 Y-65.826
X-69.087 Y-65.356
X-69.398 Y-64.899
X-69.739 Y-64.454
X-70.106 Y-64.025
X-70.5 Y-63.611
X-70.923 Y-63.213
X-71.375 Y-62.831
X-71.874 Y-62.455
X-72.439 Y-62.074
X-73.055 Y-61.706
X-73.748 Y-61.342
X-74.556 Y-60.972
X-75.449 Y-60.62
X-76.503 Y-60.269
X-77.749 Y-59.928
X-79.012 Y-59.653
X-80.285 Y-59.432
X-81.565 Y-59.255
X-82.849 Y-59.113
X-84.136 Y-59
X-85.425 Y-58.909
X-86.715 Y-58.837
X-88.006 Y-58.78
X-89.297 Y-58.734
X-90.588 Y-58.698
X-91.88 Y-58.669
X-93.172 Y-58.647
X-94.464 Y-58.629
X-95.756 Y-58.615
X-97.048 Y-58.603
X-98.34 Y-58.595
X-99.632 Y-58.588
X-100.924 Y-58.582
X-103.508 Y-58.575
X-106.092 Y-58.57
X-109.968 Y-58.566
X-117.721 Y-58.563
X-125.473
X-126.765 Y-58.566
X-128.057 Y-58.58
X-129.349 Y-58.617
X-130.639 Y-58.688
X-131.925 Y-58.806
X-133.205 Y-58.984
X-134.343 Y-59.205
X-135.35 Y-59.458
X-136.293 Y-59.75
X-137.172 Y-60.076
X-137.997 Y-60.433
X-138.756 Y-60.813
X-139.468 Y-61.218
X-140.144 Y-61.653
X-140.781 Y-62.113
X-141.377 Y-62.596
X-141.94 Y-63.104
X-142.464 Y-63.632
X-142.955 Y-64.182
X-143.407 Y-64.749
X-143.824 Y-65.333
X-144.204 Y-65.932
X-144.547 Y-66.543
X-144.855 Y-67.171
X-145.128 Y-67.81
X-145.362 Y-68.455
X-145.56 Y-69.108
X-145.722 Y-69.772
X-145.848 Y-70.443
X-145.937 Y-71.113
X-145.989 Y-71.786
X-146.004 Y-72.458
X-145.983 Y-73.129
X-145.926 Y-73.798
X-145.833 Y-74.459
X-145.704 Y-75.117
X-145.54 Y-75.763
X-145.342 Y-76.399
X-145.109 Y-77.024
X-144.843 Y-77.636
X-144.545 Y-78.229
X-144.215 Y-78.807
X-143.855 Y-79.364
X-143.464 Y-79.903
X-143.046 Y-80.418
X-142.599 Y-80.911
X-142.127 Y-81.378
X-141.628 Y-81.822
X-141.096 Y-82.245
X-140.531 Y-82.646
X-139.913 Y-83.037
X-139.205 Y-83.432
X-138.428 Y-83.813
X-137.563 Y-84.179
X-136.551 Y-84.545
X-135.359 Y-84.903
X-134.104 Y-85.208
X-132.835 Y-85.454
X-131.559 Y-85.653
X-130.277 Y-85.812
X-128.991 Y-85.94
X-127.703 Y-86.042
X-126.413 Y-86.124
X-125.123 Y-86.189
X-123.832 Y-86.241
X-122.54 Y-86.282
X-121.249 Y-86.315
X-119.957 Y-86.341
X-118.665 Y-86.361
X-117.373 Y-86.377
X-116.081 Y-86.39
X-114.789 Y-86.4
X-113.497 Y-86.408
X-112.205 Y-86.415
X-110.913 Y-86.42
X-108.329 Y-86.427
X-104.453 Y-86.432
X-99.285 Y-86.436
X-87.656 Y-86.437
X-86.364
X-85.072 Y-86.432
X-83.78 Y-86.414
X-82.489 Y-86.373
X-81.199 Y-86.296
X-79.913 Y-86.171
X-78.683 Y-85.994
X-77.557 Y-85.769
X-76.537 Y-85.507
X-75.616 Y-85.216
X-74.75 Y-84.89
X-73.935 Y-84.532
X-73.173 Y-84.147
X-72.458 Y-83.735
X-71.782 Y-83.295
X-71.149 Y-82.833
X-70.56 Y-82.35
X-70.006 Y-81.845
X-69.486 Y-81.316
X-68.965 Y-80.726
X-68.423 Y-80.04
X-67.877 Y-79.266
X-67.373 Y-78.462
X-66.923 Y-77.65
X-66.53 Y-76.84
X-66.194 Y-76.041
X-65.916 Y-75.263
X-65.691 Y-74.504
X-65.513 Y-73.759
X-65.378 Y-73.023
X-65.286 Y-72.296
X-65.234 Y-71.579
X-65.222 Y-70.87
X-65.247 Y-70.171
X-65.31 Y-69.482
X-65.409 Y-68.802
X-65.544 Y-68.133
X-65.714 Y-67.474
X-65.92 Y-66.826
X-66.161 Y-66.19
X-66.436 Y-65.568
X-66.745 Y-64.959
X-67.088 Y-64.366
X-67.465 Y-63.788
X-67.878 Y-63.225
X-68.332 Y-62.672
X-68.829 Y-62.13
X-69.373 Y-61.596
X-69.975 Y-61.068
X-70.619 Y-60.56
X-71.318 Y-60.069
X-72.103 Y-59.579
X-72.996 Y-59.086
X-73.955 Y-58.623
X-75.027 Y-58.175
X-76.245 Y-57.742
X-77.483 Y-57.375
X-78.738 Y-57.065
X-80.003 Y-56.804
X-81.277 Y-56.585
X-82.556 Y-56.403
X-83.839 Y-56.252
X-85.125 Y-56.127
X-86.413 Y-56.023
X-87.702 Y-55.938
X-88.992 Y-55.868
X-90.283 Y-55.811
X-91.574 Y-55.763
X-92.866 Y-55.725
X-94.157 Y-55.694
X-95.449 Y-55.668
X-96.741 Y-55.648
X-98.033 Y-55.631
X-99.325 Y-55.618
X-100.617 Y-55.607
X-101.909 Y-55.598
X-103.201 Y-55.591
X-104.493 Y-55.585
X-107.077 Y-55.577
X-109.661 Y-55.572
X-113.537 Y-55.567
X-119.998 Y-55.564
X-122.582
X-123.874 Y-55.568
X-125.166 Y-55.579
X-126.458 Y-55.602
X-127.749 Y-55.645
X-129.039 Y-55.714
X-130.327 Y-55.816
X-131.611 Y-55.961
X-132.889 Y-56.155
X-134.156 Y-56.407
X-135.409 Y-56.721
X-136.563 Y-57.077
X-137.616 Y-57.466
X-138.604 Y-57.893
X-139.536 Y-58.357
X-140.416 Y-58.856
X-141.244 Y-59.388
X-142.024 Y-59.95
X-142.755 Y-60.541
X-143.438 Y-61.156
X-144.074 Y-61.794
X-144.664 Y-62.455
X-145.209 Y-63.136
X-145.711 Y-63.838
X-146.169 Y-64.558
X-146.583 Y-65.295
X-146.954 Y-66.048
X-147.282 Y-66.815
X-147.566 Y-67.593
X-147.805 Y-68.381
X-148.001 Y-69.177
X-148.152 Y-69.978
X-148.26 Y-70.783
X-148.323 Y-71.59
X-148.343 Y-72.397
X-148.318 Y-73.201
X-148.251 Y-74.001
X-148.14 Y-74.794
X-147.987 Y-75.578
X-147.792 Y-76.352
X-147.556 Y-77.112
X-147.279 Y-77.858
X-146.963 Y-78.587
X-146.607 Y-79.297
X-146.215 Y-79.986
X-145.785 Y-80.653
X-145.319 Y-81.297
X-144.815 Y-81.918
X-144.273 Y-82.518
X-143.683 Y-83.103
X-143.042 Y-83.674
X-142.351 Y-84.225
X-141.616 Y-84.749
X-140.808 Y-85.261
X-139.899 Y-85.769
X-138.893 Y-86.263
X-137.784 Y-86.734
X-136.569 Y-87.175
X-135.333 Y-87.551
X-134.081 Y-87.869
X-132.817 Y-88.138
X-131.545 Y-88.364
X-130.267 Y-88.553
X-128.985 Y-88.711
X-127.699 Y-88.842
X-126.412 Y-88.95
X-125.123 Y-89.039
X-123.833 Y-89.113
X-122.542 Y-89.174
X-121.251 Y-89.223
X-119.96 Y-89.264
X-118.668 Y-89.297
X-117.376 Y-89.324
X-116.084 Y-89.346
X-114.792 Y-89.364
X-113.5 Y-89.378
X-112.208 Y-89.39
X-110.916 Y-89.399
X-109.624 Y-89.407
X-108.332 Y-89.413
X-105.748 Y-89.422
X-103.164 Y-89.428
X-99.288 Y-89.433
X-92.828 Y-89.436
X-90.244
X-88.951 Y-89.434
X-87.659 Y-89.428
X-86.367 Y-89.414
X-85.076 Y-89.384
X-83.785 Y-89.333
X-82.495 Y-89.252
X-81.209 Y-89.134
X-79.927 Y-88.972
X-78.653 Y-88.758
X-77.39 Y-88.485
X-76.189 Y-88.161
X-75.084 Y-87.797
X-74.044 Y-87.391
X-73.065 Y-86.947
X-72.145 Y-86.467
X-71.28 Y-85.955
X-70.469 Y-85.413
X-69.695 Y-84.833
X-68.948 Y-84.207
X-68.22 Y-83.527
X-67.517 Y-82.795
X-66.849 Y-82.018
X-66.222 Y-81.205
X-65.644 Y-80.363
X-65.119 Y-79.502
X-64.65 Y-78.631
X-64.239 Y-77.757
X-63.884 Y-76.882
X-63.583 Y-76.007
X-63.335 Y-75.135
X-63.138 Y-74.264
X-62.99 Y-73.396
X-62.891 Y-72.532
X-62.84 Y-71.675
X-62.835 Y-70.824
X-62.876 Y-69.983
X-62.962 Y-69.15
X-63.092 Y-68.329
X-63.265 Y-67.52
X-63.482 Y-66.723
X-63.74 Y-65.941
X-64.041 Y-65.174
X-64.385 Y-64.422
X-64.771 Y-63.683
X-65.202 Y-62.958
X-65.681 Y-62.246
X-66.206 Y-61.547
X-66.781 Y-60.863
X-67.411 Y-60.191
X-68.095 Y-59.537
X-68.83 Y-58.907
X-69.635 Y-58.289
X-70.521 Y-57.683
X-71.503 Y-57.085
X-72.573 Y-56.512
X-73.743 Y-55.964
X-74.941 Y-55.48
X-76.162 Y-55.056
X-77.4 Y-54.686
X-78.651 Y-54.364
X-79.913 Y-54.087
X-81.183 Y-53.849
X-82.459 Y-53.644
X-83.739 Y-53.47
X-85.023 Y-53.322
X-86.309 Y-53.197
X-87.596 Y-53.091
X-88.885 Y-53.001
X-90.175 Y-52.927
X-91.466 Y-52.864
X-92.757 Y-52.811
X-94.048 Y-52.768
X-95.339 Y-52.731
X-96.631 Y-52.701
X-97.923 Y-52.676
X-99.215 Y-52.655
X-100.507 Y-52.638
X-101.799 Y-52.625
X-103.091 Y-52.613
X-104.383 Y-52.604
X-105.675 Y-52.596
X-106.967 Y-52.59
X-109.551 Y-52.58
X-112.135 Y-52.574
X-116.011 Y-52.569
X-118.595 Y-52.567
X-119.887
X-121.179 Y-52.57
X-122.471 Y-52.578
X-123.763 Y-52.594
X-125.055 Y-52.623
X-126.346 Y-52.669
X-127.637 Y-52.736
X-128.925 Y-52.83
X-130.211 Y-52.957
X-131.493 Y-53.121
X-132.768 Y-53.327
X-134.035 Y-53.581
X-135.29 Y-53.888
X-136.53 Y-54.253
X-137.75 Y-54.678
X-138.934 Y-55.163
X-140.054 Y-55.693
X-141.111 Y-56.265
X-142.107 Y-56.877
X-143.043 Y-57.524
X-143.922 Y-58.205
X-144.741 Y-58.914
X-145.504 Y-59.65
X-146.214 Y-60.414
X-146.872 Y-61.203
X-147.478 Y-62.016
X-148.034 Y-62.853
X-148.539 Y-63.711
X-148.994 Y-64.588
X-149.397 Y-65.482
X-149.748 Y-66.39
X-150.048 Y-67.309
X-150.296 Y-68.239
X-150.493 Y-69.176
X-150.638 Y-70.118
X-150.731 Y-71.062
X-150.773 Y-72.007
X-150.763 Y-72.95
X-150.702 Y-73.888
X-150.592 Y-74.818
X-150.431 Y-75.74
X-150.221 Y-76.649
X-149.962 Y-77.544
X-149.656 Y-78.422
X-149.303 Y-79.282
X-148.903 Y-80.122
X-148.458 Y-80.94
X-147.966 Y-81.738
X-147.426 Y-82.516
X-146.837 Y-83.274
X-146.198 Y-84.01
X-145.505 Y-84.725
X-144.751 Y-85.424
X-143.938 Y-86.099
X-143.072 Y-86.742
X-142.124 Y-87.369
X-141.082 Y-87.981
X-139.943 Y-88.568
X-138.765 Y-89.097
X-137.561 Y-89.566
X-136.336 Y-89.978
X-135.096 Y-90.339
X-133.842 Y-90.654
X-132.579 Y-90.926
X-131.309 Y-91.16
X-130.032 Y-91.361
X-128.752 Y-91.533
X-127.468 Y-91.68
X-126.182 Y-91.804
X-124.894 Y-91.909
X-123.605 Y-91.998
X-122.315 Y-92.072
X-121.025 Y-92.135
X-119.734 Y-92.187
X-118.442 Y-92.231
X-117.151 Y-92.268
X-115.859 Y-92.298
X-114.567 Y-92.323
X-113.275 Y-92.344
X-111.984 Y-92.361
X-110.692 Y-92.375
X-109.4 Y-92.386
X-108.108 Y-92.396
X-106.815 Y-92.404
X-105.523 Y-92.41
X-102.939 Y-92.419
X-100.355 Y-92.426
X-96.479 Y-92.431
X-93.895 Y-92.433
X-92.603
X-91.311 Y-92.431
X-90.019 Y-92.425
X-88.727 Y-92.412
X-87.435 Y-92.388
X-86.144 Y-92.35
X-84.853 Y-92.292
X-83.563 Y-92.209
X-82.276 Y-92.095
X-80.993 Y-91.945
X-79.715 Y-91.754
X-78.445 Y-91.517
X-77.185 Y-91.23
X-75.94 Y-90.886
X-74.712 Y-90.484
X-73.506 Y-90.02
X-72.353 Y-89.505
X-71.264 Y-88.945
X-70.231 Y-88.34
X-69.244 Y-87.689
X-68.3 Y-86.99
X-67.398 Y-86.242
X-66.539 Y-85.448
X-65.726 Y-84.611
X-64.964 Y-83.736
X-64.257 Y-82.829
X-63.608 Y-81.896
X-63.019 Y-80.944
X-62.491 Y-79.976
X-62.023 Y-78.995
X-61.614 Y-78.003
X-61.264 Y-77.003
X-60.973 Y-75.998
X-60.739 Y-74.991
X-60.561 Y-73.983
X-60.44 Y-72.978
X-60.375 Y-71.977
X-60.363 Y-70.982
X-60.406 Y-69.996
X-60.501 Y-69.019
X-60.648 Y-68.053
X-60.847 Y-67.101
X-61.096 Y-66.161
X-61.397 Y-65.236
X-61.748 Y-64.326
X-62.151 Y-63.43
X-62.605 Y-62.549
X-63.113 Y-61.684
X-63.676 Y-60.835
X-64.294 Y-60.004
X-64.97 Y-59.191
X-65.709 Y-58.393
X-66.516 Y-57.613
X-67.381 Y-56.862
X-68.312 Y-56.139
X-69.332 Y-55.432
X-70.433 Y-54.755
X-71.568 Y-54.137
X-72.732 Y-53.578
X-73.922 Y-53.074
X-75.132 Y-52.622
X-76.36 Y-52.219
X-77.602 Y-51.862
X-78.855 Y-51.546
X-80.117 Y-51.269
X-81.386 Y-51.026
X-82.66 Y-50.815
X-83.939 Y-50.631
X-85.221 Y-50.471
X-86.506 Y-50.334
X-87.793 Y-50.216
X-89.081 Y-50.114
X-90.37 Y-50.027
X-91.66 Y-49.954
X-92.95 Y-49.891
X-94.241 Y-49.837
X-95.533 Y-49.792
X-96.824 Y-49.754
X-98.116 Y-49.722
X-99.407 Y-49.695
X-100.699 Y-49.673
X-101.991 Y-49.654
X-103.283 Y-49.638
X-104.575 Y-49.625
X-105.867 Y-49.614
X-107.159 Y-49.605
X-108.451 Y-49.597
X-109.743 Y-49.591
X-112.327 Y-49.582
X-114.911 Y-49.575
X-116.204 Y-49.574
X-117.496 Y-49.573
X-118.788 Y-49.576
X-120.08 Y-49.582
X-121.372 Y-49.595
X-122.664 Y-49.616
X-123.955 Y-49.649
X-125.246 Y-49.698
X-126.537 Y-49.765
X-127.825 Y-49.856
X-129.112 Y-49.975
X-130.396 Y-50.124
X-131.674 Y-50.308
X-132.947 Y-50.531
X-134.212 Y-50.796
X-135.466 Y-51.107
X-136.707 Y-51.466
X-137.931 Y-51.878
X-139.136 Y-52.344
X-140.318 Y-52.867
X-141.473 Y-53.447
X-142.597 Y-54.083
X-143.687 Y-54.777
X-144.724 Y-55.519
X-145.697 Y-56.297
X-146.61 Y-57.113
X-147.465 Y-57.964
X-148.262 Y-58.849
X-149.001 Y-59.765
X-149.682 Y-60.709
X-150.305 Y-61.68
X-150.869 Y-62.674
X-151.375 Y-63.688
X-151.821 Y-64.721
X-152.208 Y-65.769
X-152.536 Y-66.83
X-152.804 Y-67.902
X-153.013 Y-68.981
X-153.162 Y-70.065
X-153.252 Y-71.15
X-153.282 Y-72.236
X-153.254 Y-73.317
X-153.168 Y-74.393
X-153.024 Y-75.459
X-152.823 Y-76.514
X-152.565 Y-77.554
X-152.252 Y-78.578
X-151.883 Y-79.583
X-151.46 Y-80.57
X-150.981 Y-81.536
X-150.448 Y-82.481
X-149.859 Y-83.404
X-149.212 Y-84.306
X-148.505 Y-85.185
X-147.74 Y-86.039
X-146.91 Y-86.869
X-146.009 Y-87.678
X-145.032 Y-88.464
X-143.992 Y-89.211
X-142.904 Y-89.907
X-141.78 Y-90.545
X-140.626 Y-91.125
X-139.446 Y-91.651
X-138.243 Y-92.125
X-137.023 Y-92.549
X-135.788 Y-92.928
X-134.54 Y-93.264
X-133.283 Y-93.561
X-132.017 Y-93.822
X-130.746 Y-94.051
X-129.469 Y-94.251
X-128.189 Y-94.425
X-126.906 Y-94.575
X-125.62 Y-94.705
X-124.333 Y-94.817
X-123.045 Y-94.913
X-121.755 Y-94.996
X-120.465 Y-95.066
X-119.174 Y-95.125
X-117.883 Y-95.176
X-116.592 Y-95.219
X-115.3 Y-95.255
X-114.009 Y-95.286
X-112.717 Y-95.311
X-111.425 Y-95.333
X-110.133 Y-95.351
X-108.841 Y-95.366
X-107.549 Y-95.378
X-106.257 Y-95.389
X-104.965 Y-95.397
X-103.673 Y-95.404
X-102.381 Y-95.41
X-99.797 Y-95.419
X-97.213 Y-95.425
X-95.921 Y-95.427
X-94.629
X-93.337 Y-95.424
X-92.045 Y-95.418
X-90.753 Y-95.406
X-89.461 Y-95.385
X-88.169 Y-95.353
X-86.878 Y-95.306
X-85.587 Y-95.24
X-84.298 Y-95.152
X-83.011 Y-95.037
X-81.728 Y-94.892
X-80.448 Y-94.711
X-79.175 Y-94.491
X-77.91 Y-94.228
X-76.655 Y-93.92
X-75.413 Y-93.564
X-74.187 Y-93.157
X-72.98 Y-92.696
X-71.795 Y-92.181
X-70.636 Y-91.609
X-69.507 Y-90.982
X-68.411 Y-90.298
X-67.351 Y-89.559
X-66.331 Y-88.765
X-65.354 Y-87.92
X-64.423 Y-87.024
X-63.541 Y-86.08
X-62.714 Y-85.094
X-61.95 Y-84.075
X-61.251 Y-83.029
X-60.616 Y-81.958
X-60.046 Y-80.865
X-59.542 Y-79.754
X-59.103 Y-78.63
X-58.729 Y-77.495
X-58.421 Y-76.352
X-58.177 Y-75.205
X-57.997 Y-74.057
X-57.881 Y-72.91
X-57.827 Y-71.767
X-57.836 Y-70.63
X-57.905 Y-69.501
X-58.035 Y-68.383
X-58.225 Y-67.275
X-58.475 Y-66.181
X-58.784 Y-65.101
X-59.152 Y-64.036
X-59.58 Y-62.986
X-60.067 Y-61.954
X-60.615 Y-60.939
X-61.226 Y-59.943
X-61.901 Y-58.964
X-62.64 Y-58.007
X-63.446 Y-57.074
X-64.323 Y-56.163
X-65.269 Y-55.283
X-66.26 Y-54.454
X-67.295 Y-53.68
X-68.367 Y-52.959
X-69.474 Y-52.293
X-70.61 Y-51.678
X-71.773 Y-51.114
X-72.958 Y-50.599
X-74.162 Y-50.131
X-75.383 Y-49.707
X-76.617 Y-49.326
X-77.863 Y-48.983
X-79.118 Y-48.677
X-80.381 Y-48.404
X-81.65 Y-48.162
X-82.925 Y-47.948
X-84.203 Y-47.76
X-85.484 Y-47.594
X-86.768 Y-47.45
X-88.054 Y-47.323
X-89.341 Y-47.214
X-90.63 Y-47.118
X-91.919 Y-47.036
X-93.209 Y-46.965
X-94.5 Y-46.904
X-95.791 Y-46.852
X-97.082 Y-46.807
X-98.374 Y-46.769
X-99.665 Y-46.736
X-100.957 Y-46.708
X-102.249 Y-46.685
X-103.541 Y-46.665
X-104.833 Y-46.648
X-106.125 Y-46.634
X-107.417 Y-46.622
X-108.709 Y-46.612
X-110.001 Y-46.604
X-111.293 Y-46.597
X-112.585 Y-46.591
X-113.877 Y-46.587
X-115.169 Y-46.585
X-116.461
X-117.753 Y-46.589
X-119.045 Y-46.598
X-120.337 Y-46.614
X-121.629 Y-46.639
X-122.921 Y-46.675
X-124.212 Y-46.725
X-125.502 Y-46.792
X-126.791 Y-46.879
X-128.078 Y-46.99
X-129.363 Y-47.128
X-130.644 Y-47.295
X-131.921 Y-47.495
X-133.191 Y-47.73
X-134.454 Y-48.003
X-135.707 Y-48.317
X-136.949 Y-48.673
X-138.177 Y-49.075
X-139.389 Y-49.525
X-140.58 Y-50.024
X-141.75 Y-50.574
X-142.894 Y-51.174
X-144.009 Y-51.826
X-145.094 Y-52.528
X-146.144 Y-53.281
X-147.156 Y-54.085
X-148.126 Y-54.938
X-149.052 Y-55.838
X-149.931 Y-56.786
X-150.759 Y-57.777
X-151.534 Y-58.811
X-152.252 Y-59.885
X-152.91 Y-60.993
X-153.502 Y-62.128
X-154.029 Y-63.285
X-154.49 Y-64.462
X-154.884 Y-65.656
X-155.21 Y-66.863
X-155.47 Y-68.08
X-155.663 Y-69.305
X-155.788 Y-70.533
X-155.847 Y-71.761
X-155.838 Y-72.987
X-155.764 Y-74.207
X-155.624 Y-75.419
X-155.419 Y-76.619
X-155.149 Y-77.805
X-154.816 Y-78.974
X-154.418 Y-80.126
X-153.958 Y-81.258
X-153.435 Y-82.369
X-152.847 Y-83.457
X-152.196 Y-84.522
X-151.479 Y-85.563
X-150.695 Y-86.579
X-149.851 Y-87.557
X-148.956 Y-88.489
X-148.014 Y-89.373
X-147.028 Y-90.208
X-146.001 Y-90.993
X-144.937 Y-91.725
X-143.838 Y-92.405
X-142.71 Y-93.035
X-141.555 Y-93.614
X-140.378 Y-94.146
X-139.18 Y-94.631
X-137.966 Y-95.072
X-136.737 Y-95.471
X-135.496 Y-95.83
X-134.245 Y-96.153
X-132.985 Y-96.442
X-131.719 Y-96.699
X-130.447 Y-96.927
X-129.171 Y-97.128
X-127.891 Y-97.306
X-126.609 Y-97.462
X-125.324 Y-97.599
X-124.037 Y-97.718
X-122.749 Y-97.822
X-121.46 Y-97.911
X-120.171 Y-97.989
X-118.88 Y-98.056
X-117.59 Y-98.114
X-116.298 Y-98.164
X-115.007 Y-98.206
X-113.716 Y-98.242
X-112.424 Y-98.273
X-111.132 Y-98.299
X-109.84 Y-98.322
X-108.548 Y-98.34
X-107.256 Y-98.356
X-105.964 Y-98.37
X-104.672 Y-98.381
X-103.38 Y-98.391
X-102.088 Y-98.398
X-100.796 Y-98.405
X-99.504 Y-98.41
X-98.212 Y-98.414
X-96.92 Y-98.416
X-95.628 Y-98.415
X-94.336 Y-98.411
X-93.044 Y-98.402
X-91.752 Y-98.387
X-90.46 Y-98.362
X-89.169 Y-98.327
X-87.878 Y-98.278
X-86.587 Y-98.212
X-85.298 Y-98.126
X-84.01 Y-98.018
X-82.726 Y-97.882
X-81.444 Y-97.716
X-80.167 Y-97.518
X-78.897 Y-97.285
X-77.633 Y-97.013
X-76.38 Y-96.701
X-75.137 Y-96.347
X-73.908 Y-95.948
X-72.695 Y-95.503
X-71.501 Y-95.009
X-70.329 Y-94.465
X-69.182 Y-93.872
X-68.061 Y-93.228
X-66.97 Y-92.536
X-65.912 Y-91.795
X-64.888 Y-91.007
X-63.902 Y-90.172
X-62.956 Y-89.292
X-62.053 Y-88.368
X-61.196 Y-87.401
X-60.388 Y-86.393
X-59.631 Y-85.346
X-58.926 Y-84.262
X-58.278 Y-83.145
X-57.686 Y-81.996
X-57.154 Y-80.819
X-56.684 Y-79.616
X-56.276 Y-78.389
X-55.934 Y-77.144
X-55.658 Y-75.881
X-55.45 Y-74.606
X-55.31 Y-73.322
X-55.24 Y-72.036
X-55.241 Y-70.754
X-55.31 Y-69.479
X-55.448 Y-68.213
X-55.654 Y-66.958
X-55.928 Y-65.715
X-56.27 Y-64.487
X-56.679 Y-63.275
X-57.156 Y-62.08
X-57.699 Y-60.908
X-58.305 Y-59.767
X-58.971 Y-58.66
X-59.694 Y-57.589
X-60.472 Y-56.557
X-61.301 Y-55.566
X-62.179 Y-54.618
X-63.102 Y-53.714
X-64.069 Y-52.857
X-65.076 Y-52.048
X-66.12 Y-51.286
X-67.197 Y-50.573
X-68.304 Y-49.907
X-69.438 Y-49.287
X-70.595 Y-48.713
X-71.774 Y-48.183
X-72.97 Y-47.695
X-74.183 Y-47.249
X-75.409 Y-46.842
X-76.647 Y-46.471
X-77.894 Y-46.135
X-79.15 Y-45.832
X-80.413 Y-45.56
X-81.682 Y-45.316
X-82.956 Y-45.097
X-84.233 Y-44.903
X-85.513 Y-44.73
X-86.796 Y-44.577
X-88.081 Y-44.442
X-89.368 Y-44.324
X-90.656 Y-44.22
X-91.945 Y-44.128
X-93.234 Y-44.049
X-94.525 Y-43.98
X-95.815 Y-43.92
X-97.106 Y-43.868
X-98.397 Y-43.823
X-99.689 Y-43.784
X-100.981 Y-43.751
X-102.272 Y-43.722
X-103.564 Y-43.698
X-104.856 Y-43.677
X-106.148 Y-43.659
X-107.44 Y-43.644
X-108.732 Y-43.631
X-110.024 Y-43.62
X-111.316 Y-43.612
X-112.608 Y-43.606
X-113.9 Y-43.602
X-115.192
X-116.484 Y-43.606
X-117.776 Y-43.615
X-119.068 Y-43.631
X-120.36 Y-43.655
X-121.652 Y-43.69
X-122.943 Y-43.737
X-124.233 Y-43.8
X-125.523 Y-43.88
X-126.811 Y-43.98
X-128.097 Y-44.103
X-129.381 Y-44.251
X-130.661 Y-44.426
X-131.937 Y-44.631
X-133.207 Y-44.868
X-134.47 Y-45.138
X-135.725 Y-45.446
X-136.97 Y-45.791
X-138.203 Y-46.176
X-139.422 Y-46.605
X-140.625 Y-47.077
X-141.809 Y-47.594
X-142.972 Y-48.156
X-144.113 Y-48.764
X-145.227 Y-49.417
X-146.314 Y-50.116
X-147.371 Y-50.86
X-148.394 Y-51.648
X-149.382 Y-52.482
X-150.33 Y-53.359
X-151.237 Y-54.28
X-152.099 Y-55.242
X-152.916 Y-56.243
X-153.684 Y-57.282
X-154.402 Y-58.356
X-155.068 Y-59.463
X-155.679 Y-60.601
X-156.235 Y-61.768
X-156.732 Y-62.96
X-157.169 Y-64.176
X-157.545 Y-65.413
X-157.857 Y-66.666
X-158.106 Y-67.934
X-158.29 Y-69.213
X-158.409 Y-70.5
X-158.462 Y-71.791
X-158.449 Y-73.083
X-158.37 Y-74.372
X-158.226 Y-75.656
X-158.015 Y-76.931
X-157.74 Y-78.193
X-157.4 Y-79.44
X-156.997 Y-80.668
X-156.532 Y-81.873
X-156.007 Y-83.053
X-155.422 Y-84.206
X-154.78 Y-85.327
X-154.082 Y-86.414
X-153.33 Y-87.465
X-152.528 Y-88.477
X-151.677 Y-89.45
X-150.782 Y-90.381
X-149.843 Y-91.269
X-148.865 Y-92.113
X-147.849 Y-92.912
X-146.8 Y-93.666
X-145.719 Y-94.373
X-144.609 Y-95.035
X-143.474 Y-95.652
X-142.315 Y-96.224
X-141.136 Y-96.753
X-139.94 Y-97.24
X-138.727 Y-97.687
X-137.502 Y-98.095
X-136.264 Y-98.468
X-135.017 Y-98.805
X-133.762 Y-99.111
X-132.499 Y-99.387
X-131.231 Y-99.634
X-129.958 Y-99.856
X-128.682 Y-100.054
X-127.402 Y-100.23
X-126.119 Y-100.386
X-124.834 Y-100.524
X-123.548 Y-100.646
X-122.261 Y-100.753
X-120.972 Y-100.847
X-119.682 Y-100.929
X-118.392 Y-101.001
X-117.102 Y-101.063
X-115.811 Y-101.117
X-114.52 Y-101.164
X-113.228 Y-101.205
X-111.937 Y-101.239
X-110.645 Y-101.269
X-109.353 Y-101.295
X-108.061 Y-101.317
X-106.769 Y-101.336
X-105.477 Y-101.352
X-104.185 Y-101.365
X-102.893 Y-101.376
X-101.601 Y-101.386
X-100.309 Y-101.393
X-99.017 Y-101.398
X-97.725 Y-101.4
X-96.433 Y-101.398
X-95.141 Y-101.393
X-93.849 Y-101.381
X-92.557 Y-101.362
X-91.266 Y-101.335
X-89.974 Y-101.296
X-88.683 Y-101.244
X-87.393 Y-101.177
X-86.103 Y-101.092
X-84.816 Y-100.986
X-83.53 Y-100.857
X-82.247 Y-100.702
X-80.969 Y-100.518
X-79.694 Y-100.303
X-78.426 Y-100.055
X-77.166 Y-99.773
X-75.914 Y-99.454
X-74.672 Y-99.096
X-73.443 Y-98.698
X-72.228 Y-98.258
X-71.029 Y-97.775
X-69.849 Y-97.25
X-68.69 Y-96.679
X-67.554 Y-96.063
X-66.444 Y-95.403
X-65.361 Y-94.698
X-64.307 Y-93.95
X-63.285 Y-93.159
X-62.298 Y-92.326
X-61.346 Y-91.452
X-60.433 Y-90.538
X-59.56 Y-89.586
X-58.73 Y-88.596
X-57.945 Y-87.569
X-57.208 Y-86.508
X-56.52 Y-85.414
X-55.882 Y-84.291
X-55.297 Y-83.139
X-54.765 Y-81.961
X-54.289 Y-80.76
X-53.868 Y-79.538
X-53.505 Y-78.298
X-53.202 Y-77.043
X-52.959 Y-75.773
X-52.779 Y-74.494
X-52.662 Y-73.207
X-52.608 Y-71.916
X-52.617 Y-70.624
X-52.689 Y-69.334
X-52.824 Y-68.049
X-53.021 Y-66.772
X-53.281 Y-65.507
X-53.602 Y-64.255
X-53.984 Y-63.021
X-54.428 Y-61.807
X-54.93 Y-60.617
X-55.491 Y-59.453
X-56.106 Y-58.317
X-56.775 Y-57.211
X-57.495 Y-56.139
X-58.264 Y-55.1
X-59.08 Y-54.098
X-59.94 Y-53.134
X-60.843 Y-52.21
X-61.785 Y-51.326
X-62.766 Y-50.485
X-63.783 Y-49.688
X-64.831 Y-48.933
X-65.91 Y-48.221
X-67.015 Y-47.552
X-68.145 Y-46.925
X-69.297 Y-46.34
X-70.468 Y-45.794
X-71.657 Y-45.288
X-72.861 Y-44.82
X-74.079 Y-44.389
X-75.309 Y-43.992
X-76.549 Y-43.629
X-77.797 Y-43.297
X-79.054 Y-42.995
X-80.316 Y-42.722
X-81.585 Y-42.474
X-82.857 Y-42.251
X-84.134 Y-42.05
X-85.413 Y-41.87
X-86.695 Y-41.71
X-87.979 Y-41.566
X-89.265 Y-41.439
X-90.552 Y-41.326
X-91.84 Y-41.227
X-93.129 Y-41.139
X-94.419 Y-41.062
X-95.709 Y-40.994
X-97 Y-40.935
X-98.291 Y-40.883
X-99.582 Y-40.838
X-100.874 Y-40.799
X-102.165 Y-40.765
X-103.457 Y-40.735
X-104.749 Y-40.71
X-106.041 Y-40.688
X-107.333 Y-40.67
X-108.625 Y-40.654
X-109.917 Y-40.642
X-111.209 Y-40.632
X-112.501 Y-40.626
X-113.793 Y-40.624
X-115.085 Y-40.626
X-116.377 Y-40.633
X-117.669 Y-40.647
X-118.961 Y-40.669
X-120.252 Y-40.701
X-121.544 Y-40.744
X-122.835 Y-40.8
X-124.125 Y-40.871
X-125.414 Y-40.96
X-126.701 Y-41.068
X-127.987 Y-41.197
X-129.27 Y-41.35
X-130.549 Y-41.527
X-131.825 Y-41.732
X-133.096 Y-41.966
X-134.361 Y-42.231
X-135.618 Y-42.528
X-136.867 Y-42.859
X-138.105 Y-43.227
X-139.332 Y-43.634
X-140.545 Y-44.079
X-141.742 Y-44.565
X-142.922 Y-45.091
X-144.083 Y-45.658
X-145.223 Y-46.266
X-146.34 Y-46.915
X-147.433 Y-47.605
X-148.498 Y-48.336
X-149.534 Y-49.108
X-150.538 Y-49.922
X-151.508 Y-50.775
X-152.441 Y-51.669
X-153.336 Y-52.601
X-154.19 Y-53.57
X-155.003 Y-54.574
X-155.773 Y-55.612
X-156.497 Y-56.682
X-157.174 Y-57.783
X-157.803 Y-58.911
X-158.382 Y-60.067
X-158.908 Y-61.246
X-159.38 Y-62.449
X-159.797 Y-63.672
X-160.157 Y-64.913
X-160.461 Y-66.169
X-160.707 Y-67.437
X-160.895 Y-68.716
X-161.025 Y-70.001
X-161.096 Y-71.291
X-161.108 Y-72.583
X-161.061 Y-73.874
X-160.953 Y-75.162
X-160.784 Y-76.443
X-160.557 Y-77.715
X-160.27 Y-78.975
X-159.926 Y-80.22
X-159.525 Y-81.448
X-159.068 Y-82.657
X-158.556 Y-83.843
X-157.991 Y-85.005
X-157.374 Y-86.14
X-156.706 Y-87.246
X-155.987 Y-88.32
X-155.221 Y-89.36
X-154.41 Y-90.366
X-153.555 Y-91.335
X-152.659 Y-92.266
X-151.725 Y-93.159
X-150.755 Y-94.012
X-149.75 Y-94.824
X-148.714 Y-95.596
X-147.648 Y-96.326
X-146.555 Y-97.015
X-145.437 Y-97.663
X-144.297 Y-98.271
X-143.136 Y-98.837
X-141.956 Y-99.364
X-140.76 Y-99.854
X-139.55 Y-100.306
X-138.327 Y-100.723
X-137.093 Y-101.106
X-135.849 Y-101.457
X-134.598 Y-101.778
X-133.339 Y-102.07
X-132.075 Y-102.335
X-130.805 Y-102.574
X-129.531 Y-102.791
X-128.254 Y-102.985
X-126.974 Y-103.16
X-125.691 Y-103.316
X-124.407 Y-103.455
X-123.12 Y-103.579
X-121.833 Y-103.689
X-120.545 Y-103.786
X-119.255 Y-103.872
X-117.966 Y-103.948
X-116.675 Y-104.014
X-115.385 Y-104.072
X-114.093 Y-104.122
X-112.802 Y-104.167
X-111.511 Y-104.205
X-110.219 Y-104.238
X-108.927 Y-104.267
X-107.636 Y-104.292
X-106.344 Y-104.313
X-105.052 Y-104.332
X-103.76 Y-104.347
X-102.468 Y-104.359
X-101.176 Y-104.369
X-99.884 Y-104.375
X-98.592 Y-104.378
X-97.3 Y-104.377
X-96.008 Y-104.37
X-94.716 Y-104.357
X-93.424 Y-104.337
X-92.132 Y-104.308
X-90.84 Y-104.268
X-89.549 Y-104.216
X-88.259 Y-104.15
X-86.97 Y-104.067
X-85.682 Y-103.966
X-84.395 Y-103.844
X-83.111 Y-103.7
X-81.831 Y-103.529
X-80.554 Y-103.332
X-79.282 Y-103.106
X-78.015 Y-102.849
X-76.756 Y-102.56
X-75.505 Y-102.237
X-74.263 Y-101.88
X-73.033 Y-101.485
X-71.815 Y-101.054
X-70.612 Y-100.584
X-69.424 Y-100.074
X-68.255 Y-99.525
X-67.106 Y-98.934
X-65.978 Y-98.303
X-64.875 Y-97.631
X-63.797 Y-96.919
X-62.746 Y-96.167
X-61.724 Y-95.376
X-60.733 Y-94.548
X-59.774 Y-93.681
X-58.85 Y-92.778
X-57.962 Y-91.84
X-57.112 Y-90.866
X-56.303 Y-89.859
X-55.536 Y-88.819
X-54.813 Y-87.748
X-54.135 Y-86.648
X-53.504 Y-85.521
X-52.92 Y-84.369
X-52.384 Y-83.193
X-51.898 Y-81.996
X-51.463 Y-80.779
X-51.081 Y-79.545
X-50.751 Y-78.296
X-50.478 Y-77.033
X-50.26 Y-75.759
X-50.099 Y-74.477
X-49.996 Y-73.189
X-49.949 Y-71.898
X-49.959 Y-70.606
X-50.026 Y-69.316
X-50.15 Y-68.03
X-50.33 Y-66.75
X-50.566 Y-65.48
X-50.859 Y-64.222
X-51.208 Y-62.978
X-51.613 Y-61.751
X-52.072 Y-60.543
X-52.585 Y-59.357
X-53.149 Y-58.195
X-53.763 Y-57.058
X-54.425 Y-55.948
X-55.134 Y-54.868
X-55.887 Y-53.818
X-56.684 Y-52.801
X-57.522 Y-51.818
X-58.4 Y-50.87
X-59.316 Y-49.959
X-60.269 Y-49.086
X-61.256 Y-48.252
X-62.274 Y-47.456
X-63.321 Y-46.7
X-64.396 Y-45.983
X-65.495 Y-45.304
X-66.618 Y-44.664
X-67.761 Y-44.062
X-68.923 Y-43.497
X-70.102 Y-42.968
X-71.296 Y-42.476
X-72.504 Y-42.017
X-73.725 Y-41.592
X-74.955 Y-41.199
X-76.196 Y-40.837
X-77.444 Y-40.504
X-78.7 Y-40.199
X-79.961 Y-39.92
X-81.228 Y-39.665
X-82.499 Y-39.434
X-83.774 Y-39.225
X-85.052 Y-39.036
X-86.333 Y-38.866
X-87.616 Y-38.713
X-88.901 Y-38.575
X-90.187 Y-38.453
X-91.474 Y-38.343
X-92.763 Y-38.246
X-94.052 Y-38.159
X-95.342 Y-38.083
X-96.632 Y-38.015
X-97.923 Y-37.956
X-99.214 Y-37.903
X-100.505 Y-37.858
X-101.796 Y-37.817
X-103.088 Y-37.782
X-104.38 Y-37.752
X-105.671 Y-37.726
X-106.963 Y-37.704
X-108.255 Y-37.685
X-109.547 Y-37.67
X-110.839 Y-37.66
X-112.131 Y-37.653
X-113.423 Y-37.651
X-114.715 Y-37.655
X-116.007 Y-37.664
X-117.299 Y-37.682
X-118.591 Y-37.708
X-119.883 Y-37.744
X-121.174 Y-37.791
X-122.464 Y-37.851
X-123.754 Y-37.927
X-125.043 Y-38.018
X-126.331 Y-38.128
X-127.616 Y-38.257
X-128.899 Y-38.408
X-130.18 Y-38.581
X-131.456 Y-38.78
X-132.729 Y-39.004
X-133.996 Y-39.256
X-135.257 Y-39.538
X-136.51 Y-39.852
X-137.755 Y-40.198
X-138.99 Y-40.579
X-140.213 Y-40.995
X-141.424 Y-41.446
X-142.62 Y-41.934
X-143.801 Y-42.459
X-144.964 Y-43.021
X-146.109 Y-43.62
X-147.233 Y-44.257
X-148.335 Y-44.932
X-149.413 Y-45.644
X-150.465 Y-46.395
X-151.488 Y-47.183
X-152.481 Y-48.01
X-153.443 Y-48.873
X-154.371 Y-49.772
X-155.264 Y-50.706
X-156.121 Y-51.673
X-156.94 Y-52.672
X-157.719 Y-53.702
X-158.458 Y-54.762
X-159.155 Y-55.85
X-159.808 Y-56.965
X-160.416 Y-58.105
X-160.975 Y-59.27
X-161.486 Y-60.457
X-161.947 Y-61.664
X-162.359 Y-62.889
X-162.719 Y-64.129
X-163.028 Y-65.384
X-163.286 Y-66.65
X-163.49 Y-67.926
X-163.642 Y-69.209
X-163.741 Y-70.497
X-163.785 Y-71.788
X-163.774 Y-73.08
X-163.707 Y-74.371
X-163.586 Y-75.657
X-163.411 Y-76.937
X-163.181 Y-78.209
X-162.899 Y-79.47
X-162.564 Y-80.717
X-162.177 Y-81.95
X-161.74 Y-83.166
X-161.253 Y-84.363
X-160.716 Y-85.538
X-160.13 Y-86.69
X-159.496 Y-87.815
X-158.816 Y-88.914
X-158.091 Y-89.983
X-157.322 Y-91.022
X-156.513 Y-92.029
X-155.665 Y-93.004
X-154.779 Y-93.944
X-153.857 Y-94.85
X-152.901 Y-95.719
X-151.914 Y-96.552
X-150.896 Y-97.349
X-149.85 Y-98.107
X-148.778 Y-98.828
X-147.681 Y-99.51
X-146.561 Y-100.155
X-145.42 Y-100.762
X-144.261 Y-101.332
X-143.084 Y-101.865
X-141.892 Y-102.364
X-140.687 Y-102.829
X-139.469 Y-103.261
X-138.24 Y-103.66
X-137.002 Y-104.03
X-135.756 Y-104.37
X-134.502 Y-104.683
X-133.242 Y-104.969
X-131.977 Y-105.231
X-130.707 Y-105.469
X-129.433 Y-105.685
X-128.156 Y-105.882
X-126.876 Y-106.059
X-125.594 Y-106.218
X-124.31 Y-106.362
X-123.024 Y-106.49
X-121.737 Y-106.605
X-120.449 Y-106.708
X-119.161 Y-106.799
X-117.871 Y-106.88
X-116.581 Y-106.951
X-115.29 Y-107.014
X-114 Y-107.07
X-112.708 Y-107.119
X-111.417 Y-107.162
X-110.126 Y-107.2
X-108.834 Y-107.232
X-107.542 Y-107.26
X-106.25 Y-107.285
X-104.958 Y-107.305
X-103.667 Y-107.322
X-102.375 Y-107.336
X-101.083 Y-107.345
X-99.79 Y-107.351
X-98.498
X-97.206 Y-107.346
X-95.914 Y-107.335
X-94.622 Y-107.317
X-93.331 Y-107.29
X-92.039 Y-107.254
X-90.748 Y-107.206
X-89.457 Y-107.145
X-88.168 Y-107.07
X-86.879 Y-106.977
X-85.591 Y-106.867
X-84.306 Y-106.736
X-83.023 Y-106.584
X-81.743 Y-106.408
X-80.467 Y-106.207
X-79.195 Y-105.979
X-77.928 Y-105.723
X-76.668 Y-105.438
X-75.415 Y-105.122
X-74.171 Y-104.774
X-72.936 Y-104.393
X-71.713 Y-103.978
X-70.501 Y-103.529
X-69.304 Y-103.042
X-68.123 Y-102.519
X-66.959 Y-101.959
X-65.813 Y-101.362
X-64.688 Y-100.727
X-63.584 Y-100.056
X-62.503 Y-99.347
X-61.447 Y-98.603
X-60.417 Y-97.823
X-59.415 Y-97.007
X-58.442 Y-96.157
X-57.5 Y-95.273
X-56.59 Y-94.355
X-55.716 Y-93.404
X-54.877 Y-92.421
X-54.076 Y-91.407
X-53.314 Y-90.364
X-52.592 Y-89.292
X-51.911 Y-88.195
X-51.272 Y-87.072
X-50.676 Y-85.925
X-50.124 Y-84.757
X-49.617 Y-83.569
X-49.156 Y-82.361
X-48.744 Y-81.137
X-48.381 Y-79.897
X-48.068 Y-78.643
X-47.806 Y-77.378
X-47.595 Y-76.103
X-47.435 Y-74.821
X-47.327 Y-73.534
X-47.271 Y-72.243
X-47.266 Y-70.951
X-47.313 Y-69.66
X-47.412 Y-68.371
X-47.563 Y-67.088
X-47.766 Y-65.812
X-48.021 Y-64.546
X-48.329 Y-63.291
X-48.688 Y-62.05
X-49.097 Y-60.824
X-49.555 Y-59.616
X-50.061 Y-58.427
X-50.615 Y-57.26
X-51.213 Y-56.115
X-51.857 Y-54.994
X-52.543 Y-53.899
X-53.271 Y-52.832
X-54.04 Y-51.794
X-54.849 Y-50.786
X-55.696 Y-49.811
X-56.58 Y-48.868
X-57.498 Y-47.959
X-58.449 Y-47.085
X-59.431 Y-46.245
X-60.443 Y-45.441
X-61.481 Y-44.672
X-62.545 Y-43.939
X-63.633 Y-43.242
X-64.743 Y-42.58
X-65.873 Y-41.954
X-67.021 Y-41.362
X-68.187 Y-40.804
X-69.368 Y-40.28
X-70.563 Y-39.789
X-71.771 Y-39.33
X-72.99 Y-38.902
X-74.219 Y-38.505
X-75.457 Y-38.136
X-76.704 Y-37.795
X-77.957 Y-37.48
X-79.216 Y-37.19
X-80.48 Y-36.924
X-81.749 Y-36.681
X-83.022 Y-36.458
X-84.298 Y-36.256
X-85.577 Y-36.072
X-86.858 Y-35.905
X-88.141 Y-35.754
X-89.426 Y-35.618
X-90.713 Y-35.496
X-92 Y-35.386
X-93.288 Y-35.288
X-94.577 Y-35.2
X-95.867 Y-35.122
X-97.157 Y-35.053
X-98.448 Y-34.991
X-99.739 Y-34.936
X-101.03 Y-34.888
X-102.321 Y-34.846
X-103.613 Y-34.809
X-104.904 Y-34.777
X-106.196 Y-34.75
X-107.488 Y-34.727
X-108.78 Y-34.709
X-110.072 Y-34.696
X-111.364 Y-34.687
X-112.656 Y-34.684
X-113.948 Y-34.687
X-115.24 Y-34.696
X-116.532 Y-34.714
X-117.824 Y-34.739
X-119.115 Y-34.775
X-120.407 Y-34.822
X-121.697 Y-34.881
X-122.987 Y-34.954
X-124.276 Y-35.042
X-125.564 Y-35.146
X-126.85 Y-35.268
X-128.135 Y-35.41
X-129.417 Y-35.572
X-130.695 Y-35.757
X-131.97 Y-35.966
X-133.241 Y-36.2
X-134.506 Y-36.461
X-135.766 Y-36.751
X-137.018 Y-37.069
X-138.262 Y-37.418
X-139.497 Y-37.798
X-140.721 Y-38.21
X-141.934 Y-38.655
X-143.135 Y-39.134
X-144.321 Y-39.646
X-145.492 Y-40.192
X-146.646 Y-40.772
X-147.783 Y-41.387
X-148.899 Y-42.038
X-149.994 Y-42.724
X-151.065 Y-43.446
X-152.112 Y-44.203
X-153.133 Y-44.995
X-154.127 Y-45.821
X-155.091 Y-46.68
X-156.026 Y-47.572
X-156.929 Y-48.497
X-157.799 Y-49.452
X-158.635 Y-50.437
X-159.436 Y-51.451
X-160.199 Y-52.493
X-160.924 Y-53.563
X-161.609 Y-54.659
X-162.252 Y-55.779
X-162.853 Y-56.923
X-163.41 Y-58.089
X-163.924 Y-59.274
X-164.392 Y-60.478
X-164.816 Y-61.699
X-165.192 Y-62.935
X-165.523 Y-64.184
X-165.806 Y-65.445
X-166.041 Y-66.715
X-166.226 Y-67.994
X-166.362 Y-69.279
X-166.448 Y-70.568
X-166.483 Y-71.86
X-166.468 Y-73.152
X-166.404 Y-74.442
X-166.289 Y-75.729
X-166.125 Y-77.011
X-165.912 Y-78.285
X-165.65 Y-79.55
X-165.341 Y-80.805
X-164.983 Y-82.046
X-164.578 Y-83.273
X-164.125 Y-84.483
X-163.626 Y-85.675
X-163.08 Y-86.846
X-162.491 Y-87.996
X-161.857 Y-89.122
X-161.182 Y-90.223
X-160.466 Y-91.299
X-159.71 Y-92.347
X-158.916 Y-93.366
X-158.085 Y-94.356
X-157.22 Y-95.315
X-156.32 Y-96.243
X-155.388 Y-97.138
X-154.425 Y-97.999
X-153.433 Y-98.826
X-152.413 Y-99.619
X-151.366 Y-100.377
X-150.296 Y-101.1
X-149.202 Y-101.788
X-148.087 Y-102.441
X-146.953 Y-103.06
X-145.801 Y-103.645
X-144.632 Y-104.196
X-143.449 Y-104.714
X-142.252 Y-105.201
X-141.042 Y-105.656
X-139.822 Y-106.08
X-138.592 Y-106.475
X-137.353 Y-106.843
X-136.107 Y-107.183
X-134.853 Y-107.497
X-133.594 Y-107.786
X-132.33 Y-108.052
X-131.061 Y-108.296
X-129.788 Y-108.519
X-128.512 Y-108.722
X-127.233 Y-108.907
X-125.952 Y-109.074
X-124.669 Y-109.226
X-123.384 Y-109.363
X-122.098 Y-109.487
X-120.811 Y-109.597
X-119.523 Y-109.697
X-118.234 Y-109.786
X-116.944 Y-109.865
X-115.654 Y-109.936
X-114.363 Y-109.998
X-113.073 Y-110.054
X-111.781 Y-110.103
X-110.49 Y-110.146
X-109.199 Y-110.184
X-107.907 Y-110.217
X-106.615 Y-110.245
X-105.323 Y-110.269
X-104.031 Y-110.288
X-102.74 Y-110.303
X-101.448 Y-110.314
X-100.155 Y-110.319
X-98.863 Y-110.32
X-97.571 Y-110.313
X-96.279 Y-110.301
X-94.987 Y-110.28
X-93.696 Y-110.25
X-92.404 Y-110.21
X-91.113 Y-110.159
X-89.823 Y-110.095
X-88.533 Y-110.017
X-87.245 Y-109.923
X-85.957 Y-109.811
X-84.672 Y-109.681
X-83.388 Y-109.531
X-82.108 Y-109.359
X-80.831 Y-109.165
X-79.557 Y-108.946
X-78.288 Y-108.701
X-77.025 Y-108.43
X-75.768 Y-108.131
X-74.519 Y-107.803
X-73.277 Y-107.444
X-72.045 Y-107.055
X-70.824 Y-106.633
X-69.615 Y-106.178
X-68.419 Y-105.69
X-67.237 Y-105.168
X-66.07 Y-104.612
X-64.921 Y-104.022
X-63.789 Y-103.398
X-62.677 Y-102.74
X-61.586 Y-102.048
X-60.517 Y-101.323
X-59.471 Y-100.564
X-58.45 Y-99.772
X-57.456 Y-98.947
X-56.489 Y-98.09
X-55.552 Y-97.2
X-54.646 Y-96.279
X-53.771 Y-95.328
X-52.929 Y-94.348
X-52.122 Y-93.34
X-51.349 Y-92.304
X-50.613 Y-91.242
X-49.914 Y-90.155
X-49.253 Y-89.045
X-48.632 Y-87.912
X-48.051 Y-86.758
X-47.512 Y-85.584
X-47.016 Y-84.391
X-46.563 Y-83.181
X-46.156 Y-81.955
X-45.793 Y-80.715
X-45.476 Y-79.462
X-45.205 Y-78.199
X-44.98 Y-76.926
X-44.803 Y-75.647
X-44.672 Y-74.361
X-44.588 Y-73.072
X-44.553 Y-71.78
X-44.565 Y-70.488
X-44.626 Y-69.198
X-44.736 Y-67.91
X-44.894 Y-66.628
X-45.1 Y-65.353
X-45.354 Y-64.086
X-45.656 Y-62.829
X-46.003 Y-61.585
X-46.397 Y-60.354
X-46.836 Y-59.139
X-47.319 Y-57.941
X-47.846 Y-56.761
X-48.415 Y-55.601
X-49.027 Y-54.463
X-49.68 Y-53.348
X-50.373 Y-52.258
X-51.105 Y-51.193
X-51.875 Y-50.155
X-52.681 Y-49.146
X-53.522 Y-48.165
X-54.397 Y-47.214
X-55.304 Y-46.294
X-56.242 Y-45.405
X-57.209 Y-44.548
X-58.204 Y-43.724
X-59.224 Y-42.931
X-60.27 Y-42.172
X-61.339 Y-41.446
X-62.429 Y-40.753
X-63.54 Y-40.094
X-64.67 Y-39.467
X-65.817 Y-38.872
X-66.98 Y-38.31
X-68.158 Y-37.779
X-69.35 Y-37.279
X-70.553 Y-36.809
X-71.768 Y-36.368
X-72.992 Y-35.956
X-74.226 Y-35.571
X-75.467 Y-35.212
X-76.715 Y-34.88
X-77.97 Y-34.571
X-79.23 Y-34.286
X-80.495 Y-34.023
X-81.764 Y-33.781
X-83.037 Y-33.559
X-84.313 Y-33.355
X-85.592 Y-33.169
X-86.873 Y-33
X-88.156 Y-32.846
X-89.44 Y-32.706
X-90.726 Y-32.58
X-92.013 Y-32.466
X-93.301 Y-32.363
X-94.59 Y-32.271
X-95.879 Y-32.188
X-97.169 Y-32.113
X-98.459 Y-32.047
X-99.75 Y-31.989
X-101.041 Y-31.936
X-102.332 Y-31.891
X-103.624 Y-31.851
X-104.915 Y-31.816
X-106.207 Y-31.787
X-107.499 Y-31.763
X-108.791 Y-31.744
X-110.083 Y-31.73
X-111.375 Y-31.723
X-112.667 Y-31.721
X-113.959 Y-31.727
X-115.251 Y-31.74
X-116.543 Y-31.761
X-117.834 Y-31.791
X-119.126 Y-31.832
X-120.417 Y-31.884
X-121.707 Y-31.949
X-122.997 Y-32.027
X-124.286 Y-32.12
X-125.573 Y-32.23
X-126.859 Y-32.356
X-128.143 Y-32.501
X-129.424 Y-32.667
X-130.703 Y-32.853
X-131.978 Y-33.062
X-133.249 Y-33.295
X-134.515 Y-33.552
X-135.775 Y-33.835
X-137.03 Y-34.146
X-138.277 Y-34.484
X-139.516 Y-34.85
X-140.746 Y-35.246
X-141.965 Y-35.672
X-143.174 Y-36.129
X-144.37 Y-36.617
X-145.553 Y-37.138
X-146.721 Y-37.69
X-147.873 Y-38.275
X-149.008 Y-38.892
X-150.125 Y-39.542
X-151.222 Y-40.225
X-152.297 Y-40.941
X-153.351 Y-41.689
X-154.381 Y-42.469
X-155.386 Y-43.281
X-156.365 Y-44.124
X-157.317 Y-44.997
X-158.241 Y-45.901
X-159.135 Y-46.834
X-159.997 Y-47.796
X-160.827 Y-48.786
X-161.624 Y-49.803
X-162.386 Y-50.847
X-163.112 Y-51.916
X-163.801 Y-53.008
X-164.453 Y-54.124
X-165.066 Y-55.261
X-165.64 Y-56.419
X-166.174 Y-57.595
X-166.667 Y-58.79
X-167.119 Y-60
X-167.527 Y-61.226
X-167.892 Y-62.465
X-168.213 Y-63.717
X-168.49 Y-64.979
X-168.722 Y-66.25
X-168.908 Y-67.529
X-169.049 Y-68.813
X-169.144 Y-70.101
X-169.193 Y-71.393
X-169.196 Y-72.685
X-169.154 Y-73.976
X-169.065 Y-75.265
X-168.931 Y-76.55
X-168.751 Y-77.83
X-168.526 Y-79.102
X-168.254 Y-80.365
X-167.938 Y-81.618
X-167.577 Y-82.858
X-167.172 Y-84.085
X-166.724 Y-85.297
X-166.233 Y-86.492
X-165.699 Y-87.669
X-165.125 Y-88.826
X-164.511 Y-89.963
X-163.857 Y-91.077
X-163.165 Y-92.169
X-162.436 Y-93.235
X-161.67 Y-94.276
X-160.869 Y-95.29
X-160.034 Y-96.276
X-159.166 Y-97.233
X-158.267 Y-98.161
X-157.338 Y-99.059
X-156.38 Y-99.925
X-155.394 Y-100.761
X-154.383 Y-101.565
X-153.347 Y-102.337
X-152.287 Y-103.077
X-151.206 Y-103.784
X-150.105 Y-104.459
X-148.984 Y-105.103
X-147.846 Y-105.714
X-146.691 Y-106.294
X-145.521 Y-106.842
X-144.338 Y-107.36
X-143.141 Y-107.848
X-141.933 Y-108.306
X-140.714 Y-108.735
X-139.486 Y-109.138
X-138.25 Y-109.513
X-137.006 Y-109.862
X-135.756 Y-110.187
X-134.499 Y-110.488
X-133.238 Y-110.767
X-131.971 Y-111.024
X-130.701 Y-111.26
X-129.427 Y-111.477
X-128.151 Y-111.676
X-126.872 Y-111.858
X-125.59 Y-112.024
X-124.307 Y-112.175
X-123.022 Y-112.312
X-121.736 Y-112.436
X-120.449 Y-112.548
X-119.161 Y-112.649
X-117.872 Y-112.739
X-116.582 Y-112.821
X-115.292 Y-112.894
X-114.002 Y-112.959
X-112.711 Y-113.017
X-111.42 Y-113.068
X-110.129 Y-113.113
X-108.838 Y-113.153
X-107.546 Y-113.187
X-106.254 Y-113.216
X-104.962 Y-113.24
X-103.67 Y-113.259
X-102.378 Y-113.273
X-101.086 Y-113.282
X-99.794 Y-113.284
X-98.502 Y-113.28
X-97.21 Y-113.269
X-95.918 Y-113.25
X-94.627 Y-113.223
X-93.335 Y-113.185
X-92.044 Y-113.137
X-90.753 Y-113.077
X-89.463 Y-113.003
X-88.174 Y-112.915
X-86.886 Y-112.812
X-85.6 Y-112.692
X-84.315 Y-112.553
X-83.033 Y-112.394
X-81.754 Y-112.215
X-80.477 Y-112.014
X-79.205 Y-111.79
X-77.937 Y-111.541
X-76.674 Y-111.267
X-75.417 Y-110.967
X-74.167 Y-110.64
X-72.925 Y-110.285
X-71.692 Y-109.9
X-70.468 Y-109.487
X-69.254 Y-109.043
X-68.053 Y-108.568
X-66.864 Y-108.062
X-65.688 Y-107.526
X-64.528 Y-106.957
X-63.384 Y-106.357
X-62.257 Y-105.724
X-61.149 Y-105.06
X-60.06 Y-104.364
X-58.992 Y-103.637
X-57.947 Y-102.878
X-56.924 Y-102.088
X-55.926 Y-101.268
X-54.953 Y-100.417
X-54.007 Y-99.537
X-53.089 Y-98.628
X-52.2 Y-97.691
X-51.34 Y-96.726
X-50.512 Y-95.735
X-49.715 Y-94.717
X-48.952 Y-93.675
X-48.223 Y-92.608
X-47.53 Y-91.518
X-46.872 Y-90.406
X-46.251 Y-89.273
X-45.668 Y-88.12
X-45.123 Y-86.948
X-44.618 Y-85.759
X-44.153 Y-84.553
X-43.729 Y-83.333
X-43.345 Y-82.099
X-43.004 Y-80.853
X-42.704 Y-79.596
X-42.448 Y-78.33
X-42.236 Y-77.055
X-42.067 Y-75.774
X-41.943 Y-74.488
X-41.862 Y-73.199
X-41.826 Y-71.907
X-41.835 Y-70.615
X-41.889 Y-69.324
X-41.987 Y-68.036
X-42.129 Y-66.752
X-42.315 Y-65.473
X-42.546 Y-64.202
X-42.82 Y-62.939
X-43.138 Y-61.687
X-43.499 Y-60.446
X-43.902 Y-59.219
X-44.348 Y-58.006
X-44.835 Y-56.809
X-45.362 Y-55.63
X-45.93 Y-54.469
X-46.536 Y-53.328
X-47.18 Y-52.208
X-47.862 Y-51.11
X-48.58 Y-50.036
X-49.333 Y-48.986
X-50.12 Y-47.962
X-50.94 Y-46.963
X-51.792 Y-45.992
X-52.675 Y-45.049
X-53.588 Y-44.134
X-54.529 Y-43.249
X-55.498 Y-42.394
X-56.492 Y-41.569
X-57.511 Y-40.774
X-58.553 Y-40.01
X-59.616 Y-39.276
X-60.701 Y-38.574
X-61.804 Y-37.902
X-62.926 Y-37.261
X-64.064 Y-36.65
X-65.218 Y-36.069
X-66.387 Y-35.518
X-67.569 Y-34.995
X-68.763 Y-34.502
X-69.968 Y-34.037
X-71.184 Y-33.599
X-72.409 Y-33.187
X-73.642 Y-32.802
X-74.883 Y-32.441
X-76.13 Y-32.105
X-77.384 Y-31.792
X-78.643 Y-31.501
X-79.906 Y-31.231
X-81.174 Y-30.982
X-82.445 Y-30.752
X-83.72 Y-30.54
X-84.997 Y-30.346
X-86.277 Y-30.167
X-87.559 Y-30.004
X-88.842 Y-29.855
X-90.127 Y-29.719
X-91.413 Y-29.596
X-92.7 Y-29.484
X-93.989 Y-29.383
X-95.277 Y-29.292
X-96.567 Y-29.209
X-97.857 Y-29.136
X-99.147 Y-29.07
X-100.438 Y-29.011
X-101.729 Y-28.959
X-103.02 Y-28.913
X-104.312 Y-28.874
X-105.603 Y-28.84
X-106.895 Y-28.813
X-108.187 Y-28.791
X-109.479 Y-28.775
X-110.771 Y-28.765
X-112.063 Y-28.763
X-113.355 Y-28.767
X-114.647 Y-28.779
X-115.939 Y-28.8
X-117.23 Y-28.83
X-118.522 Y-28.87
X-119.813 Y-28.921
X-121.103 Y-28.984
X-122.393 Y-29.061
X-123.682 Y-29.151
X-124.97 Y-29.256
X-126.256 Y-29.378
X-127.541 Y-29.517
X-128.823 Y-29.674
X-130.103 Y-29.851
X-131.38 Y-30.049
X-132.653 Y-30.268
X-133.922 Y-30.51
X-135.187 Y-30.776
X-136.446 Y-31.067
X-137.698 Y-31.383
X-138.944 Y-31.725
X-140.182 Y-32.095
X-141.412 Y-32.492
X-142.632 Y-32.917
X-143.842 Y-33.371
X-145.04 Y-33.855
X-146.226 Y-34.368
X-147.398 Y-34.91
X-148.556 Y-35.483
X-149.699 Y-36.087
X-150.825 Y-36.72
X-151.933 Y-37.384
X-153.023 Y-38.079
X-154.092 Y-38.804
X-155.14 Y-39.56
X-156.166 Y-40.345
X-157.168 Y-41.16
X-158.146 Y-42.005
X-159.099 Y-42.878
X-160.025 Y-43.779
X-160.923 Y-44.708
X-161.793 Y-45.663
X-162.633 Y-46.645
X-163.442 Y-47.652
X-164.22 Y-48.684
X-164.965 Y-49.739
X-165.677 Y-50.817
X-166.354 Y-51.918
X-166.996 Y-53.039
X-167.601 Y-54.181
X-168.17 Y-55.341
X-168.7 Y-56.519
X-169.193 Y-57.714
X-169.646 Y-58.924
X-170.06 Y-60.147
X-170.434 Y-61.384
X-170.768 Y-62.632
X-171.06 Y-63.891
X-171.312 Y-65.158
X-171.521 Y-66.433
X-171.689 Y-67.714
X-171.814 Y-69
X-171.896 Y-70.29
X-171.936 Y-71.581
X-171.932 Y-72.873
X-171.886 Y-74.165
X-171.796 Y-75.453
X-171.664 Y-76.739
X-171.49 Y-78.019
X-171.273 Y-79.293
X-171.015 Y-80.559
X-170.714 Y-81.815
X-170.372 Y-83.061
X-169.99 Y-84.295
X-169.567 Y-85.516
X-169.104 Y-86.722
X-168.601 Y-87.913
X-168.059 Y-89.085
X-167.478 Y-90.24
X-166.861 Y-91.375
X-166.206 Y-92.489
X-165.516 Y-93.581
X-164.792 Y-94.651
X-164.033 Y-95.697
X-163.242 Y-96.718
X-162.418 Y-97.714
X-161.564 Y-98.684
X-160.681 Y-99.626
X-159.769 Y-100.541
X-158.829 Y-101.428
X-157.863 Y-102.286
X-156.872 Y-103.115
X-155.857 Y-103.914
X-154.818 Y-104.683
X-153.758 Y-105.422
X-152.678 Y-106.131
X-151.578 Y-106.809
X-150.461 Y-107.458
X-149.327 Y-108.077
X-148.177 Y-108.666
X-147.012 Y-109.226
X-145.834 Y-109.757
X-144.644 Y-110.259
X-143.442 Y-110.734
X-142.23 Y-111.182
X-141.009 Y-111.603
X-139.779 Y-111.998
X-138.541 Y-112.369
X-137.296 Y-112.715
X-136.045 Y-113.038
X-134.789 Y-113.339
X-133.527 Y-113.619
X-132.261 Y-113.878
X-130.992 Y-114.117
X-129.719 Y-114.338
X-128.443 Y-114.541
X-127.164 Y-114.728
X-125.884 Y-114.9
X-124.601 Y-115.056
X-123.317 Y-115.199
X-122.032 Y-115.329
X-120.745 Y-115.448
X-119.457 Y-115.555
X-118.169 Y-115.652
X-116.88 Y-115.739
X-115.59 Y-115.818
X-114.3 Y-115.889
X-113.01 Y-115.952
X-111.719 Y-116.008
X-110.428 Y-116.058
X-109.136 Y-116.101
X-107.845 Y-116.139
X-106.553 Y-116.171
X-105.261 Y-116.198
X-103.97 Y-116.218
X-102.678 Y-116.233
X-101.386 Y-116.242
X-100.093 Y-116.245
X-98.801 Y-116.24
X-97.509 Y-116.228
X-96.218 Y-116.207
X-94.926 Y-116.178
X-93.634 Y-116.139
X-92.343 Y-116.088
X-91.053 Y-116.026
X-89.763 Y-115.951
X-88.474 Y-115.862
X-87.186 Y-115.758
X-85.9 Y-115.638
X-84.615 Y-115.501
X-83.332 Y-115.345
X-82.052 Y-115.17
X-80.775 Y-114.974
X-79.501 Y-114.757
X-78.231 Y-114.518
X-76.966 Y-114.255
X-75.707 Y-113.969
X-74.453 Y-113.657
X-73.206 Y-113.319
X-71.966 Y-112.954
X-70.735 Y-112.562
X-69.513 Y-112.142
X-68.301 Y-111.694
X-67.101 Y-111.217
X-65.912 Y-110.71
X-64.736 Y-110.175
X-63.574 Y-109.61
X-62.427 Y-109.015
X-61.296 Y-108.39
X-60.182 Y-107.736
X-59.086 Y-107.052
X-58.008 Y-106.339
X-56.951 Y-105.596
X-55.914 Y-104.825
X-54.9 Y-104.024
X-53.909 Y-103.195
X-52.943 Y-102.338
X-52.001 Y-101.453
X-51.086 Y-100.541
X-50.198 Y-99.603
X-49.338 Y-98.638
X-48.507 Y-97.649
X-47.706 Y-96.635
X-46.935 Y-95.598
X-46.196 Y-94.538
X-45.489 Y-93.457
X-44.816 Y-92.354
X-44.176 Y-91.232
X-43.571 Y-90.09
X-43.001 Y-88.93
X-42.468 Y-87.753
X-41.972 Y-86.56
X-41.514 Y-85.352
X-41.094 Y-84.13
X-40.712 Y-82.896
X-40.37 Y-81.65
X-40.067 Y-80.394
X-39.804 Y-79.129
X-39.581 Y-77.856
X-39.399 Y-76.577
X-39.258 Y-75.293
X-39.157 Y-74.005
X-39.098 Y-72.714
X-39.079 Y-71.422
X-39.103 Y-70.13
X-39.168 Y-68.84
X-39.275 Y-67.552
X-39.424 Y-66.269
X-39.614 Y-64.991
X-39.844 Y-63.719
X-40.116 Y-62.456
X-40.428 Y-61.203
X-40.78 Y-59.959
X-41.172 Y-58.728
X-41.603 Y-57.51
X-42.072 Y-56.306
X-42.579 Y-55.118
X-43.123 Y-53.946
X-43.704 Y-52.792
X-44.321 Y-51.657
X-44.974 Y-50.542
X-45.662 Y-49.448
X-46.383 Y-48.376
X-47.137 Y-47.327
X-47.923 Y-46.301
X-48.74 Y-45.3
X-49.587 Y-44.325
X-50.463 Y-43.375
X-51.367 Y-42.451
X-52.297 Y-41.555
X-53.253 Y-40.686
X-54.234 Y-39.845
X-55.238 Y-39.032
X-56.265 Y-38.247
X-57.313 Y-37.491
X-58.381 Y-36.764
X-59.468 Y-36.065
X-60.573 Y-35.396
X-61.695 Y-34.756
X-62.833 Y-34.144
X-63.986 Y-33.56
X-65.152 Y-33.004
X-66.331 Y-32.476
X-67.522 Y-31.975
X-68.724 Y-31.501
X-69.936 Y-31.052
X-71.156 Y-30.629
X-72.386 Y-30.23
X-73.622 Y-29.856
X-74.866 Y-29.505
X-76.115 Y-29.176
X-77.37 Y-28.869
X-78.63 Y-28.583
X-79.895 Y-28.317
X-81.163 Y-28.07
X-82.434 Y-27.841
X-83.709 Y-27.629
X-84.986 Y-27.434
X-86.266 Y-27.254
X-87.547 Y-27.089
X-88.83 Y-26.937
X-90.115 Y-26.799
X-91.401 Y-26.672
X-92.688 Y-26.557
X-93.975 Y-26.452
X-95.264 Y-26.357
X-96.553 Y-26.271
X-97.843 Y-26.194
X-99.133 Y-26.125
X-100.424 Y-26.063
X-101.715 Y-26.008
X-103.006 Y-25.96
X-104.297 Y-25.919
X-105.589 Y-25.884
X-106.88 Y-25.855
X-108.172 Y-25.833
X-109.464 Y-25.817
X-110.756 Y-25.809
X-112.048 Y-25.807
X-113.34 Y-25.814
X-114.632 Y-25.828
X-115.924 Y-25.852
X-117.216 Y-25.885
X-118.507 Y-25.929
X-119.798 Y-25.983
X-121.088 Y-26.05
X-122.378 Y-26.13
X-123.667 Y-26.224
X-124.954 Y-26.332
X-126.24 Y-26.456
X-127.524 Y-26.597
X-128.807 Y-26.756
X-130.087 Y-26.933
X-131.364 Y-27.129
X-132.637 Y-27.347
X-133.907 Y-27.585
X-135.173 Y-27.846
X-136.433 Y-28.13
X-137.688 Y-28.438
X-138.937 Y-28.77
X-140.178 Y-29.127
X-141.412 Y-29.51
X-142.638 Y-29.919
X-143.854 Y-30.354
X-145.061 Y-30.817
X-146.256 Y-31.308
X-147.439 Y-31.827
X-148.61 Y-32.374
X-149.766 Y-32.95
X-150.908 Y-33.554
X-152.035 Y-34.187
X-153.145 Y-34.848
X-154.237 Y-35.538
X-155.311 Y-36.256
X-156.366 Y-37.003
X-157.4 Y-37.778
X-158.412 Y-38.58
X-159.403 Y-39.41
X-160.37 Y-40.267
X-161.313 Y-41.15
X-162.23 Y-42.06
X-163.122 Y-42.995
X-163.985 Y-43.956
X-164.821 Y-44.941
X-165.628 Y-45.95
X-166.406 Y-46.982
X-167.152 Y-48.037
X-167.868 Y-49.113
X-168.551 Y-50.209
X-169.202 Y-51.326
X-169.819 Y-52.461
X-170.402 Y-53.614
X-170.951 Y-54.784
X-171.464 Y-55.969
X-171.941 Y-57.17
X-172.382 Y-58.385
X-172.785 Y-59.612
X-173.15 Y-60.851
X-173.477 Y-62.101
X-173.766 Y-63.361
X-174.016 Y-64.628
X-174.228 Y-65.903
X-174.399 Y-67.184
X-174.532 Y-68.469
X-174.624 Y-69.758
X-174.677 Y-71.049
X-174.69 Y-72.341
X-174.663 Y-73.632
X-174.597 Y-74.923
X-174.491 Y-76.21
X-174.345 Y-77.494
X-174.159 Y-78.773
X-173.934 Y-80.045
X-173.669 Y-81.31
X-173.364 Y-82.565
X-173.022 Y-83.811
X-172.641 Y-85.046
X-172.222 Y-86.268
X-171.765 Y-87.477
X-171.272 Y-88.671
X-170.742 Y-89.849
X-170.177 Y-91.011
X-169.577 Y-92.155
X-168.942 Y-93.281
X-168.274 Y-94.386
X-167.572 Y-95.472
X-166.839 Y-96.535
X-166.073 Y-97.576
X-165.277 Y-98.594
X-164.451 Y-99.588
X-163.597 Y-100.557
X-162.715 Y-101.501
X-161.805 Y-102.419
X-160.87 Y-103.31
X-159.911 Y-104.175
X-158.927 Y-105.013
X-157.92 Y-105.823
X-156.892 Y-106.605
X-155.843 Y-107.36
X-154.774 Y-108.086
X-153.687 Y-108.784
X-152.582 Y-109.454
X-151.461 Y-110.095
X-150.324 Y-110.709
X-149.172 Y-111.295
X-148.007 Y-111.854
X-146.829 Y-112.385
X-145.64 Y-112.889
X-144.439 Y-113.367
X-143.229 Y-113.819
X-142.01 Y-114.246
X-140.782 Y-114.649
X-139.547 Y-115.028
X-138.304 Y-115.384
X-137.056 Y-115.717
X-135.802 Y-116.029
X-134.543 Y-116.32
X-133.28 Y-116.591
X-132.013 Y-116.843
X-130.742 Y-117.077
X-129.469 Y-117.294
X-128.192 Y-117.494
X-126.913 Y-117.679
X-125.632 Y-117.848
X-124.35 Y-118.004
X-123.066 Y-118.147
X-121.78 Y-118.278
X-120.494 Y-118.397
X-119.206 Y-118.505
X-117.918 Y-118.604
X-116.629 Y-118.693
X-115.339 Y-118.774
X-114.049 Y-118.846
X-112.759 Y-118.911
X-111.468 Y-118.969
X-110.177 Y-119.02
X-108.886 Y-119.065
X-107.594 Y-119.103
X-106.303 Y-119.135
X-105.011 Y-119.161
X-103.719 Y-119.181
X-102.427 Y-119.194
X-101.135 Y-119.201
X-99.843 Y-119.2
X-98.551 Y-119.192
X-97.259 Y-119.175
X-95.967 Y-119.15
X-94.676 Y-119.115
X-93.384 Y-119.07
X-92.093 Y-119.014
X-90.803 Y-118.946
X-89.514 Y-118.865
X-88.225 Y-118.77
X-86.938 Y-118.66
X-85.652 Y-118.534
X-84.368 Y-118.391
X-83.086 Y-118.231
X-81.806 Y-118.051
X-80.529 Y-117.853
X-79.256 Y-117.634
X-77.987 Y-117.393
X-76.721 Y-117.131
X-75.461 Y-116.846
X-74.207 Y-116.537
X-72.958 Y-116.203
X-71.717 Y-115.845
X-70.483 Y-115.461
X-69.258 Y-115.052
X-68.042 Y-114.616
X-66.835 Y-114.153
X-65.64 Y-113.663
X-64.456 Y-113.145
X-63.284 Y-112.6
X-62.126 Y-112.027
X-60.983 Y-111.426
X-59.854 Y-110.797
X-58.742 Y-110.139
X-57.646 Y-109.454
X-56.569 Y-108.741
X-55.51 Y-108.001
X-54.471 Y-107.233
X-53.452 Y-106.438
X-52.455 Y-105.616
X-51.481 Y-104.768
X-50.529 Y-103.894
X-49.602 Y-102.994
X-48.699 Y-102.07
X-47.822 Y-101.121
X-46.972 Y-100.148
X-46.149 Y-99.152
X-45.355 Y-98.133
X-44.59 Y-97.092
X-43.855 Y-96.029
X-43.15 Y-94.946
X-42.476 Y-93.844
X-41.834 Y-92.722
X-41.225 Y-91.583
X-40.649 Y-90.426
X-40.107 Y-89.254
X-39.598 Y-88.066
X-39.125 Y-86.864
X-38.687 Y-85.648
X-38.285 Y-84.42
X-37.919 Y-83.181
X-37.59 Y-81.932
X-37.298 Y-80.673
X-37.044 Y-79.406
X-36.827 Y-78.132
X-36.649 Y-76.853
X-36.509 Y-75.568
X-36.408 Y-74.28
X-36.345 Y-72.99
X-36.321 Y-71.698
X-36.335 Y-70.406
X-36.389 Y-69.115
X-36.481 Y-67.826
X-36.611 Y-66.541
X-36.78 Y-65.26
X-36.988 Y-63.984
X-37.233 Y-62.716
X-37.517 Y-61.455
X-37.838 Y-60.204
X-38.197 Y-58.963
X-38.594 Y-57.733
X-39.027 Y-56.516
X-39.496 Y-55.312
X-40 Y-54.122
X-40.54 Y-52.948
X-41.113 Y-51.791
X-41.721 Y-50.65
X-42.362 Y-49.529
X-43.036 Y-48.426
X-43.741 Y-47.343
X-44.478 Y-46.282
X-45.244 Y-45.242
X-46.04 Y-44.224
X-46.865 Y-43.229
X-47.718 Y-42.259
X-48.598 Y-41.312
X-49.504 Y-40.391
X-50.435 Y-39.496
X-51.39 Y-38.626
X-52.368 Y-37.782
X-53.369 Y-36.964
X-54.391 Y-36.173
X-55.433 Y-35.409
X-56.494 Y-34.672
X-57.573 Y-33.962
X-58.67 Y-33.279
X-59.783 Y-32.623
X-60.912 Y-31.994
X-62.055 Y-31.392
X-63.212 Y-30.816
X-64.381 Y-30.267
X-65.562 Y-29.743
X-66.754 Y-29.245
X-67.957 Y-28.772
X-69.168 Y-28.323
X-70.389 Y-27.899
X-71.617 Y-27.498
X-72.853 Y-27.12
X-74.095 Y-26.765
X-75.343 Y-26.431
X-76.596 Y-26.117
X-77.855 Y-25.824
X-79.117 Y-25.55
X-80.384 Y-25.295
X-81.654 Y-25.057
X-82.927 Y-24.836
X-84.203 Y-24.632
X-85.481 Y-24.442
X-86.761 Y-24.267
X-88.043 Y-24.106
X-89.327 Y-23.958
X-90.611 Y-23.822
X-91.897 Y-23.697
X-93.184 Y-23.583
X-94.472 Y-23.479
X-95.761 Y-23.385
X-97.05 Y-23.3
X-98.34 Y-23.223
X-99.63 Y-23.154
X-100.921 Y-23.092
X-102.212 Y-23.038
X-103.503 Y-22.991
X-104.794 Y-22.951
X-106.086 Y-22.918
X-107.378 Y-22.891
X-108.67 Y-22.872
X-109.962 Y-22.86
X-111.254 Y-22.855
X-112.546 Y-22.858
X-113.838 Y-22.87
X-115.13 Y-22.89
X-116.421 Y-22.92
X-117.713 Y-22.96
X-119.004 Y-23.011
X-120.294 Y-23.074
X-121.584 Y-23.148
X-122.873 Y-23.236
X-124.161 Y-23.338
X-125.448 Y-23.454
X-126.733 Y-23.586
X-128.017 Y-23.734
X-129.298 Y-23.9
X-130.577 Y-24.084
X-131.853 Y-24.287
X-133.126 Y-24.509
X-134.395 Y-24.752
X-135.66 Y-25.017
X-136.92 Y-25.303
X-138.174 Y-25.612
X-139.423 Y-25.945
X-140.665 Y-26.3
X-141.9 Y-26.68
X-143.127 Y-27.085
X-144.345 Y-27.515
X-145.554 Y-27.971
X-146.753 Y-28.453
X-147.941 Y-28.96
X-149.118 Y-29.495
X-150.282 Y-30.056
X-151.432 Y-30.643
X-152.569 Y-31.258
X-153.69 Y-31.899
X-154.796 Y-32.568
X-155.885 Y-33.264
X-156.956 Y-33.986
X-158.008 Y-34.736
X-159.042 Y-35.511
X-160.055 Y-36.313
X-161.047 Y-37.141
X-162.017 Y-37.994
X-162.965 Y-38.872
X-163.889 Y-39.775
X-164.789 Y-40.702
X-165.664 Y-41.653
X-166.513 Y-42.627
X-167.335 Y-43.624
X-168.13 Y-44.642
X-168.897 Y-45.682
X-169.635 Y-46.743
X-170.343 Y-47.823
X-171.021 Y-48.924
X-171.667 Y-50.042
X-172.282 Y-51.179
X-172.865 Y-52.332
X-173.415 Y-53.501
X-173.932 Y-54.685
X-174.416 Y-55.883
X-174.865 Y-57.094
X-175.28 Y-58.318
X-175.659 Y-59.553
X-176.004 Y-60.798
X-176.312 Y-62.053
X-176.585 Y-63.316
X-176.821 Y-64.586
X-177.021 Y-65.863
X-177.183 Y-67.145
X-177.308 Y-68.431
X-177.395 Y-69.72
X-177.446 Y-71.011
X-177.459 Y-72.303
X-177.434 Y-73.595
X-177.372 Y-74.885
X-177.273 Y-76.173
X-177.137 Y-77.458
X-176.963 Y-78.739
X-176.752 Y-80.013
X-176.505 Y-81.282
X-176.221 Y-82.542
X-175.901 Y-83.794
X-175.544 Y-85.036
X-175.152 Y-86.267
X-174.725 Y-87.486
X-174.262 Y-88.692
X-173.764 Y-89.885
X-173.232 Y-91.062
X-172.667 Y-92.224
X-172.069 Y-93.369
X-171.439 Y-94.497
X-170.776 Y-95.607
X-170.083 Y-96.697
X-169.36 Y-97.767
X-168.606 Y-98.817
X-167.824 Y-99.845
X-167.013 Y-100.852
X-166.176 Y-101.835
X-165.311 Y-102.796
X-164.421 Y-103.732
X-163.506 Y-104.644
X-162.567 Y-105.531
X-161.604 Y-106.393
X-160.619 Y-107.229
X-159.612 Y-108.039
X-158.585 Y-108.823
X-157.538 Y-109.58
X-156.473 Y-110.311
X-155.39 Y-111.016
X-154.29 Y-111.694
X-153.174 Y-112.345
X-152.043 Y-112.971
X-150.899 Y-113.57
X-149.74 Y-114.142
X-148.57 Y-114.689
X-147.388 Y-115.211
X-146.195 Y-115.707
X-144.992 Y-116.179
X-143.78 Y-116.627
X-142.559 Y-117.051
X-141.331 Y-117.451
X-140.096 Y-117.83
X-138.854 Y-118.186
X-137.606 Y-118.521
X-136.353 Y-118.836
X-135.095 Y-119.13
X-133.832 Y-119.406
X-132.566 Y-119.663
X-131.296 Y-119.902
X-130.024 Y-120.125
X-128.748 Y-120.331
X-127.47 Y-120.522
X-126.19 Y-120.699
X-124.909 Y-120.862
X-123.625 Y-121.012
X-122.341 Y-121.15
X-121.055 Y-121.277
X-119.768 Y-121.392
X-118.48 Y-121.498
X-117.192 Y-121.594
X-115.903 Y-121.681
X-114.613 Y-121.76
X-113.323 Y-121.83
X-112.032 Y-121.894
X-110.742 Y-121.95
X-109.451 Y-121.999
X-108.159 Y-122.042
X-106.868 Y-122.077
X-105.576 Y-122.107
X-104.284 Y-122.129
X-102.992 Y-122.145
X-101.7 Y-122.153
X-100.408 Y-122.155
X-99.116 Y-122.148
X-97.824 Y-122.133
X-96.532 Y-122.109
X-95.241 Y-122.075
X-93.949 Y-122.032
X-92.658 Y-121.977
X-91.368 Y-121.911
X-90.078 Y-121.832
X-88.789 Y-121.741
X-87.502 Y-121.635
X-86.215 Y-121.514
X-84.931 Y-121.377
X-83.648 Y-121.224
X-82.367 Y-121.053
X-81.089 Y-120.864
X-79.814 Y-120.656
X-78.542 Y-120.429
X-77.274 Y-120.181
X-76.01 Y-119.911
X-74.751 Y-119.62
X-73.498 Y-119.306
X-72.251 Y-118.969
X-71.01 Y-118.608
X-69.777 Y-118.222
X-68.551 Y-117.813
X-67.335 Y-117.378
X-66.127 Y-116.918
X-64.93 Y-116.432
X-63.743 Y-115.921
X-62.568 Y-115.384
X-61.406 Y-114.82
X-60.256 Y-114.23
X-59.121 Y-113.613
X-58 Y-112.971
X-56.894 Y-112.302
X-55.805 Y-111.607
X-54.733 Y-110.886
X-53.679 Y-110.138
X-52.644 Y-109.365
X-51.629 Y-108.566
X-50.634 Y-107.742
X-49.66 Y-106.893
X-48.708 Y-106.019
X-47.779 Y-105.122
X-46.873 Y-104.2
X-45.991 Y-103.256
X-45.134 Y-102.289
X-44.302 Y-101.3
X-43.497 Y-100.289
X-42.719 Y-99.258
X-41.969 Y-98.206
X-41.246 Y-97.135
X-40.553 Y-96.045
X-39.889 Y-94.936
X-39.255 Y-93.81
X-38.653 Y-92.667
X-38.082 Y-91.508
X-37.543 Y-90.334
X-37.036 Y-89.146
X-36.562 Y-87.944
X-36.121 Y-86.729
X-35.714 Y-85.503
X-35.341 Y-84.266
X-35.002 Y-83.019
X-34.698 Y-81.763
X-34.429 Y-80.5
X-34.195 Y-79.229
X-33.997 Y-77.952
X-33.834 Y-76.67
X-33.707 Y-75.385
X-33.617 Y-74.096
X-33.563 Y-72.805
X-33.545 Y-71.513
X-33.565 Y-70.221
X-33.621 Y-68.93
X-33.713 Y-67.641
X-33.841 Y-66.356
X-34.006 Y-65.074
X-34.206 Y-63.798
X-34.443 Y-62.527
X-34.715 Y-61.264
X-35.022 Y-60.009
X-35.365 Y-58.764
X-35.742 Y-57.528
X-36.154 Y-56.303
X-36.6 Y-55.091
X-37.08 Y-53.891
X-37.593 Y-52.705
X-38.139 Y-51.534
X-38.717 Y-50.379
X-39.328 Y-49.24
X-39.97 Y-48.119
X-40.642 Y-47.015
X-41.344 Y-45.931
X-42.075 Y-44.865
X-42.835 Y-43.821
X-43.623 Y-42.796
X-44.438 Y-41.794
X-45.28 Y-40.813
X-46.147 Y-39.856
X-47.039 Y-38.921
X-47.955 Y-38.01
X-48.894 Y-37.122
X-49.856 Y-36.259
X-50.839 Y-35.421
X-51.843 Y-34.608
X-52.867 Y-33.82
X-53.91 Y-33.057
X-54.971 Y-32.32
X-56.05 Y-31.609
X-57.145 Y-30.923
X-58.255 Y-30.263
X-59.381 Y-29.628
X-60.52 Y-29.019
X-61.672 Y-28.434
X-62.837 Y-27.875
X-64.013 Y-27.34
X-65.2 Y-26.829
X-66.397 Y-26.342
X-67.603 Y-25.879
X-68.818 Y-25.439
X-70.041 Y-25.022
X-71.271 Y-24.627
X-72.508 Y-24.253
X-73.751 Y-23.901
X-74.999 Y-23.569
X-76.253 Y-23.256
X-77.511 Y-22.963
X-78.774 Y-22.688
X-80.04 Y-22.431
X-81.31 Y-22.191
X-82.582 Y-21.967
X-83.857 Y-21.759
X-85.135 Y-21.566
X-86.414 Y-21.387
X-87.696 Y-21.221
X-88.979 Y-21.068
X-90.263 Y-20.927
X-91.549 Y-20.797
X-92.835 Y-20.678
X-94.123 Y-20.569
X-95.411 Y-20.47
X-96.7 Y-20.38
X-97.989 Y-20.299
X-99.279 Y-20.226
X-100.57 Y-20.16
X-101.86 Y-20.103
X-103.152 Y-20.052
X-104.443 Y-20.009
X-105.734 Y-19.974
X-107.026 Y-19.945
X-108.318 Y-19.924
X-109.61 Y-19.911
X-110.902 Y-19.905
X-112.194 Y-19.908
X-113.486 Y-19.919
X-114.778 Y-19.939
X-116.07 Y-19.969
X-117.361 Y-20.009
X-118.652 Y-20.059
X-119.943 Y-20.121
X-121.233 Y-20.195
X-122.522 Y-20.281
X-123.81 Y-20.381
X-125.097 Y-20.495
X-126.383 Y-20.624
X-127.667 Y-20.769
X-128.949 Y-20.93
X-130.228 Y-21.108
X-131.505 Y-21.304
X-132.78 Y-21.519
X-134.05 Y-21.752
X-135.317 Y-22.006
X-136.58 Y-22.28
X-137.838 Y-22.575
X-139.09 Y-22.892
X-140.337 Y-23.231
X-141.578 Y-23.593
X-142.811 Y-23.978
X-144.037 Y-24.387
X-145.254 Y-24.82
X-146.462 Y-25.277
X-147.661 Y-25.759
X-148.85 Y-26.266
X-150.027 Y-26.797
X-151.193 Y-27.354
X-152.347 Y-27.936
X-153.487 Y-28.544
X-154.614 Y-29.177
X-155.725 Y-29.835
X-156.821 Y-30.519
X-157.901 Y-31.228
X-158.964 Y-31.963
X-160.01 Y-32.722
X-161.037 Y-33.506
X-162.044 Y-34.315
X-163.032 Y-35.148
X-163.998 Y-36.006
X-164.943 Y-36.887
X-165.866 Y-37.791
X-166.765 Y-38.719
X-167.641 Y-39.669
X-168.493 Y-40.64
X-169.319 Y-41.634
X-170.12 Y-42.647
X-170.895 Y-43.682
X-171.642 Y-44.735
X-172.362 Y-45.808
X-173.054 Y-46.9
X-173.717 Y-48.009
X-174.35 Y-49.135
X-174.954 Y-50.277
X-175.528 Y-51.435
X-176.07 Y-52.608
X-176.581 Y-53.794
X-177.06 Y-54.994
X-177.506 Y-56.207
X-177.92 Y-57.431
X-178.3 Y-58.666
X-178.648 Y-59.91
X-178.962 Y-61.163
X-179.242 Y-62.425
X-179.488 Y-63.693
X-179.699 Y-64.968
X-179.876 Y-66.248
X-180.018 Y-67.532
X-180.125 Y-68.82
X-180.197 Y-70.11
X-180.234 Y-71.401
X-180.236 Y-72.693
X-180.203 Y-73.985
X-180.134 Y-75.275
X-180.03 Y-76.563
X-179.891 Y-77.847
X-179.716 Y-79.128
X-179.507 Y-80.403
X-179.263 Y-81.672
X-178.985 Y-82.933
X-178.672 Y-84.187
X-178.326 Y-85.432
X-177.946 Y-86.667
X-177.532 Y-87.891
X-177.086 Y-89.103
X-176.606 Y-90.303
X-176.095 Y-91.489
X-175.552 Y-92.662
X-174.977 Y-93.819
X-174.372 Y-94.961
X-173.736 Y-96.085
X-173.07 Y-97.192
X-172.375 Y-98.281
X-171.651 Y-99.352
X-170.899 Y-100.402
X-170.119 Y-101.433
X-169.314 Y-102.443
X-168.482 Y-103.432
X-167.625 Y-104.399
X-166.743 Y-105.343
X-165.838 Y-106.265
X-164.91 Y-107.164
X-163.959 Y-108.039
X-162.987 Y-108.89
X-161.994 Y-109.716
X-160.981 Y-110.519
X-159.949 Y-111.297
X-158.899 Y-112.049
X-157.832 Y-112.777
X-156.747 Y-113.48
X-155.647 Y-114.157
X-154.532 Y-114.809
X-153.402 Y-115.437
X-152.259 Y-116.039
X-151.103 Y-116.616
X-149.936 Y-117.169
X-148.757 Y-117.698
X-147.567 Y-118.203
X-146.368 Y-118.685
X-145.16 Y-119.143
X-143.944 Y-119.579
X-142.72 Y-119.992
X-141.489 Y-120.384
X-140.251 Y-120.754
X-139.007 Y-121.104
X-137.758 Y-121.434
X-136.504 Y-121.744
X-135.245 Y-122.036
X-133.982 Y-122.309
X-132.715 Y-122.565
X-131.446 Y-122.804
X-130.173 Y-123.027
X-128.898 Y-123.234
X-127.62 Y-123.427
X-126.341 Y-123.606
X-125.059 Y-123.771
X-123.776 Y-123.924
X-122.492 Y-124.065
X-121.206 Y-124.195
X-119.92 Y-124.314
X-118.632 Y-124.423
X-117.344 Y-124.523
X-116.055 Y-124.613
X-114.766 Y-124.695
X-113.476 Y-124.769
X-112.185 Y-124.835
X-110.895 Y-124.894
X-109.604 Y-124.946
X-108.312 Y-124.99
X-107.021 Y-125.027
X-105.729 Y-125.058
X-104.437 Y-125.081
X-103.145 Y-125.097
X-101.853 Y-125.106
X-100.561
X-99.269 Y-125.099
X-97.977 Y-125.083
X-96.686 Y-125.058
X-95.394 Y-125.023
X-94.103 Y-124.978
X-92.812 Y-124.922
X-91.522 Y-124.854
X-90.232 Y-124.774
X-88.943 Y-124.682
X-87.656 Y-124.575
X-86.369 Y-124.455
X-85.084 Y-124.319
X-83.801 Y-124.167
X-82.52 Y-123.999
X-81.241 Y-123.813
X-79.966 Y-123.609
X-78.693 Y-123.387
X-77.424 Y-123.146
X-76.158 Y-122.884
X-74.897 Y-122.602
X-73.642 Y-122.298
X-72.391 Y-121.973
X-71.147 Y-121.626
X-69.909 Y-121.256
X-68.678 Y-120.863
X-67.455 Y-120.446
X-66.24 Y-120.006
X-65.034 Y-119.541
X-63.838 Y-119.052
X-62.653 Y-118.539
X-61.478 Y-118
X-60.315 Y-117.437
X-59.165 Y-116.849
X-58.027 Y-116.236
X-56.904 Y-115.598
X-55.795 Y-114.936
X-54.701 Y-114.248
X-53.623 Y-113.536
X-52.562 Y-112.799
X-51.518 Y-112.037
X-50.492 Y-111.252
X-49.485 Y-110.442
X-48.497 Y-109.609
X-47.53 Y-108.752
X-46.584 Y-107.873
X-45.659 Y-106.97
X-44.757 Y-106.046
X-43.877 Y-105.099
X-43.022 Y-104.131
X-42.191 Y-103.141
X-41.384 Y-102.132
X-40.603 Y-101.103
X-39.848 Y-100.054
X-39.119 Y-98.987
X-38.418 Y-97.902
X-37.744 Y-96.8
X-37.098 Y-95.681
X-36.482 Y-94.545
X-35.894 Y-93.395
X-35.336 Y-92.229
X-34.809 Y-91.05
X-34.312 Y-89.857
X-33.846 Y-88.652
X-33.411 Y-87.435
X-33.009 Y-86.207
X-32.639 Y-84.969
X-32.302 Y-83.722
X-31.998 Y-82.466
X-31.726 Y-81.203
X-31.488 Y-79.933
X-31.283 Y-78.658
X-31.111 Y-77.377
X-30.974 Y-76.092
X-30.87 Y-74.804
X-30.801 Y-73.514
X-30.766 Y-72.223
X-30.765 Y-70.93
X-30.798 Y-69.639
X-30.866 Y-68.349
X-30.967 Y-67.061
X-31.103 Y-65.776
X-31.274 Y-64.495
X-31.478 Y-63.219
X-31.717 Y-61.949
X-31.989 Y-60.686
X-32.295 Y-59.431
X-32.633 Y-58.184
X-33.005 Y-56.946
X-33.409 Y-55.719
X-33.845 Y-54.503
X-34.313 Y-53.299
X-34.812 Y-52.107
X-35.343 Y-50.929
X-35.904 Y-49.765
X-36.495 Y-48.616
X-37.117 Y-47.483
X-37.767 Y-46.367
X-38.446 Y-45.267
X-39.153 Y-44.186
X-39.888 Y-43.123
X-40.65 Y-42.08
X-41.438 Y-41.056
X-42.252 Y-40.053
X-43.091 Y-39.07
X-43.954 Y-38.109
X-44.841 Y-37.169
X-45.751 Y-36.252
X-46.683 Y-35.357
X-47.636 Y-34.485
X-48.61 Y-33.636
X-49.604 Y-32.81
X-50.617 Y-32.008
X-51.648 Y-31.23
X-52.698 Y-30.476
X-53.764 Y-29.746
X-54.846 Y-29.04
X-55.944 Y-28.359
X-57.056 Y-27.701
X-58.182 Y-27.068
X-59.321 Y-26.459
X-60.473 Y-25.874
X-61.637 Y-25.312
X-62.812 Y-24.774
X-63.997 Y-24.259
X-65.192 Y-23.767
X-66.395 Y-23.298
X-67.608 Y-22.851
X-68.828 Y-22.425
X-70.055 Y-22.021
X-71.289 Y-21.637
X-72.529 Y-21.274
X-73.774 Y-20.931
X-75.025 Y-20.607
X-76.28 Y-20.301
X-77.54 Y-20.014
X-78.803 Y-19.743
X-80.07 Y-19.49
X-81.34 Y-19.253
X-82.613 Y-19.031
X-83.889 Y-18.824
X-85.166 Y-18.632
X-86.446 Y-18.453
X-87.727 Y-18.287
X-89.01 Y-18.133
X-90.294 Y-17.991
X-91.58 Y-17.86
X-92.866 Y-17.739
X-94.154 Y-17.629
X-95.442 Y-17.528
X-96.73 Y-17.436
X-98.02 Y-17.353
X-99.31 Y-17.278
X-100.6 Y-17.212
X-101.891 Y-17.153
X-103.182 Y-17.102
X-104.473 Y-17.058
X-105.765 Y-17.023
X-107.056 Y-16.994
X-108.348 Y-16.974
X-109.64 Y-16.961
X-110.932 Y-16.957
X-112.224 Y-16.961
X-113.516 Y-16.974
X-114.808 Y-16.996
X-116.1 Y-17.028
X-117.391 Y-17.07
X-118.682 Y-17.123
X-119.973 Y-17.187
X-121.263 Y-17.263
X-122.552 Y-17.352
X-123.84 Y-17.454
X-125.126 Y-17.57
X-126.412 Y-17.7
X-127.696 Y-17.845
X-128.978 Y-18.007
X-130.258 Y-18.184
X-131.535 Y-18.379
X-132.809 Y-18.592
X-134.081 Y-18.822
X-135.348 Y-19.072
X-136.612 Y-19.341
X-137.871 Y-19.63
X-139.126 Y-19.939
X-140.375 Y-20.27
X-141.618 Y-20.622
X-142.855 Y-20.995
X-144.085 Y-21.391
X-145.307 Y-21.81
X-146.521 Y-22.251
X-147.727 Y-22.716
X-148.923 Y-23.204
X-150.11 Y-23.716
X-151.286 Y-24.252
X-152.45 Y-24.812
X-153.602 Y-25.396
X-154.742 Y-26.004
X-155.869 Y-26.636
X-156.982 Y-27.293
X-158.08 Y-27.973
X-159.163 Y-28.678
X-160.23 Y-29.406
X-161.281 Y-30.158
X-162.314 Y-30.934
X-163.33 Y-31.733
X-164.326 Y-32.555
X-165.304 Y-33.4
X-166.261 Y-34.268
X-167.198 Y-35.158
X-168.113 Y-36.07
X-169.007 Y-37.003
X-169.878 Y-37.957
X-170.725 Y-38.933
X-171.549 Y-39.928
X-172.348 Y-40.944
X-173.122 Y-41.978
X-173.871 Y-43.031
X-174.593 Y-44.102
X-175.289 Y-45.191
X-175.958 Y-46.296
X-176.599 Y-47.418
X-177.213 Y-48.555
X-177.798 Y-49.707
X-178.353 Y-50.874
X-178.88 Y-52.054
X-179.376 Y-53.247
X-179.842 Y-54.451
X-180.278 Y-55.668
X-180.683 Y-56.895
X-181.057 Y-58.132
X-181.399 Y-59.378
X-181.708 Y-60.632
X-181.986 Y-61.894
X-182.231 Y-63.163
X-182.444 Y-64.437
X-182.624 Y-65.716
X-182.771 Y-67
X-182.885 Y-68.287
X-182.967 Y-69.577
X-183.015 Y-70.868
X-183.03 Y-72.16
X-183.012 Y-73.452
X-182.961 Y-74.743
X-182.877 Y-76.032
X-182.759 Y-77.319
X-182.609 Y-78.602
X-182.425 Y-79.881
X-182.209 Y-81.155
X-181.959 Y-82.422
X-181.677 Y-83.683
X-181.363 Y-84.936
X-181.016 Y-86.181
X-180.637 Y-87.416
X-180.227 Y-88.642
X-179.786 Y-89.856
X-179.314 Y-91.059
X-178.812 Y-92.249
X-178.279 Y-93.426
X-177.717 Y-94.59
X-177.125 Y-95.738
X-176.504 Y-96.872
X-175.855 Y-97.989
X-175.179 Y-99.089
X-174.474 Y-100.173
X-173.743 Y-101.238
X-172.986 Y-102.285
X-172.203 Y-103.313
X-171.395 Y-104.32
X-170.561 Y-105.308
X-169.704 Y-106.275
X-168.824 Y-107.221
X-167.921 Y-108.145
X-166.997 Y-109.048
X-166.051 Y-109.928
X-165.085 Y-110.785
X-164.098 Y-111.62
X-163.093 Y-112.432
X-162.07 Y-113.221
X-161.029 Y-113.986
X-159.971 Y-114.728
X-158.896 Y-115.445
X-157.807 Y-116.139
X-156.702 Y-116.81
X-155.583 Y-117.456
X-154.451 Y-118.079
X-153.306 Y-118.678
X-152.15 Y-119.254
X-150.982 Y-119.806
X-149.803 Y-120.336
X-148.615 Y-120.842
X-147.417 Y-121.326
X-146.21 Y-121.788
X-144.995 Y-122.228
X-143.773 Y-122.647
X-142.544 Y-123.045
X-141.308 Y-123.423
X-140.066 Y-123.78
X-138.819 Y-124.119
X-137.568 Y-124.438
X-136.311 Y-124.739
X-135.05 Y-125.023
X-133.786 Y-125.289
X-132.519 Y-125.539
X-131.248 Y-125.773
X-129.974 Y-125.992
X-128.699 Y-126.196
X-127.421 Y-126.386
X-126.141 Y-126.563
X-124.859 Y-126.727
X-123.576 Y-126.879
X-122.292 Y-127.02
X-121.006 Y-127.149
X-119.72 Y-127.269
X-118.432 Y-127.378
X-117.144 Y-127.478
X-115.855 Y-127.569
X-114.566 Y-127.652
X-113.276 Y-127.726
X-111.986 Y-127.793
X-110.695 Y-127.852
X-109.404 Y-127.903
X-108.113 Y-127.947
X-106.821 Y-127.984
X-105.529 Y-128.014
X-104.237 Y-128.035
X-102.945 Y-128.05
X-101.653 Y-128.056
X-100.361 Y-128.054
X-99.069 Y-128.044
X-97.777 Y-128.024
X-96.486 Y-127.996
X-95.194 Y-127.957
X-93.903 Y-127.908
X-92.612 Y-127.849
X-91.322 Y-127.777
X-90.033 Y-127.694
X-88.744 Y-127.597
X-87.457 Y-127.487
X-86.171 Y-127.363
X-84.886 Y-127.225
X-83.604 Y-127.07
X-82.323 Y-126.9
X-81.044 Y-126.713
X-79.769 Y-126.509
X-78.496 Y-126.286
X-77.226 Y-126.046
X-75.961 Y-125.786
X-74.699 Y-125.506
X-73.442 Y-125.207
X-72.191 Y-124.887
X-70.944 Y-124.546
X-69.704 Y-124.183
X-68.471 Y-123.799
X-67.244 Y-123.393
X-66.025 Y-122.964
X-64.815 Y-122.512
X-63.613 Y-122.037
X-62.421 Y-121.539
X-61.239 Y-121.018
X-60.067 Y-120.474
X-58.907 Y-119.905
X-57.758 Y-119.313
X-56.623 Y-118.697
X-55.5 Y-118.057
X-54.391 Y-117.394
X-53.297 Y-116.706
X-52.218 Y-115.996
X-51.155 Y-115.262
X-50.108 Y-114.505
X-49.078 Y-113.724
X-48.066 Y-112.922
X-47.072 Y-112.096
X-46.096 Y-111.249
X-45.141 Y-110.379
X-44.205 Y-109.488
X-43.291 Y-108.575
X-42.397 Y-107.642
X-41.526 Y-106.688
X-40.677 Y-105.714
X-39.851 Y-104.72
X-39.049 Y-103.707
X-38.272 Y-102.675
X-37.519 Y-101.625
X-36.791 Y-100.557
X-36.09 Y-99.472
X-35.414 Y-98.371
X-34.765 Y-97.253
X-34.144 Y-96.121
X-33.55 Y-94.973
X-32.983 Y-93.812
X-32.446 Y-92.637
X-31.937 Y-91.45
X-31.457 Y-90.25
X-31.007 Y-89.039
X-30.587 Y-87.817
X-30.197 Y-86.585
X-29.837 Y-85.344
X-29.508 Y-84.095
X-29.211 Y-82.837
X-28.944 Y-81.573
X-28.71 Y-80.302
X-28.508 Y-79.026
X-28.337 Y-77.746
X-28.198 Y-76.461
X-28.092 Y-75.173
X-28.018 Y-73.883
X-27.976 Y-72.592
X-27.966 Y-71.3
X-27.988 Y-70.008
X-28.043 Y-68.717
X-28.13 Y-67.428
X-28.25 Y-66.142
X-28.402 Y-64.859
X-28.586 Y-63.58
X-28.802 Y-62.306
X-29.049 Y-61.038
X-29.329 Y-59.776
X-29.64 Y-58.522
X-29.983 Y-57.277
X-30.357 Y-56.04
X-30.762 Y-54.813
X-31.197 Y-53.596
X-31.663 Y-52.391
X-32.158 Y-51.198
X-32.682 Y-50.017
X-33.236 Y-48.849
X-33.818 Y-47.696
X-34.429 Y-46.557
X-35.067 Y-45.434
X-35.732 Y-44.326
X-36.425 Y-43.235
X-37.144 Y-42.162
X-37.888 Y-41.106
X-38.658 Y-40.068
X-39.452 Y-39.049
X-40.271 Y-38.05
X-41.113 Y-37.07
X-41.979 Y-36.11
X-42.867 Y-35.172
X-43.776 Y-34.254
X-44.707 Y-33.358
X-45.658 Y-32.483
X-46.628 Y-31.63
X-47.618 Y-30.8
X-48.626 Y-29.991
X-49.652 Y-29.206
X-50.694 Y-28.442
X-51.753 Y-27.702
X-52.828 Y-26.985
X-53.917 Y-26.29
X-55.021 Y-25.619
X-56.139 Y-24.97
X-57.269 Y-24.345
X-58.412 Y-23.742
X-59.567 Y-23.162
X-60.732 Y-22.604
X-61.908 Y-22.069
X-63.094 Y-21.555
X-64.289 Y-21.064
X-65.492 Y-20.594
X-66.704 Y-20.145
X-67.923 Y-19.717
X-69.149 Y-19.31
X-70.382 Y-18.922
X-71.62 Y-18.554
X-72.864 Y-18.206
X-74.113 Y-17.875
X-75.367 Y-17.563
X-76.625 Y-17.268
X-77.887 Y-16.99
X-78.235 Y-16.918
X-78.456 Y-16.88
X-78.679 Y-16.858
X-78.903 Y-16.85
X-134.173
X-135.463 Y-16.915
X-136.108 Y-16.951
X-137.396 Y-17.061
X-138.676 Y-17.235
X-139.948 Y-17.461
X-141.212 Y-17.731
X-142.467 Y-18.039
X-143.713 Y-18.38
X-144.95 Y-18.753
X-146.178 Y-19.153
X-147.397 Y-19.581
X-148.607 Y-20.035
X-149.807 Y-20.514
X-150.997 Y-21.018
X-152.176 Y-21.546
X-153.344 Y-22.098
X-154.501 Y-22.674
X-155.645 Y-23.274
X-156.777 Y-23.896
X-157.896 Y-24.543
X-159.001 Y-25.212
X-160.092 Y-25.904
X-161.169 Y-26.619
X-162.229 Y-27.357
X-163.274 Y-28.117
X-164.302 Y-28.9
X-165.313 Y-29.705
X-166.305 Y-30.532
X-167.28 Y-31.381
X-168.235 Y-32.251
X-169.17 Y-33.142
X-170.085 Y-34.055
X-170.979 Y-34.988
X-171.851 Y-35.941
X-172.702 Y-36.913
X-173.53 Y-37.905
X-174.335 Y-38.916
X-175.116 Y-39.945
X-175.874 Y-40.991
X-176.607 Y-42.055
X-177.315 Y-43.136
