%
(1001)
(z0 top machine -5-5)
(T1  D=2 CR=0 - ZMIN=-3 - flat end mill)
G90 G94
G17
G21

(2D Contour9)
M9
T1 M6
S12000 M3
G54
M9
G0 X-162.787 Y-67.649
Z15
Z5
G1 Z-0.3 F283.3
X-162.782 Y-67.645 Z-0.352
X-162.766 Y-67.632 Z-0.4
X-162.741 Y-67.613 Z-0.441
X-162.709 Y-67.587 Z-0.473
X-162.672 Y-67.556 Z-0.493
X-162.631 Y-67.524 Z-0.5
X-162.475 Y-67.399 F850
G3 X-162.445 Y-67.118 I-0.125 J0.156
G2 X-162.896 Y-66.366 I2.514 J2.02
X-163.395 Y-64.265 I5.844 J2.499
G3 X-163.482 Y-63.167 I-33.891 J-2.123
X-163.781 Y-62.107 I-3.056 J-0.291
X-165.495 Y-60.597 I-2.678 J-1.312
G2 X-167.586 Y-59.675 I4.269 J12.504
X-169.419 Y-56.683 I1.703 J3.101
X-167.952 Y-53.495 I3.934 J0.121
X-166.383 Y-52.681 I2.806 J-3.487
X-164.655 Y-52.307 I3.651 J-12.699
X-163.532 Y-52.185 I2.203 J-14.973
G1 X-162.484 Y-52.11
G2 X-161.924 Y-52.085 I0.715 J-9.997
G3 X-161.366 Y-52.045 I-0.078 J5.041
X-161.016 Y-51.67 I-0.051 J0.398
G2 X-160.929 Y-51.025 I4.158 J-0.23
X-160.728 Y-50.407 I3.062 J-0.658
X-160.525 Y-50.046 I2.072 J-0.924
G3 X-160.292 Y-49.705 I-48.867 J33.588
X-160.363 Y-48.987 I-0.467 J0.317
G2 X-160.902 Y-48.206 I1.812 J1.83
X-161.096 Y-47.277 I2.036 J0.908
G3 X-161.381 Y-46.616 I-0.89 J0.008
G2 X-161.945 Y-45.894 I1.945 J2.101
X-162.236 Y-45.025 I2.252 J1.237
G3 X-162.433 Y-44.362 I-2.37 J-0.344
G2 X-162.672 Y-43.661 I3.183 J1.475
X-162.7 Y-42.921 I1.976 J0.447
G3 X-162.603 Y-41.821 I-9.661 J1.414
G1 X-162.565 Y-40.654
X-162.469 Y-37.777
G2 X-162.368 Y-37.255 I1.65 J-0.047
X-162.135 Y-36.778 I2.452 J-0.901
G3 X-162.157 Y-36.199 I-0.44 J0.273
X-163.592 Y-34.769 I-5.255 J-3.837
X-165.52 Y-34.15 I-1.909 J-2.632
X-167.419 Y-34.453 I0.039 J-6.351
G2 X-169.305 Y-34.828 I-2.593 J8.094
X-170.237 Y-34.818 I-0.409 J4.902
X-171.162 Y-34.703 I2.833 J26.531
G3 X-174.636 Y-34.501 I-2.946 J-20.714
X-178.032 Y-35.267 I0.225 J-8.904
X-179.693 Y-36.366 I2.453 J-5.514
X-180.996 Y-37.873 I6.313 J-6.774
G2 X-181.494 Y-38.551 I-12.042 J8.328
X-182.075 Y-39.159 I-3.338 J2.604
G3 X-182.225 Y-39.681 I0.322 J-0.375
G2 X-181.962 Y-40.922 I-6.732 J-2.079
G1 X-181.813 Y-42.168
G3 X-181.291 Y-45.323 I35.587 J4.258
X-179.984 Y-48.241 I7.399 J1.564
X-179.004 Y-49.362 I7.175 J5.279
X-177.798 Y-50.236 I3.656 J3.777
X-175.412 Y-51.326 I10.863 J20.618
G2 X-173.572 Y-53.196 I-1.167 J-2.988
X-173.377 Y-54.508 I-3.005 J-1.117
X-173.739 Y-55.783 I-3.091 J0.188
X-174.262 Y-56.651 I-9 J4.825
X-174.837 Y-57.485 I-34.238 J22.989
G3 X-176.989 Y-60.737 I51.104 J-36.167
X-178.375 Y-64.382 I8.776 J-5.424
X-178.557 Y-66.766 I12.14 J-2.126
X-178.235 Y-69.137 I10.503 J0.221
X-177.668 Y-71.071 I27.196 J6.921
G2 X-177.306 Y-73.055 I-6.839 J-2.275
X-177.896 Y-74.838 I-2.663 J-0.108
X-179.121 Y-76.263 I-23.971 J19.38
G3 X-181.229 Y-78.645 I71.673 J-65.555
X-183.161 Y-81.171 I21.92 J-18.769
X-184.657 Y-83.546 I32.252 J-21.962
G1 X-187.113 Y-88.136
X-191.818 Y-97.992
G2 X-194.016 Y-102.14 I-70.821 J34.867
X-196.605 Y-106.056 I-30.374 J17.269
X-197.004 Y-106.526 I-4.648 J3.544
G3 X-197.414 Y-106.987 I7.339 J-6.933
X-197.417 Y-107.516 I0.319 J-0.266
X-196.341 Y-108.777 I28.268 J23.033
X-195.172 Y-109.951 I11.471 J10.249
X-194.573 Y-110.272 I0.948 J1.051
G2 X-193.92 Y-110.456 I-3.407 J-13.369
G3 X-192.073 Y-110.936 I6.308 J20.482
X-190.204 Y-111.322 I34.608 J162.613
G2 X-188.41 Y-111.743 I-5.637 J-28.067
X-186.974 Y-112.898 I-0.593 J-2.208
X-186.749 Y-114.389 I-2.073 J-1.075
G3 X-186.965 Y-115.881 I20.844 J-3.773
X-187.113 Y-117.296 I194.308 J-21.047
G2 X-187.298 Y-118.708 I-23.646 J2.387
X-187.601 Y-119.789 I-4.96 J0.803
X-188.24 Y-120.713 I-2.381 J0.964
X-188.913 Y-121.244 I-3.74 J4.052
X-189.638 Y-121.703 I-9.344 J13.965
X-190.191 Y-122.012 I-5.571 J9.323
G3 X-190.722 Y-122.356 I1.554 J-2.983
X-191.085 Y-123.243 I0.604 J-0.764
X-190.807 Y-124.741 I13.314 J1.695
G2 X-190.546 Y-126.241 I-10.873 J-2.662
X-190.562 Y-127.67 I-6.187 J-0.646
G3 X-190.704 Y-129.092 I26.389 J-3.349
G2 X-190.712 Y-129.179 I-1.595 J0.116
G3 X-190.72 Y-129.267 I1.074 J-0.138
X-190.3 Y-130.081 I0.916 J-0.042
X-189.399 Y-130.405 I1.155 J1.8
X-188.444 Y-130.467 I1.037 J8.633
X-188.244 Y-130.182 I0.002 J0.211
G2 X-188.596 Y-128.067 I5.437 J1.992
X-188.389 Y-125.933 I14.206 J-0.303
X-187.164 Y-122.268 I12.728 J-2.216
X-185.122 Y-118.987 I20.478 J-10.468
G1 X-183.846 Y-117.275
G2 X-182.298 Y-115.535 I10.865 J-8.103
X-180.676 Y-114.786 I1.922 J-2.03
X-178.949 Y-115.242 I0.268 J-2.484
X-178.078 Y-116.237 I-1.704 J-2.369
X-177.522 Y-117.437 I-10.453 J-5.577
G1 X-176.151 Y-121.418
G2 X-175.448 Y-124.016 I-45.081 J-13.598
X-175.105 Y-126.685 I-12.127 J-2.914
X-175.165 Y-127.605 I-5.504 J-0.108
X-175.314 Y-128.516 I-31.225 J4.661
X-175.472 Y-129.329 I-29.414 J5.273
G3 X-175.561 Y-130.152 I4.169 J-0.867
X-175.237 Y-130.486 I0.33 J-0.003
G1 X-169.207 Y-130.469
G3 X-169.151 Y-130.242 I-0.001 J0.121
G2 X-171.568 Y-128.671 I8.504 J15.726
X-173.146 Y-126.258 I2.683 J3.478
X-173.527 Y-122.446 I12.841 J3.21
X-173.278 Y-118.623 I97.033 J-4.417
X-173.039 Y-117.401 I5.743 J-0.489
X-172.324 Y-116.382 I1.95 J-0.606
X-171.346 Y-115.924 I1.549 J-2.038
X-170.279 Y-115.756 I1.765 J-7.722
G3 X-165.747 Y-115.307 I-19.02 J214.921
X-161.389 Y-113.985 I-1.351 J12.3
X-159.952 Y-113.174 I-11.158 J21.457
G2 X-158.502 Y-112.386 I8.62 J-14.13
X-157.322 Y-111.875 I7.11 J-14.794
G3 X-156.14 Y-111.372 I-7.093 J18.304
X-154.649 Y-110.143 I-1.619 J3.482
X-153.921 Y-109.062 I-15.356 J11.125
G2 X-153.141 Y-108.019 I6.589 J-4.115
X-151.029 Y-106.305 I6.271 J-5.568
G3 X-148.734 Y-104.844 I-14.023 J24.556
X-148.633 Y-104.372 I-0.206 J0.291
X-149.542 Y-102.881 I-50.913 J-30.026
G2 X-150.438 Y-101.382 I30.746 J19.379
G1 X-153.229 Y-96.11
X-156.338 Y-89.683
X-160.62 Y-80.087
G2 X-161.543 Y-77.779 I48.806 J20.845
X-160.881 Y-75.383 I1.986 J0.74
X-159.821 Y-74.799 I2.226 J-2.782
G3 X-158.779 Y-74.183 I-0.994 J2.87
X-158.641 Y-74.046 I-1.398 J1.548
X-158.522 Y-73.892 I-0.876 J0.805
X-157.977 Y-73.015 I-18.328 J11.989
G2 X-157.217 Y-72.315 I1.533 J-0.903
X-155.764 Y-72.089 I1.099 J-2.279
G3 X-154.297 Y-71.997 I0.511 J3.622
X-153.098 Y-71.42 I-0.95 J3.506
X-152.051 Y-70.6 I-12.378 J16.876
G1 X-148.322 Y-67.2
G2 X-146.923 Y-66.28 I5.235 J-6.435
X-145.43 Y-65.522 I35.55 J-68.165
X-145.318 Y-65.471 I0.958 J-1.939
G3 X-145.208 Y-65.419 I-0.704 J1.655
X-145.139 Y-65.059 I-0.105 J0.207
G2 X-145.654 Y-63.76 I1.553 J1.368
G3 X-145.882 Y-63.708 I-0.121 J-0.004
X-146.617 Y-65.135 I75.564 J-39.787
G2 X-147.649 Y-66.365 I-3.111 J1.564
X-148.505 Y-66.841 I-2.226 J2.992
G3 X-149.413 Y-67.206 I32.523 J-82.293
G1 X-153.566 Y-68.836
G2 X-155.53 Y-68.536 I-0.681 J2.121
X-156.445 Y-66.773 I1.242 J1.764
X-155.866 Y-63.852 I7.655
X-154.467 Y-61.224 I14.075 J-5.809
G3 X-153.771 Y-59.967 I-7.327 J4.877
X-153.59 Y-58.542 I-2.23 J1.006
X-153.805 Y-57.834 I-3.005 J-0.523
X-154.252 Y-57.246 I-1.449 J-0.639
G1 X-154.339 Y-57.175
G3 X-154.427 Y-57.115 I-0.396 J-0.486
X-154.86 Y-57.256 I-0.152 J-0.269
G2 X-155.573 Y-58.721 I-29.397 J13.396
G3 X-156.084 Y-60.268 I4.58 J-2.373
G1 X-156.342 Y-61.856
G2 X-156.671 Y-63.5 I-22.436 J3.638
X-157.307 Y-65.467 I-12.844 J3.069
X-158.382 Y-67.232 I-6.171 J2.545
X-159.78 Y-68.129 I-2.155 J1.823
X-161.431 Y-67.953 I-0.604 J2.168
X-162.445 Y-67.118 I1.5 J2.855
X-162.465 Y-66.732 I0.257 J0.207
G3 X-162.448 Y-66.346 I-0.321 J0.207
G2 X-162.773 Y-65.567 I4.033 J2.138
X-162.967 Y-64.275 I4.078 J1.272
G3 X-163.081 Y-62.974 I-7.07 J0.034
X-163.657 Y-61.546 I-3.755 J-0.685
X-164.785 Y-60.5 I-2.735 J-1.816
X-166.808 Y-59.603 I-5.75 J-10.243
G2 X-168.57 Y-58.263 I1.091 J3.262
X-168.962 Y-55.632 I2.565 J1.728
X-167.318 Y-53.541 I3.515 J-1.073
X-164.514 Y-52.685 I3.17 J-5.361
G3 X-161.592 Y-52.454 I-4.27 J72.518
G2 X-161.291 Y-52.43 I0.796 J-7.996
G3 X-160.992 Y-52.393 I-0.157 J2.549
X-160.623 Y-51.948 I-0.08 J0.442
G2 X-160.523 Y-51.09 I3.532 J0.022
X-160.204 Y-50.287 I3.046 J-0.742
X-160.054 Y-50.055 I1.955 J-1.108
G3 X-159.893 Y-49.83 I-5.443 J4.04
X-159.775 Y-49.268 I-0.624 J0.425
G1 X-159.782 Y-49.229
X-159.786 Y-49.21
X-159.789 Y-49.191
G3 X-160.028 Y-48.753 I-0.744 J-0.122
G2 X-160.558 Y-47.989 I1.37 J1.516
X-160.684 Y-47.067 I1.808 J0.715
G3 X-160.92 Y-46.488 I-0.655 J0.07
G2 X-161.291 Y-46.156 I3.878 J4.708
X-161.595 Y-45.763 I1.235 J1.272
X-161.76 Y-45.361 I1.461 J0.833
X-161.845 Y-44.935 I3.315 J0.88
G3 X-162.06 Y-44.214 I-2.374 J-0.317
G2 X-162.272 Y-43.615 I2.634 J1.267
X-162.299 Y-42.979 I1.658 J0.389
G3 X-162.206 Y-41.907 I-9.137 J1.337
G2 X-162.171 Y-40.831 I154.659 J-4.435
G1 X-162.154 Y-40.322
X-162.069 Y-37.789
G2 X-161.949 Y-37.262 I1.383 J-0.04
X-161.661 Y-36.804 I1.79 J-0.803
G3 X-161.629 Y-36.259 I-0.35 J0.294
X-163.141 Y-34.584 I-6.159 J-4.037
X-165.242 Y-33.758 I-2.347 J-2.886
X-167.235 Y-33.999 I-0.359 J-5.396
G2 X-169.2 Y-34.418 I-3.126 J9.856
X-170.071 Y-34.428 I-0.489 J4.326
X-170.937 Y-34.331 I1.569 J17.796
G3 X-175.737 Y-34.21 I-2.937 J-21.344
X-180.123 Y-36.165 I0.636 J-7.325
X-181.081 Y-37.284 I4.534 J-4.848
G2 X-181.948 Y-38.474 I-18.414 J12.505
X-182.242 Y-38.785 I-1.764 J1.377
X-182.588 Y-39.038 I-1.68 J1.93
G3 X-182.727 Y-39.469 I0.181 J-0.296
G2 X-182.505 Y-40.103 I-5.009 J-2.108
X-182.374 Y-40.761 I-4.094 J-1.154
G3 X-181.89 Y-44.574 I196.878 J23.09
X-180.524 Y-48.168 I8.459 J1.159
X-179.565 Y-49.39 I8.625 J5.778
X-178.365 Y-50.376 I4.019 J3.67
X-177.107 Y-51.038 I6.171 J10.195
G1 X-175.758 Y-51.649
G2 X-174.796 Y-52.203 I-2.344 J-5.18
X-174.072 Y-53.043 I-1.363 J-1.907
X-173.824 Y-54.614 I-2.279 J-1.165
X-174.387 Y-56.102 I-3.898 J0.627
G1 X-177.14 Y-60.183
G3 X-178.746 Y-64.288 I11.86 J-7.007
X-178.75 Y-68.697 I10.275 J-2.213
X-178.294 Y-70.408 I17.279 J3.69
G2 X-177.838 Y-72.118 I-15.668 J-5.093
X-177.705 Y-73.073 I-6.972 J-1.463
X-177.883 Y-74.02 I-1.885 J-0.135
X-178.481 Y-74.934 I-3.674 J1.749
X-179.202 Y-75.754 I-51.094 J44.236
G1 X-181.969 Y-78.88
G3 X-185.493 Y-84.184 I28.37 J-22.675
X-188.397 Y-89.851 I110.864 J-60.383
G1 X-192.516 Y-98.492
G2 X-194.664 Y-102.449 I-62.156 J31.176
X-197.207 Y-106.165 I-27.584 J16.15
X-197.566 Y-106.575 I-4.4 J3.49
G3 X-197.929 Y-106.982 I4.949 J-4.777
X-197.933 Y-107.513 I0.326 J-0.268
X-196.768 Y-108.887 I23.369 J18.618
X-195.513 Y-110.18 I17.763 J15.994
X-194.716 Y-110.641 I1.347 J1.411
G1 X-193.837 Y-110.899
X-188.698 Y-112.072
G2 X-187.488 Y-112.899 I-0.638 J-2.233
X-187.163 Y-114.327 I-1.407 J-1.072
G1 X-187.777 Y-119.102
G2 X-188.981 Y-120.774 I-2.584 J0.591
G3 X-190.706 Y-121.902 I17.039 J-27.935
X-191.225 Y-122.315 I3.124 J-4.464
X-191.473 Y-122.93 I0.505 J-0.561
X-191.25 Y-124.467 I10.643 J0.759
G2 X-190.977 Y-125.996 I-18.806 J-4.145
X-190.914 Y-127.115 I-6.95 J-0.953
X-190.986 Y-128.233 I-13.865 J0.328
X-191.08 Y-129.048 I-39.696 J4.163
G3 X-191.069 Y-129.867 I2.955 J-0.371
X-190.879 Y-130.138 I0.366 J0.056
G2 X-190.597 Y-130.31 I-1.414 J-2.63
G3 X-189.217 Y-130.807 I1.632 J2.364
X-187.751 Y-130.87 I1.418 J16.119
X-187.602 Y-130.597 I-0.001 J0.177
G2 X-188.165 Y-128.853 I3.041 J1.945
X-188.139 Y-127.021 I13.111 J0.73
X-187.207 Y-123.284 I12.005 J-1.011
X-185.315 Y-119.93 I16.349 J-7.01
X-182.989 Y-116.901 I47.026 J-33.713
X-181.717 Y-115.624 I7.122 J-5.821
X-179.964 Y-115.202 I1.31 J-1.589
X-178.521 Y-116.285 I-0.469 J-2.126
X-177.764 Y-117.922 I-11.941 J-6.518
G1 X-176.443 Y-121.838
G2 X-175.686 Y-124.861 I-33.085 J-9.893
X-175.625 Y-127.977 I-8.491 J-1.724
X-175.859 Y-129.227 I-27.073 J4.407
G3 X-175.955 Y-130.495 I4.717 J-0.994
X-175.561 Y-130.878 I0.406 J0.023
G1 X-167.44 Y-130.855
G3 X-167.399 Y-130.637 I-0.001 J0.113
G2 X-169.473 Y-129.656 I7.625 J18.8
X-171.336 Y-128.315 I4.384 J8.054
X-172.18 Y-127.397 I5.471 J5.879
X-172.729 Y-126.277 I2.347 J1.844
X-173.123 Y-122.516 I13.088 J3.272
X-172.887 Y-118.741 I72.191 J-2.621
X-172.723 Y-117.7 I7.814 J-0.695
X-172.191 Y-116.79 I1.705 J-0.387
X-171.273 Y-116.316 I1.356 J-1.499
X-170.253 Y-116.155 I1.8 J-8.098
G1 X-165.745 Y-115.694
G3 X-162.92 Y-115.029 I-2.587 J17.315
X-160.282 Y-113.818 I-3.872 J11.915
G2 X-158.592 Y-112.892 I11.115 J-18.276
X-156.84 Y-112.089 I16.067 J-32.735
X-156.385 Y-111.906 I4.312 J-10.102
G3 X-155.933 Y-111.717 I-2.254 J6.01
X-154.357 Y-110.422 I-1.719 J3.697
X-153.679 Y-109.399 I-11.083 J8.081
G2 X-152.953 Y-108.409 I5.677 J-3.407
X-150.674 Y-106.552 I6.863 J-6.094
G3 X-148.204 Y-104.957 I-14.529 J25.205
X-148.104 Y-104.482 I-0.21 J0.292
X-148.782 Y-103.392 I-25.082 J-14.844
G2 X-149.453 Y-102.299 I19.428 J12.685
G1 X-152.148 Y-97.35
X-155.175 Y-91.216
X-159.152 Y-82.474
X-161.096 Y-77.914
G2 X-161.238 Y-76.764 I2.203 J0.857
X-160.69 Y-75.744 I1.594 J-0.199
X-159.664 Y-75.155 I2.067 J-2.412
G3 X-158.629 Y-74.58 I-1.125 J3.244
X-158.355 Y-74.325 I-1.693 J2.093
X-158.133 Y-74.022 I-1.148 J1.072
G2 X-157.692 Y-73.265 I23.595 J-13.263
X-157.043 Y-72.675 I1.318 J-0.798
X-155.937 Y-72.478 I0.906 J-1.877
G3 X-154.813 Y-72.487 I0.616 J6.367
X-153.181 Y-71.932 I-0.278 J3.49
X-151.794 Y-70.906 I-7.885 J12.112
G1 X-148.069 Y-67.51
G2 X-146.712 Y-66.607 I5.377 J-6.61
X-145.262 Y-65.861 I23.783 J-44.45
X-144.844 Y-65.664 I5.8 J-11.737
G3 X-144.435 Y-65.449 I-1.587 J3.519
X-144.436 Y-65.127 I-0.097 J0.16
G2 X-145.175 Y-64.213 I0.854 J1.446
X-145.198 Y-63.038 I1.869 J0.625
X-144.482 Y-61.495 I5.413 J-1.573
G3 X-143.585 Y-60.05 I-23.562 J15.636
X-143.61 Y-59.888 I-0.113 J0.065
G1 X-143.627 Y-59.872
G3 X-143.815 Y-59.881 I-0.089 J-0.095
X-145.4 Y-62.16 I9.571 J-8.352
G2 X-146.752 Y-64.585 I-122.544 J66.707
X-147.2 Y-65.306 I-9.872 J5.631
X-147.761 Y-65.943 I-2.728 J1.839
X-148.529 Y-66.413 I-1.757 J2.008
G3 X-149.362 Y-66.752 I26.994 J-67.58
G1 X-153.613 Y-68.429
G2 X-155.186 Y-68.282 I-0.626 J1.795
X-156.036 Y-66.95 I0.851 J1.48
X-155.979 Y-65.761 I4.429 J0.385
X-155.706 Y-64.603 I11.811 J-2.171
X-155.096 Y-63.073 I8.043 J-2.321
X-154.269 Y-61.649 I15.105 J-7.826
G3 X-153.485 Y-60.317 I-15.018 J9.73
X-153.158 Y-58.807 I-2.515 J1.336
X-153.49 Y-57.572 I-3.178 J-0.194
X-154.403 Y-56.676 I-1.767 J-0.887
X-155.162 Y-56.954 I-0.244 J-0.509
G2 X-155.899 Y-58.475 I-26.23 J11.777
G3 X-156.456 Y-60.069 I5.199 J-2.712
X-157.05 Y-63.225 I274.704 J-53.304
G2 X-158.174 Y-66.233 I-8.95 J1.63
X-159.214 Y-67.409 I-3.592 J2.129
X-160.74 Y-67.775 I-1.171 J1.516
X-162.063 Y-66.953 I0.4 J2.119
X-162.448 Y-66.346 I3.647 J2.745
X-162.4 Y-65.933 I0.324 J0.172
G3 X-162.314 Y-65.526 I-0.32 J0.28
G2 X-162.551 Y-63.616 I5.328 J1.63
G3 X-163.285 Y-61.256 I-4.758 J-0.187
X-164.944 Y-59.92 I-3.082 J-2.129
X-166.277 Y-59.362 I-8.954 J-19.501
G2 X-167.618 Y-58.663 I3.422 J8.202
G1 X-167.693 Y-58.589
X-167.783 Y-58.509
G2 X-167.852 Y-58.441 I0.802 J0.893
G1 X-167.934 Y-58.355
G2 X-168.002 Y-58.277 I0.871 J0.826
G1 X-168.075 Y-58.185
G2 X-168.131 Y-58.108 I0.939 J0.747
G1 X-168.196 Y-58.011
G2 X-168.25 Y-57.924 I0.995 J0.67
X-168.395 Y-57.637 I2.128 J1.26
X-168.433 Y-57.544 I1.09 J0.501
X-168.603 Y-56.846 I2.57 J0.993
X-168.611 Y-56.752 I1.19 J0.156
X-167.085 Y-53.936 I3.023 J0.183
X-165.169 Y-53.263 I2.609 J-4.362
X-162.423 Y-52.956 I3.41 J-18.075
G3 X-160.715 Y-52.755 I-1.037 J16.204
X-160.555 Y-52.693 I-1.126 J3.134
X-160.196 Y-52.516 I-1.287 J3.071 F212.5
G2 X-160.097 Y-51.042 I4.038 J0.47 F850
X-159.507 Y-49.971 I5.219 J-2.176
X-159.266 Y-49.652 I4.629 J-3.247 F212.5
X-159.398 Y-49.085 I4.575 J1.358 F850
X-159.447 Y-48.688 I4.706 J0.791 F212.5
X-159.916 Y-48.287 I1.072 J1.728 F850
X-159.988 Y-48.194 I0.905 J0.789
G1 X-160.012 Y-48.162
G2 X-160.072 Y-48.067 I0.978 J0.696
G1 X-160.091 Y-48.034
X-160.106 Y-48.008
X-160.121 Y-47.98
X-160.135 Y-47.953
X-160.151 Y-47.919
G2 X-160.21 Y-47.77 I1.082 J0.52
G1 X-160.221 Y-47.736
G2 X-160.256 Y-47.604 I1.141 J0.37
G1 X-160.263 Y-47.569
G2 X-160.279 Y-47.466 I1.176 J0.238
G1 X-160.283 Y-47.431
G2 X-160.291 Y-47.263 I1.192 J0.135
G1 X-160.29 Y-47.226
G2 X-160.283 Y-47.132 I1.2 J-0.033
G1 X-160.279 Y-47.094
G2 X-160.261 Y-46.977 I1.193 J-0.128
G1 X-160.256 Y-46.955
X-160.253 Y-46.939 F212.5
G2 X-160.226 Y-46.836 I1.175 J-0.245
X-160.13 Y-46.576 I1.77 J-0.51
X-161.12 Y-45.72 I2.609 J4.017 F850
G1 X-161.173 Y-45.626
X-161.196 Y-45.589
X-161.208 Y-45.569
X-161.22 Y-45.549
X-161.241 Y-45.512
G2 X-161.29 Y-45.417 I1.042 J0.595
G1 X-161.307 Y-45.38
X-161.319 Y-45.353
X-161.331 Y-45.325
X-161.341 Y-45.297
X-161.355 Y-45.259
G2 X-161.392 Y-45.143 I1.125 J0.417
X-161.448 Y-44.817 I2.175 J0.545
X-161.451 Y-44.418 I2.232 J0.218 F212.5
X-161.842 Y-43.597 I1.382 J1.162 F850
G1 X-161.859 Y-43.503
X-161.862 Y-43.481
X-161.865 Y-43.459
G2 X-161.874 Y-43.357 I1.19 J0.155
G1 X-161.875 Y-43.334
X-161.876 Y-43.308
Y-43.281
Y-43.259
Y-43.231
X-161.875 Y-43.203
X-161.874 Y-43.182
G2 X-161.862 Y-43.064 I1.199 J-0.056
G3 X-161.741 Y-41.172 I-14.802 J1.9
X-161.706 Y-40.336 I-14.488 J1.024
G1 X-161.632 Y-37.801
G2 X-161.249 Y-36.956 I1.199 J-0.034
X-160.916 Y-36.737 I0.817 J-0.879 F212.5
G3 X-162.615 Y-34.51 I-6.058 J-2.859 F850
X-166.251 Y-33.36 I-2.912 J-2.886
X-168.522 Y-33.85 I2.239 J-15.891
G2 X-170.879 Y-33.874 I-1.233 J5.35
G3 X-173.594 Y-33.632 I-3.618 J-25.261
X-177.56 Y-34.169 I-0.324 J-12.517
X-180.719 Y-36.116 I2.373 J-7.39
X-181.893 Y-37.683 I10.005 J-8.716
G2 X-182.595 Y-38.557 I-6.492 J4.495
G1 X-182.703 Y-38.629
X-182.745 Y-38.657
G2 X-182.839 Y-38.716 I-0.68 J0.989
G1 X-182.883 Y-38.741
X-182.909 Y-38.755
X-182.936 Y-38.768
X-182.962 Y-38.781
X-183.006 Y-38.802
G2 X-183.104 Y-38.842 I-0.507 J1.088
G1 X-183.133 Y-38.853
X-183.149 Y-38.859 F212.5
G2 X-183.253 Y-38.891 I-0.409 J1.128
G1 X-183.299 Y-38.903
G2 X-183.403 Y-38.925 I-0.305 J1.161
G1 X-183.45 Y-38.933
X-183.473 Y-38.937
X-183.497 Y-38.941
X-183.521 Y-38.943
G2 X-182.865 Y-40.529 I-2.25 J-1.86 F850
X-182.817 Y-40.825 I-1.744 J-0.435
G3 X-182.23 Y-45.071 I47.604 J4.42
X-180.905 Y-48.423 I10.187 J2.088
X-178.926 Y-50.556 I8.167 J5.591
X-176.652 Y-51.722 I8.689 J14.144
G1 X-175.255 Y-52.376
G2 X-174.777 Y-52.788 I-1.286 J-1.975
X-174.714 Y-52.864 I-0.893 J-0.801
X-174.317 Y-54.93 I-1.879 J-1.432
G1 X-174.336 Y-55.022
G2 X-174.952 Y-56.135 I-4.331 J1.673
X-176.447 Y-58.262 I-30.632 J19.933
G3 X-178.332 Y-61.461 I20.155 J-14.034
X-179.373 Y-66.861 I10.305 J-4.786
X-178.935 Y-69.78 I9.098 J-0.127
G2 X-178.365 Y-71.813 I-315.995 J-89.754
X-178.146 Y-73.252 I-7.004 J-1.802
G1 X-178.162 Y-73.363
X-178.166 Y-73.397
X-178.17 Y-73.421
X-178.173 Y-73.445
X-178.177 Y-73.469
X-178.182 Y-73.497
G2 X-178.232 Y-73.682 I-1.181 J0.214
G1 X-178.242 Y-73.711
G2 X-178.29 Y-73.827 I-1.131 J0.4
X-179.16 Y-75.007 I-4.958 J2.743
X-180.65 Y-76.649 I-20.628 J17.233
G3 X-185.776 Y-83.798 I27.077 J-24.824
X-189.287 Y-90.686 I84.345 J-47.342
G2 X-192.234 Y-96.921 I-543.849 J253.195
X-195.63 Y-103.195 I-67.536 J32.499
X-198.408 Y-106.923 I-26.524 J16.868
X-198.466 Y-106.989 I-23.746 J20.595 F212.5
G1 X-198.543 Y-107.105
X-198.613 Y-107.2
X-198.645 Y-107.245
G3 X-195.677 Y-110.648 I24.791 J18.622 F850
X-193.745 Y-111.385 I3.628 J6.613
X-189.912 Y-112.242 I11.03 J40.304
G2 X-188.516 Y-112.604 I-2.378 J-12.051
G1 X-188.458 Y-112.637
G2 X-188.373 Y-112.678 I-0.477 J-1.101
G1 X-188.324 Y-112.704
G2 X-188.238 Y-112.754 I-0.562 J-1.06
G1 X-188.199 Y-112.779
G2 X-188.076 Y-112.87 I-0.648 J-1.01
G1 X-188.045 Y-112.896
G2 X-187.886 Y-113.057 I-0.771 J-0.919
G1 X-187.864 Y-113.084
G2 X-187.729 Y-113.29 I-0.93 J-0.758
G1 X-187.715 Y-113.317
G2 X-187.623 Y-113.55 I-1.065 J-0.552
G1 X-187.615 Y-113.579
G2 X-187.578 Y-113.779 I-1.157 J-0.319
G1 X-187.575 Y-113.809
G2 X-187.574 Y-114.04 I-1.194 J-0.119
G1 X-187.577 Y-114.072
G2 X-187.597 Y-114.202 I-1.195 J0.112
G3 X-187.919 Y-116.953 I28.5 J-4.734
G2 X-188.266 Y-119.252 I-25.714 J2.71
X-188.373 Y-119.516 I-7.948 J3.047
X-188.444 Y-119.653 I-1.096 J0.487
G1 X-188.458 Y-119.676
G2 X-188.532 Y-119.784 I-1.025 J0.624
G1 X-188.552 Y-119.81
X-188.565 Y-119.826
X-188.579 Y-119.843
X-188.603 Y-119.872
G2 X-188.665 Y-119.942 I-0.924 J0.765
X-190.251 Y-121.076 I-5.037 J5.366
G3 X-191.662 Y-122.117 I3.363 J-6.035
X-191.922 Y-122.581 I0.885 J-0.802
X-191.761 Y-124.089 I6.109 J-0.111
G2 X-191.417 Y-126.056 I-124.378 J-22.786
X-191.467 Y-128.425 I-8.318 J-1.009
G3 X-191.516 Y-129.979 I9.306 J-1.075
X-190.983 Y-130.574 I1.191 J0.53
X-189.637 Y-131.231 I2.085 J2.566
G1 X-189.483 Y-131.235
X-189.286 Y-131.247
X-189.051 Y-131.257
X-188.785 Y-131.265
X-188.501 Y-131.271
X-188.195 Y-131.274
X-187.875 Y-131.275
X-187.545 Y-131.274
X-187.211 Y-131.271
X-186.874 Y-131.265
X-186.788 Y-131.263
X-186.541 Y-131.258 F212.5
X-186.389 Y-131.254
G2 X-187.035 Y-130.694 I1.61 J2.512 F850
G1 X-187.099 Y-130.613
G2 X-187.687 Y-128.962 I2.423 J1.792
X-187.315 Y-125.071 I10.244 J0.984
X-184.944 Y-120.195 I13.58 J-3.589
X-181.919 Y-116.345 I39.273 J-27.742
X-181.464 Y-115.947 I3.419 J-3.45
G1 X-181.385 Y-115.897
X-181.319 Y-115.856
G2 X-181.236 Y-115.808 I0.633 J-1.019
G1 X-181.172 Y-115.775
G2 X-181.049 Y-115.721 I0.55 J-1.067
G1 X-180.986 Y-115.697
G2 X-180.846 Y-115.653 I0.427 J-1.121
G1 X-180.785 Y-115.638
G2 X-180.615 Y-115.609 I0.287 J-1.165
G1 X-180.554 Y-115.603
G2 X-180.376 Y-115.599 I0.117 J-1.194
G1 X-180.317 Y-115.602
G2 X-180.12 Y-115.628 I-0.061 J-1.198
G1 X-180.061 Y-115.641
G2 X-179.91 Y-115.685 I-0.258 J-1.172
G1 X-179.852 Y-115.706
G2 X-179.695 Y-115.776 I-0.409 J-1.128
G1 X-179.637 Y-115.807
G2 X-179.502 Y-115.891 I-0.566 J-1.058
G1 X-179.445 Y-115.932
G2 X-179.346 Y-116.012 I-0.701 J-0.974
G1 X-179.289 Y-116.063
G2 X-179.219 Y-116.131 I-0.8 J-0.894
G1 X-179.162 Y-116.19
G2 X-179.096 Y-116.266 I-0.87 J-0.826
X-178.315 Y-117.766 I-3.985 J-3.029
X-176.286 Y-124.221 I-42.609 J-16.938
X-175.949 Y-126.599 I-20.162 J-4.074
X-176.156 Y-128.364 I-8.568 J0.113
G3 X-176.366 Y-130.548 I10.822 J-2.141
X-176.313 Y-130.88 I1.629 J0.09
X-176.204 Y-131.173 I1.576 J0.422 F212.5
G1 X-176.18 Y-131.213
X-176.157 Y-131.246
G3 X-172.884 Y-131.291 I2.16 J37.911 F850
X-170.465 Y-131.283 I0.769 J134.085
G1 X-165.101 Y-131.242
X-164.701 Y-131.239 F212.5
X-164.469 Y-131.103
G2 X-170.131 Y-128.688 I2.887 J14.611 F850
X-171.705 Y-127.291 I4.296 J6.425
G1 X-171.759 Y-127.215
X-171.9 Y-127.021
G2 X-171.963 Y-126.924 I0.971 J0.706
G1 X-172.075 Y-126.734
G2 X-172.137 Y-126.614 I1.034 J0.609
G1 X-172.166 Y-126.549
G2 X-172.203 Y-126.456 I1.096 J0.489
X-172.593 Y-124.148 I9.66 J2.821
X-172.604 Y-121.355 I12.175 J1.443
X-172.39 Y-118.305 I49.676 J-1.954
X-172.348 Y-117.908 I49.462 J-5.004 F212.5
G1 X-172.333 Y-117.886 F850
X-172.328 Y-117.864
X-172.323 Y-117.843
G2 X-172.28 Y-117.7 I1.167 J-0.278
G1 X-172.271 Y-117.676
G2 X-172.22 Y-117.56 I1.124 J-0.421
G1 X-172.209 Y-117.538
G2 X-172.148 Y-117.431 I1.073 J-0.537
G1 X-172.134 Y-117.409
G2 X-172.036 Y-117.276 I1.012 J-0.644
G1 X-172.019 Y-117.256
G2 X-171.91 Y-117.143 I0.914 J-0.777
G1 X-171.889 Y-117.124
G2 X-171.81 Y-117.059 I0.805 J-0.89
G1 X-171.785 Y-117.04
G2 X-171.666 Y-116.96 I0.726 J-0.955
X-170.537 Y-116.646 I1.236 J-2.264
X-169.129 Y-116.515 I2.045 J-14.318
G3 X-164.353 Y-115.913 I-3.143 J44.211
X-159.538 Y-113.88 I-2.654 J12.999
G2 X-156.078 Y-112.238 I15.808 J-28.85
G3 X-154.76 Y-111.582 I-11.31 J24.365
X-153.253 Y-109.512 I-13.383 J11.331
G2 X-150.558 Y-107.007 I7.208 J-5.052
G3 X-147.729 Y-105.113 I-24.729 J40.002
X-147.405 Y-104.877 I-27.559 J38.108 F212.5
G2 X-150.707 Y-99.141 I149.515 J89.88 F850
X-159.118 Y-81.402 I220.547 J115.433
X-160.777 Y-77.5 I100.776 J45.144
G1 X-160.806 Y-77.389
X-160.817 Y-77.346
G2 X-160.815 Y-76.741 I1.162 J0.3
G1 X-160.813 Y-76.733
G2 X-160.696 Y-76.446 I1.16 J-0.305
G1 X-160.691 Y-76.437
G2 X-160.581 Y-76.276 I1.043 J-0.593
G1 X-160.573 Y-76.266
X-160.559 Y-76.248
X-160.543 Y-76.23
X-160.528 Y-76.213
X-160.518 Y-76.202
G2 X-160.411 Y-76.098 I0.888 J-0.807
X-159.426 Y-75.559 I2.142 J-2.747
G3 X-157.881 Y-74.475 I-1.479 J3.749
X-157.377 Y-73.582 I-11.344 J7
G2 X-156.335 Y-72.961 I1.051 J-0.579
G1 X-155.188 Y-72.953
G3 X-152.775 Y-72.2 I0.062 J4.044
X-150.559 Y-70.414 I-8.924 J13.338
X-148.606 Y-68.588 I-383.974 J412.619
G2 X-145.413 Y-66.424 I7.296 J-7.33
G3 X-143.734 Y-65.465 I-4.413 J9.672
G1 X-143.644 Y-65.383
X-143.548 Y-65.303
X-143.445 Y-65.214
X-143.336 Y-65.118 F212.5
X-143.219 Y-65.012
X-143.15 Y-64.948
G2 X-143.713 Y-64.958 I-0.318 J2.033 F850
G1 X-143.814 Y-64.939
X-143.839 Y-64.934
G2 X-143.968 Y-64.898 I0.258 J1.172
G1 X-143.99 Y-64.89
G2 X-144.174 Y-64.81 I0.387 J1.136
G1 X-144.191 Y-64.801
G2 X-144.37 Y-64.682 I0.571 J1.055
G1 X-144.384 Y-64.671
G2 X-144.638 Y-64.391 I0.75 J0.937
G1 X-144.648 Y-64.375
G2 X-144.799 Y-64.043 I1.004 J0.657
G1 X-144.805 Y-64.021
G2 X-144.849 Y-63.741 I1.155 J0.324
G1 X-144.85 Y-63.713
G2 X-144.846 Y-63.563 I1.199 J0.043
G1 X-144.843 Y-63.53
G2 X-144.83 Y-63.428 I1.195 J-0.106
G1 X-144.823 Y-63.388
G2 X-144.802 Y-63.292 I1.182 J-0.208
X-144.076 Y-61.731 I6.448 J-2.047
X-143.186 Y-60.158 I32.169 J-17.173
X-143.061 Y-59.951 I31.278 J-18.746 F212.5
G1 X-142.983 Y-59.814
G2 X-143.443 Y-59.479 I0.456 J1.11 F850
X-143.646 Y-59.136 I0.916 J0.775 F212.5
G3 X-145.299 Y-61.184 I7.473 J-7.722 F850
X-147.035 Y-64.192 I19.465 J-13.237
G2 X-147.923 Y-65.491 I-8.136 J4.61
G1 X-147.952 Y-65.506
X-147.983 Y-65.536
X-147.998 Y-65.551
X-148.014 Y-65.566
X-148.03 Y-65.58
X-148.058 Y-65.604
G2 X-148.132 Y-65.664 I-0.79 J0.903
G1 X-148.157 Y-65.683
G2 X-148.254 Y-65.748 I-0.716 J0.963
X-150.421 Y-66.688 I-8.485 J16.583
X-153.944 Y-68.07 I-42.162 J102.36
G1 X-154.037 Y-68.083
X-154.064 Y-68.088
G2 X-154.195 Y-68.105 I-0.219 J1.18
G1 X-154.218 Y-68.106
G2 X-154.408 Y-68.105 I-0.088 J1.197
G1 X-154.428 Y-68.104
G2 X-154.682 Y-68.054 I0.102 J1.196
G1 X-154.7 Y-68.048
G2 X-154.991 Y-67.913 I0.356 J1.146
G1 X-155.006 Y-67.903
G2 X-155.273 Y-67.67 I0.647 J1.011
G1 X-155.285 Y-67.656
G2 X-155.429 Y-67.444 I0.914 J0.778
G1 X-155.439 Y-67.426
G2 X-155.532 Y-67.2 I1.058 J0.566
G1 X-155.539 Y-67.176
G2 X-155.577 Y-67.001 I1.151 J0.34
G1 X-155.581 Y-66.972
X-155.584 Y-66.942
X-155.587 Y-66.911
X-155.59 Y-66.877
G2 X-155.595 Y-66.773 I1.195 J0.104
X-154.118 Y-62.261 I8.589 J-0.315
G3 X-153.073 Y-60.593 I-44.919 J29.287
X-153.288 Y-57.083 I-3.087 J1.572
X-154.445 Y-56.221 I-1.992 J-1.466
G1 X-154.457 Y-56.217
X-154.834 Y-56.082 F212.5
G2 X-154.984 Y-56.193 I-0.784 J0.908 F850
X-155.042 Y-56.226 I-0.634 J1.019 F212.5
G1 X-155.08 Y-56.247
G2 X-155.257 Y-56.326 I-0.576 J1.053
G1 X-155.299 Y-56.341
X-155.323 Y-56.349
X-155.348 Y-56.357
G2 X-156.406 Y-58.533 I-20.964 J8.85 F850
G3 X-157.029 Y-60.817 I6.218 J-2.923
G2 X-157.622 Y-63.827 I-40.228 J6.37
X-158.968 Y-66.622 I-8.938 J2.581
X-159.328 Y-66.979 I-3.986 J3.662
G1 X-159.411 Y-67.04
X-159.461 Y-67.075
G2 X-159.559 Y-67.138 I-0.693 J0.979
G1 X-159.608 Y-67.166
G2 X-159.732 Y-67.228 I-0.595 J1.042
G1 X-159.78 Y-67.248
G2 X-159.929 Y-67.3 I-0.471 J1.104
G1 X-159.976 Y-67.314
G2 X-160.145 Y-67.348 I-0.322 J1.156
G1 X-160.191 Y-67.354
G2 X-160.381 Y-67.363 I-0.153 J1.19
G1 X-160.426 Y-67.362
G2 X-160.612 Y-67.341 I0.037 J1.199
G1 X-160.657 Y-67.333
G2 X-160.843 Y-67.282 I0.223 J1.179
G1 X-160.886 Y-67.266
G2 X-161.035 Y-67.2 I0.409 J1.128
G1 X-161.078 Y-67.178
G2 X-161.179 Y-67.118 I0.558 J1.062
G1 X-161.243 Y-67.076
G2 X-161.323 Y-67.019 I0.659 J1.003
X-162.309 Y-65.525 I1.806 J2.263
G1 X-162.318 Y-65.479
X-162.312 Y-65.432
X-162.294 Y-65.388
X-162.263 Y-65.352
G3 X-162.205 Y-65.178 I-0.11 J0.132
G2 X-162.354 Y-63.607 I5.642 J1.324
G3 X-163.453 Y-60.707 I-4.747 J-0.142
X-165.309 Y-59.54 I-3.499 J-3.506
G2 X-166.855 Y-58.877 I11.382 J28.645
X-167.495 Y-58.498 I2.631 J5.179
G1 X-167.559 Y-58.441
G2 X-167.789 Y-58.217 I1.484 J1.755
X-167.845 Y-58.152 I0.726 J0.688
X-168.03 Y-57.9 I1.738 J1.468
X-168.075 Y-57.827 I0.829 J0.559
X-167.515 Y-54.515 I2.339 J1.308
X-165.889 Y-53.637 I2.463 J-2.62
X-163.214 Y-53.216 I3.203 J-11.63
G3 X-160.954 Y-53.011 I-6.375 J82.797
X-160.343 Y-52.819 I-0.518 J2.719
X-159.991 Y-52.63 I-1.129 J2.528 F212.5
G2 X-159.947 Y-51.239 I4.964 J0.54 F850
X-159.285 Y-50.016 I4.008 J-1.38
X-159.22 Y-49.935 I3.345 J-2.604 F212.5
G1 X-159.138 Y-49.807
X-159.054 Y-49.689
X-159.064 Y-49.652 F850
G2 X-159.212 Y-48.968 I5.379 J1.527
X-159.259 Y-48.571 I5.528 J0.843 F212.5
X-159.765 Y-48.156 I1.002 J1.742 F850
G1 X-159.826 Y-48.078
X-159.849 Y-48.046
G2 X-159.899 Y-47.967 I0.815 J0.58
G1 X-159.918 Y-47.934
X-159.931 Y-47.912
X-159.943 Y-47.889
X-159.954 Y-47.866
X-159.97 Y-47.833
G2 X-160.02 Y-47.708 I0.901 J0.433
G1 X-160.031 Y-47.674
G2 X-160.06 Y-47.564 I0.951 J0.309
G1 X-160.067 Y-47.529
G2 X-160.081 Y-47.443 I0.98 J0.198
G1 X-160.085 Y-47.408
G2 X-160.091 Y-47.268 I0.994 J0.112
G1 X-160.09 Y-47.232
X-160.089 Y-47.206
X-160.087 Y-47.179
X-160.084 Y-47.153
X-160.08 Y-47.116
G2 X-160.065 Y-47.018 I0.994 J-0.106
G1 X-160.057 Y-46.98
G2 X-160.035 Y-46.894 I0.979 J-0.204
X-159.876 Y-46.518 I1.638 J-0.474 F212.5
X-160.864 Y-45.718 I4.183 J6.182 F850
G1 X-160.89 Y-45.674
X-160.908 Y-45.653
X-160.925 Y-45.631
X-160.953 Y-45.594
G2 X-161.004 Y-45.52 I0.798 J0.602
G1 X-161.027 Y-45.483
X-161.037 Y-45.467
X-161.047 Y-45.45
X-161.068 Y-45.413
G2 X-161.108 Y-45.334 I0.869 J0.496
G1 X-161.125 Y-45.297
X-161.135 Y-45.274
X-161.145 Y-45.251
X-161.154 Y-45.228
X-161.168 Y-45.19
G2 X-161.198 Y-45.093 I0.938 J0.347
X-161.254 Y-44.757 I1.875 J0.483
X-161.243 Y-44.358 I1.931 J0.147 F212.5
X-161.667 Y-43.433 I1.239 J1.128 F850
X-161.674 Y-43.348 I0.992 J0.129
G1 X-161.675 Y-43.326
X-161.676 Y-43.303
Y-43.281
Y-43.259
Y-43.236
X-161.675 Y-43.212
X-161.674 Y-43.191
G2 X-161.664 Y-43.093 I0.999 J-0.047
G3 X-161.541 Y-41.18 I-14.806 J1.914
X-161.506 Y-40.343 I-14.231 J1.017
G1 X-161.432 Y-37.807
G2 X-161.007 Y-37.017 I1 J-0.029
X-160.816 Y-36.912 I0.575 J-0.818 F212.5
G1 X-160.648 Y-36.843
G3 X-162.481 Y-34.363 I-6.3 J-2.737 F850
X-166.276 Y-33.162 I-3.045 J-3.027
X-168.566 Y-33.655 I2.238 J-15.959
G2 X-170.698 Y-33.701 I-1.174 J5.014
X-171.813 Y-33.556 I4.574 J39.453
G3 X-176.715 Y-33.727 I-1.934 J-14.914
X-179.933 Y-35.156 I1.943 J-8.712
X-181.958 Y-37.434 I4.957 J-6.444
G2 X-182.673 Y-38.358 I-12.441 J8.888
G1 X-182.7 Y-38.371
X-182.72 Y-38.389
X-182.732 Y-38.399
G2 X-182.816 Y-38.464 I-0.651 J0.759
G1 X-182.858 Y-38.493
G2 X-182.937 Y-38.542 I-0.567 J0.824
G1 X-182.981 Y-38.566
X-183.003 Y-38.578
X-183.025 Y-38.589
X-183.047 Y-38.6
X-183.091 Y-38.62
G2 X-183.172 Y-38.654 I-0.422 J0.906
G1 X-183.217 Y-38.671
G2 X-183.304 Y-38.697 I-0.341 J0.94
G1 X-183.35 Y-38.71
G2 X-183.436 Y-38.728 I-0.254 J0.967
G1 X-183.483 Y-38.736
G2 X-183.572 Y-38.747 I-0.168 J0.986
G1 X-183.62 Y-38.751
G2 X-183.705 Y-38.754 I-0.079 J0.997
G1 X-183.753
X-183.781 Y-38.753 F212.5
X-183.809 Y-38.752
X-183.836 Y-38.75
X-183.885 Y-38.745
X-183.912 Y-38.743
X-183.938 Y-38.739
X-183.964 Y-38.735
X-184.014 Y-38.727
X-184.04 Y-38.722
X-184.066 Y-38.716
X-184.092 Y-38.71
X-184.139 Y-38.698
X-184.118 Y-38.71 F850
X-184.06 Y-38.745
G2 X-183.988 Y-38.793 I-0.516 J-0.857
G1 X-183.932 Y-38.834
G2 X-183.853 Y-38.898 I-0.588 J-0.809
G1 X-183.801 Y-38.945
X-183.784 Y-38.96
X-183.767 Y-38.976
X-183.751 Y-38.993
X-183.7 Y-39.045
G2 X-183.638 Y-39.114 I-0.717 J-0.697
X-183.041 Y-40.709 I-2.294 J-1.768
G3 X-182.647 Y-43.867 I133.547 J15.08
X-181.87 Y-46.979 I14.714 J2.022
X-178.882 Y-50.829 I8.263 J3.328
X-176.177 Y-52.163 I13.58 J24.121
G2 X-175.362 Y-52.546 I-43.217 J-93.082
X-174.475 Y-54.689 I-1.123 J-1.719
X-174.886 Y-55.659 I-2.129 J0.329
X-176.29 Y-57.689 I-19.331 J11.868
G3 X-178.337 Y-61.008 I23.172 J-16.585
X-179.574 Y-66.864 I10.37 J-5.248
X-179.128 Y-69.833 I9.335 J-0.116
G2 X-178.558 Y-71.867 I-199.71 J-57.068
X-178.346 Y-73.247 I-6.749 J-1.743
G1 X-178.361 Y-73.34
X-178.365 Y-73.373
X-178.368 Y-73.393
X-178.371 Y-73.413
X-178.374 Y-73.433
X-178.379 Y-73.461
G2 X-178.42 Y-73.616 I-0.984 J0.178
G1 X-178.43 Y-73.644
G2 X-178.47 Y-73.741 I-0.943 J0.333
X-179.311 Y-74.877 I-4.842 J2.704
X-180.798 Y-76.514 I-20.753 J17.354
G3 X-185.95 Y-83.699 I27.213 J-24.952
X-189.468 Y-90.6 I84.529 J-47.446
G2 X-192.413 Y-96.833 I-543.889 J253.213
X-195.799 Y-103.087 I-67.373 J32.419
X-198.519 Y-106.741 I-25.689 J16.291
G3 X-198.655 Y-106.92 I9.812 J-7.553
X-198.888 Y-107.245 I9.947 J-7.374 F212.5
X-195.795 Y-110.81 I23.89 J17.6 F850
X-193.798 Y-111.577 I3.704 J6.664
X-189.953 Y-112.438 I11.02 J40.201
G2 X-188.595 Y-112.788 I-2.401 J-12.124
X-188.307 Y-112.946 I-1.79 J-3.617
G1 X-188.254 Y-112.983
X-188.204 Y-113.023
X-188.173 Y-113.049
G2 X-188.041 Y-113.183 I-0.643 J-0.766
G1 X-188.019 Y-113.21
G2 X-187.906 Y-113.382 I-0.775 J-0.632
G1 X-187.892 Y-113.409
G2 X-187.816 Y-113.603 I-0.888 J-0.46
G1 X-187.808 Y-113.632
G2 X-187.777 Y-113.799 I-0.964 J-0.266
G1 X-187.774 Y-113.828
G2 X-187.773 Y-114.021 I-0.995 J-0.1
G1 X-187.776 Y-114.053
G2 X-187.793 Y-114.162 I-0.996 J0.093
G3 X-188.118 Y-116.933 I28.395 J-4.737
G2 X-188.459 Y-119.197 I-25.864 J2.74
X-188.556 Y-119.435 I-8.155 J3.17
X-188.615 Y-119.549 I-0.913 J0.406
G1 X-188.629 Y-119.572
G2 X-188.69 Y-119.662 I-0.854 J0.52
X-189.832 Y-120.583 I-3.264 J2.878
X-190.954 Y-121.275 I-11.401 J17.23
G3 X-191.998 Y-122.232 I2.256 J-3.509
X-192.106 Y-123.054 I1.006 J-0.55
X-191.755 Y-125.206 I15.782 J1.47
G2 X-191.563 Y-127.563 I-9.872 J-1.989
G3 X-191.737 Y-129.814 I17.639 J-2.492
X-191.643 Y-130.191 I1.031 J0.057
X-190.408 Y-131.16 I2.35 J1.724
X-189.296 Y-131.445 I1.064 J1.835
G1 X-189.058 Y-131.457
X-188.791 Y-131.465
X-188.504 Y-131.471
X-188.197 Y-131.474
X-187.875 Y-131.475
X-187.544 Y-131.474
X-187.208 Y-131.471
X-186.87 Y-131.465
X-186.536 Y-131.458
X-186.208 Y-131.449
X-186.046 Y-131.443
X-185.891 Y-131.438 F212.5
X-185.646 Y-131.427
G2 X-186.89 Y-130.566 I1.386 J3.331 F850
G1 X-186.939 Y-130.494
G2 X-187.486 Y-128.942 I2.247 J1.666
X-187.205 Y-125.451 I9.665 J0.978
X-184.781 Y-120.312 I13.446 J-3.2
X-181.776 Y-116.485 I38.94 J-27.485
X-181.08 Y-115.953 I1.892 J-1.754
X-180.978 Y-115.908 I0.458 J-0.889
G1 X-180.915 Y-115.884
G2 X-180.798 Y-115.847 I0.356 J-0.934
G1 X-180.737 Y-115.832
G2 X-180.596 Y-115.808 I0.239 J-0.971
G1 X-180.535 Y-115.802
G2 X-180.386 Y-115.798 I0.098 J-0.995
G1 X-180.327 Y-115.801
G2 X-180.163 Y-115.823 I-0.051 J-0.999
G1 X-180.104 Y-115.836
G2 X-179.979 Y-115.873 I-0.215 J-0.977
G1 X-179.921 Y-115.894
G2 X-179.79 Y-115.952 I-0.34 J-0.94
G1 X-179.732 Y-115.983
G2 X-179.619 Y-116.053 I-0.471 J-0.882
G1 X-179.562 Y-116.094
G2 X-179.479 Y-116.161 I-0.584 J-0.812
X-178.711 Y-117.333 I-2.077 J-2.199
X-177.672 Y-120.126 I-27.708 J-11.892
X-176.349 Y-124.956 I-32.673 J-11.548
X-176.146 Y-126.835 I-14.601 J-2.528
X-176.447 Y-128.855 I-14.902 J1.183
G3 X-176.553 Y-130.691 I8.918 J-1.437
X-176.458 Y-131.092 I1.545 J0.153
X-176.347 Y-131.323 I1.45 J0.554 F212.5
G1 X-176.316 Y-131.367
X-176.279 Y-131.413
X-176.258 Y-131.435
G3 X-173.368 Y-131.492 I1.988 J27.333 F850
X-170.463 Y-131.483 I0.923 J163.898
G1 X-165.045 Y-131.442
X-164.645 Y-131.439 F212.5
G3 X-164.233 Y-131.2 I-5.83 J10.552 F850
X-163.894 Y-130.988 I-6.242 J10.313 F212.5
G2 X-168.318 Y-129.533 I1.813 J12.974 F850
X-171.388 Y-127.362 I4.687 J9.879
X-171.738 Y-126.903 I6.014 J4.954
X-171.79 Y-126.823 I0.809 J0.588
G1 X-171.902 Y-126.633
G2 X-171.954 Y-126.532 I0.861 J0.508
X-172.303 Y-124.94 I5.265 J1.988
X-172.39 Y-121.158 I14.212 J2.22
X-172.191 Y-118.326 I43.136 J-1.622
X-172.147 Y-117.928 I42.936 J-4.454 F212.5
G1 X-172.134 Y-117.91 F850
X-172.129 Y-117.889
G2 X-172.092 Y-117.77 I0.973 J-0.232
G1 X-172.083 Y-117.746
G2 X-172.041 Y-117.65 I0.936 J-0.351
G1 X-172.03 Y-117.628
G2 X-171.98 Y-117.538 I0.894 J-0.447
G1 X-171.966 Y-117.516
G2 X-171.884 Y-117.405 I0.844 J-0.537
G1 X-171.867 Y-117.385
G2 X-171.776 Y-117.291 I0.762 J-0.648
G1 X-171.755 Y-117.272
G2 X-171.689 Y-117.218 I0.671 J-0.742
G1 X-171.664 Y-117.199
G2 X-171.565 Y-117.132 I0.605 J-0.796
X-170.413 Y-116.835 I1.197 J-2.258
X-169.112 Y-116.716 I1.938 J-13.967
G3 X-164.312 Y-116.11 I-3.239 J44.97
X-159.437 Y-114.053 I-2.695 J13.194
G2 X-155.996 Y-112.421 I15.683 J-28.622
G3 X-154.643 Y-111.745 I-10.819 J23.364
X-153.212 Y-109.808 I-11.06 J9.669
G2 X-150.451 Y-107.175 I7.18 J-4.766
G3 X-147.466 Y-105.168 I-23.853 J38.684
X-147.144 Y-104.93 I-26.837 J36.676 F212.5
G2 X-150.194 Y-99.672 I220.317 J131.31 F850
X-158.349 Y-82.663 I207.794 J110.077
X-160.59 Y-77.432 I142.942 J64.339
G1 X-160.612 Y-77.339
X-160.623 Y-77.296
G2 X-160.622 Y-76.792 I0.968 J0.25
G1 X-160.62 Y-76.784
G2 X-160.522 Y-76.545 I0.967 J-0.254
G1 X-160.517 Y-76.536
G2 X-160.426 Y-76.401 I0.869 J-0.494
G1 X-160.418 Y-76.391
X-160.405 Y-76.376
X-160.393 Y-76.362
X-160.38 Y-76.347
X-160.37 Y-76.336
G2 X-160.281 Y-76.25 I0.74 J-0.673
X-159.349 Y-75.744 I2.032 J-2.63
G3 X-157.722 Y-74.596 I-1.548 J3.922
X-157.202 Y-73.679 I-10.519 J6.574
G2 X-156.333 Y-73.161 I0.876 J-0.483
G1 X-155.185 Y-73.153
G3 X-152.666 Y-72.368 I0.06 J4.24
X-150.425 Y-70.562 I-9.02 J13.49
X-148.471 Y-68.735 I-378.581 J406.864
G2 X-145.884 Y-66.864 I7.194 J-7.224
G3 X-143.895 Y-65.831 I-7.803 J17.452
G1 X-143.804 Y-65.757
X-143.712 Y-65.689
X-143.616 Y-65.615
X-143.518 Y-65.538
X-143.419 Y-65.456
X-143.314 Y-65.365
X-143.202 Y-65.267
X-143.084 Y-65.16
X-142.96 Y-65.045
X-142.829 Y-64.922
X-142.773 Y-64.868
X-142.688 Y-64.786 F212.5
X-142.536 Y-64.64
X-142.485 Y-64.59
G2 X-143.659 Y-64.771 I-1.103 J3.256 F850
G1 X-143.687 Y-64.759
G2 X-143.771 Y-64.744 I0.131 J0.991
G1 X-143.796 Y-64.739
G2 X-143.904 Y-64.708 I0.215 J0.977
G1 X-143.926 Y-64.701
G2 X-144.079 Y-64.634 I0.323 J0.947
G1 X-144.096 Y-64.625
G2 X-144.245 Y-64.526 I0.476 J0.879
G1 X-144.259 Y-64.515
G2 X-144.471 Y-64.281 I0.625 J0.781
G1 X-144.481 Y-64.266
G2 X-144.607 Y-63.989 I0.837 J0.547
G1 X-144.613 Y-63.967
G2 X-144.649 Y-63.734 I0.963 J0.27
G1 X-144.65 Y-63.706
G2 X-144.647 Y-63.581 I0.999 J0.036
G1 X-144.644 Y-63.547
G2 X-144.633 Y-63.462 I0.996 J-0.089
X-144.102 Y-62.198 I4.2 J-1.019
X-142.883 Y-60.038 I44.465 J-23.666
X-142.677 Y-59.695 I43.246 J-25.826 F212.5
G1 X-142.795 Y-59.67 F850
X-142.909 Y-59.63
X-143.018 Y-59.577
X-143.119 Y-59.512
X-143.212 Y-59.434
X-143.295 Y-59.346
X-143.366 Y-59.249
X-143.426 Y-59.144
X-143.465 Y-59.052 F212.5
X-143.495 Y-58.957
X-143.515 Y-58.859
X-143.525 Y-58.759
G3 X-145.32 Y-60.863 I6.319 J-7.21 F850
X-147.209 Y-64.093 I19.006 J-13.276
G2 X-148.066 Y-65.351 I-8.106 J4.607
X-148.276 Y-65.523 I-14.845 J17.888
G1 X-148.357 Y-65.577
G2 X-150.495 Y-66.503 I-8.591 J16.891
X-153.646 Y-67.744 I-42.367 J102.973
X-154.02 Y-67.884 I-39.216 J104.214 F212.5
G1 X-154.049 Y-67.881 F850
X-154.074 Y-67.886
X-154.101 Y-67.891
G2 X-154.209 Y-67.905 I-0.182 J0.983
G1 X-154.232 Y-67.907
G2 X-154.391 Y-67.906 I-0.074 J0.997
G1 X-154.411 Y-67.904
G2 X-154.623 Y-67.863 I0.085 J0.996
G1 X-154.641 Y-67.857
G2 X-154.883 Y-67.745 I0.297 J0.955
G1 X-154.898 Y-67.735
G2 X-155.121 Y-67.541 I0.539 J0.842
G1 X-155.133 Y-67.527
G2 X-155.253 Y-67.35 I0.762 J0.648
G1 X-155.263 Y-67.331
G2 X-155.34 Y-67.143 I0.882 J0.472
G1 X-155.347 Y-67.119
G2 X-155.379 Y-66.973 I0.959 J0.283
G1 X-155.383 Y-66.944
X-155.386 Y-66.919
X-155.388 Y-66.894
X-155.391 Y-66.859
G2 X-155.395 Y-66.773 I0.996 J0.087
X-153.949 Y-62.369 I8.397 J-0.318
G3 X-152.896 Y-60.685 I-43.955 J28.676
X-153.127 Y-56.965 I-3.264 J1.665
X-154.374 Y-56.034 I-2.153 J-1.584
G1 X-154.502 Y-55.988
X-154.879 Y-55.853 F212.5
X-154.897 Y-55.871 F850
X-154.915 Y-55.887
X-154.933 Y-55.903
X-154.965 Y-55.931
G2 X-155.126 Y-56.044 I-0.653 J0.757
X-155.138 Y-56.051 I-0.492 J0.871 F212.5
G1 X-155.176 Y-56.072
G2 X-155.324 Y-56.138 I-0.48 J0.877
G1 X-155.366 Y-56.153
G2 X-155.497 Y-56.189 I-0.332 J0.943
X-156.538 Y-58.35 I-18.184 J7.43 F850
G3 X-157.226 Y-60.785 I6.305 J-3.097
G2 X-157.815 Y-63.773 I-39.945 J6.317
X-159.12 Y-66.493 I-8.774 J2.537
X-159.457 Y-66.826 I-3.872 J3.572
G1 X-159.526 Y-66.877
X-159.576 Y-66.912
G2 X-159.658 Y-66.964 I-0.578 J0.816
G1 X-159.707 Y-66.992
G2 X-159.81 Y-67.044 I-0.496 J0.868
G1 X-159.858 Y-67.064
G2 X-159.983 Y-67.108 I-0.393 J0.92
G1 X-160.03 Y-67.121
G2 X-160.171 Y-67.149 I-0.268 J0.963
G1 X-160.217 Y-67.155
G2 X-160.375 Y-67.163 I-0.127 J0.992
G1 X-160.42 Y-67.162
G2 X-160.575 Y-67.145 I0.031 J1
G1 X-160.62 Y-67.136
G2 X-160.775 Y-67.094 I0.186 J0.983
G1 X-160.818 Y-67.078
G2 X-160.942 Y-67.023 I0.341 J0.94
G1 X-160.985 Y-67.001
G2 X-161.07 Y-66.951 I0.465 J0.885
X-162.112 Y-65.474 I1.457 J2.135
X-162.349 Y-63.738 I4.469 J1.494
G3 X-163.249 Y-60.958 I-4.893 J-0.049
X-165 Y-59.674 I-3.274 J-2.627
X-166.101 Y-59.22 I-6.593 J-14.418
G2 X-167.469 Y-58.524 I3.716 J8.998
G1 X-167.493 Y-58.495
G2 X-167.559 Y-58.441 I0.602 J0.799
X-167.789 Y-58.217 I1.484 J1.755
X-167.845 Y-58.152 I0.726 J0.688
X-168.03 Y-57.9 I1.738 J1.468
X-168.075 Y-57.827 I0.829 J0.559
X-167.515 Y-54.515 I2.339 J1.308
X-165.889 Y-53.637 I2.463 J-2.62
X-163.214 Y-53.216 I3.203 J-11.63
G3 X-160.954 Y-53.011 I-6.375 J82.797
X-160.343 Y-52.819 I-0.518 J2.719
X-159.991 Y-52.63 I-1.129 J2.528 F212.5
G2 X-159.947 Y-51.239 I4.964 J0.54 F850
X-159.285 Y-50.016 I4.008 J-1.38
X-159.22 Y-49.935 I3.345 J-2.604 F212.5
G1 X-159.138 Y-49.807
X-159.054 Y-49.689
X-159.064 Y-49.652 F850
G2 X-159.212 Y-48.968 I5.379 J1.527
X-159.259 Y-48.571 I5.528 J0.843 F212.5
X-159.765 Y-48.156 I1.002 J1.742 F850
G1 X-159.826 Y-48.078
X-159.849 Y-48.046
G2 X-159.899 Y-47.967 I0.815 J0.58
G1 X-159.918 Y-47.934
X-159.931 Y-47.912
X-159.943 Y-47.889
X-159.954 Y-47.866
X-159.97 Y-47.833
G2 X-160.02 Y-47.708 I0.901 J0.433
G1 X-160.031 Y-47.674
G2 X-160.06 Y-47.564 I0.951 J0.309
G1 X-160.067 Y-47.529
G2 X-160.081 Y-47.443 I0.98 J0.198
G1 X-160.085 Y-47.408
G2 X-160.091 Y-47.268 I0.994 J0.112
G1 X-160.09 Y-47.232
X-160.089 Y-47.206
X-160.087 Y-47.179
X-160.084 Y-47.153
X-160.08 Y-47.116
G2 X-160.065 Y-47.018 I0.994 J-0.106
G1 X-160.057 Y-46.98
G2 X-160.035 Y-46.894 I0.979 J-0.204
X-159.876 Y-46.518 I1.638 J-0.474 F212.5
X-160.864 Y-45.718 I4.183 J6.182 F850
G1 X-160.89 Y-45.674
X-160.908 Y-45.653
X-160.925 Y-45.631
X-160.953 Y-45.594
G2 X-161.004 Y-45.52 I0.798 J0.602
G1 X-161.027 Y-45.483
X-161.037 Y-45.467
X-161.047 Y-45.45
X-161.068 Y-45.413
G2 X-161.108 Y-45.334 I0.869 J0.496
G1 X-161.125 Y-45.297
X-161.135 Y-45.274
X-161.145 Y-45.251
X-161.154 Y-45.228
X-161.168 Y-45.19
G2 X-161.198 Y-45.093 I0.938 J0.347
X-161.254 Y-44.757 I1.875 J0.483
X-161.243 Y-44.358 I1.931 J0.147 F212.5
X-161.667 Y-43.433 I1.239 J1.128 F850
X-161.674 Y-43.348 I0.992 J0.129
G1 X-161.675 Y-43.326
X-161.676 Y-43.303
Y-43.281
Y-43.259
Y-43.236
X-161.675 Y-43.212
X-161.674 Y-43.191
G2 X-161.664 Y-43.093 I0.999 J-0.047
G3 X-161.541 Y-41.18 I-14.806 J1.914
X-161.506 Y-40.343 I-14.231 J1.017
G1 X-161.432 Y-37.807
G2 X-161.007 Y-37.017 I1 J-0.029
X-160.816 Y-36.912 I0.575 J-0.818 F212.5
G1 X-160.648 Y-36.843
G3 X-162.481 Y-34.363 I-6.3 J-2.737 F850
X-166.276 Y-33.162 I-3.045 J-3.027
X-168.566 Y-33.655 I2.238 J-15.959
G2 X-170.698 Y-33.701 I-1.174 J5.014
X-171.813 Y-33.556 I4.574 J39.453
G3 X-176.715 Y-33.727 I-1.934 J-14.914
X-179.933 Y-35.156 I1.943 J-8.712
X-181.958 Y-37.434 I4.957 J-6.444
G2 X-182.673 Y-38.358 I-12.441 J8.888
G1 X-182.7 Y-38.371
X-182.72 Y-38.389
X-182.732 Y-38.399
G2 X-182.816 Y-38.464 I-0.651 J0.759
G1 X-182.858 Y-38.493
G2 X-182.937 Y-38.542 I-0.567 J0.824
G1 X-182.981 Y-38.566
X-183.003 Y-38.578
X-183.025 Y-38.589
X-183.047 Y-38.6
X-183.091 Y-38.62
G2 X-183.172 Y-38.654 I-0.422 J0.906
G1 X-183.217 Y-38.671
G2 X-183.304 Y-38.697 I-0.341 J0.94
G1 X-183.35 Y-38.71
G2 X-183.436 Y-38.728 I-0.254 J0.967
G1 X-183.483 Y-38.736
G2 X-183.572 Y-38.747 I-0.168 J0.986
G1 X-183.62 Y-38.751
G2 X-183.705 Y-38.754 I-0.079 J0.997
G1 X-183.753
X-183.781 Y-38.753 F212.5
X-183.809 Y-38.752
X-183.836 Y-38.75
X-183.885 Y-38.745
X-183.912 Y-38.743
X-183.938 Y-38.739
X-183.964 Y-38.735
X-184.014 Y-38.727
X-184.04 Y-38.722
X-184.066 Y-38.716
X-184.092 Y-38.71
X-184.139 Y-38.698
X-184.118 Y-38.71 F850
X-184.06 Y-38.745
G2 X-183.988 Y-38.793 I-0.516 J-0.857
G1 X-183.932 Y-38.834
G2 X-183.853 Y-38.898 I-0.588 J-0.809
G1 X-183.801 Y-38.945
X-183.784 Y-38.96
X-183.767 Y-38.976
X-183.751 Y-38.993
X-183.7 Y-39.045
G2 X-183.638 Y-39.114 I-0.717 J-0.697
X-183.041 Y-40.709 I-2.294 J-1.768
G3 X-182.647 Y-43.867 I133.547 J15.08
X-181.87 Y-46.979 I14.714 J2.022
X-178.882 Y-50.829 I8.263 J3.328
X-176.177 Y-52.163 I13.58 J24.121
G2 X-175.362 Y-52.546 I-43.217 J-93.082
X-174.475 Y-54.689 I-1.123 J-1.719
X-174.886 Y-55.659 I-2.129 J0.329
X-176.29 Y-57.689 I-19.331 J11.868
G3 X-178.337 Y-61.008 I23.172 J-16.585
X-179.574 Y-66.864 I10.37 J-5.248
X-179.128 Y-69.833 I9.335 J-0.116
G2 X-178.558 Y-71.867 I-199.71 J-57.068
X-178.346 Y-73.247 I-6.749 J-1.743
G1 X-178.361 Y-73.34
X-178.365 Y-73.373
X-178.368 Y-73.393
X-178.371 Y-73.413
X-178.374 Y-73.433
X-178.379 Y-73.461
G2 X-178.42 Y-73.616 I-0.984 J0.178
G1 X-178.43 Y-73.644
G2 X-178.47 Y-73.741 I-0.943 J0.333
X-179.311 Y-74.877 I-4.842 J2.704
X-180.798 Y-76.514 I-20.753 J17.354
G3 X-185.95 Y-83.699 I27.213 J-24.952
X-189.468 Y-90.6 I84.529 J-47.446
G2 X-192.413 Y-96.833 I-543.889 J253.213
X-195.799 Y-103.087 I-67.373 J32.419
X-198.519 Y-106.741 I-25.689 J16.291
G3 X-198.655 Y-106.92 I9.812 J-7.553
X-198.888 Y-107.245 I9.947 J-7.374 F212.5
X-195.795 Y-110.81 I23.89 J17.6 F850
X-193.798 Y-111.577 I3.704 J6.664
X-189.953 Y-112.438 I11.02 J40.201
G2 X-188.595 Y-112.788 I-2.401 J-12.124
X-188.307 Y-112.946 I-1.79 J-3.617
G1 X-188.254 Y-112.983
X-188.204 Y-113.023
X-188.173 Y-113.049
G2 X-188.041 Y-113.183 I-0.643 J-0.766
G1 X-188.019 Y-113.21
G2 X-187.906 Y-113.382 I-0.775 J-0.632
G1 X-187.892 Y-113.409
G2 X-187.816 Y-113.603 I-0.888 J-0.46
G1 X-187.808 Y-113.632
G2 X-187.777 Y-113.799 I-0.964 J-0.266
G1 X-187.774 Y-113.828
G2 X-187.773 Y-114.021 I-0.995 J-0.1
G1 X-187.776 Y-114.053
G2 X-187.793 Y-114.162 I-0.996 J0.093
G3 X-188.118 Y-116.933 I28.395 J-4.737
G2 X-188.459 Y-119.197 I-25.864 J2.74
X-188.556 Y-119.435 I-8.155 J3.17
X-188.615 Y-119.549 I-0.913 J0.406
G1 X-188.629 Y-119.572
G2 X-188.69 Y-119.662 I-0.854 J0.52
X-189.832 Y-120.583 I-3.264 J2.878
X-190.954 Y-121.275 I-11.401 J17.23
G3 X-191.998 Y-122.232 I2.256 J-3.509
X-192.106 Y-123.054 I1.006 J-0.55
X-191.755 Y-125.206 I15.782 J1.47
G2 X-191.563 Y-127.563 I-9.872 J-1.989
G3 X-191.737 Y-129.814 I17.639 J-2.492
X-191.643 Y-130.191 I1.031 J0.057
X-190.408 Y-131.16 I2.35 J1.724
X-189.296 Y-131.445 I1.064 J1.835
G1 X-189.058 Y-131.457
X-188.791 Y-131.465
X-188.504 Y-131.471
X-188.197 Y-131.474
X-187.875 Y-131.475
X-187.544 Y-131.474
X-187.208 Y-131.471
X-186.87 Y-131.465
X-186.536 Y-131.458
X-186.208 Y-131.449
X-186.046 Y-131.443
X-185.891 Y-131.438 F212.5
X-185.646 Y-131.427
G2 X-186.89 Y-130.566 I1.386 J3.331 F850
G1 X-186.939 Y-130.494
G2 X-187.486 Y-128.942 I2.247 J1.666
X-187.205 Y-125.451 I9.665 J0.978
X-184.781 Y-120.312 I13.446 J-3.2
X-181.776 Y-116.485 I38.94 J-27.485
X-181.08 Y-115.953 I1.892 J-1.754
X-180.978 Y-115.908 I0.458 J-0.889
G1 X-180.915 Y-115.884
G2 X-180.798 Y-115.847 I0.356 J-0.934
G1 X-180.737 Y-115.832
G2 X-180.596 Y-115.808 I0.239 J-0.971
G1 X-180.535 Y-115.802
G2 X-180.386 Y-115.798 I0.098 J-0.995
G1 X-180.327 Y-115.801
G2 X-180.163 Y-115.823 I-0.051 J-0.999
G1 X-180.104 Y-115.836
G2 X-179.979 Y-115.873 I-0.215 J-0.977
G1 X-179.921 Y-115.894
G2 X-179.79 Y-115.952 I-0.34 J-0.94
G1 X-179.732 Y-115.983
G2 X-179.619 Y-116.053 I-0.471 J-0.882
G1 X-179.562 Y-116.094
G2 X-179.479 Y-116.161 I-0.584 J-0.812
X-178.711 Y-117.333 I-2.077 J-2.199
X-177.672 Y-120.126 I-27.708 J-11.892
X-176.349 Y-124.956 I-32.673 J-11.548
X-176.146 Y-126.835 I-14.601 J-2.528
X-176.447 Y-128.855 I-14.902 J1.183
G3 X-176.553 Y-130.691 I8.918 J-1.437
X-176.458 Y-131.092 I1.545 J0.153
X-176.347 Y-131.323 I1.45 J0.554 F212.5
G1 X-176.316 Y-131.367
X-176.279 Y-131.413
X-176.258 Y-131.435
G3 X-173.368 Y-131.492 I1.988 J27.333 F850
X-170.463 Y-131.483 I0.923 J163.898
G1 X-165.045 Y-131.442
X-164.645 Y-131.439 F212.5
G3 X-164.233 Y-131.2 I-5.83 J10.552 F850
X-163.894 Y-130.988 I-6.242 J10.313 F212.5
G2 X-168.318 Y-129.533 I1.813 J12.974 F850
X-171.388 Y-127.362 I4.687 J9.879
X-171.738 Y-126.903 I6.014 J4.954
X-171.79 Y-126.823 I0.809 J0.588
G1 X-171.902 Y-126.633
G2 X-171.954 Y-126.532 I0.861 J0.508
X-172.303 Y-124.94 I5.265 J1.988
X-172.39 Y-121.158 I14.212 J2.22
X-172.191 Y-118.326 I43.136 J-1.622
X-172.147 Y-117.928 I42.936 J-4.454 F212.5
G1 X-172.134 Y-117.91 F850
X-172.129 Y-117.889
G2 X-172.092 Y-117.77 I0.973 J-0.232
G1 X-172.083 Y-117.746
G2 X-172.041 Y-117.65 I0.936 J-0.351
G1 X-172.03 Y-117.628
G2 X-171.98 Y-117.538 I0.894 J-0.447
G1 X-171.966 Y-117.516
G2 X-171.884 Y-117.405 I0.844 J-0.537
G1 X-171.867 Y-117.385
G2 X-171.776 Y-117.291 I0.762 J-0.648
G1 X-171.755 Y-117.272
G2 X-171.689 Y-117.218 I0.671 J-0.742
G1 X-171.664 Y-117.199
G2 X-171.565 Y-117.132 I0.605 J-0.796
X-170.413 Y-116.835 I1.197 J-2.258
X-169.112 Y-116.716 I1.938 J-13.967
G3 X-164.312 Y-116.11 I-3.239 J44.97
X-159.437 Y-114.053 I-2.695 J13.194
G2 X-155.996 Y-112.421 I15.683 J-28.622
G3 X-154.643 Y-111.745 I-10.819 J23.364
X-153.212 Y-109.808 I-11.06 J9.669
G2 X-150.451 Y-107.175 I7.18 J-4.766
G3 X-147.466 Y-105.168 I-23.853 J38.684
X-147.144 Y-104.93 I-26.837 J36.676 F212.5
G2 X-150.194 Y-99.672 I220.317 J131.31 F850
X-158.349 Y-82.663 I207.794 J110.077
X-160.59 Y-77.432 I142.942 J64.339
G1 X-160.612 Y-77.339
X-160.623 Y-77.296
G2 X-160.622 Y-76.792 I0.968 J0.25
G1 X-160.62 Y-76.784
G2 X-160.522 Y-76.545 I0.967 J-0.254
G1 X-160.517 Y-76.536
G2 X-160.426 Y-76.401 I0.869 J-0.494
G1 X-160.418 Y-76.391
X-160.405 Y-76.376
X-160.393 Y-76.362
X-160.38 Y-76.347
X-160.37 Y-76.336
G2 X-160.281 Y-76.25 I0.74 J-0.673
X-159.349 Y-75.744 I2.032 J-2.63
G3 X-157.722 Y-74.596 I-1.548 J3.922
X-157.202 Y-73.679 I-10.519 J6.574
G2 X-156.333 Y-73.161 I0.876 J-0.483
G1 X-155.185 Y-73.153
G3 X-152.666 Y-72.368 I0.06 J4.24
X-150.425 Y-70.562 I-9.02 J13.49
X-148.471 Y-68.735 I-378.581 J406.864
G2 X-145.884 Y-66.864 I7.194 J-7.224
G3 X-143.895 Y-65.831 I-7.803 J17.452
G1 X-143.804 Y-65.757
X-143.712 Y-65.689
X-143.616 Y-65.615
X-143.518 Y-65.538
X-143.419 Y-65.456
X-143.314 Y-65.365
X-143.202 Y-65.267
X-143.084 Y-65.16
X-142.96 Y-65.045
X-142.829 Y-64.922
X-142.773 Y-64.868
X-142.688 Y-64.786 F212.5
X-142.536 Y-64.64
X-142.485 Y-64.59
G2 X-143.659 Y-64.771 I-1.103 J3.256 F850
G1 X-143.687 Y-64.759
G2 X-143.771 Y-64.744 I0.131 J0.991
G1 X-143.796 Y-64.739
G2 X-143.904 Y-64.708 I0.215 J0.977
G1 X-143.926 Y-64.701
G2 X-144.079 Y-64.634 I0.323 J0.947
G1 X-144.096 Y-64.625
G2 X-144.245 Y-64.526 I0.476 J0.879
G1 X-144.259 Y-64.515
G2 X-144.471 Y-64.281 I0.625 J0.781
G1 X-144.481 Y-64.266
G2 X-144.607 Y-63.989 I0.837 J0.547
G1 X-144.613 Y-63.967
G2 X-144.649 Y-63.734 I0.963 J0.27
G1 X-144.65 Y-63.706
G2 X-144.647 Y-63.581 I0.999 J0.036
G1 X-144.644 Y-63.547
G2 X-144.633 Y-63.462 I0.996 J-0.089
X-144.102 Y-62.198 I4.2 J-1.019
X-142.883 Y-60.038 I44.465 J-23.666
X-142.677 Y-59.695 I43.246 J-25.826 F212.5
G1 X-142.795 Y-59.67 F850
X-142.909 Y-59.63
X-143.018 Y-59.577
X-143.119 Y-59.512
X-143.212 Y-59.434
X-143.295 Y-59.346
X-143.366 Y-59.249
X-143.426 Y-59.144
X-143.465 Y-59.052 F212.5
X-143.495 Y-58.957
X-143.515 Y-58.859
X-143.525 Y-58.759
G3 X-145.32 Y-60.863 I6.319 J-7.21 F850
X-147.209 Y-64.093 I19.006 J-13.276
G2 X-148.066 Y-65.351 I-8.106 J4.607
X-148.276 Y-65.523 I-14.845 J17.888
G1 X-148.357 Y-65.577
G2 X-150.495 Y-66.503 I-8.591 J16.891
X-153.646 Y-67.744 I-42.367 J102.973
X-154.02 Y-67.884 I-39.216 J104.214 F212.5
G1 X-154.049 Y-67.881 F850
X-154.074 Y-67.886
X-154.101 Y-67.891
G2 X-154.209 Y-67.905 I-0.182 J0.983
G1 X-154.232 Y-67.907
G2 X-154.391 Y-67.906 I-0.074 J0.997
G1 X-154.411 Y-67.904
G2 X-154.623 Y-67.863 I0.085 J0.996
G1 X-154.641 Y-67.857
G2 X-154.883 Y-67.745 I0.297 J0.955
G1 X-154.898 Y-67.735
G2 X-155.121 Y-67.541 I0.539 J0.842
G1 X-155.133 Y-67.527
G2 X-155.253 Y-67.35 I0.762 J0.648
G1 X-155.263 Y-67.331
G2 X-155.34 Y-67.143 I0.882 J0.472
G1 X-155.347 Y-67.119
G2 X-155.379 Y-66.973 I0.959 J0.283
G1 X-155.383 Y-66.944
X-155.386 Y-66.919
X-155.388 Y-66.894
X-155.391 Y-66.859
G2 X-155.395 Y-66.773 I0.996 J0.087
X-153.949 Y-62.369 I8.397 J-0.318
G3 X-152.896 Y-60.685 I-43.955 J28.676
X-153.127 Y-56.965 I-3.264 J1.665
X-154.374 Y-56.034 I-2.153 J-1.584
G1 X-154.502 Y-55.988
X-154.879 Y-55.853 F212.5
X-154.897 Y-55.871 F850
X-154.915 Y-55.887
X-154.933 Y-55.903
X-154.965 Y-55.931
G2 X-155.126 Y-56.044 I-0.653 J0.757
X-155.138 Y-56.051 I-0.492 J0.871 F212.5
G1 X-155.176 Y-56.072
G2 X-155.324 Y-56.138 I-0.48 J0.877
G1 X-155.366 Y-56.153
G2 X-155.497 Y-56.189 I-0.332 J0.943
X-156.538 Y-58.35 I-18.184 J7.43 F850
G3 X-157.226 Y-60.785 I6.305 J-3.097
G2 X-157.815 Y-63.773 I-39.945 J6.317
X-159.12 Y-66.493 I-8.774 J2.537
X-159.457 Y-66.826 I-3.872 J3.572
G1 X-159.526 Y-66.877
X-159.576 Y-66.912
G2 X-159.658 Y-66.964 I-0.578 J0.816
G1 X-159.707 Y-66.992
G2 X-159.81 Y-67.044 I-0.496 J0.868
G1 X-159.858 Y-67.064
G2 X-159.983 Y-67.108 I-0.393 J0.92
G1 X-160.03 Y-67.121
G2 X-160.171 Y-67.149 I-0.268 J0.963
G1 X-160.217 Y-67.155
G2 X-160.375 Y-67.163 I-0.127 J0.992
G1 X-160.42 Y-67.162
G2 X-160.575 Y-67.145 I0.031 J1
G1 X-160.62 Y-67.136
G2 X-160.775 Y-67.094 I0.186 J0.983
G1 X-160.818 Y-67.078
G2 X-160.942 Y-67.023 I0.341 J0.94
G1 X-160.985 Y-67.001
G2 X-161.07 Y-66.951 I0.465 J0.885
X-162.112 Y-65.474 I1.457 J2.135
X-162.205 Y-65.178 I1.431 J0.615
G0 Z5
X-157.316 Y-71.695
G1 Z-0.8 F283.3
X-157.314 Y-71.702 Z-0.852
X-157.308 Y-71.721 Z-0.9
X-157.297 Y-71.751 Z-0.941
X-157.284 Y-71.79 Z-0.973
X-157.268 Y-71.836 Z-0.993
X-157.252 Y-71.885 Z-1
X-157.187 Y-72.074 F850
G3 X-156.933 Y-72.199 I0.189 J0.064
G2 X-155.764 Y-72.089 I0.816 J-2.395
G3 X-154.297 Y-71.997 I0.511 J3.622
X-153.098 Y-71.42 I-0.95 J3.506
X-152.051 Y-70.6 I-12.378 J16.876
G1 X-148.322 Y-67.2
G2 X-146.923 Y-66.28 I5.235 J-6.435
X-145.43 Y-65.522 I35.55 J-68.165
X-145.318 Y-65.471 I0.958 J-1.939
G3 X-145.208 Y-65.419 I-0.704 J1.655
X-145.139 Y-65.059 I-0.105 J0.207
G2 X-145.654 Y-63.76 I1.553 J1.368
G3 X-145.882 Y-63.708 I-0.121 J-0.004
X-146.617 Y-65.135 I75.564 J-39.787
G2 X-147.649 Y-66.365 I-3.111 J1.564
X-148.505 Y-66.841 I-2.226 J2.992
G3 X-149.413 Y-67.206 I32.523 J-82.293
G1 X-153.566 Y-68.836
G2 X-155.53 Y-68.536 I-0.681 J2.121
X-156.445 Y-66.773 I1.242 J1.764
X-155.866 Y-63.852 I7.655
X-154.467 Y-61.224 I14.075 J-5.809
G3 X-153.771 Y-59.967 I-7.327 J4.877
X-153.59 Y-58.542 I-2.23 J1.006
X-153.805 Y-57.834 I-3.005 J-0.523
X-154.252 Y-57.246 I-1.449 J-0.639
G1 X-154.339 Y-57.175
G3 X-154.427 Y-57.115 I-0.396 J-0.486
X-154.86 Y-57.256 I-0.152 J-0.269
G2 X-155.573 Y-58.721 I-29.397 J13.396
G3 X-156.084 Y-60.268 I4.58 J-2.373
G1 X-156.342 Y-61.856
G2 X-156.671 Y-63.5 I-22.436 J3.638
X-157.307 Y-65.467 I-12.844 J3.069
X-158.382 Y-67.232 I-6.171 J2.545
X-159.78 Y-68.129 I-2.155 J1.823
X-161.431 Y-67.953 I-0.604 J2.168
X-162.896 Y-66.366 I1.5 J2.855
X-163.395 Y-64.265 I5.844 J2.499
G3 X-163.482 Y-63.167 I-33.891 J-2.123
X-163.781 Y-62.107 I-3.056 J-0.291
X-165.495 Y-60.597 I-2.678 J-1.312
G2 X-167.586 Y-59.675 I4.269 J12.504
X-169.419 Y-56.683 I1.703 J3.101
X-167.952 Y-53.495 I3.934 J0.121
X-166.383 Y-52.681 I2.806 J-3.487
X-164.655 Y-52.307 I3.651 J-12.699
X-163.532 Y-52.185 I2.203 J-14.973
G1 X-162.484 Y-52.11
G2 X-161.924 Y-52.085 I0.715 J-9.997
G3 X-161.366 Y-52.045 I-0.078 J5.041
X-161.016 Y-51.67 I-0.051 J0.398
G2 X-160.929 Y-51.025 I4.158 J-0.23
X-160.728 Y-50.407 I3.062 J-0.658
X-160.525 Y-50.046 I2.072 J-0.924
G3 X-160.292 Y-49.705 I-48.867 J33.588
X-160.363 Y-48.987 I-0.467 J0.317
G2 X-160.902 Y-48.206 I1.812 J1.83
X-161.096 Y-47.277 I2.036 J0.908
G3 X-161.381 Y-46.616 I-0.89 J0.008
G2 X-161.945 Y-45.894 I1.945 J2.101
X-162.236 Y-45.025 I2.252 J1.237
G3 X-162.433 Y-44.362 I-2.37 J-0.344
G2 X-162.672 Y-43.661 I3.183 J1.475
X-162.7 Y-42.921 I1.976 J0.447
G3 X-162.603 Y-41.821 I-9.661 J1.414
G1 X-162.565 Y-40.654
X-162.469 Y-37.777
G2 X-162.368 Y-37.255 I1.65 J-0.047
X-162.135 Y-36.778 I2.452 J-0.901
G3 X-162.157 Y-36.199 I-0.44 J0.273
X-163.592 Y-34.769 I-5.255 J-3.837
X-165.52 Y-34.15 I-1.909 J-2.632
X-167.419 Y-34.453 I0.039 J-6.351
G2 X-169.305 Y-34.828 I-2.593 J8.094
X-170.237 Y-34.818 I-0.409 J4.902
X-171.162 Y-34.703 I2.833 J26.531
G3 X-174.636 Y-34.501 I-2.946 J-20.714
X-178.032 Y-35.267 I0.225 J-8.904
X-179.693 Y-36.366 I2.453 J-5.514
X-180.996 Y-37.873 I6.313 J-6.774
G2 X-181.494 Y-38.551 I-12.042 J8.328
X-182.075 Y-39.159 I-3.338 J2.604
G3 X-182.225 Y-39.681 I0.322 J-0.375
G2 X-181.962 Y-40.922 I-6.732 J-2.079
G1 X-181.813 Y-42.168
G3 X-181.291 Y-45.323 I35.587 J4.258
X-179.984 Y-48.241 I7.399 J1.564
X-179.004 Y-49.362 I7.175 J5.279
X-177.798 Y-50.236 I3.656 J3.777
X-175.412 Y-51.326 I10.863 J20.618
G2 X-173.572 Y-53.196 I-1.167 J-2.988
X-173.377 Y-54.508 I-3.005 J-1.117
X-173.739 Y-55.783 I-3.091 J0.188
X-174.262 Y-56.651 I-9 J4.825
X-174.837 Y-57.485 I-34.238 J22.989
G3 X-176.989 Y-60.737 I51.104 J-36.167
X-178.375 Y-64.382 I8.776 J-5.424
X-178.557 Y-66.766 I12.14 J-2.126
X-178.235 Y-69.137 I10.503 J0.221
X-177.668 Y-71.071 I27.196 J6.921
G2 X-177.306 Y-73.055 I-6.839 J-2.275
X-177.896 Y-74.838 I-2.663 J-0.108
X-179.121 Y-76.263 I-23.971 J19.38
G3 X-181.229 Y-78.645 I71.673 J-65.555
X-183.161 Y-81.171 I21.92 J-18.769
X-184.657 Y-83.546 I32.252 J-21.962
G1 X-187.113 Y-88.136
X-191.818 Y-97.992
G2 X-194.016 Y-102.14 I-70.821 J34.867
X-196.605 Y-106.056 I-30.374 J17.269
X-197.004 Y-106.526 I-4.648 J3.544
G3 X-197.414 Y-106.987 I7.339 J-6.933
X-197.417 Y-107.516 I0.319 J-0.266
X-196.341 Y-108.777 I28.268 J23.033
X-195.172 Y-109.951 I11.471 J10.249
X-194.573 Y-110.272 I0.948 J1.051
G2 X-193.92 Y-110.456 I-3.407 J-13.369
G3 X-192.073 Y-110.936 I6.308 J20.482
X-190.204 Y-111.322 I34.608 J162.613
G2 X-188.41 Y-111.743 I-5.637 J-28.067
X-186.974 Y-112.898 I-0.593 J-2.208
X-186.749 Y-114.389 I-2.073 J-1.075
G3 X-186.965 Y-115.881 I20.844 J-3.773
X-187.113 Y-117.296 I194.308 J-21.047
G2 X-187.298 Y-118.708 I-23.646 J2.387
X-187.601 Y-119.789 I-4.96 J0.803
X-188.24 Y-120.713 I-2.381 J0.964
X-188.913 Y-121.244 I-3.74 J4.052
X-189.638 Y-121.703 I-9.344 J13.965
X-190.191 Y-122.012 I-5.571 J9.323
G3 X-190.722 Y-122.356 I1.554 J-2.983
X-191.085 Y-123.243 I0.604 J-0.764
X-190.807 Y-124.741 I13.314 J1.695
G2 X-190.546 Y-126.241 I-10.873 J-2.662
X-190.562 Y-127.67 I-6.187 J-0.646
G3 X-190.704 Y-129.092 I26.389 J-3.349
G2 X-190.712 Y-129.179 I-1.595 J0.116
G3 X-190.72 Y-129.267 I1.074 J-0.138
X-190.3 Y-130.081 I0.916 J-0.042
X-189.399 Y-130.405 I1.155 J1.8
X-188.444 Y-130.467 I1.037 J8.633
X-188.244 Y-130.182 I0.002 J0.211
G2 X-188.596 Y-128.067 I5.437 J1.992
X-188.389 Y-125.933 I14.206 J-0.303
X-187.164 Y-122.268 I12.728 J-2.216
X-185.122 Y-118.987 I20.478 J-10.468
G1 X-183.846 Y-117.275
G2 X-182.298 Y-115.535 I10.865 J-8.103
X-180.676 Y-114.786 I1.922 J-2.03
X-178.949 Y-115.242 I0.268 J-2.484
X-178.078 Y-116.237 I-1.704 J-2.369
X-177.522 Y-117.437 I-10.453 J-5.577
G1 X-176.151 Y-121.418
G2 X-175.448 Y-124.016 I-45.081 J-13.598
X-175.105 Y-126.685 I-12.127 J-2.914
X-175.165 Y-127.605 I-5.504 J-0.108
X-175.314 Y-128.516 I-31.225 J4.661
X-175.472 Y-129.329 I-29.414 J5.273
G3 X-175.561 Y-130.152 I4.169 J-0.867
X-175.237 Y-130.486 I0.33 J-0.003
G1 X-169.207 Y-130.469
G3 X-169.151 Y-130.242 I-0.001 J0.121
G2 X-171.568 Y-128.671 I8.504 J15.726
X-173.146 Y-126.258 I2.683 J3.478
X-173.527 Y-122.446 I12.841 J3.21
X-173.278 Y-118.623 I97.033 J-4.417
X-173.039 Y-117.401 I5.743 J-0.489
X-172.324 Y-116.382 I1.95 J-0.606
X-171.346 Y-115.924 I1.549 J-2.038
X-170.279 Y-115.756 I1.765 J-7.722
G3 X-165.747 Y-115.307 I-19.02 J214.921
X-161.389 Y-113.985 I-1.351 J12.3
X-159.952 Y-113.174 I-11.158 J21.457
G2 X-158.502 Y-112.386 I8.62 J-14.13
X-157.322 Y-111.875 I7.11 J-14.794
G3 X-156.14 Y-111.372 I-7.093 J18.304
X-154.649 Y-110.143 I-1.619 J3.482
X-153.921 Y-109.062 I-15.356 J11.125
G2 X-153.141 Y-108.019 I6.589 J-4.115
X-151.029 Y-106.305 I6.271 J-5.568
G3 X-148.734 Y-104.844 I-14.023 J24.556
X-148.633 Y-104.372 I-0.206 J0.291
X-149.542 Y-102.881 I-50.913 J-30.026
G2 X-150.438 Y-101.382 I30.746 J19.379
G1 X-153.229 Y-96.11
X-156.338 Y-89.683
X-160.62 Y-80.087
G2 X-161.543 Y-77.779 I48.806 J20.845
X-160.881 Y-75.383 I1.986 J0.74
X-159.821 Y-74.799 I2.226 J-2.782
G3 X-158.779 Y-74.183 I-0.994 J2.87
X-158.641 Y-74.046 I-1.398 J1.548
X-158.522 Y-73.892 I-0.876 J0.805
X-157.977 Y-73.015 I-18.328 J11.989
G2 X-157.217 Y-72.315 I1.533 J-0.903
X-156.933 Y-72.199 I1.099 J-2.279
X-156.565 Y-72.308 I0.107 J-0.315
G3 X-156.216 Y-72.47 I0.333 J0.262
G2 X-155.937 Y-72.478 I0.078 J-2.083
G3 X-154.813 Y-72.487 I0.616 J6.367
X-153.181 Y-71.932 I-0.278 J3.49
X-151.794 Y-70.906 I-7.885 J12.112
G1 X-148.069 Y-67.51
G2 X-146.712 Y-66.607 I5.377 J-6.61
X-145.262 Y-65.861 I23.783 J-44.45
X-144.844 Y-65.664 I5.8 J-11.737
G3 X-144.435 Y-65.449 I-1.587 J3.519
X-144.436 Y-65.127 I-0.097 J0.16
G2 X-145.175 Y-64.213 I0.854 J1.446
X-145.198 Y-63.038 I1.869 J0.625
X-144.482 Y-61.495 I5.413 J-1.573
G3 X-143.585 Y-60.05 I-23.562 J15.636
X-143.61 Y-59.888 I-0.113 J0.065
G1 X-143.627 Y-59.872
G3 X-143.815 Y-59.881 I-0.089 J-0.095
X-145.4 Y-62.16 I9.571 J-8.352
G2 X-146.752 Y-64.585 I-122.544 J66.707
X-147.2 Y-65.306 I-9.872 J5.631
X-147.761 Y-65.943 I-2.728 J1.839
X-148.529 Y-66.413 I-1.757 J2.008
G3 X-149.362 Y-66.752 I26.994 J-67.58
G1 X-153.613 Y-68.429
G2 X-155.186 Y-68.282 I-0.626 J1.795
X-156.036 Y-66.95 I0.851 J1.48
X-155.979 Y-65.761 I4.429 J0.385
X-155.706 Y-64.603 I11.811 J-2.171
X-155.096 Y-63.073 I8.043 J-2.321
X-154.269 Y-61.649 I15.105 J-7.826
G3 X-153.485 Y-60.317 I-15.018 J9.73
X-153.158 Y-58.807 I-2.515 J1.336
X-153.49 Y-57.572 I-3.178 J-0.194
X-154.403 Y-56.676 I-1.767 J-0.887
X-155.162 Y-56.954 I-0.244 J-0.509
G2 X-155.899 Y-58.475 I-26.23 J11.777
G3 X-156.456 Y-60.069 I5.199 J-2.712
X-157.05 Y-63.225 I274.704 J-53.304
G2 X-158.174 Y-66.233 I-8.95 J1.63
X-159.214 Y-67.409 I-3.592 J2.129
X-160.74 Y-67.775 I-1.171 J1.516
X-162.063 Y-66.953 I0.4 J2.119
X-162.773 Y-65.567 I3.647 J2.745
X-162.967 Y-64.275 I4.078 J1.272
G3 X-163.081 Y-62.974 I-7.07 J0.034
X-163.657 Y-61.546 I-3.755 J-0.685
X-164.785 Y-60.5 I-2.735 J-1.816
X-166.808 Y-59.603 I-5.75 J-10.243
G2 X-168.57 Y-58.263 I1.091 J3.262
X-168.962 Y-55.632 I2.565 J1.728
X-167.318 Y-53.541 I3.515 J-1.073
X-164.514 Y-52.685 I3.17 J-5.361
G3 X-161.592 Y-52.454 I-4.27 J72.518
G2 X-161.291 Y-52.43 I0.796 J-7.996
G3 X-160.992 Y-52.393 I-0.157 J2.549
X-160.623 Y-51.948 I-0.08 J0.442
G2 X-160.523 Y-51.09 I3.532 J0.022
X-160.204 Y-50.287 I3.046 J-0.742
X-160.054 Y-50.055 I1.955 J-1.108
G3 X-159.893 Y-49.83 I-5.443 J4.04
X-159.775 Y-49.268 I-0.624 J0.425
G1 X-159.782 Y-49.229
X-159.786 Y-49.21
X-159.789 Y-49.191
G3 X-160.028 Y-48.753 I-0.744 J-0.122
G2 X-160.558 Y-47.989 I1.37 J1.516
X-160.684 Y-47.067 I1.808 J0.715
G3 X-160.92 Y-46.488 I-0.655 J0.07
G2 X-161.291 Y-46.156 I3.878 J4.708
X-161.595 Y-45.763 I1.235 J1.272
X-161.76 Y-45.361 I1.461 J0.833
X-161.845 Y-44.935 I3.315 J0.88
G3 X-162.06 Y-44.214 I-2.374 J-0.317
G2 X-162.272 Y-43.615 I2.634 J1.267
X-162.299 Y-42.979 I1.658 J0.389
G3 X-162.206 Y-41.907 I-9.137 J1.337
G2 X-162.171 Y-40.831 I154.659 J-4.435
G1 X-162.154 Y-40.322
X-162.069 Y-37.789
G2 X-161.949 Y-37.262 I1.383 J-0.04
X-161.661 Y-36.804 I1.79 J-0.803
G3 X-161.629 Y-36.259 I-0.35 J0.294
X-163.141 Y-34.584 I-6.159 J-4.037
X-165.242 Y-33.758 I-2.347 J-2.886
X-167.235 Y-33.999 I-0.359 J-5.396
G2 X-169.2 Y-34.418 I-3.126 J9.856
X-170.071 Y-34.428 I-0.489 J4.326
X-170.937 Y-34.331 I1.569 J17.796
G3 X-175.737 Y-34.21 I-2.937 J-21.344
X-180.123 Y-36.165 I0.636 J-7.325
X-181.081 Y-37.284 I4.534 J-4.848
G2 X-181.948 Y-38.474 I-18.414 J12.505
X-182.242 Y-38.785 I-1.764 J1.377
X-182.588 Y-39.038 I-1.68 J1.93
G3 X-182.727 Y-39.469 I0.181 J-0.296
G2 X-182.505 Y-40.103 I-5.009 J-2.108
X-182.374 Y-40.761 I-4.094 J-1.154
G3 X-181.89 Y-44.574 I196.878 J23.09
X-180.524 Y-48.168 I8.459 J1.159
X-179.565 Y-49.39 I8.625 J5.778
X-178.365 Y-50.376 I4.019 J3.67
X-177.107 Y-51.038 I6.171 J10.195
G1 X-175.758 Y-51.649
G2 X-174.796 Y-52.203 I-2.344 J-5.18
X-174.072 Y-53.043 I-1.363 J-1.907
X-173.824 Y-54.614 I-2.279 J-1.165
X-174.387 Y-56.102 I-3.898 J0.627
G1 X-177.14 Y-60.183
G3 X-178.746 Y-64.288 I11.86 J-7.007
X-178.75 Y-68.697 I10.275 J-2.213
X-178.294 Y-70.408 I17.279 J3.69
G2 X-177.838 Y-72.118 I-15.668 J-5.093
X-177.705 Y-73.073 I-6.972 J-1.463
X-177.883 Y-74.02 I-1.885 J-0.135
X-178.481 Y-74.934 I-3.674 J1.749
X-179.202 Y-75.754 I-51.094 J44.236
G1 X-181.969 Y-78.88
G3 X-185.493 Y-84.184 I28.37 J-22.675
X-188.397 Y-89.851 I110.864 J-60.383
G1 X-192.516 Y-98.492
G2 X-194.664 Y-102.449 I-62.156 J31.176
X-197.207 Y-106.165 I-27.584 J16.15
X-197.566 Y-106.575 I-4.4 J3.49
G3 X-197.929 Y-106.982 I4.949 J-4.777
X-197.933 Y-107.513 I0.326 J-0.268
X-196.768 Y-108.887 I23.369 J18.618
X-195.513 Y-110.18 I17.763 J15.994
X-194.716 Y-110.641 I1.347 J1.411
G1 X-193.837 Y-110.899
X-188.698 Y-112.072
G2 X-187.488 Y-112.899 I-0.638 J-2.233
X-187.163 Y-114.327 I-1.407 J-1.072
G1 X-187.777 Y-119.102
G2 X-188.981 Y-120.774 I-2.584 J0.591
G3 X-190.706 Y-121.902 I17.039 J-27.935
X-191.225 Y-122.315 I3.124 J-4.464
X-191.473 Y-122.93 I0.505 J-0.561
X-191.25 Y-124.467 I10.643 J0.759
G2 X-190.977 Y-125.996 I-18.806 J-4.145
X-190.914 Y-127.115 I-6.95 J-0.953
X-190.986 Y-128.233 I-13.865 J0.328
X-191.08 Y-129.048 I-39.696 J4.163
G3 X-191.069 Y-129.867 I2.955 J-0.371
X-190.879 Y-130.138 I0.366 J0.056
G2 X-190.597 Y-130.31 I-1.414 J-2.63
G3 X-189.217 Y-130.807 I1.632 J2.364
X-187.751 Y-130.87 I1.418 J16.119
X-187.602 Y-130.597 I-0.001 J0.177
G2 X-188.165 Y-128.853 I3.041 J1.945
X-188.139 Y-127.021 I13.111 J0.73
X-187.207 Y-123.284 I12.005 J-1.011
X-185.315 Y-119.93 I16.349 J-7.01
X-182.989 Y-116.901 I47.026 J-33.713
X-181.717 Y-115.624 I7.122 J-5.821
X-179.964 Y-115.202 I1.31 J-1.589
X-178.521 Y-116.285 I-0.469 J-2.126
X-177.764 Y-117.922 I-11.941 J-6.518
G1 X-176.443 Y-121.838
G2 X-175.686 Y-124.861 I-33.085 J-9.893
X-175.625 Y-127.977 I-8.491 J-1.724
X-175.859 Y-129.227 I-27.073 J4.407
G3 X-175.955 Y-130.495 I4.717 J-0.994
X-175.561 Y-130.878 I0.406 J0.023
G1 X-167.44 Y-130.855
G3 X-167.399 Y-130.637 I-0.001 J0.113
G2 X-169.473 Y-129.656 I7.625 J18.8
X-171.336 Y-128.315 I4.384 J8.054
X-172.18 Y-127.397 I5.471 J5.879
X-172.729 Y-126.277 I2.347 J1.844
X-173.123 Y-122.516 I13.088 J3.272
X-172.887 Y-118.741 I72.191 J-2.621
X-172.723 Y-117.7 I7.814 J-0.695
X-172.191 Y-116.79 I1.705 J-0.387
X-171.273 Y-116.316 I1.356 J-1.499
X-170.253 Y-116.155 I1.8 J-8.098
G1 X-165.745 Y-115.694
G3 X-162.92 Y-115.029 I-2.587 J17.315
X-160.282 Y-113.818 I-3.872 J11.915
G2 X-158.592 Y-112.892 I11.115 J-18.276
X-156.84 Y-112.089 I16.067 J-32.735
X-156.385 Y-111.906 I4.312 J-10.102
G3 X-155.933 Y-111.717 I-2.254 J6.01
X-154.357 Y-110.422 I-1.719 J3.697
X-153.679 Y-109.399 I-11.083 J8.081
G2 X-152.953 Y-108.409 I5.677 J-3.407
X-150.674 Y-106.552 I6.863 J-6.094
G3 X-148.204 Y-104.957 I-14.529 J25.205
X-148.104 Y-104.482 I-0.21 J0.292
X-148.782 Y-103.392 I-25.082 J-14.844
G2 X-149.453 Y-102.299 I19.428 J12.685
G1 X-152.148 Y-97.35
X-155.175 Y-91.216
X-159.152 Y-82.474
X-161.096 Y-77.914
G2 X-161.238 Y-76.764 I2.203 J0.857
X-160.69 Y-75.744 I1.594 J-0.199
X-159.664 Y-75.155 I2.067 J-2.412
G3 X-158.629 Y-74.58 I-1.125 J3.244
X-158.355 Y-74.325 I-1.693 J2.093
X-158.133 Y-74.022 I-1.148 J1.072
G2 X-157.692 Y-73.265 I23.595 J-13.263
X-157.043 Y-72.675 I1.318 J-0.798
X-156.216 Y-72.47 I0.906 J-1.877
X-155.836 Y-72.709 I0.015 J-0.396
G3 X-155.461 Y-72.955 I0.373 J0.16
X-153.556 Y-72.641 I0.244 J4.447
X-151.213 Y-70.99 I-4.486 J8.858
X-148.61 Y-68.584 I-40.512 J46.433
G2 X-146.604 Y-67.021 I8.448 J-8.774
X-144.515 Y-65.973 I36.478 J-70.115
G1 X-144.407 Y-65.903
X-144.301 Y-65.841
X-144.198 Y-65.779
X-144.105 Y-65.72
X-144.013 Y-65.658
X-143.92 Y-65.594
X-143.833 Y-65.529
X-143.739 Y-65.458
X-143.644 Y-65.383
X-143.548 Y-65.303
X-143.445 Y-65.214
X-143.336 Y-65.118 F212.5
X-143.219 Y-65.012
X-143.15 Y-64.948
G2 X-143.713 Y-64.958 I-0.318 J2.033 F850
G1 X-143.814 Y-64.939
X-143.839 Y-64.934
G2 X-143.968 Y-64.898 I0.258 J1.172
G1 X-143.99 Y-64.89
G2 X-144.174 Y-64.81 I0.387 J1.136
G1 X-144.191 Y-64.801
G2 X-144.37 Y-64.682 I0.571 J1.055
G1 X-144.384 Y-64.671
G2 X-144.638 Y-64.391 I0.75 J0.937
G1 X-144.648 Y-64.375
G2 X-144.799 Y-64.043 I1.004 J0.657
G1 X-144.805 Y-64.021
G2 X-144.849 Y-63.741 I1.155 J0.324
G1 X-144.85 Y-63.713
G2 X-144.846 Y-63.563 I1.199 J0.043
G1 X-144.843 Y-63.53
G2 X-144.83 Y-63.428 I1.195 J-0.106
G1 X-144.823 Y-63.388
G2 X-144.802 Y-63.292 I1.182 J-0.208
X-144.076 Y-61.731 I6.448 J-2.047
X-143.186 Y-60.158 I32.169 J-17.173
X-143.061 Y-59.951 I31.278 J-18.746 F212.5
G1 X-142.983 Y-59.814
G2 X-143.443 Y-59.479 I0.456 J1.11 F850
X-143.646 Y-59.136 I0.916 J0.775 F212.5
G3 X-145.299 Y-61.184 I7.473 J-7.722 F850
X-147.035 Y-64.192 I19.465 J-13.237
G2 X-147.923 Y-65.491 I-8.136 J4.61
G1 X-147.952 Y-65.506
X-147.983 Y-65.536
X-147.998 Y-65.551
X-148.014 Y-65.566
X-148.03 Y-65.58
X-148.058 Y-65.604
G2 X-148.132 Y-65.664 I-0.79 J0.903
G1 X-148.157 Y-65.683
G2 X-148.254 Y-65.748 I-0.716 J0.963
X-150.421 Y-66.688 I-8.485 J16.583
X-153.944 Y-68.07 I-42.162 J102.36
G1 X-154.037 Y-68.083
X-154.064 Y-68.088
G2 X-154.195 Y-68.105 I-0.219 J1.18
G1 X-154.218 Y-68.106
G2 X-154.408 Y-68.105 I-0.088 J1.197
G1 X-154.428 Y-68.104
G2 X-154.682 Y-68.054 I0.102 J1.196
G1 X-154.7 Y-68.048
G2 X-154.991 Y-67.913 I0.356 J1.146
G1 X-155.006 Y-67.903
G2 X-155.273 Y-67.67 I0.647 J1.011
G1 X-155.285 Y-67.656
G2 X-155.429 Y-67.444 I0.914 J0.778
G1 X-155.439 Y-67.426
G2 X-155.532 Y-67.2 I1.058 J0.566
G1 X-155.539 Y-67.176
G2 X-155.577 Y-67.001 I1.151 J0.34
G1 X-155.581 Y-66.972
X-155.584 Y-66.942
X-155.587 Y-66.911
X-155.59 Y-66.877
G2 X-155.595 Y-66.773 I1.195 J0.104
X-154.118 Y-62.261 I8.589 J-0.315
G3 X-153.073 Y-60.593 I-44.919 J29.287
X-153.288 Y-57.083 I-3.087 J1.572
X-154.445 Y-56.221 I-1.992 J-1.466
G1 X-154.457 Y-56.217
X-154.834 Y-56.082 F212.5
G2 X-154.984 Y-56.193 I-0.784 J0.908 F850
X-155.042 Y-56.226 I-0.634 J1.019 F212.5
G1 X-155.08 Y-56.247
G2 X-155.257 Y-56.326 I-0.576 J1.053
G1 X-155.299 Y-56.341
X-155.323 Y-56.349
X-155.348 Y-56.357
G2 X-156.406 Y-58.533 I-20.964 J8.85 F850
G3 X-157.029 Y-60.817 I6.218 J-2.923
G2 X-157.622 Y-63.827 I-40.228 J6.37
X-158.968 Y-66.622 I-8.938 J2.581
X-159.328 Y-66.979 I-3.986 J3.662
G1 X-159.411 Y-67.04
X-159.461 Y-67.075
G2 X-159.559 Y-67.138 I-0.693 J0.979
G1 X-159.608 Y-67.166
G2 X-159.732 Y-67.228 I-0.595 J1.042
G1 X-159.78 Y-67.248
G2 X-159.929 Y-67.3 I-0.471 J1.104
G1 X-159.976 Y-67.314
G2 X-160.145 Y-67.348 I-0.322 J1.156
G1 X-160.191 Y-67.354
G2 X-160.381 Y-67.363 I-0.153 J1.19
G1 X-160.426 Y-67.362
G2 X-160.612 Y-67.341 I0.037 J1.199
G1 X-160.657 Y-67.333
G2 X-160.843 Y-67.282 I0.223 J1.179
G1 X-160.886 Y-67.266
G2 X-161.035 Y-67.2 I0.409 J1.128
G1 X-161.078 Y-67.178
G2 X-161.179 Y-67.118 I0.558 J1.062
G1 X-161.243 Y-67.076
G2 X-161.323 Y-67.019 I0.659 J1.003
X-162.348 Y-65.39 I1.847 J2.298
X-162.55 Y-63.742 I4.781 J1.425
G3 X-163.601 Y-60.841 I-4.578 J-0.017
X-165.386 Y-59.725 I-3.374 J-3.411
G2 X-167.025 Y-59.015 I9.971 J25.292
X-167.615 Y-58.657 I2.73 J5.164
G1 X-167.693 Y-58.589
X-167.783 Y-58.509
G2 X-167.852 Y-58.441 I0.802 J0.893
G1 X-167.934 Y-58.355
G2 X-168.002 Y-58.277 I0.871 J0.826
G1 X-168.075 Y-58.185
G2 X-168.131 Y-58.108 I0.939 J0.747
G1 X-168.196 Y-58.011
G2 X-168.25 Y-57.924 I0.995 J0.67
X-168.395 Y-57.637 I2.128 J1.26
X-168.433 Y-57.544 I1.09 J0.501
X-168.603 Y-56.846 I2.57 J0.993
X-168.611 Y-56.752 I1.19 J0.156
X-167.085 Y-53.936 I3.023 J0.183
X-165.169 Y-53.263 I2.609 J-4.362
X-162.423 Y-52.956 I3.41 J-18.075
G3 X-160.715 Y-52.755 I-1.037 J16.204
X-160.555 Y-52.693 I-1.126 J3.134
X-160.196 Y-52.516 I-1.287 J3.071 F212.5
G2 X-160.097 Y-51.042 I4.038 J0.47 F850
X-159.507 Y-49.971 I5.219 J-2.176
X-159.266 Y-49.652 I4.629 J-3.247 F212.5
X-159.398 Y-49.085 I4.575 J1.358 F850
X-159.447 Y-48.688 I4.706 J0.791 F212.5
X-159.916 Y-48.287 I1.072 J1.728 F850
X-159.988 Y-48.194 I0.905 J0.789
G1 X-160.012 Y-48.162
G2 X-160.072 Y-48.067 I0.978 J0.696
G1 X-160.091 Y-48.034
X-160.106 Y-48.008
X-160.121 Y-47.98
X-160.135 Y-47.953
X-160.151 Y-47.919
G2 X-160.21 Y-47.77 I1.082 J0.52
G1 X-160.221 Y-47.736
G2 X-160.256 Y-47.604 I1.141 J0.37
G1 X-160.263 Y-47.569
G2 X-160.279 Y-47.466 I1.176 J0.238
G1 X-160.283 Y-47.431
G2 X-160.291 Y-47.263 I1.192 J0.135
G1 X-160.29 Y-47.226
G2 X-160.283 Y-47.132 I1.2 J-0.033
G1 X-160.279 Y-47.094
G2 X-160.261 Y-46.977 I1.193 J-0.128
G1 X-160.256 Y-46.955
X-160.253 Y-46.939 F212.5
G2 X-160.226 Y-46.836 I1.175 J-0.245
X-160.13 Y-46.576 I1.77 J-0.51
X-161.12 Y-45.72 I2.609 J4.017 F850
G1 X-161.173 Y-45.626
X-161.196 Y-45.589
X-161.208 Y-45.569
X-161.22 Y-45.549
X-161.241 Y-45.512
G2 X-161.29 Y-45.417 I1.042 J0.595
G1 X-161.307 Y-45.38
X-161.319 Y-45.353
X-161.331 Y-45.325
X-161.341 Y-45.297
X-161.355 Y-45.259
G2 X-161.392 Y-45.143 I1.125 J0.417
X-161.448 Y-44.817 I2.175 J0.545
X-161.451 Y-44.418 I2.232 J0.218 F212.5
X-161.842 Y-43.597 I1.382 J1.162 F850
G1 X-161.859 Y-43.503
X-161.862 Y-43.481
X-161.865 Y-43.459
G2 X-161.874 Y-43.357 I1.19 J0.155
G1 X-161.875 Y-43.334
X-161.876 Y-43.308
Y-43.281
Y-43.259
Y-43.231
X-161.875 Y-43.203
X-161.874 Y-43.182
G2 X-161.862 Y-43.064 I1.199 J-0.056
G3 X-161.741 Y-41.172 I-14.802 J1.9
X-161.706 Y-40.336 I-14.488 J1.024
G1 X-161.632 Y-37.801
G2 X-161.249 Y-36.956 I1.199 J-0.034
X-160.916 Y-36.737 I0.817 J-0.879 F212.5
G3 X-162.615 Y-34.51 I-6.058 J-2.859 F850
X-166.251 Y-33.36 I-2.912 J-2.886
X-168.522 Y-33.85 I2.239 J-15.891
G2 X-170.879 Y-33.874 I-1.233 J5.35
G3 X-173.594 Y-33.632 I-3.618 J-25.261
X-177.56 Y-34.169 I-0.324 J-12.517
X-180.719 Y-36.116 I2.373 J-7.39
X-181.893 Y-37.683 I10.005 J-8.716
G2 X-182.595 Y-38.557 I-6.492 J4.495
G1 X-182.703 Y-38.629
X-182.745 Y-38.657
G2 X-182.839 Y-38.716 I-0.68 J0.989
G1 X-182.883 Y-38.741
X-182.909 Y-38.755
X-182.936 Y-38.768
X-182.962 Y-38.781
X-183.006 Y-38.802
G2 X-183.104 Y-38.842 I-0.507 J1.088
G1 X-183.133 Y-38.853
X-183.149 Y-38.859 F212.5
G2 X-183.253 Y-38.891 I-0.409 J1.128
G1 X-183.299 Y-38.903
G2 X-183.403 Y-38.925 I-0.305 J1.161
G1 X-183.45 Y-38.933
X-183.473 Y-38.937
X-183.497 Y-38.941
X-183.521 Y-38.943
G2 X-182.865 Y-40.529 I-2.25 J-1.86 F850
X-182.817 Y-40.825 I-1.744 J-0.435
G3 X-182.23 Y-45.071 I47.604 J4.42
X-180.905 Y-48.423 I10.187 J2.088
X-178.926 Y-50.556 I8.167 J5.591
X-176.652 Y-51.722 I8.689 J14.144
G1 X-175.255 Y-52.376
G2 X-174.777 Y-52.788 I-1.286 J-1.975
X-174.714 Y-52.864 I-0.893 J-0.801
X-174.317 Y-54.93 I-1.879 J-1.432
G1 X-174.336 Y-55.022
G2 X-174.952 Y-56.135 I-4.331 J1.673
X-176.447 Y-58.262 I-30.632 J19.933
G3 X-178.332 Y-61.461 I20.155 J-14.034
X-179.373 Y-66.861 I10.305 J-4.786
X-178.935 Y-69.78 I9.098 J-0.127
G2 X-178.365 Y-71.813 I-315.995 J-89.754
X-178.146 Y-73.252 I-7.004 J-1.802
G1 X-178.162 Y-73.363
X-178.166 Y-73.397
X-178.17 Y-73.421
X-178.173 Y-73.445
X-178.177 Y-73.469
X-178.182 Y-73.497
G2 X-178.232 Y-73.682 I-1.181 J0.214
G1 X-178.242 Y-73.711
G2 X-178.29 Y-73.827 I-1.131 J0.4
X-179.16 Y-75.007 I-4.958 J2.743
X-180.65 Y-76.649 I-20.628 J17.233
G3 X-185.776 Y-83.798 I27.077 J-24.824
X-189.287 Y-90.686 I84.345 J-47.342
G2 X-192.234 Y-96.921 I-543.849 J253.195
X-195.63 Y-103.195 I-67.536 J32.499
X-198.408 Y-106.923 I-26.524 J16.868
X-198.466 Y-106.989 I-23.746 J20.595 F212.5
G1 X-198.543 Y-107.105
X-198.613 Y-107.2
X-198.645 Y-107.245
G3 X-195.677 Y-110.648 I24.791 J18.622 F850
X-193.745 Y-111.385 I3.628 J6.613
X-189.912 Y-112.242 I11.03 J40.304
G2 X-188.516 Y-112.604 I-2.378 J-12.051
G1 X-188.458 Y-112.637
G2 X-188.373 Y-112.678 I-0.477 J-1.101
G1 X-188.324 Y-112.704
G2 X-188.238 Y-112.754 I-0.562 J-1.06
G1 X-188.199 Y-112.779
G2 X-188.076 Y-112.87 I-0.648 J-1.01
G1 X-188.045 Y-112.896
G2 X-187.886 Y-113.057 I-0.771 J-0.919
G1 X-187.864 Y-113.084
G2 X-187.729 Y-113.29 I-0.93 J-0.758
G1 X-187.715 Y-113.317
G2 X-187.623 Y-113.55 I-1.065 J-0.552
G1 X-187.615 Y-113.579
G2 X-187.578 Y-113.779 I-1.157 J-0.319
G1 X-187.575 Y-113.809
G2 X-187.574 Y-114.04 I-1.194 J-0.119
G1 X-187.577 Y-114.072
G2 X-187.597 Y-114.202 I-1.195 J0.112
G3 X-187.919 Y-116.953 I28.5 J-4.734
G2 X-188.266 Y-119.252 I-25.714 J2.71
X-188.373 Y-119.516 I-7.948 J3.047
X-188.444 Y-119.653 I-1.096 J0.487
G1 X-188.458 Y-119.676
G2 X-188.532 Y-119.784 I-1.025 J0.624
G1 X-188.552 Y-119.81
X-188.565 Y-119.826
X-188.579 Y-119.843
X-188.603 Y-119.872
G2 X-188.665 Y-119.942 I-0.924 J0.765
X-190.251 Y-121.076 I-5.037 J5.366
G3 X-191.662 Y-122.117 I3.363 J-6.035
X-191.922 Y-122.581 I0.885 J-0.802
X-191.761 Y-124.089 I6.109 J-0.111
G2 X-191.417 Y-126.056 I-124.378 J-22.786
X-191.467 Y-128.425 I-8.318 J-1.009
G3 X-191.516 Y-129.979 I9.306 J-1.075
X-190.983 Y-130.574 I1.191 J0.53
X-189.637 Y-131.231 I2.085 J2.566
G1 X-189.483 Y-131.235
X-189.286 Y-131.247
X-189.051 Y-131.257
X-188.785 Y-131.265
X-188.501 Y-131.271
X-188.195 Y-131.274
X-187.875 Y-131.275
X-187.545 Y-131.274
X-187.211 Y-131.271
X-186.874 Y-131.265
X-186.788 Y-131.263
X-186.541 Y-131.258 F212.5
X-186.389 Y-131.254
G2 X-187.035 Y-130.694 I1.61 J2.512 F850
G1 X-187.099 Y-130.613
G2 X-187.687 Y-128.962 I2.423 J1.792
X-187.315 Y-125.071 I10.244 J0.984
X-184.944 Y-120.195 I13.58 J-3.589
X-181.919 Y-116.345 I39.273 J-27.742
X-181.464 Y-115.947 I3.419 J-3.45
G1 X-181.385 Y-115.897
X-181.319 Y-115.856
G2 X-181.236 Y-115.808 I0.633 J-1.019
G1 X-181.172 Y-115.775
G2 X-181.049 Y-115.721 I0.55 J-1.067
G1 X-180.986 Y-115.697
G2 X-180.846 Y-115.653 I0.427 J-1.121
G1 X-180.785 Y-115.638
G2 X-180.615 Y-115.609 I0.287 J-1.165
G1 X-180.554 Y-115.603
G2 X-180.376 Y-115.599 I0.117 J-1.194
G1 X-180.317 Y-115.602
G2 X-180.12 Y-115.628 I-0.061 J-1.198
G1 X-180.061 Y-115.641
G2 X-179.91 Y-115.685 I-0.258 J-1.172
G1 X-179.852 Y-115.706
G2 X-179.695 Y-115.776 I-0.409 J-1.128
G1 X-179.637 Y-115.807
G2 X-179.502 Y-115.891 I-0.566 J-1.058
G1 X-179.445 Y-115.932
G2 X-179.346 Y-116.012 I-0.701 J-0.974
G1 X-179.289 Y-116.063
G2 X-179.219 Y-116.131 I-0.8 J-0.894
G1 X-179.162 Y-116.19
G2 X-179.096 Y-116.266 I-0.87 J-0.826
X-178.315 Y-117.766 I-3.985 J-3.029
X-176.286 Y-124.221 I-42.609 J-16.938
X-175.949 Y-126.599 I-20.162 J-4.074
X-176.156 Y-128.364 I-8.568 J0.113
G3 X-176.366 Y-130.548 I10.822 J-2.141
X-176.313 Y-130.88 I1.629 J0.09
X-176.204 Y-131.173 I1.576 J0.422 F212.5
G1 X-176.18 Y-131.213
X-176.157 Y-131.246
G3 X-172.884 Y-131.291 I2.16 J37.911 F850
X-170.465 Y-131.283 I0.769 J134.085
G1 X-165.101 Y-131.242
X-164.701 Y-131.239 F212.5
X-164.469 Y-131.103
G2 X-170.131 Y-128.688 I2.887 J14.611 F850
X-171.705 Y-127.291 I4.296 J6.425
G1 X-171.759 Y-127.215
X-171.9 Y-127.021
G2 X-171.963 Y-126.924 I0.971 J0.706
G1 X-172.075 Y-126.734
G2 X-172.137 Y-126.614 I1.034 J0.609
G1 X-172.166 Y-126.549
G2 X-172.203 Y-126.456 I1.096 J0.489
X-172.593 Y-124.148 I9.66 J2.821
X-172.604 Y-121.355 I12.175 J1.443
X-172.39 Y-118.305 I49.676 J-1.954
X-172.348 Y-117.908 I49.462 J-5.004 F212.5
G1 X-172.333 Y-117.886 F850
X-172.328 Y-117.864
X-172.323 Y-117.843
G2 X-172.28 Y-117.7 I1.167 J-0.278
G1 X-172.271 Y-117.676
G2 X-172.22 Y-117.56 I1.124 J-0.421
G1 X-172.209 Y-117.538
G2 X-172.148 Y-117.431 I1.073 J-0.537
G1 X-172.134 Y-117.409
G2 X-172.036 Y-117.276 I1.012 J-0.644
G1 X-172.019 Y-117.256
G2 X-171.91 Y-117.143 I0.914 J-0.777
G1 X-171.889 Y-117.124
G2 X-171.81 Y-117.059 I0.805 J-0.89
G1 X-171.785 Y-117.04
G2 X-171.666 Y-116.96 I0.726 J-0.955
X-170.537 Y-116.646 I1.236 J-2.264
X-169.129 Y-116.515 I2.045 J-14.318
G3 X-164.353 Y-115.913 I-3.143 J44.211
X-159.538 Y-113.88 I-2.654 J12.999
G2 X-156.078 Y-112.238 I15.808 J-28.85
G3 X-154.76 Y-111.582 I-11.31 J24.365
X-153.253 Y-109.512 I-13.383 J11.331
G2 X-150.558 Y-107.007 I7.208 J-5.052
G3 X-147.729 Y-105.113 I-24.729 J40.002
X-147.405 Y-104.877 I-27.559 J38.108 F212.5
G2 X-150.707 Y-99.141 I149.515 J89.88 F850
X-159.118 Y-81.402 I220.547 J115.433
X-160.777 Y-77.5 I100.776 J45.144
G1 X-160.806 Y-77.389
X-160.817 Y-77.346
G2 X-160.815 Y-76.741 I1.162 J0.3
G1 X-160.813 Y-76.733
G2 X-160.696 Y-76.446 I1.16 J-0.305
G1 X-160.691 Y-76.437
G2 X-160.581 Y-76.276 I1.043 J-0.593
G1 X-160.573 Y-76.266
X-160.559 Y-76.248
X-160.543 Y-76.23
X-160.528 Y-76.213
X-160.518 Y-76.202
G2 X-160.411 Y-76.098 I0.888 J-0.807
X-159.426 Y-75.559 I2.142 J-2.747
G3 X-157.881 Y-74.475 I-1.479 J3.749
X-157.377 Y-73.582 I-11.344 J7
G2 X-156.335 Y-72.961 I1.051 J-0.579
G1 X-155.461 Y-72.955
G2 X-155.31 Y-73.054 I0.001 J-0.162
G3 X-155.159 Y-73.152 I0.147 J0.062
X-152.666 Y-72.368 I0.04 J4.226
X-150.425 Y-70.562 I-8.992 J13.456
X-148.471 Y-68.735 I-375.148 J403.207
G2 X-145.884 Y-66.864 I7.194 J-7.224
G3 X-143.895 Y-65.831 I-7.803 J17.452
G1 X-143.804 Y-65.757
X-143.712 Y-65.689
X-143.616 Y-65.615
X-143.518 Y-65.538
X-143.419 Y-65.456
X-143.314 Y-65.365
X-143.202 Y-65.267
X-143.084 Y-65.16
X-142.96 Y-65.045
X-142.829 Y-64.922
X-142.773 Y-64.868
X-142.688 Y-64.786 F212.5
X-142.536 Y-64.64
X-142.485 Y-64.59
G2 X-143.659 Y-64.771 I-1.103 J3.256 F850
G1 X-143.687 Y-64.759
G2 X-143.771 Y-64.744 I0.131 J0.991
G1 X-143.796 Y-64.739
G2 X-143.904 Y-64.708 I0.215 J0.977
G1 X-143.926 Y-64.701
G2 X-144.079 Y-64.634 I0.323 J0.947
G1 X-144.096 Y-64.625
G2 X-144.245 Y-64.526 I0.476 J0.879
G1 X-144.259 Y-64.515
G2 X-144.471 Y-64.281 I0.625 J0.781
G1 X-144.481 Y-64.266
G2 X-144.607 Y-63.989 I0.837 J0.547
G1 X-144.613 Y-63.967
G2 X-144.649 Y-63.734 I0.963 J0.27
G1 X-144.65 Y-63.706
G2 X-144.647 Y-63.581 I0.999 J0.036
G1 X-144.644 Y-63.547
G2 X-144.633 Y-63.462 I0.996 J-0.089
X-144.102 Y-62.198 I4.2 J-1.019
X-142.883 Y-60.038 I44.465 J-23.666
X-142.677 Y-59.695 I43.246 J-25.826 F212.5
G1 X-142.795 Y-59.67 F850
X-142.909 Y-59.63
X-143.018 Y-59.577
X-143.119 Y-59.512
X-143.212 Y-59.434
X-143.295 Y-59.346
X-143.366 Y-59.249
X-143.426 Y-59.144
X-143.465 Y-59.052 F212.5
X-143.495 Y-58.957
X-143.515 Y-58.859
X-143.525 Y-58.759
G3 X-145.32 Y-60.863 I6.319 J-7.21 F850
X-147.209 Y-64.093 I19.006 J-13.276
G2 X-148.066 Y-65.351 I-8.106 J4.607
X-148.276 Y-65.523 I-14.845 J17.888
G1 X-148.357 Y-65.577
G2 X-150.495 Y-66.503 I-8.591 J16.891
X-153.646 Y-67.744 I-42.367 J102.973
X-154.02 Y-67.884 I-39.216 J104.214 F212.5
G1 X-154.049 Y-67.881 F850
X-154.074 Y-67.886
X-154.101 Y-67.891
G2 X-154.209 Y-67.905 I-0.182 J0.983
G1 X-154.232 Y-67.907
G2 X-154.391 Y-67.906 I-0.074 J0.997
G1 X-154.411 Y-67.904
G2 X-154.623 Y-67.863 I0.085 J0.996
G1 X-154.641 Y-67.857
G2 X-154.883 Y-67.745 I0.297 J0.955
G1 X-154.898 Y-67.735
G2 X-155.121 Y-67.541 I0.539 J0.842
G1 X-155.133 Y-67.527
G2 X-155.253 Y-67.35 I0.762 J0.648
G1 X-155.263 Y-67.331
G2 X-155.34 Y-67.143 I0.882 J0.472
G1 X-155.347 Y-67.119
G2 X-155.379 Y-66.973 I0.959 J0.283
G1 X-155.383 Y-66.944
X-155.386 Y-66.919
X-155.388 Y-66.894
X-155.391 Y-66.859
G2 X-155.395 Y-66.773 I0.996 J0.087
X-153.949 Y-62.369 I8.397 J-0.318
G3 X-152.896 Y-60.685 I-43.955 J28.676
X-153.127 Y-56.965 I-3.264 J1.665
X-154.374 Y-56.034 I-2.153 J-1.584
G1 X-154.502 Y-55.988
X-154.879 Y-55.853 F212.5
X-154.897 Y-55.871 F850
X-154.915 Y-55.887
X-154.933 Y-55.903
X-154.965 Y-55.931
G2 X-155.126 Y-56.044 I-0.653 J0.757
X-155.138 Y-56.051 I-0.492 J0.871 F212.5
G1 X-155.176 Y-56.072
G2 X-155.324 Y-56.138 I-0.48 J0.877
G1 X-155.366 Y-56.153
G2 X-155.497 Y-56.189 I-0.332 J0.943
X-156.538 Y-58.35 I-18.184 J7.43 F850
G3 X-157.226 Y-60.785 I6.305 J-3.097
G2 X-157.815 Y-63.773 I-39.945 J6.317
X-159.12 Y-66.493 I-8.774 J2.537
X-159.457 Y-66.826 I-3.872 J3.572
G1 X-159.526 Y-66.877
X-159.576 Y-66.912
G2 X-159.658 Y-66.964 I-0.578 J0.816
G1 X-159.707 Y-66.992
G2 X-159.81 Y-67.044 I-0.496 J0.868
G1 X-159.858 Y-67.064
G2 X-159.983 Y-67.108 I-0.393 J0.92
G1 X-160.03 Y-67.121
G2 X-160.171 Y-67.149 I-0.268 J0.963
G1 X-160.217 Y-67.155
G2 X-160.375 Y-67.163 I-0.127 J0.992
G1 X-160.42 Y-67.162
G2 X-160.575 Y-67.145 I0.031 J1
G1 X-160.62 Y-67.136
G2 X-160.775 Y-67.094 I0.186 J0.983
G1 X-160.818 Y-67.078
G2 X-160.942 Y-67.023 I0.341 J0.94
G1 X-160.985 Y-67.001
G2 X-161.07 Y-66.951 I0.465 J0.885
X-162.112 Y-65.474 I1.457 J2.135
X-162.349 Y-63.738 I4.469 J1.494
G3 X-163.249 Y-60.958 I-4.893 J-0.049
X-165 Y-59.674 I-3.274 J-2.627
X-166.101 Y-59.22 I-6.593 J-14.418
G2 X-167.469 Y-58.524 I3.716 J8.998
G1 X-167.493 Y-58.495
G2 X-167.559 Y-58.441 I0.602 J0.799
X-167.789 Y-58.217 I1.484 J1.755
X-167.845 Y-58.152 I0.726 J0.688
X-168.03 Y-57.9 I1.738 J1.468
X-168.075 Y-57.827 I0.829 J0.559
X-167.515 Y-54.515 I2.339 J1.308
X-165.889 Y-53.637 I2.463 J-2.62
X-163.214 Y-53.216 I3.203 J-11.63
G3 X-160.954 Y-53.011 I-6.375 J82.797
X-160.343 Y-52.819 I-0.518 J2.719
X-159.991 Y-52.63 I-1.129 J2.528 F212.5
G2 X-159.947 Y-51.239 I4.964 J0.54 F850
X-159.285 Y-50.016 I4.008 J-1.38
X-159.22 Y-49.935 I3.345 J-2.604 F212.5
G1 X-159.138 Y-49.807
X-159.054 Y-49.689
X-159.064 Y-49.652 F850
G2 X-159.212 Y-48.968 I5.379 J1.527
X-159.259 Y-48.571 I5.528 J0.843 F212.5
X-159.765 Y-48.156 I1.002 J1.742 F850
G1 X-159.826 Y-48.078
X-159.849 Y-48.046
G2 X-159.899 Y-47.967 I0.815 J0.58
G1 X-159.918 Y-47.934
X-159.931 Y-47.912
X-159.943 Y-47.889
X-159.954 Y-47.866
X-159.97 Y-47.833
G2 X-160.02 Y-47.708 I0.901 J0.433
G1 X-160.031 Y-47.674
G2 X-160.06 Y-47.564 I0.951 J0.309
G1 X-160.067 Y-47.529
G2 X-160.081 Y-47.443 I0.98 J0.198
G1 X-160.085 Y-47.408
G2 X-160.091 Y-47.268 I0.994 J0.112
G1 X-160.09 Y-47.232
X-160.089 Y-47.206
X-160.087 Y-47.179
X-160.084 Y-47.153
X-160.08 Y-47.116
G2 X-160.065 Y-47.018 I0.994 J-0.106
G1 X-160.057 Y-46.98
G2 X-160.035 Y-46.894 I0.979 J-0.204
X-159.876 Y-46.518 I1.638 J-0.474 F212.5
X-160.864 Y-45.718 I4.183 J6.182 F850
G1 X-160.89 Y-45.674
X-160.908 Y-45.653
X-160.925 Y-45.631
X-160.953 Y-45.594
G2 X-161.004 Y-45.52 I0.798 J0.602
G1 X-161.027 Y-45.483
X-161.037 Y-45.467
X-161.047 Y-45.45
X-161.068 Y-45.413
G2 X-161.108 Y-45.334 I0.869 J0.496
G1 X-161.125 Y-45.297
X-161.135 Y-45.274
X-161.145 Y-45.251
X-161.154 Y-45.228
X-161.168 Y-45.19
G2 X-161.198 Y-45.093 I0.938 J0.347
X-161.254 Y-44.757 I1.875 J0.483
X-161.243 Y-44.358 I1.931 J0.147 F212.5
X-161.667 Y-43.433 I1.239 J1.128 F850
X-161.674 Y-43.348 I0.992 J0.129
G1 X-161.675 Y-43.326
X-161.676 Y-43.303
Y-43.281
Y-43.259
Y-43.236
X-161.675 Y-43.212
X-161.674 Y-43.191
G2 X-161.664 Y-43.093 I0.999 J-0.047
G3 X-161.541 Y-41.18 I-14.806 J1.914
X-161.506 Y-40.343 I-14.231 J1.017
G1 X-161.432 Y-37.807
G2 X-161.007 Y-37.017 I1 J-0.029
X-160.816 Y-36.912 I0.575 J-0.818 F212.5
G1 X-160.648 Y-36.843
G3 X-162.481 Y-34.363 I-6.3 J-2.737 F850
X-166.276 Y-33.162 I-3.045 J-3.027
X-168.566 Y-33.655 I2.238 J-15.959
G2 X-170.698 Y-33.701 I-1.174 J5.014
X-171.813 Y-33.556 I4.574 J39.453
G3 X-176.715 Y-33.727 I-1.934 J-14.914
X-179.933 Y-35.156 I1.943 J-8.712
X-181.958 Y-37.434 I4.957 J-6.444
G2 X-182.673 Y-38.358 I-12.441 J8.888
G1 X-182.7 Y-38.371
X-182.72 Y-38.389
X-182.732 Y-38.399
G2 X-182.816 Y-38.464 I-0.651 J0.759
G1 X-182.858 Y-38.493
G2 X-182.937 Y-38.542 I-0.567 J0.824
G1 X-182.981 Y-38.566
X-183.003 Y-38.578
X-183.025 Y-38.589
X-183.047 Y-38.6
X-183.091 Y-38.62
G2 X-183.172 Y-38.654 I-0.422 J0.906
G1 X-183.217 Y-38.671
G2 X-183.304 Y-38.697 I-0.341 J0.94
G1 X-183.35 Y-38.71
G2 X-183.436 Y-38.728 I-0.254 J0.967
G1 X-183.483 Y-38.736
G2 X-183.572 Y-38.747 I-0.168 J0.986
G1 X-183.62 Y-38.751
G2 X-183.705 Y-38.754 I-0.079 J0.997
G1 X-183.753
X-183.781 Y-38.753 F212.5
X-183.809 Y-38.752
X-183.836 Y-38.75
X-183.885 Y-38.745
X-183.912 Y-38.743
X-183.938 Y-38.739
X-183.964 Y-38.735
X-184.014 Y-38.727
X-184.04 Y-38.722
X-184.066 Y-38.716
X-184.092 Y-38.71
X-184.139 Y-38.698
X-184.118 Y-38.71 F850
X-184.06 Y-38.745
G2 X-183.988 Y-38.793 I-0.516 J-0.857
G1 X-183.932 Y-38.834
G2 X-183.853 Y-38.898 I-0.588 J-0.809
G1 X-183.801 Y-38.945
X-183.784 Y-38.96
X-183.767 Y-38.976
X-183.751 Y-38.993
X-183.7 Y-39.045
G2 X-183.638 Y-39.114 I-0.717 J-0.697
X-183.041 Y-40.709 I-2.294 J-1.768
G3 X-182.647 Y-43.867 I133.547 J15.08
X-181.87 Y-46.979 I14.714 J2.022
X-178.882 Y-50.829 I8.263 J3.328
X-176.177 Y-52.163 I13.58 J24.121
G2 X-175.362 Y-52.546 I-43.217 J-93.082
X-174.475 Y-54.689 I-1.123 J-1.719
X-174.886 Y-55.659 I-2.129 J0.329
X-176.29 Y-57.689 I-19.331 J11.868
G3 X-178.337 Y-61.008 I23.172 J-16.585
X-179.574 Y-66.864 I10.37 J-5.248
X-179.128 Y-69.833 I9.335 J-0.116
G2 X-178.558 Y-71.867 I-199.71 J-57.068
X-178.346 Y-73.247 I-6.749 J-1.743
G1 X-178.361 Y-73.34
X-178.365 Y-73.373
X-178.368 Y-73.393
X-178.371 Y-73.413
X-178.374 Y-73.433
X-178.379 Y-73.461
G2 X-178.42 Y-73.616 I-0.984 J0.178
G1 X-178.43 Y-73.644
G2 X-178.47 Y-73.741 I-0.943 J0.333
X-179.311 Y-74.877 I-4.842 J2.704
X-180.798 Y-76.514 I-20.753 J17.354
G3 X-185.95 Y-83.699 I27.213 J-24.952
X-189.468 Y-90.6 I84.529 J-47.446
G2 X-192.413 Y-96.833 I-543.889 J253.213
X-195.799 Y-103.087 I-67.373 J32.419
X-198.519 Y-106.741 I-25.689 J16.291
G3 X-198.655 Y-106.92 I9.812 J-7.553
X-198.888 Y-107.245 I9.947 J-7.374 F212.5
X-195.795 Y-110.81 I23.89 J17.6 F850
X-193.798 Y-111.577 I3.704 J6.664
X-189.953 Y-112.438 I11.02 J40.201
G2 X-188.595 Y-112.788 I-2.401 J-12.124
X-188.307 Y-112.946 I-1.79 J-3.617
G1 X-188.254 Y-112.983
X-188.204 Y-113.023
X-188.173 Y-113.049
G2 X-188.041 Y-113.183 I-0.643 J-0.766
G1 X-188.019 Y-113.21
G2 X-187.906 Y-113.382 I-0.775 J-0.632
G1 X-187.892 Y-113.409
G2 X-187.816 Y-113.603 I-0.888 J-0.46
G1 X-187.808 Y-113.632
G2 X-187.777 Y-113.799 I-0.964 J-0.266
G1 X-187.774 Y-113.828
G2 X-187.773 Y-114.021 I-0.995 J-0.1
G1 X-187.776 Y-114.053
G2 X-187.793 Y-114.162 I-0.996 J0.093
G3 X-188.118 Y-116.933 I28.395 J-4.737
G2 X-188.459 Y-119.197 I-25.864 J2.74
X-188.556 Y-119.435 I-8.155 J3.17
X-188.615 Y-119.549 I-0.913 J0.406
G1 X-188.629 Y-119.572
G2 X-188.69 Y-119.662 I-0.854 J0.52
X-189.832 Y-120.583 I-3.264 J2.878
X-190.954 Y-121.275 I-11.401 J17.23
G3 X-191.998 Y-122.232 I2.256 J-3.509
X-192.106 Y-123.054 I1.006 J-0.55
X-191.755 Y-125.206 I15.782 J1.47
G2 X-191.563 Y-127.563 I-9.872 J-1.989
G3 X-191.737 Y-129.814 I17.639 J-2.492
X-191.643 Y-130.191 I1.031 J0.057
X-190.408 Y-131.16 I2.35 J1.724
X-189.296 Y-131.445 I1.064 J1.835
G1 X-189.058 Y-131.457
X-188.791 Y-131.465
X-188.504 Y-131.471
X-188.197 Y-131.474
X-187.875 Y-131.475
X-187.544 Y-131.474
X-187.208 Y-131.471
X-186.87 Y-131.465
X-186.536 Y-131.458
X-186.208 Y-131.449
X-186.046 Y-131.443
X-185.891 Y-131.438 F212.5
X-185.646 Y-131.427
G2 X-186.89 Y-130.566 I1.386 J3.331 F850
G1 X-186.939 Y-130.494
G2 X-187.486 Y-128.942 I2.247 J1.666
X-187.205 Y-125.451 I9.665 J0.978
X-184.781 Y-120.312 I13.446 J-3.2
X-181.776 Y-116.485 I38.94 J-27.485
X-181.08 Y-115.953 I1.892 J-1.754
X-180.978 Y-115.908 I0.458 J-0.889
G1 X-180.915 Y-115.884
G2 X-180.798 Y-115.847 I0.356 J-0.934
G1 X-180.737 Y-115.832
G2 X-180.596 Y-115.808 I0.239 J-0.971
G1 X-180.535 Y-115.802
G2 X-180.386 Y-115.798 I0.098 J-0.995
G1 X-180.327 Y-115.801
G2 X-180.163 Y-115.823 I-0.051 J-0.999
G1 X-180.104 Y-115.836
G2 X-179.979 Y-115.873 I-0.215 J-0.977
G1 X-179.921 Y-115.894
G2 X-179.79 Y-115.952 I-0.34 J-0.94
G1 X-179.732 Y-115.983
G2 X-179.619 Y-116.053 I-0.471 J-0.882
G1 X-179.562 Y-116.094
G2 X-179.479 Y-116.161 I-0.584 J-0.812
X-178.711 Y-117.333 I-2.077 J-2.199
X-177.672 Y-120.126 I-27.708 J-11.892
X-176.349 Y-124.956 I-32.673 J-11.548
X-176.146 Y-126.835 I-14.601 J-2.528
X-176.447 Y-128.855 I-14.902 J1.183
G3 X-176.553 Y-130.691 I8.918 J-1.437
X-176.458 Y-131.092 I1.545 J0.153
X-176.347 Y-131.323 I1.45 J0.554 F212.5
G1 X-176.316 Y-131.367
X-176.279 Y-131.413
X-176.258 Y-131.435
G3 X-173.368 Y-131.492 I1.988 J27.333 F850
X-170.463 Y-131.483 I0.923 J163.898
G1 X-165.045 Y-131.442
X-164.645 Y-131.439 F212.5
G3 X-164.233 Y-131.2 I-5.83 J10.552 F850
X-163.894 Y-130.988 I-6.242 J10.313 F212.5
G2 X-168.318 Y-129.533 I1.813 J12.974 F850
X-171.388 Y-127.362 I4.687 J9.879
X-171.738 Y-126.903 I6.014 J4.954
X-171.79 Y-126.823 I0.809 J0.588
G1 X-171.902 Y-126.633
G2 X-171.954 Y-126.532 I0.861 J0.508
X-172.303 Y-124.94 I5.265 J1.988
X-172.39 Y-121.158 I14.212 J2.22
X-172.191 Y-118.326 I43.136 J-1.622
X-172.147 Y-117.928 I42.936 J-4.454 F212.5
G1 X-172.134 Y-117.91 F850
X-172.129 Y-117.889
G2 X-172.092 Y-117.77 I0.973 J-0.232
G1 X-172.083 Y-117.746
G2 X-172.041 Y-117.65 I0.936 J-0.351
G1 X-172.03 Y-117.628
G2 X-171.98 Y-117.538 I0.894 J-0.447
G1 X-171.966 Y-117.516
G2 X-171.884 Y-117.405 I0.844 J-0.537
G1 X-171.867 Y-117.385
G2 X-171.776 Y-117.291 I0.762 J-0.648
G1 X-171.755 Y-117.272
G2 X-171.689 Y-117.218 I0.671 J-0.742
G1 X-171.664 Y-117.199
G2 X-171.565 Y-117.132 I0.605 J-0.796
X-170.413 Y-116.835 I1.197 J-2.258
X-169.112 Y-116.716 I1.938 J-13.967
G3 X-164.312 Y-116.11 I-3.239 J44.97
X-159.437 Y-114.053 I-2.695 J13.194
G2 X-155.996 Y-112.421 I15.683 J-28.622
G3 X-154.643 Y-111.745 I-10.819 J23.364
X-153.212 Y-109.808 I-11.06 J9.669
G2 X-150.451 Y-107.175 I7.18 J-4.766
G3 X-147.466 Y-105.168 I-23.853 J38.684
X-147.144 Y-104.93 I-26.837 J36.676 F212.5
G2 X-150.194 Y-99.672 I220.317 J131.31 F850
X-158.349 Y-82.663 I207.794 J110.077
X-160.59 Y-77.432 I142.942 J64.339
G1 X-160.612 Y-77.339
X-160.623 Y-77.296
G2 X-160.622 Y-76.792 I0.968 J0.25
G1 X-160.62 Y-76.784
G2 X-160.522 Y-76.545 I0.967 J-0.254
G1 X-160.517 Y-76.536
G2 X-160.426 Y-76.401 I0.869 J-0.494
G1 X-160.418 Y-76.391
X-160.405 Y-76.376
X-160.393 Y-76.362
X-160.38 Y-76.347
X-160.37 Y-76.336
G2 X-160.281 Y-76.25 I0.74 J-0.673
X-159.349 Y-75.744 I2.032 J-2.63
G3 X-157.722 Y-74.596 I-1.548 J3.922
X-157.202 Y-73.679 I-10.519 J6.574
G2 X-156.333 Y-73.161 I0.876 J-0.483
G1 X-155.185 Y-73.153
G3 X-152.666 Y-72.368 I0.06 J4.24
X-150.425 Y-70.562 I-9.02 J13.49
X-148.471 Y-68.735 I-378.581 J406.864
G2 X-145.884 Y-66.864 I7.194 J-7.224
G3 X-143.895 Y-65.831 I-7.803 J17.452
G1 X-143.804 Y-65.757
X-143.712 Y-65.689
X-143.616 Y-65.615
X-143.518 Y-65.538
X-143.419 Y-65.456
X-143.314 Y-65.365
X-143.202 Y-65.267
X-143.084 Y-65.16
X-142.96 Y-65.045
X-142.829 Y-64.922
X-142.773 Y-64.868
X-142.688 Y-64.786 F212.5
X-142.536 Y-64.64
X-142.485 Y-64.59
G2 X-143.659 Y-64.771 I-1.103 J3.256 F850
G1 X-143.687 Y-64.759
G2 X-143.771 Y-64.744 I0.131 J0.991
G1 X-143.796 Y-64.739
G2 X-143.904 Y-64.708 I0.215 J0.977
G1 X-143.926 Y-64.701
G2 X-144.079 Y-64.634 I0.323 J0.947
G1 X-144.096 Y-64.625
G2 X-144.245 Y-64.526 I0.476 J0.879
G1 X-144.259 Y-64.515
G2 X-144.471 Y-64.281 I0.625 J0.781
G1 X-144.481 Y-64.266
G2 X-144.607 Y-63.989 I0.837 J0.547
G1 X-144.613 Y-63.967
G2 X-144.649 Y-63.734 I0.963 J0.27
G1 X-144.65 Y-63.706
G2 X-144.647 Y-63.581 I0.999 J0.036
G1 X-144.644 Y-63.547
G2 X-144.633 Y-63.462 I0.996 J-0.089
X-144.102 Y-62.198 I4.2 J-1.019
X-142.883 Y-60.038 I44.465 J-23.666
X-142.677 Y-59.695 I43.246 J-25.826 F212.5
G1 X-142.795 Y-59.67 F850
X-142.909 Y-59.63
X-143.018 Y-59.577
X-143.119 Y-59.512
X-143.212 Y-59.434
X-143.295 Y-59.346
X-143.366 Y-59.249
X-143.426 Y-59.144
X-143.465 Y-59.052 F212.5
X-143.495 Y-58.957
X-143.515 Y-58.859
X-143.525 Y-58.759
G3 X-145.32 Y-60.863 I6.319 J-7.21 F850
X-147.209 Y-64.093 I19.006 J-13.276
G2 X-148.066 Y-65.351 I-8.106 J4.607
X-148.276 Y-65.523 I-14.845 J17.888
G1 X-148.357 Y-65.577
G2 X-150.495 Y-66.503 I-8.591 J16.891
X-153.646 Y-67.744 I-42.367 J102.973
X-154.02 Y-67.884 I-39.216 J104.214 F212.5
G1 X-154.049 Y-67.881 F850
X-154.074 Y-67.886
X-154.101 Y-67.891
G2 X-154.209 Y-67.905 I-0.182 J0.983
G1 X-154.232 Y-67.907
G2 X-154.391 Y-67.906 I-0.074 J0.997
G1 X-154.411 Y-67.904
G2 X-154.623 Y-67.863 I0.085 J0.996
G1 X-154.641 Y-67.857
G2 X-154.883 Y-67.745 I0.297 J0.955
G1 X-154.898 Y-67.735
G2 X-155.121 Y-67.541 I0.539 J0.842
G1 X-155.133 Y-67.527
G2 X-155.253 Y-67.35 I0.762 J0.648
G1 X-155.263 Y-67.331
G2 X-155.34 Y-67.143 I0.882 J0.472
G1 X-155.347 Y-67.119
G2 X-155.379 Y-66.973 I0.959 J0.283
G1 X-155.383 Y-66.944
X-155.386 Y-66.919
X-155.388 Y-66.894
X-155.391 Y-66.859
G2 X-155.395 Y-66.773 I0.996 J0.087
X-153.949 Y-62.369 I8.397 J-0.318
G3 X-152.896 Y-60.685 I-43.955 J28.676
X-153.127 Y-56.965 I-3.264 J1.665
X-154.374 Y-56.034 I-2.153 J-1.584
G1 X-154.502 Y-55.988
X-154.879 Y-55.853 F212.5
X-154.897 Y-55.871 F850
X-154.915 Y-55.887
X-154.933 Y-55.903
X-154.965 Y-55.931
G2 X-155.126 Y-56.044 I-0.653 J0.757
X-155.138 Y-56.051 I-0.492 J0.871 F212.5
G1 X-155.176 Y-56.072
G2 X-155.324 Y-56.138 I-0.48 J0.877
G1 X-155.366 Y-56.153
G2 X-155.497 Y-56.189 I-0.332 J0.943
X-156.538 Y-58.35 I-18.184 J7.43 F850
G3 X-157.226 Y-60.785 I6.305 J-3.097
G2 X-157.815 Y-63.773 I-39.945 J6.317
X-159.12 Y-66.493 I-8.774 J2.537
X-159.457 Y-66.826 I-3.872 J3.572
G1 X-159.526 Y-66.877
X-159.576 Y-66.912
G2 X-159.658 Y-66.964 I-0.578 J0.816
G1 X-159.707 Y-66.992
G2 X-159.81 Y-67.044 I-0.496 J0.868
G1 X-159.858 Y-67.064
G2 X-159.983 Y-67.108 I-0.393 J0.92
G1 X-160.03 Y-67.121
G2 X-160.171 Y-67.149 I-0.268 J0.963
G1 X-160.217 Y-67.155
G2 X-160.375 Y-67.163 I-0.127 J0.992
G1 X-160.42 Y-67.162
G2 X-160.575 Y-67.145 I0.031 J1
G1 X-160.62 Y-67.136
G2 X-160.775 Y-67.094 I0.186 J0.983
G1 X-160.818 Y-67.078
G2 X-160.942 Y-67.023 I0.341 J0.94
G1 X-160.985 Y-67.001
G2 X-161.07 Y-66.951 I0.465 J0.885
X-162.112 Y-65.474 I1.457 J2.135
X-162.349 Y-63.738 I4.469 J1.494
G3 X-163.249 Y-60.958 I-4.893 J-0.049
X-165 Y-59.674 I-3.274 J-2.627
X-166.101 Y-59.22 I-6.593 J-14.418
G2 X-167.469 Y-58.524 I3.716 J8.998
G1 X-167.493 Y-58.495
G2 X-167.559 Y-58.441 I0.602 J0.799
X-167.789 Y-58.217 I1.484 J1.755
X-167.845 Y-58.152 I0.726 J0.688
X-168.03 Y-57.9 I1.738 J1.468
X-168.075 Y-57.827 I0.829 J0.559
X-167.515 Y-54.515 I2.339 J1.308
X-165.889 Y-53.637 I2.463 J-2.62
X-163.214 Y-53.216 I3.203 J-11.63
G3 X-160.954 Y-53.011 I-6.375 J82.797
X-160.343 Y-52.819 I-0.518 J2.719
X-159.991 Y-52.63 I-1.129 J2.528 F212.5
G2 X-159.947 Y-51.239 I4.964 J0.54 F850
X-159.285 Y-50.016 I4.008 J-1.38
X-159.22 Y-49.935 I3.345 J-2.604 F212.5
G1 X-159.138 Y-49.807
X-159.054 Y-49.689
X-159.064 Y-49.652 F850
G2 X-159.212 Y-48.968 I5.379 J1.527
X-159.259 Y-48.571 I5.528 J0.843 F212.5
X-159.765 Y-48.156 I1.002 J1.742 F850
G1 X-159.826 Y-48.078
X-159.849 Y-48.046
G2 X-159.899 Y-47.967 I0.815 J0.58
G1 X-159.918 Y-47.934
X-159.931 Y-47.912
X-159.943 Y-47.889
X-159.954 Y-47.866
X-159.97 Y-47.833
G2 X-160.02 Y-47.708 I0.901 J0.433
G1 X-160.031 Y-47.674
G2 X-160.06 Y-47.564 I0.951 J0.309
G1 X-160.067 Y-47.529
G2 X-160.081 Y-47.443 I0.98 J0.198
G1 X-160.085 Y-47.408
G2 X-160.091 Y-47.268 I0.994 J0.112
G1 X-160.09 Y-47.232
X-160.089 Y-47.206
X-160.087 Y-47.179
X-160.084 Y-47.153
X-160.08 Y-47.116
G2 X-160.065 Y-47.018 I0.994 J-0.106
G1 X-160.057 Y-46.98
G2 X-160.035 Y-46.894 I0.979 J-0.204
X-159.876 Y-46.518 I1.638 J-0.474 F212.5
X-160.864 Y-45.718 I4.183 J6.182 F850
G1 X-160.89 Y-45.674
X-160.908 Y-45.653
X-160.925 Y-45.631
X-160.953 Y-45.594
G2 X-161.004 Y-45.52 I0.798 J0.602
G1 X-161.027 Y-45.483
X-161.037 Y-45.467
X-161.047 Y-45.45
X-161.068 Y-45.413
G2 X-161.108 Y-45.334 I0.869 J0.496
G1 X-161.125 Y-45.297
X-161.135 Y-45.274
X-161.145 Y-45.251
X-161.154 Y-45.228
X-161.168 Y-45.19
G2 X-161.198 Y-45.093 I0.938 J0.347
X-161.254 Y-44.757 I1.875 J0.483
X-161.243 Y-44.358 I1.931 J0.147 F212.5
X-161.667 Y-43.433 I1.239 J1.128 F850
X-161.674 Y-43.348 I0.992 J0.129
G1 X-161.675 Y-43.326
X-161.676 Y-43.303
Y-43.281
Y-43.259
Y-43.236
X-161.675 Y-43.212
X-161.674 Y-43.191
G2 X-161.664 Y-43.093 I0.999 J-0.047
G3 X-161.541 Y-41.18 I-14.806 J1.914
X-161.506 Y-40.343 I-14.231 J1.017
G1 X-161.432 Y-37.807
G2 X-161.007 Y-37.017 I1 J-0.029
X-160.816 Y-36.912 I0.575 J-0.818 F212.5
G1 X-160.648 Y-36.843
G3 X-162.481 Y-34.363 I-6.3 J-2.737 F850
X-166.276 Y-33.162 I-3.045 J-3.027
X-168.566 Y-33.655 I2.238 J-15.959
G2 X-170.698 Y-33.701 I-1.174 J5.014
X-171.813 Y-33.556 I4.574 J39.453
G3 X-176.715 Y-33.727 I-1.934 J-14.914
X-179.933 Y-35.156 I1.943 J-8.712
X-181.958 Y-37.434 I4.957 J-6.444
G2 X-182.673 Y-38.358 I-12.441 J8.888
G1 X-182.7 Y-38.371
X-182.72 Y-38.389
X-182.732 Y-38.399
G2 X-182.816 Y-38.464 I-0.651 J0.759
G1 X-182.858 Y-38.493
G2 X-182.937 Y-38.542 I-0.567 J0.824
G1 X-182.981 Y-38.566
X-183.003 Y-38.578
X-183.025 Y-38.589
X-183.047 Y-38.6
X-183.091 Y-38.62
G2 X-183.172 Y-38.654 I-0.422 J0.906
G1 X-183.217 Y-38.671
G2 X-183.304 Y-38.697 I-0.341 J0.94
G1 X-183.35 Y-38.71
G2 X-183.436 Y-38.728 I-0.254 J0.967
G1 X-183.483 Y-38.736
G2 X-183.572 Y-38.747 I-0.168 J0.986
G1 X-183.62 Y-38.751
G2 X-183.705 Y-38.754 I-0.079 J0.997
G1 X-183.753
X-183.781 Y-38.753 F212.5
X-183.809 Y-38.752
X-183.836 Y-38.75
X-183.885 Y-38.745
X-183.912 Y-38.743
X-183.938 Y-38.739
X-183.964 Y-38.735
X-184.014 Y-38.727
X-184.04 Y-38.722
X-184.066 Y-38.716
X-184.092 Y-38.71
X-184.139 Y-38.698
X-184.118 Y-38.71 F850
X-184.06 Y-38.745
G2 X-183.988 Y-38.793 I-0.516 J-0.857
G1 X-183.932 Y-38.834
G2 X-183.853 Y-38.898 I-0.588 J-0.809
G1 X-183.801 Y-38.945
X-183.784 Y-38.96
X-183.767 Y-38.976
X-183.751 Y-38.993
X-183.7 Y-39.045
G2 X-183.638 Y-39.114 I-0.717 J-0.697
X-183.041 Y-40.709 I-2.294 J-1.768
G3 X-182.647 Y-43.867 I133.547 J15.08
X-181.87 Y-46.979 I14.714 J2.022
X-178.882 Y-50.829 I8.263 J3.328
X-176.177 Y-52.163 I13.58 J24.121
G2 X-175.362 Y-52.546 I-43.217 J-93.082
X-174.475 Y-54.689 I-1.123 J-1.719
X-174.886 Y-55.659 I-2.129 J0.329
X-176.29 Y-57.689 I-19.331 J11.868
G3 X-178.337 Y-61.008 I23.172 J-16.585
X-179.574 Y-66.864 I10.37 J-5.248
X-179.128 Y-69.833 I9.335 J-0.116
G2 X-178.558 Y-71.867 I-199.71 J-57.068
X-178.346 Y-73.247 I-6.749 J-1.743
G1 X-178.361 Y-73.34
X-178.365 Y-73.373
X-178.368 Y-73.393
X-178.371 Y-73.413
X-178.374 Y-73.433
X-178.379 Y-73.461
G2 X-178.42 Y-73.616 I-0.984 J0.178
G1 X-178.43 Y-73.644
G2 X-178.47 Y-73.741 I-0.943 J0.333
X-179.311 Y-74.877 I-4.842 J2.704
