%
(1001)
(z0 mdf bottom machine -5-5)
(T1  D=12.7 CR=0 - ZMIN=15 - flat end mill)
G90 G94
G17
G21

(lid flange contour)
M9
T1 M6
S6000 M3
G54
M9
G0 X-46.04 Y-113.341
Z37
Z27
G1 Z25.77 F283.3
G18 G3 X-47.31 Z24.5 I-1.27
G1 X-48.58 F850
G17 G3 X-49.85 Y-114.611 J-1.27
G1 Y-126.5 Z24.085 F283.3
G2 X-63 Y-139.65 Z23.364 I-13.15
G1 X-145 Z20.5
X-227 F850
G2 X-240.15 Y-126.5 J13.15
G1 Y-18.5
G2 X-227 Y-5.35 I13.15
G1 X-63
G2 X-49.85 Y-18.5 J-13.15
G1 Y-126.5
G2 X-63 Y-139.65 I-13.15
G1 X-145
X-187.954 Z19 F283.3
X-227 F850
G2 X-240.15 Y-126.5 J13.15
G1 Y-18.5
G2 X-227 Y-5.35 I13.15
G1 X-63
G2 X-49.85 Y-18.5 J-13.15
G1 Y-126.5
G2 X-63 Y-139.65 I-13.15
G1 X-145
X-187.954
X-227 Z17.636 F283.3
G2 X-230.851 Y-139.073 Z17.5 J13.15
X-240.15 Y-126.5 I3.851 J12.573 F850
G1 Y-18.5
G2 X-227 Y-5.35 I13.15
G1 X-63
G2 X-49.85 Y-18.5 J-13.15
G1 Y-126.5
G2 X-63 Y-139.65 I-13.15
G1 X-187.954
X-227
G2 X-230.851 Y-139.073 J13.15
X-240.15 Y-126.5 Z16.915 I3.851 J12.573 F283.3
G1 Y-100.293 Z16
Y-18.5 F850
G2 X-227 Y-5.35 I13.15
G1 X-63
G2 X-49.85 Y-18.5 J-13.15
G1 Y-126.5
G2 X-63 Y-139.65 I-13.15
G1 X-227
G2 X-240.15 Y-126.5 J13.15
G1 Y-100.293
Y-71.657 Z15 F283.3
Y-18.5 F850
G2 X-227 Y-5.35 I13.15
G1 X-63
G2 X-49.85 Y-18.5 J-13.15
G1 Y-126.5
G2 X-63 Y-139.65 I-13.15
G1 X-227
G2 X-240.15 Y-126.5 J13.15
G1 Y-18.5
G2 X-227 Y-5.35 I13.15
G1 X-63
G2 X-49.85 Y-18.5 J-13.15
G1 Y-126.5
G2 X-63 Y-139.65 I-13.15
G1 X-227
G2 X-240.15 Y-126.5 J13.15
G1 Y-71.657
G0 Z37
M9
M30
%
