%
(1001)
(z0 mdf bottom machine -5-5)
(T1  D=12.7 CR=0 - ZMIN=8 - flat end mill)
G90 G94
G17
G21

(Face4 2)
M9
T1 M6
S6000 M3
G54
M9
G0 X-45.786 Y-130.677
Z37
Z27
G1 Z22.57 F850
G18 G3 X-47.056 Z21.3 I-1.27
G1 X-53.5
X-236.5
G17 G2 Y-119.125 J5.776
G1 X-53.5
G3 Y-107.572 J5.776
G1 X-236.5
G2 Y-96.02 J5.776
G1 X-53.5
G3 Y-84.467 J5.776
G1 X-236.5
G2 Y-72.915 J5.776
G1 X-53.5
G3 Y-61.363 J5.776
G1 X-236.5
G2 Y-49.81 J5.776
G1 X-53.5
G3 Y-38.258 J5.776
G1 X-236.5
G2 Y-26.706 J5.776
G1 X-53.5
G3 Y-15.153 J5.776
G1 X-236.5
G0 Z27
X-244.214 Y-130.677
G1 Z21.57 F850
G18 G2 X-242.944 Z20.3 I1.27
G1 X-236.5
X-53.5
G17 G3 Y-119.125 J5.776
G1 X-236.5
G2 Y-107.572 J5.776
G1 X-53.5
G3 Y-96.02 J5.776
G1 X-236.5
G2 Y-84.467 J5.776
G1 X-53.5
G3 Y-72.915 J5.776
G1 X-236.5
G2 Y-61.363 J5.776
G1 X-53.5
G3 Y-49.81 J5.776
G1 X-236.5
G2 Y-38.258 J5.776
G1 X-53.5
G3 Y-26.706 J5.776
G1 X-236.5
G2 Y-15.153 J5.776
G1 X-53.5
G0 Z37

(Face4 _finish)
S8000 M3
M9
X-45.786 Y-130.677
Z37
Z27
G1 Z21.27 F850
G18 G3 X-47.056 Z20 I-1.27
G1 X-53.5
X-236.5
G17 G2 Y-119.125 J5.776
G1 X-53.5
G3 Y-107.572 J5.776
G1 X-236.5
G2 Y-96.02 J5.776
G1 X-53.5
G3 Y-84.467 J5.776
G1 X-236.5
G2 Y-72.915 J5.776
G1 X-53.5
G3 Y-61.363 J5.776
G1 X-236.5
G2 Y-49.81 J5.776
G1 X-53.5
G3 Y-38.258 J5.776
G1 X-236.5
G2 Y-26.706 J5.776
G1 X-53.5
G3 Y-15.153 J5.776
G1 X-236.5
G0 Z37

(lid flange contour 2)
S6000 M3
M9
X-45.34 Y-114.441
Z37
Z27
G1 Z25.77 F283.3
G18 G3 X-46.61 Z24.5 I-1.27
G1 X-47.88 F850
G17 G3 X-49.15 Y-115.711 J-1.27
G1 Y-126.5 Z24.123 F283.3
G2 X-63 Y-140.35 Z23.364 I-13.85
G1 X-145 Z20.5
X-227 F850
G2 X-240.85 Y-126.5 J13.85
G1 Y-18.5
G2 X-227 Y-4.65 I13.85
G1 X-63
G2 X-49.15 Y-18.5 J-13.85
G1 Y-126.5
G2 X-63 Y-140.35 I-13.85
G1 X-145
X-187.954 Z19 F283.3
X-227 F850
G2 X-240.85 Y-126.5 J13.85
G1 Y-18.5
G2 X-227 Y-4.65 I13.85
G1 X-63
G2 X-49.15 Y-18.5 J-13.85
G1 Y-126.5
G2 X-63 Y-140.35 I-13.85
G1 X-145
X-187.954
X-227 Z17.636 F283.3
G2 X-230.857 Y-139.802 Z17.5 J13.85
X-240.85 Y-126.5 I3.857 J13.302 F850
G1 Y-18.5
G2 X-227 Y-4.65 I13.85
G1 X-63
G2 X-49.15 Y-18.5 J-13.85
G1 Y-126.5
G2 X-63 Y-140.35 I-13.85
G1 X-187.954
X-227
G2 X-230.857 Y-139.802 J13.85
X-240.85 Y-126.5 Z16.877 I3.857 J13.302 F283.3
G1 Y-101.392 Z16
Y-18.5 F850
G2 X-227 Y-4.65 I13.85
G1 X-63
G2 X-49.15 Y-18.5 J-13.85
G1 Y-126.5
G2 X-63 Y-140.35 I-13.85
G1 X-227
G2 X-240.85 Y-126.5 J13.85
G1 Y-101.392
Y-72.756 Z15 F283.3
Y-18.5 F850
G2 X-227 Y-4.65 I13.85
G1 X-63
G2 X-49.15 Y-18.5 J-13.85
G1 Y-126.5
G2 X-63 Y-140.35 I-13.85
G1 X-227
G2 X-240.85 Y-126.5 J13.85
G1 Y-72.756
G0 Z37

(lid flange contour 4)
M9
X-260.223 Y-3.08
Z37
Z27
G1 Z25.77 F283.3
X-260.215 Y-3.081 Z25.628
X-260.191 Y-3.083 Z25.487
X-260.151 Y-3.085 Z25.351
X-260.097 Y-3.089 Z25.219
X-260.028 Y-3.094 Z25.094
X-259.946 Y-3.099 Z24.978
X-259.851 Y-3.105 Z24.872
X-259.746 Y-3.113 Z24.777
X-259.63 Y-3.121 Z24.695
X-259.505 Y-3.129 Z24.626
X-259.374 Y-3.138 Z24.571
X-259.237 Y-3.147 Z24.532
X-259.097 Y-3.157 Z24.508
X-258.956 Y-3.166 Z24.5
X-257.688 Y-3.252 F850
G3 X-256.335 Y-2.071 I0.086 J1.267
G2 X-250 Y3.85 Z24.167 I6.335 J-0.429 F283.3
G1 X-145 Z20.5
X-40 F850
G2 X-33.65 Y-2.5 J-6.35
G1 Y-142.5
G2 X-40 Y-148.85 I-6.35
G1 X-250
G2 X-256.35 Y-142.5 J6.35
G1 Y-2.5
G2 X-250 Y3.85 I6.35
G1 X-145
X-102.046 Z19 F283.3
X-40 F850
G2 X-33.65 Y-2.5 J-6.35
G1 Y-142.5
G2 X-40 Y-148.85 I-6.35
G1 X-250
G2 X-256.35 Y-142.5 J6.35
G1 Y-2.5
G2 X-250 Y3.85 I6.35
G1 X-145
X-102.046
X-59.091 Z17.5 F283.3
X-40 F850
G2 X-33.65 Y-2.5 J-6.35
G1 Y-142.5
G2 X-40 Y-148.85 I-6.35
G1 X-250
G2 X-256.35 Y-142.5 J6.35
G1 Y-2.5
G2 X-250 Y3.85 I6.35
G1 X-102.046
X-59.091
X-40 Z16.833 F283.3
G2 X-33.65 Y-2.5 Z16.485 J-6.35
G1 Y-16.389 Z16
Y-142.5 F850
G2 X-40 Y-148.85 I-6.35
G1 X-250
G2 X-256.35 Y-142.5 J6.35
G1 Y-2.5
G2 X-250 Y3.85 I6.35
G1 X-59.091
X-40
G2 X-33.65 Y-2.5 J-6.35
G1 Y-16.389
Y-45.025 Z15 F283.3
Y-142.5 F850
G2 X-40 Y-148.85 I-6.35
G1 X-250
G2 X-256.35 Y-142.5 J6.35
G1 Y-2.5
G2 X-250 Y3.85 I6.35
G1 X-40
G2 X-33.65 Y-2.5 J-6.35
G1 Y-45.025
G0 Z37

(lid edge 2)
M9
X-251.246 Y-156.999
Z37
Z27
Z17.54
G1 Z16.27 F850
X-251.244 Y-156.991 Z16.128
X-251.238 Y-156.968 Z15.987
X-251.228 Y-156.93 Z15.851
X-251.215 Y-156.877 Z15.719
X-251.198 Y-156.81 Z15.594
X-251.177 Y-156.731 Z15.478
X-251.154 Y-156.639 Z15.372
X-251.127 Y-156.536 Z15.277
X-251.098 Y-156.423 Z15.195
X-251.068 Y-156.302 Z15.126
X-251.035 Y-156.175 Z15.071
X-251.001 Y-156.042 Z15.032
X-250.966 Y-155.906 Z15.008
X-250.931 Y-155.769 Z15
G3 X-249.936 Y-148.855 I-31.409 J8.045
G1 Y-148.761
X-250.433 Y-147.514
X-250.831 Y-146.232
X-251.147 Y-144.928
X-251.397 Y-143.609
X-251.594 Y-142.281
X-251.748 Y-140.948
X-251.868 Y-139.611
X-251.962 Y-138.272
X-252.035 Y-136.932
X-252.092 Y-135.591
X-252.136 Y-134.25
X-252.17 Y-132.908
X-252.196 Y-131.566
X-252.217 Y-130.224
X-252.233 Y-128.882
X-252.245 Y-127.54
X-252.254 Y-126.198
X-252.262 Y-124.856
X-252.267 Y-123.514
X-252.275 Y-120.829
X-252.28 Y-118.145
X-252.283 Y-114.119
X-252.286 Y-106.066
Y-98.013
Y-47.011
Y-8.089
X-252.104 Y-6.759
X-251.496 Y-5.562
X-250.632 Y-4.536
X-249.601 Y-3.676
X-248.46 Y-2.969
X-247.248 Y-2.393
X-245.988 Y-1.93
X-244.698 Y-1.56
X-243.388 Y-1.267
X-242.066 Y-1.035
X-240.736 Y-0.853
X-239.402 Y-0.711
X-238.064 Y-0.599
X-236.725 Y-0.513
X-235.384 Y-0.445
X-234.043 Y-0.393
X-232.702 Y-0.352
X-231.36 Y-0.321
X-230.018 Y-0.297
X-228.676 Y-0.278
X-227.334 Y-0.263
X-225.992 Y-0.252
X-224.65 Y-0.243
X-223.308 Y-0.236
X-221.965 Y-0.231
X-219.281 Y-0.224
X-216.597 Y-0.22
X-212.57 Y-0.216
X-204.517 Y-0.214
X-192.438
X-141.436
X-90.435 Y-0.213
X-45.472
X-44.15 Y-0.444
X-42.968 Y-1.078
X-41.956 Y-1.96
X-41.11 Y-3.002
X-40.415 Y-4.15
X-39.85 Y-5.368
X-39.395 Y-6.631
X-39.033 Y-7.923
X-38.745 Y-9.234
X-38.518 Y-10.557
X-38.34 Y-11.887
X-38.2 Y-13.222
X-38.091 Y-14.559
X-38.006 Y-15.899
X-37.94 Y-17.239
X-37.889 Y-18.581
X-37.849 Y-19.922
X-37.819 Y-21.264
X-37.795 Y-22.606
X-37.776 Y-23.948
X-37.762 Y-25.29
X-37.751 Y-26.632
X-37.743 Y-27.974
X-37.736 Y-29.316
X-37.731 Y-30.658
X-37.724 Y-33.343
X-37.718 Y-37.369
X-37.715 Y-42.738
X-37.714 Y-53.475
Y-104.477
Y-136.689
X-37.734 Y-137.023
X-37.935 Y-138.35
X-38.57 Y-139.533
X-39.452 Y-140.545
X-40.494 Y-141.39
X-41.642 Y-142.086
X-42.86 Y-142.651
X-44.123 Y-143.105
X-45.415 Y-143.468
X-46.726 Y-143.755
X-48.049 Y-143.982
X-49.379 Y-144.16
X-50.714 Y-144.3
X-52.052 Y-144.409
X-53.391 Y-144.494
X-54.732 Y-144.56
X-56.073 Y-144.611
X-57.414 Y-144.651
X-58.756 Y-144.681
X-60.098 Y-144.705
X-61.44 Y-144.724
X-62.782 Y-144.738
X-64.124 Y-144.749
X-65.466 Y-144.757
X-66.809 Y-144.764
X-68.151 Y-144.769
X-70.835 Y-144.776
X-74.861 Y-144.782
X-80.23 Y-144.785
X-93.652 Y-144.786
X-104.389
X-155.391
X-206.392
X-239.946
X-241.265 Y-144.537
X-242.464 Y-143.933
X-243.509 Y-143.092
X-244.4 Y-142.088
X-245.146 Y-140.972
X-245.762 Y-139.78
X-246.267 Y-138.536
X-246.678 Y-137.258
X-247.009 Y-135.958
X-247.274 Y-134.642
X-247.486 Y-133.317
X-247.655 Y-131.985
X-247.789 Y-130.65
X-247.895 Y-129.312
X-247.979 Y-127.972
X-248.045 Y-126.632
X-248.097 Y-125.291
X-248.138 Y-123.949
X-248.17 Y-122.607
X-248.195 Y-121.265
X-248.215 Y-119.923
X-248.231 Y-118.581
X-248.243 Y-117.239
X-248.252 Y-115.897
X-248.26 Y-114.555
X-248.266 Y-113.213
X-248.274 Y-110.529
X-248.279 Y-107.844
X-248.283 Y-103.818
X-248.285 Y-97.107
X-248.286 Y-79.659
Y-28.657
Y-13.894
X-248.09 Y-12.566
X-247.608 Y-11.313
X-246.894 Y-10.177
X-246.002 Y-9.175
X-244.977 Y-8.308
X-243.855 Y-7.57
X-242.665 Y-6.95
X-241.426 Y-6.434
X-240.154 Y-6.007
X-238.858 Y-5.658
X-237.546 Y-5.373
X-236.224 Y-5.142
X-234.895 Y-4.955
X-233.561 Y-4.805
X-232.225 Y-4.684
X-230.886 Y-4.588
X-230.585 Y-4.57
X-230.417 Y-4.556
X-230.251 Y-4.534
X-230.086 Y-4.503
X-229.746 Y-4.431
X-229.365 Y-4.376
X-228.603 Y-4.287
X-227.842 Y-4.202
X-227.461 Y-4.178
X-227.08 Y-4.162
X-226.699 Y-4.15
X-63.301
X-62.92 Y-4.162
X-61.578 Y-4.15
X-60.236 Y-4.164
X-58.894 Y-4.176
X-57.552 Y-4.184
X-56.21 Y-4.191
X-54.868 Y-4.196
X-52.183 Y-4.203
X-50.841 Y-4.226
X-49.538 Y-4.548
X-48.331 Y-5.134
X-47.249 Y-5.929
X-46.304 Y-6.881
X-45.492 Y-7.95
X-44.805 Y-9.103
X-44.229 Y-10.316
X-43.752 Y-11.57
X-43.358 Y-12.853
X-43.037 Y-14.156
X-42.775 Y-15.472
X-42.562 Y-16.798
X-42.391 Y-18.129
X-42.254 Y-19.464
X-42.143 Y-20.802
X-42.055 Y-22.141
X-41.984 Y-23.481
X-41.928 Y-24.822
X-41.883 Y-26.164
X-41.848 Y-27.505
X-41.82 Y-28.847
X-41.797 Y-30.189
X-41.78 Y-31.531
X-41.766 Y-32.873
X-41.755 Y-34.215
X-41.746 Y-35.557
X-41.739 Y-36.9
X-41.734 Y-38.242
X-41.729 Y-39.584
X-41.723 Y-42.268
X-41.718 Y-46.295
X-41.715 Y-53.005
X-41.714 Y-70.453
Y-90.586
Y-130.85
X-41.85 Y-132.185
X-42.28 Y-133.457
X-42.955 Y-134.617
X-43.817 Y-135.645
X-44.82 Y-136.537
X-45.926 Y-137.298
X-47.105 Y-137.939
X-48.336 Y-138.474
X-49.603 Y-138.916
X-50.895 Y-139.28
X-52.204 Y-139.576
X-53.524 Y-139.817
X-54.852 Y-140.011
X-56.185 Y-140.168
X-57.522 Y-140.294
X-58.86 Y-140.395
X-59.416 Y-140.429
X-59.581 Y-140.443
X-59.744 Y-140.465
X-59.907 Y-140.495
X-60.254 Y-140.569
X-60.635 Y-140.624
X-61.397 Y-140.713
X-62.158 Y-140.798
X-62.539 Y-140.822
X-62.92 Y-140.838
X-63.301 Y-140.85
X-226.699
X-227.08 Y-140.838
X-228.422 Y-140.85
X-229.764 Y-140.836
X-231.106 Y-140.824
X-232.448 Y-140.816
X-233.79 Y-140.809
X-235.128 Y-140.705
X-236.416 Y-140.326
X-237.607 Y-139.707
X-238.674 Y-138.893
X-239.61 Y-137.931
X-240.417 Y-136.858
X-241.103 Y-135.705
X-241.681 Y-134.493
X-242.163 Y-133.241
X-242.562 Y-131.959
X-242.89 Y-130.658
X-243.16 Y-129.343
X-243.379 Y-128.019
X-243.557 Y-126.689
X-243.701 Y-125.355
X-243.818 Y-124.017
X-243.912 Y-122.679
X-243.987 Y-121.339
X-244.048 Y-119.998
X-244.096 Y-118.656
X-244.135 Y-117.315
X-244.166 Y-115.973
X-244.19 Y-114.631
X-244.21 Y-113.289
X-244.226 Y-111.947
X-244.238 Y-110.605
X-244.248 Y-109.263
X-244.256 Y-107.921
X-244.262 Y-106.579
X-244.267 Y-105.236
X-244.275 Y-102.552
X-244.277 Y-101.21
X-244.282 Y-97.184
X-244.285 Y-90.473
X-244.286 Y-73.025
Y-50.208
Y-19.339
X-244.177 Y-18.001
X-243.828 Y-16.705
X-243.254 Y-15.492
X-242.487 Y-14.39
X-241.569 Y-13.411
X-240.534 Y-12.556
X-240.476 Y-12.519
X-240.176 Y-12.296
X-239.902 Y-12.041
X-239.66 Y-11.757
X-239.45 Y-11.446
X-239.268 Y-11.141
X-238.689 Y-10.219
X-238.407 Y-9.838
X-238.124 Y-9.457
X-237.792 Y-9.076
X-237.744 Y-9.025
X-237.422 Y-8.695
X-236.602 Y-7.875
X-236.221 Y-7.518
X-235.84 Y-7.222
X-235.246 Y-6.79
X-235.078 Y-6.684
X-234.316 Y-6.205
X-233.936 Y-5.98
X-233.37 Y-5.648
X-233.174 Y-5.549
X-232.481 Y-5.267
X-232.412 Y-5.241
X-231.65 Y-4.974
X-231.395 Y-4.886
X-230.889 Y-4.715
X-230.508 Y-4.593
X-230.086 Y-4.503
G3 X-229.638 Y-4.291 I-0.308 J1.232
G1 X-229.523 Y-4.207 Z15.008
X-229.411 Y-4.123 Z15.032
X-229.301 Y-4.042 Z15.071
X-229.195 Y-3.963 Z15.126
X-229.095 Y-3.889 Z15.195
X-229.001 Y-3.82 Z15.277
X-228.916 Y-3.757 Z15.372
X-228.84 Y-3.7 Z15.478
X-228.774 Y-3.651 Z15.594
X-228.718 Y-3.61 Z15.719
X-228.675 Y-3.578 Z15.851
X-228.643 Y-3.554 Z15.987
X-228.624 Y-3.54 Z16.128
X-228.617 Y-3.535 Z16.27
G0 Z27
X-225.543 Y-141.691
Z17.54
G1 Z16.27 F850
X-225.55 Y-141.686 Z16.128
X-225.57 Y-141.673 Z15.987
X-225.603 Y-141.652 Z15.851
X-225.649 Y-141.622 Z15.719
X-225.706 Y-141.584 Z15.594
X-225.775 Y-141.539 Z15.478
X-225.855 Y-141.488 Z15.372
X-225.944 Y-141.43 Z15.277
X-226.041 Y-141.366 Z15.195
X-226.146 Y-141.298 Z15.126
X-226.256 Y-141.226 Z15.071
X-226.371 Y-141.152 Z15.032
X-226.488 Y-141.075 Z15.008
X-226.607 Y-140.998 Z15
G3 X-227.08 Y-140.838 I-0.548 J-0.842
G1 X-227.461 Y-140.822
X-227.842 Y-140.798
X-228.603 Y-140.713
X-229.365 Y-140.624
X-229.746 Y-140.569
X-230.508 Y-140.407
X-230.889 Y-140.285
X-231.395 Y-140.114
X-231.65 Y-140.026
X-232.412 Y-139.759
X-232.481 Y-139.733
X-233.174 Y-139.451
X-233.37 Y-139.352
X-234.018 Y-138.972
X-234.316 Y-138.795
X-235.078 Y-138.316
X-235.246 Y-138.21
X-235.84 Y-137.778
X-236.221 Y-137.482
X-236.602 Y-137.126
X-237.422 Y-136.305
X-237.744 Y-135.974
X-237.792 Y-135.924
X-238.125 Y-135.542
X-238.506 Y-135.029
X-238.689 Y-134.781
X-239.268 Y-133.859
X-239.649 Y-133.22
X-239.853 Y-132.877
X-240.03 Y-132.47
X-240.18 Y-132.115
X-240.321 Y-131.734
X-240.588 Y-130.972
X-240.791 Y-130.385
X-240.85 Y-130.21
X-240.943 Y-129.829
X-241.028 Y-129.448
X-241.098 Y-129.067
X-241.19 Y-128.306
X-241.276 Y-127.544
X-241.311 Y-127.163
X-241.347 Y-126.401
X-241.35 Y-126.02
Y-18.98
X-241.347 Y-18.599
X-241.311 Y-17.837
X-241.276 Y-17.456
X-241.19 Y-16.694
X-241.098 Y-15.933
X-241.028 Y-15.552
X-240.943 Y-15.171
X-240.85 Y-14.79
X-240.791 Y-14.616
X-240.588 Y-14.028
X-240.322 Y-13.266
X-240.18 Y-12.885
G3 X-240.119 Y-12.393 I-1.205 J0.4
G1 X-240.129 Y-12.252 Z15.008
X-240.139 Y-12.112 Z15.032
X-240.149 Y-11.975 Z15.071
X-240.159 Y-11.844 Z15.126
X-240.168 Y-11.72 Z15.195
X-240.176 Y-11.604 Z15.277
X-240.184 Y-11.498 Z15.372
X-240.191 Y-11.403 Z15.478
X-240.197 Y-11.321 Z15.594
X-240.202 Y-11.252 Z15.719
X-240.206 Y-11.198 Z15.851
X-240.209 Y-11.159 Z15.987
X-240.21 Y-11.135 Z16.128
X-240.211 Y-11.127 Z16.27
G0 Z27
X-64.457 Y-3.309
Z17.54
G1 Z16.27 F850
X-64.45 Y-3.314 Z16.128
X-64.43 Y-3.327 Z15.987
X-64.397 Y-3.348 Z15.851
X-64.351 Y-3.378 Z15.719
X-64.294 Y-3.416 Z15.594
X-64.225 Y-3.461 Z15.478
X-64.145 Y-3.512 Z15.372
X-64.056 Y-3.57 Z15.277
X-63.959 Y-3.634 Z15.195
X-63.854 Y-3.702 Z15.126
X-63.744 Y-3.774 Z15.071
X-63.629 Y-3.848 Z15.032
X-63.512 Y-3.925 Z15.008
X-63.393 Y-4.002 Z15
G3 X-62.92 Y-4.162 I0.548 J0.842
G1 X-62.539 Y-4.178
X-62.158 Y-4.202
X-61.397 Y-4.287
X-60.635 Y-4.376
X-60.254 Y-4.431
X-59.492 Y-4.593
X-59.111 Y-4.715
X-58.605 Y-4.886
X-58.35 Y-4.974
X-57.588 Y-5.241
X-57.519 Y-5.267
X-56.826 Y-5.549
X-56.63 Y-5.648
X-56.445 Y-5.756
X-55.255 Y-6.377
X-54.057 Y-6.982
X-52.931 Y-7.711
X-51.898 Y-8.569
X-50.969 Y-9.537
X-50.147 Y-10.598
X-49.431 Y-11.733
X-48.813 Y-12.925
X-48.286 Y-14.159
X-47.84 Y-15.425
X-47.464 Y-16.714
X-47.15 Y-18.018
X-46.889 Y-19.335
X-46.673 Y-20.66
X-46.494 Y-21.99
X-46.348 Y-23.324
X-46.228 Y-24.661
X-46.13 Y-25.999
X-46.05 Y-27.339
X-45.985 Y-28.68
X-45.933 Y-30.021
X-45.89 Y-31.362
X-45.855 Y-32.704
X-45.828 Y-34.046
X-45.805 Y-35.388
X-45.787 Y-36.73
X-45.772 Y-38.072
X-45.761 Y-39.414
X-45.751 Y-40.756
X-45.744 Y-42.098
X-45.738 Y-43.44
X-45.729 Y-46.125
X-45.723 Y-48.809
X-45.718 Y-52.835
X-45.715 Y-59.546
X-45.714 Y-75.652
Y-103.837
Y-125.312
X-45.768 Y-126.653
X-46.054 Y-127.964
X-46.574 Y-129.202
X-47.294 Y-130.334
X-48.177 Y-131.345
X-49.184 Y-132.232
X-49.584 Y-132.509
X-49.949 Y-132.804
X-50.269 Y-133.147
X-50.536 Y-133.531
X-50.732 Y-133.859
X-51.312 Y-134.781
X-51.593 Y-135.162
X-51.876 Y-135.543
X-52.208 Y-135.924
X-52.256 Y-135.974
X-52.578 Y-136.305
X-53.398 Y-137.126
X-53.779 Y-137.483
X-54.16 Y-137.779
X-54.753 Y-138.21
X-54.922 Y-138.316
X-55.683 Y-138.795
X-56.064 Y-139.02
X-56.63 Y-139.352
X-56.826 Y-139.451
X-57.519 Y-139.733
X-57.588 Y-139.759
X-58.35 Y-140.026
X-58.605 Y-140.114
X-59.111 Y-140.285
X-59.492 Y-140.407
X-59.907 Y-140.495
G3 X-60.355 Y-140.707 I0.308 J-1.232
G1 X-60.469 Y-140.792 Z15.008
X-60.582 Y-140.875 Z15.032
X-60.692 Y-140.957 Z15.071
X-60.797 Y-141.035 Z15.126
X-60.898 Y-141.109 Z15.195
X-60.991 Y-141.178 Z15.277
X-61.076 Y-141.242 Z15.372
X-61.152 Y-141.298 Z15.478
X-61.219 Y-141.347 Z15.594
X-61.274 Y-141.388 Z15.719
X-61.318 Y-141.421 Z15.851
X-61.349 Y-141.444 Z15.987
X-61.369 Y-141.458 Z16.128
X-61.375 Y-141.463 Z16.27
G0 Z27
X-57.399 Y-4.28
Z17.54
G1 Z16.27 F850
X-57.395 Y-4.287 Z16.128
X-57.384 Y-4.308 Z15.987
X-57.365 Y-4.342 Z15.851
X-57.338 Y-4.39 Z15.719
X-57.305 Y-4.45 Z15.594
X-57.265 Y-4.523 Z15.478
X-57.22 Y-4.606 Z15.372
X-57.169 Y-4.699 Z15.277
X-57.112 Y-4.8 Z15.195
X-57.052 Y-4.91 Z15.126
X-56.989 Y-5.025 Z15.071
X-56.923 Y-5.145 Z15.032
X-56.855 Y-5.268 Z15.008
X-56.787 Y-5.392 Z15
G3 X-56.445 Y-5.756 I0.88 J0.485
G1 X-55.981 Y-6.028
X-55.683 Y-6.205
X-54.922 Y-6.684
X-54.754 Y-6.79
X-54.16 Y-7.222
X-53.779 Y-7.518
X-53.398 Y-7.875
X-52.578 Y-8.695
X-52.256 Y-9.026
X-52.208 Y-9.076
X-51.875 Y-9.459
X-51.494 Y-9.971
X-51.312 Y-10.219
X-50.732 Y-11.141
X-50.351 Y-11.78
X-50.147 Y-12.123
X-49.97 Y-12.529
X-49.819 Y-12.885
X-49.678 Y-13.266
X-49.412 Y-14.028
X-49.209 Y-14.616
X-49.15 Y-14.79
X-49.057 Y-15.171
X-48.972 Y-15.552
X-48.902 Y-15.933
X-48.81 Y-16.694
X-48.724 Y-17.456
X-48.689 Y-17.837
X-48.653 Y-18.599
X-48.65 Y-18.98
Y-126.02
X-48.653 Y-126.401
X-48.689 Y-127.163
X-48.724 Y-127.544
X-48.81 Y-128.306
X-48.902 Y-129.067
X-48.972 Y-129.448
X-49.057 Y-129.829
X-49.15 Y-130.21
X-49.209 Y-130.385
X-49.412 Y-130.972
X-49.678 Y-131.734
X-49.82 Y-132.115
G3 X-49.881 Y-132.607 I1.205 J-0.4
G1 X-49.87 Y-132.748 Z15.008
X-49.86 Y-132.888 Z15.032
X-49.85 Y-133.025 Z15.071
X-49.841 Y-133.156 Z15.126
X-49.832 Y-133.28 Z15.195
X-49.823 Y-133.396 Z15.277
X-49.816 Y-133.502 Z15.372
X-49.809 Y-133.597 Z15.478
X-49.803 Y-133.679 Z15.594
X-49.798 Y-133.748 Z15.719
X-49.794 Y-133.802 Z15.851
X-49.791 Y-133.841 Z15.987
X-49.789 Y-133.865 Z16.128
Y-133.873 Z16.27
G0 Z37

(2D Contour4 2)
M9
X-246.497 Y7.66
Z37
Z27
G1 Z25.77 F283.3
G19 G2 Y6.39 Z24.5 J-1.27
G1 Y5.12 F850
G17 G3 X-245.227 Y3.85 I1.27
G1 X-145 Z21 F283.3
X-40 F850
G2 X-33.65 Y-2.5 J-6.35
G1 Y-142.5
G2 X-40 Y-148.85 I-6.35
G1 X-250
G2 X-256.35 Y-142.5 J6.35
G1 Y-2.5
G2 X-250 Y3.85 I6.35
G1 X-40
G2 X-33.65 Y-2.5 J-6.35
G1 Y-142.5
G2 X-40 Y-148.85 I-6.35
G1 X-250
G2 X-256.35 Y-142.5 J6.35
G1 Y-2.5
G2 X-250 Y3.85 I6.35
G1 X-145
X-116.364 Z20 F283.3
X-40 F850
G2 X-33.65 Y-2.5 J-6.35
G1 Y-142.5
G2 X-40 Y-148.85 I-6.35
G1 X-250
G2 X-256.35 Y-142.5 J6.35
G1 Y-2.5
G2 X-250 Y3.85 I6.35
G1 X-145
X-40
G2 X-33.65 Y-2.5 J-6.35
G1 Y-142.5
G2 X-40 Y-148.85 I-6.35
G1 X-250
G2 X-256.35 Y-142.5 J6.35
G1 Y-2.5
G2 X-250 Y3.85 I6.35
G1 X-145
X-116.364
X-87.727 Z19 F283.3
X-40 F850
G2 X-33.65 Y-2.5 J-6.35
G1 Y-142.5
G2 X-40 Y-148.85 I-6.35
G1 X-250
G2 X-256.35 Y-142.5 J6.35
G1 Y-2.5
G2 X-250 Y3.85 I6.35
G1 X-116.364
X-40
G2 X-33.65 Y-2.5 J-6.35
G1 Y-142.5
G2 X-40 Y-148.85 I-6.35
G1 X-250
G2 X-256.35 Y-142.5 J6.35
G1 Y-2.5
G2 X-250 Y3.85 I6.35
G1 X-116.364
X-87.727
X-59.091 Z18 F283.3
X-40 F850
G2 X-33.65 Y-2.5 J-6.35
G1 Y-142.5
G2 X-40 Y-148.85 I-6.35
G1 X-250
G2 X-256.35 Y-142.5 J6.35
G1 Y-2.5
G2 X-250 Y3.85 I6.35
G1 X-87.727
X-59.091
X-40
G2 X-33.65 Y-2.5 J-6.35
G1 Y-142.5
G2 X-40 Y-148.85 I-6.35
G1 X-250
G2 X-256.35 Y-142.5 J6.35
G1 Y-2.5
G2 X-250 Y3.85 I6.35
G1 X-87.727
X-59.091
X-40 Z17.333 F283.3
G2 X-33.665 Y-2.071 Z17 J-6.35
X-33.65 Y-2.5 I-6.335 J-0.429 F850
G1 Y-142.5
G2 X-40 Y-148.85 I-6.35
G1 X-250
G2 X-256.35 Y-142.5 J6.35
G1 Y-2.5
G2 X-250 Y3.85 I6.35
G1 X-59.091
X-40
G2 X-33.65 Y-2.5 J-6.35
G1 Y-142.5
G2 X-40 Y-148.85 I-6.35
G1 X-250
G2 X-256.35 Y-142.5 J6.35
G1 Y-2.5
G2 X-250 Y3.85 I6.35
G1 X-59.091
X-40
G2 X-33.665 Y-2.071 J-6.35
X-33.65 Y-2.5 Z16.985 I-6.335 J-0.429 F283.3
G1 Y-30.707 Z16
Y-142.5 F850
G2 X-40 Y-148.85 I-6.35
G1 X-250
G2 X-256.35 Y-142.5 J6.35
G1 Y-2.5
G2 X-250 Y3.85 I6.35
G1 X-40
G2 X-33.65 Y-2.5 J-6.35
G1 Y-142.5
G2 X-40 Y-148.85 I-6.35
G1 X-250
G2 X-256.35 Y-142.5 J6.35
G1 Y-2.5
G2 X-250 Y3.85 I6.35
G1 X-40
G2 X-33.65 Y-2.5 J-6.35
G1 Y-30.707
Y-59.343 Z15 F283.3
Y-142.5 F850
G2 X-40 Y-148.85 I-6.35
G1 X-250
G2 X-256.35 Y-142.5 J6.35
G1 Y-2.5
G2 X-250 Y3.85 I6.35
G1 X-40
G2 X-33.65 Y-2.5 J-6.35
G1 Y-142.5
G2 X-40 Y-148.85 I-6.35
G1 X-250
G2 X-256.35 Y-142.5 J6.35
G1 Y-2.5
G2 X-250 Y3.85 I6.35
G1 X-40
G2 X-33.65 Y-2.5 J-6.35
G1 Y-59.343
Y-87.979 Z14 F283.3
Y-142.5 F850
G2 X-40 Y-148.85 I-6.35
G1 X-250
G2 X-256.35 Y-142.5 J6.35
G1 Y-2.5
G2 X-250 Y3.85 I6.35
G1 X-40
G2 X-33.65 Y-2.5 J-6.35
G1 Y-59.343
Y-142.5
G2 X-40 Y-148.85 I-6.35
G1 X-250
G2 X-256.35 Y-142.5 J6.35
G1 Y-2.5
G2 X-250 Y3.85 I6.35
G1 X-40
G2 X-33.65 Y-2.5 J-6.35
G1 Y-59.343
Y-87.979
Y-116.615 Z13 F283.3
Y-142.5 F850
G2 X-40 Y-148.85 I-6.35
G1 X-250
G2 X-256.35 Y-142.5 J6.35
G1 Y-2.5
G2 X-250 Y3.85 I6.35
G1 X-40
G2 X-33.65 Y-2.5 J-6.35
G1 Y-87.979
Y-116.615
Y-142.5
G2 X-40 Y-148.85 I-6.35
G1 X-250
G2 X-256.35 Y-142.5 J6.35
G1 Y-2.5
G2 X-250 Y3.85 I6.35
G1 X-40
G2 X-33.65 Y-2.5 J-6.35
G1 Y-87.979
Y-116.615
Y-142.5 Z12.096 F283.3
G2 X-34.237 Y-145.166 Z12 I-6.35
X-40 Y-148.85 I-5.763 J2.666 F850
G1 X-250
G2 X-256.35 Y-142.5 J6.35
G1 Y-2.5
G2 X-250 Y3.85 I6.35
G1 X-40
G2 X-33.65 Y-2.5 J-6.35
G1 Y-116.615
Y-142.5
G2 X-40 Y-148.85 I-6.35
G1 X-250
G2 X-256.35 Y-142.5 J6.35
G1 Y-2.5
G2 X-250 Y3.85 I6.35
G1 X-40
G2 X-33.65 Y-2.5 J-6.35
G1 Y-116.615
Y-142.5
G2 X-34.237 Y-145.166 I-6.35
X-40 Y-148.85 Z11.748 I-5.763 J2.666 F283.3
G1 X-61.413 Z11
X-250 F850
G2 X-256.35 Y-142.5 J6.35
G1 Y-2.5
G2 X-250 Y3.85 I6.35
G1 X-40
G2 X-33.65 Y-2.5 J-6.35
G1 Y-142.5
G2 X-40 Y-148.85 I-6.35
G1 X-250
G2 X-256.35 Y-142.5 J6.35
G1 Y-2.5
G2 X-250 Y3.85 I6.35
G1 X-40
G2 X-33.65 Y-2.5 J-6.35
G1 Y-142.5
G2 X-40 Y-148.85 I-6.35
G1 X-61.413
X-90.05 Z10 F283.3
X-250 F850
G2 X-256.35 Y-142.5 J6.35
G1 Y-2.5
G2 X-250 Y3.85 I6.35
G1 X-40
G2 X-33.65 Y-2.5 J-6.35
G1 Y-142.5
G2 X-40 Y-148.85 I-6.35
G1 X-250
G2 X-256.35 Y-142.5 J6.35
G1 Y-2.5
G2 X-250 Y3.85 I6.35
G1 X-40
G2 X-33.65 Y-2.5 J-6.35
G1 Y-142.5
G2 X-40 Y-148.85 I-6.35
G1 X-90.05
X-118.686 Z9 F283.3
X-250 F850
G2 X-256.35 Y-142.5 J6.35
G1 Y-2.5
G2 X-250 Y3.85 I6.35
G1 X-40
G2 X-33.65 Y-2.5 J-6.35
G1 Y-142.5
G2 X-40 Y-148.85 I-6.35
G1 X-90.05
X-250
G2 X-256.35 Y-142.5 J6.35
G1 Y-2.5
G2 X-250 Y3.85 I6.35
G1 X-40
G2 X-33.65 Y-2.5 J-6.35
G1 Y-142.5
G2 X-40 Y-148.85 I-6.35
G1 X-90.05
X-118.686
X-147.322 Z8 F283.3
X-250 F850
G2 X-256.35 Y-142.5 J6.35
G1 Y-2.5
G2 X-250 Y3.85 I6.35
G1 X-40
G2 X-33.65 Y-2.5 J-6.35
G1 Y-142.5
G2 X-40 Y-148.85 I-6.35
G1 X-118.686
X-250
G2 X-256.35 Y-142.5 J6.35
G1 Y-2.5
G2 X-250 Y3.85 I6.35
G1 X-40
G2 X-33.65 Y-2.5 J-6.35
G1 Y-142.5
G2 X-40 Y-148.85 I-6.35
G1 X-118.686
X-147.322
G0 Z37
M9
M30
%
