%
(1001)
(z0 mdf bottom machine -5-5)
(T1  D=12.7 CR=0 - ZMIN=40 - flat end mill)
G90 G94
G17
G21

(Face2)
M9
T1 M6
S6000 M3
G54
M9
G0 X13.255 Y-139.685
Z59
Z49
G1 Z44.27 F850
G18 G3 X11.985 Z43 I-1.27
G1 X5
X-215
G17 G2 Y-128.141 J5.772
G1 X5
G3 Y-116.596 J5.772
G1 X-215
G2 Y-105.052 J5.772
G1 X5
G3 Y-93.508 J5.772
G1 X-215
G2 Y-81.963 J5.772
G1 X5
G3 Y-70.419 J5.772
G1 X-215
G2 Y-58.875 J5.772
G1 X5
G3 Y-47.33 J5.772
G1 X-215
G2 Y-35.786 J5.772
G1 X5
G3 Y-24.242 J5.772
G1 X-215
G2 Y-12.697 J5.772
G1 X5
G3 Y-1.153 J5.772
G1 X-215
G18 G3 X-216.27 Z44.27 K1.27
G0 Z49
X-223.255 Y-139.685
G1 Z43.27 F850
G2 X-221.985 Z42 I1.27
G1 X-215
X5
G17 G3 Y-128.141 J5.772
G1 X-215
G2 Y-116.596 J5.772
G1 X5
G3 Y-105.052 J5.772
G1 X-215
G2 Y-93.508 J5.772
G1 X5
G3 Y-81.963 J5.772
G1 X-215
G2 Y-70.419 J5.772
G1 X5
G3 Y-58.875 J5.772
G1 X-215
G2 Y-47.33 J5.772
G1 X5
G3 Y-35.786 J5.772
G1 X-215
G2 Y-24.242 J5.772
G1 X5
G3 Y-12.697 J5.772
G1 X-215
G2 Y-1.153 J5.772
G1 X5
G18 G2 X6.27 Z43.27 K1.27
G0 Z49
X13.255 Y-139.685
G1 Z42.27 F850
G3 X11.985 Z41 I-1.27
G1 X5
X-215
G17 G2 Y-128.141 J5.772
G1 X5
G3 Y-116.596 J5.772
G1 X-215
G2 Y-105.052 J5.772
G1 X5
G3 Y-93.508 J5.772
G1 X-215
G2 Y-81.963 J5.772
G1 X5
G3 Y-70.419 J5.772
G1 X-215
G2 Y-58.875 J5.772
G1 X5
G3 Y-47.33 J5.772
G1 X-215
G2 Y-35.786 J5.772
G1 X5
G3 Y-24.242 J5.772
G1 X-215
G2 Y-12.697 J5.772
G1 X5
G3 Y-1.153 J5.772
G1 X-215
G18 G3 X-216.27 Z42.27 K1.27
G0 Z49
X-223.255 Y-139.685
G1 Z41.27 F850
G2 X-221.985 Z40 I1.27
G1 X-215
X5
G17 G3 Y-128.141 J5.772
G1 X-215
G2 Y-116.596 J5.772
G1 X5
G3 Y-105.052 J5.772
G1 X-215
G2 Y-93.508 J5.772
G1 X5
G3 Y-81.963 J5.772
G1 X-215
G2 Y-70.419 J5.772
G1 X5
G3 Y-58.875 J5.772
G1 X-215
G2 Y-47.33 J5.772
G1 X5
G3 Y-35.786 J5.772
G1 X-215
G2 Y-24.242 J5.772
G1 X5
G3 Y-12.697 J5.772
G1 X-215
G2 Y-1.153 J5.772
G1 X5
G18 G2 X6.27 Z41.27 K1.27
G0 Z59
G17
M9
M30
%
