%
(1001)
(z0 mdf bottom machine -5-5)
(T1  D=12.7 CR=0 - ZMIN=16 - flat end mill)
G90 G94
G17
G21

(Face7)
M9
T1 M6
S6000 M3
G54
M9
G0 X10.255 Y-136.223
Z35
Z25
G1 Z20.27 F850
G18 G3 X8.985 Z19 I-1.27
G1 X4
X-214
G17 G2 Y-124.217 J6.003
G1 X4
G3 Y-112.21 J6.003
G1 X-214
G2 Y-100.204 J6.003
G1 X4
G3 Y-88.198 J6.003
G1 X-214
G2 Y-76.191 J6.003
G1 X4
G3 Y-64.185 J6.003
G1 X-214
G2 Y-52.179 J6.003
G1 X4
G3 Y-40.172 J6.003
G1 X-214
G2 Y-28.166 J6.003
G1 X4
G3 Y-16.16 J6.003
G1 X-214
G2 Y-4.153 J6.003
G1 X4
G0 Z25
X10.255 Y-136.223
G1 Z19.27 F850
G18 G3 X8.985 Z18 I-1.27
G1 X4
X-214
G17 G2 Y-124.217 J6.003
G1 X4
G3 Y-112.21 J6.003
G1 X-214
G2 Y-100.204 J6.003
G1 X4
G3 Y-88.198 J6.003
G1 X-214
G2 Y-76.191 J6.003
G1 X4
G3 Y-64.185 J6.003
G1 X-214
G2 Y-52.179 J6.003
G1 X4
G3 Y-40.172 J6.003
G1 X-214
G2 Y-28.166 J6.003
G1 X4
G3 Y-16.16 J6.003
G1 X-214
G2 Y-4.153 J6.003
G1 X4
G0 Z35

(bubble_13mm 2)
M9
X-114.018 Y-19.655
Z35
Z23.82
G1 Z22.55 F850
G3 X-107.135 Y-20.933 Z22.166 I3.441 J-0.639 F283.3
X-114.018 Y-19.655 Z21.782 I-3.441 J0.639
X-107.135 Y-20.933 Z21.398 I3.441 J-0.639
X-114.018 Y-19.655 Z21.014 I-3.441 J0.639
X-107.135 Y-20.933 Z20.63 I3.441 J-0.639
X-114.018 Y-19.655 Z20.246 I-3.441 J0.639
X-107.135 Y-20.933 Z19.862 I3.441 J-0.639
X-114.018 Y-19.655 Z19.478 I-3.441 J0.639
X-107.135 Y-20.933 Z19.094 I3.441 J-0.639
X-114.018 Y-19.655 Z18.71 I-3.441 J0.639
X-107.135 Y-20.933 Z18.326 I3.441 J-0.639
X-114.018 Y-19.655 Z17.942 I-3.441 J0.639
X-107.135 Y-20.933 Z17.558 I3.441 J-0.639
X-114.018 Y-19.655 Z17.174 I-3.441 J0.639
X-107.135 Y-20.933 Z16.79 I3.441 J-0.639
X-114.018 Y-19.655 Z16.406 I-3.441 J0.639
X-110.897 Y-23.779 Z16.203 I3.441 J-0.639
X-107.076 Y-20.294 Z16 I0.321 J3.485
X-114.076 I-3.5
X-107.076 I3.5
G1 X-107.061 Y-19.153 F850
G3 X-108.02 Y-17.189 I-2.712 J-0.108
X-111.791 Y-16.355 I-2.598 J-2.804
X-109.377 Y-24.257 I1.207 J-3.951
X-107.274 Y-22.779 I-1.207 J3.951
X-106.365 Y-20.58 I-3.973 J2.93
X-107.17 Y-17.165 I-4.046 J0.849
X-107.918 Y-16.52 I-10.977 J-11.99
X-111.849 Y-15.86 I-2.664 J-3.828
Y-24.727 I1.274 J-4.433
X-107.045 Y-17.326 I1.271 J4.434
G1 X-107.129 Y-17.234
X-107.222 Y-17.15
X-107.322 Y-17.076
X-107.429 Y-17.012
X-107.554 Y-16.944 Z16.008
X-107.677 Y-16.877 Z16.032
X-107.797 Y-16.812 Z16.071
X-107.913 Y-16.749 Z16.126
X-108.023 Y-16.69 Z16.195
X-108.125 Y-16.634 Z16.277
X-108.218 Y-16.584 Z16.372
X-108.302 Y-16.539 Z16.478
X-108.374 Y-16.499 Z16.594
X-108.435 Y-16.467 Z16.719
X-108.483 Y-16.441 Z16.851
X-108.517 Y-16.422 Z16.987
X-108.538 Y-16.41 Z17.128
X-108.545 Y-16.407 Z17.27
G0 Z35
M9
M30
%
