%
(1001)
(z0 top machine -5-5)
(T1  D=3 CR=0 - ZMIN=-3 - flat end mill)
G90 G94
G17
G21

(adaptive_girl_13mm 2)
M9
T1 M6
S10000 M3
G54
M9
G0 X-172.103 Y-96.605
Z15
Z2.85
G1 Z2.55 F850
G3 X-173.412 Y-98.607 Z2.451 I-0.006 J-1.425 F283.3
X-171.05 Y-98.984 Z2.352 I1.303 J0.577
X-173.168 Y-97.076 Z2.195 I-1.059 J0.954
X-171.05 Y-98.984 Z2.039 I1.059 J-0.954
X-173.168 Y-97.076 Z1.883 I-1.059 J0.954
X-173.506 Y-97.747 Z1.856 I1.059 J-0.954
X-171.797 Y-99.42 Z1.757 I1.397 J-0.283
X-172.421 Y-96.639 Z1.601 I-0.312 J1.39
X-171.797 Y-99.42 Z1.444 I0.312 J-1.39
X-172.421 Y-96.639 Z1.288 I-0.312 J1.39
X-171.797 Y-99.42 Z1.132 I0.312 J-1.39
X-172.421 Y-96.639 Z0.975 I-0.312 J1.39
X-173.032 Y-99.116 Z0.865 I0.312 J-1.39
X-170.741 Y-98.428 Z0.766 I0.922 J1.086
X-173.477 Y-97.631 Z0.61 I-1.368 J0.398
X-170.741 Y-98.428 Z0.453 I1.368 J-0.398
X-173.477 Y-97.631 Z0.297 I-1.368 J0.398
X-170.741 Y-98.428 Z0.141 I1.368 J-0.398
X-173.477 Y-97.631 Z-0.016 I-1.368 J0.398
X-170.741 Y-98.428 Z-0.172 I1.368 J-0.398
X-173.439 Y-97.519 Z-0.324 I-1.368 J0.398
X-172.032 Y-99.453 Z-0.423 I1.33 J-0.511
X-172.186 Y-96.607 Z-0.58 I-0.077 J1.423
X-172.032 Y-99.453 Z-0.736 I0.077 J-1.423
X-172.186 Y-96.607 Z-0.892 I-0.077 J1.423
X-172.032 Y-99.453 Z-1.049 I0.077 J-1.423
X-172.186 Y-96.607 Z-1.205 I-0.077 J1.423
X-172.032 Y-99.453 Z-1.361 I0.077 J-1.423
X-172.186 Y-96.607 Z-1.518 I-0.077 J1.423
X-173.426 Y-98.574 Z-1.612 I0.077 J-1.423
X-171.075 Y-99.01 Z-1.712 I1.317 J0.544
X-173.144 Y-97.05 Z-1.868 I-1.035 J0.98
X-173.529 Y-98.148 Z-1.91 I1.035 J-0.98
X-171.421 Y-99.277 Z-2.009 I1.42 J0.119
X-172.798 Y-96.782 Z-2.165 I-0.688 J1.248
X-171.421 Y-99.277 Z-2.322 I0.688 J-1.248
X-172.798 Y-96.782 Z-2.478 I-0.688 J1.248
X-171.421 Y-99.277 Z-2.634 I0.688 J-1.248
X-172.798 Y-96.782 Z-2.791 I-0.688 J1.248
X-171.421 Y-99.277 Z-2.947 I0.688 J-1.248
X-170.684 Y-98.03 Z-3 I-0.688 J1.248
X-173.534 I-1.425
X-173.377 Y-98.68 I1.425
X-171.458 Y-99.298 I1.268 J0.651
X-170.684 Y-98.03 I-0.651 J1.268
G1 X-170.649 Y-97.309 F850
G3 X-170.851 Y-96.249 I-0.927 J0.373
X-172.739 Y-95.63 I-1.44 J-1.202
X-174.621 Y-98.578 I0.49 J-2.387
X-169.759 Y-99.101 I2.516 J0.532
G1 X-169.525 Y-98.567
G3 X-169.285 Y-97.163 I-3.368 J1.297
X-171.93 Y-94.386 I-2.954 J-0.165
X-175.274 Y-95.886 I-0.461 J-3.45
X-171.348 Y-101.818 I3.142 J-2.185
X-169.044 Y-100.402 I-0.716 J3.748
X-167.972 Y-96.859 I-3.746 J3.067
X-172.096 Y-93.031 I-4.34 J-0.54
X-176.296 Y-94.997 I-0.306 J-4.816
X-174.268 Y-102.783 I4.137 J-3.08
X-168.439 Y-101.758 I2.171 J4.741
X-166.659 Y-96.329 I-4.155 J4.369
X-171.255 Y-91.746 I-5.669 J-1.088
X-175.921 Y-92.724 I-1.174 J-6.017
X-178.671 Y-98.859 I3.661 J-5.325
X-168.71 Y-103.725 I6.562 J0.806
G1 X-168.139 Y-103.35
G3 X-165.601 Y-99.937 I-4.403 J5.925
X-165.556 Y-95.015 I-6.816 J2.523
X-169.963 Y-90.634 I-6.772 J-2.405
X-174.922 Y-90.643 I-2.468 J-7.052
X-179.951 Y-96.346 I2.573 J-7.337
X-176.752 Y-104.604 I7.785 J-1.733
X-169.187 Y-105.533 I4.64 J6.517
X-165.729 Y-103.005 I-2.965 J7.683
X-164.107 Y-94.846 I-6.774 J5.588
X-165.866 Y-91.721 I-8.312 J-2.62
X-172.242 Y-88.79 I-6.529 J-5.801
X-180.134 Y-93.072 I-0.163 J-9.112
X-177.455 Y-105.86 I7.969 J-5.006
X-168.5 Y-106.802 I5.344 J7.771
X-164.983 Y-104.336 I-3.582 J8.85
X-162.439 Y-95.639 I-7.524 J6.921
X-171.329 Y-87.41 I-9.909 J-1.788
X-180.827 Y-91.543 I-1.099 J-10.453
X-176.6 Y-107.988 I8.664 J-6.538
X-165.068 Y-106.405 I4.508 J9.956
X-162.178 Y-92.012 I-7.404 J8.973
X-173.612 Y-85.963 I-10.222 J-5.492
X-184.397 Y-96.855 I1.235 J-12.008
X-178.026 Y-108.897 I12.219 J-1.242
X-163.353 Y-106.808 I5.935 J10.89
X-161.534 Y-90.261 I-9.084 J9.372
X-176.125 Y-84.977 I-10.89 J-7.286
X-185.91 Y-97.853 I3.765 J-13.016
X-167.39 Y-111.03 I13.789 J-0.223
X-158.918 Y-102.674 I-4.887 J13.429
X-171.76 Y-83.014 I-13.431 J5.251
X-186.837 Y-94.084 I-0.66 J-14.903
X-174.118 Y-113.186 I14.692 J-4.003
X-160.036 Y-107.49 I2.011 J15.285
X-161.447 Y-85.867 I-12.365 J10.05
X-180.845 Y-83.881 I-11.008 J-11.788
X-188.654 Y-100.523 I8.527 J-14.154
X-163.19 Y-112.216 I16.547 J2.461
X-160.433 Y-84.809 I-9.232 J14.771
X-182.421 Y-83.152 I-12.026 J-12.863
X-186.76 Y-87.314 I9.569 J-14.317
X-189.174 Y-92.314 I169.264 J-84.835
X-190.229 Y-96.493 I11.279 J-5.07
X-172.079 Y-116.246 I18.093 J-1.591
X-171.678 Y-116.083 I-0.839 J2.636
G2 X-170.53 Y-115.832 I1.65 J-4.793
G3 X-168.233 Y-115.632 I-65.846 J770.25
X-164.761 Y-114.698 I-1.234 J11.505
X-154.069 Y-101.847 I-7.553 J17.157
X-153.691 Y-95.062 I-17.921 J4.401
G2 X-158.062 Y-85.797 I224.573 J111.605
G1 X-158.365 Y-85.21
X-158.697 Y-84.696
G3 X-160.725 Y-82.652 I-8.571 J-6.478
X-178.473 Y-79.582 I-11.711 J-14.866
X-184.137 Y-82.58 I5.727 J-17.67
X-186.754 Y-87.318 I56.795 J-34.469
G1 X-186.807 Y-87.423
X-189.123 Y-92.208
X-189.175 Y-92.314
G2 X-191.182 Y-96.58 I-273.13 J125.898
G1 X-191.357 Y-96.994
X-191.489 Y-97.42
X-191.605 Y-97.993
X-191.677 Y-98.711
G3 X-191.142 Y-102.995 I14.936 J-0.307
X-181.991 Y-115.054 I18.967 J4.89
G1 X-181.838 Y-115.112
X-181.674
G2 X-180.7 Y-114.811 I1.622 J-3.522
X-178.616 Y-115.614 I0.247 J-2.467
G1 X-178.466 Y-115.776
G3 X-177.503 Y-116.627 I2.464 J1.819
G1 X-177.05 Y-116.865
X-176.424 Y-117.119
G3 X-173.492 Y-117.662 I3.622 J11.367
X-172.96 Y-117.251 I0.021 J0.522
G2 X-171.924 Y-116.191 I2.092 J-1.01
G1 X-171.876 Y-116.158
X-171.835 Y-116.115
G3 X-172.06 Y-115.631 I-0.237 J0.184
G1 X-178.144 Y-115.386
G3 X-178.45 Y-115.749 I-0.012 J-0.3
X-178.403 Y-115.856 I0.293 J0.063
G2 X-177.64 Y-117.276 I-4.942 J-3.572
G3 X-176.409 Y-118.361 I2.45 J1.54
X-174.286 Y-118.997 I2.752 J5.324
G1 X-173.974 Y-119.006
X-173.714 Y-118.988
G3 X-173.217 Y-118.531 I-0.019 J0.519
G2 X-173.002 Y-117.359 I3.922 J-0.114
G3 X-172.982 Y-117.244 I-0.28 J0.108
X-173.266 Y-116.952 I-0.3 J-0.008
G1 X-177.4 Y-116.737
G3 X-177.698 Y-117.138 I-0.016 J-0.3
G2 X-177.097 Y-118.704 I-56.699 J-22.631
G3 X-176.009 Y-119.773 I2.332 J1.287
X-174.031 Y-120.281 I1.856 J3.117
G1 X-173.787 Y-120.248
G3 X-173.315 Y-119.773 I-0.047 J0.518
G1 X-173.277 Y-119.221
X-173.236 Y-118.729
X-173.218 Y-118.531
G3 X-173.233 Y-118.415 I-0.299 J0.019
X-173.514 Y-118.211 I-0.284 J-0.097
G1 X-176.864 Y-118.172
G3 X-177.166 Y-118.449 I-0.003 J-0.3
X-177.153 Y-118.565 I0.299 J-0.024
G2 X-176.589 Y-120.182 I-88.684 J-31.833
G3 X-175.104 Y-121.345 I2.162 J1.23
X-173.776 Y-121.449 I0.852 J2.357
X-173.391 Y-120.992 I-0.12 J0.491
G1 X-173.316 Y-119.772
G3 X-173.335 Y-119.657 I-0.3 J0.008
X-173.637 Y-119.465 I-0.28 J-0.107
G1 X-176.373 Y-119.658
G3 X-176.651 Y-119.925 I0.021 J-0.299
X-176.64 Y-120.041 I0.298 J-0.032
G2 X-176.175 Y-121.496 I-102.996 J-33.731
G3 X-174.46 Y-122.611 I1.922 J1.081
X-173.734 Y-122.562 I0.271 J1.389
G1 X-173.595 Y-122.456
X-173.501 Y-122.31
X-173.462 Y-122.141
X-173.446 Y-121.846
X-173.392 Y-120.992
G3 X-173.411 Y-120.877 I-0.3 J0.009
X-173.73 Y-120.686 I-0.28 J-0.107
G1 X-175.972 Y-120.981
G3 X-176.23 Y-121.237 I0.039 J-0.297
X-176.223 Y-121.354 I0.297 J-0.041
G2 X-175.848 Y-122.646 I-100.238 J-29.802
G3 X-173.875 Y-123.67 I1.689 J0.841
G1 X-173.709 Y-123.608
X-173.576 Y-123.49
X-173.493 Y-123.334
X-173.469 Y-123.158
G2 X-173.462 Y-122.141 I9.737 J0.442
G3 X-173.483 Y-122.026 I-0.3 J0.005
X-173.81 Y-121.84 I-0.279 J-0.11
G1 X-175.648 Y-122.139
G3 X-175.892 Y-122.503 I0.048 J-0.296
G2 X-175.577 Y-123.738 I-55.437 J-14.791
G3 X-173.807 Y-124.661 I1.489 J0.697
G1 X-173.638 Y-124.595
X-173.504 Y-124.472
X-173.424 Y-124.31
X-173.406 Y-124.129
X-173.419 Y-123.979
X-173.455 Y-123.487
X-173.469 Y-123.158
G3 X-173.835 Y-122.889 I-0.299 J-0.024
G1 X-175.387 Y-123.246
G3 X-175.615 Y-123.593 I0.067 J-0.292
G1 X-175.493 Y-124.143
X-175.413 Y-124.562
G3 X-174.368 Y-125.578 I1.321 J0.313
X-173.531 Y-125.549 I0.38 J1.098
G1 X-173.396 Y-125.417
X-173.316 Y-125.248
X-173.304 Y-125.061
X-173.356 Y-124.635
X-173.373 Y-124.471
X-173.406 Y-124.129
G3 X-173.776 Y-123.874 I-0.298 J-0.036
G1 X-175.189 Y-124.225
G3 X-175.409 Y-124.445 I0.072 J-0.291
X-175.413 Y-124.562 I0.291 J-0.071
X-175.203 Y-125.747 I17.84 J2.561
X-173.518 Y-126.536 I1.344 J0.677
G1 X-173.349 Y-126.455
X-173.223 Y-126.318
X-173.155 Y-126.144
X-173.156 Y-125.957
G2 X-173.304 Y-125.061 I10.415 J2.173
G3 X-173.344 Y-124.951 I-0.296 J-0.047
X-173.667 Y-124.816 I-0.256 J-0.157
G1 X-175.038 Y-125.13
G3 X-175.259 Y-125.339 I0.067 J-0.292
X-175.269 Y-125.456 I0.288 J-0.084
G2 X-175.158 Y-126.516 I-10.876 J-1.676
G3 X-174.053 Y-127.485 I1.334 J0.408
X-173.085 Y-127.372 I0.343 J1.266
X-172.93 Y-126.783 I-0.325 J0.4
G2 X-173.156 Y-125.957 I4.445 J1.661
G3 X-173.205 Y-125.85 I-0.292 J-0.068
X-173.519 Y-125.733 I-0.244 J-0.175
G1 X-174.94 Y-126.076
G3 X-175.147 Y-126.252 I0.07 J-0.292
X-175.17 Y-126.366 I0.277 J-0.116
G2 X-175.18 Y-127.337 I-8.392 J-0.397
G3 X-174.11 Y-128.435 I1.422 J0.316
X-172.626 Y-128.249 I0.559 J1.551
X-172.498 Y-127.558 I-0.303 J0.413
G2 X-172.931 Y-126.784 I2.829 J2.089
G3 X-172.998 Y-126.688 I-0.274 J-0.123
X-173.258 Y-126.611 I-0.206 J-0.218
G1 X-174.931 Y-126.918
G3 X-175.176 Y-127.187 I0.054 J-0.295
G2 X-175.289 Y-128.11 I-10.296 J0.793
G3 X-174.677 Y-129.174 I1.393 J0.093
X-171.983 Y-129.115 I1.31 J1.733
G1 X-171.873 Y-128.994
G3 X-171.913 Y-128.245 I-0.362 J0.356
G2 X-172.498 Y-127.558 I4.392 J4.328
G3 X-172.771 Y-127.445 I-0.236 J-0.185
G1 X-175.012 Y-127.724
G3 X-175.224 Y-127.853 I0.037 J-0.298
X-175.269 Y-127.961 I0.248 J-0.168
G1 X-175.374 Y-128.573
X-175.431 Y-128.901
G3 X-174.97 Y-130.053 I1.348 J-0.129
X-174.405 Y-130.467 I1.337 J1.233
G1 X-174.318 Y-130.492 F212.5
X-174.228 Y-130.5 F850
G3 X-173.995 Y-130.024 I-0.01 J0.3
G1 X-174.894 Y-128.786
G3 X-175.385 Y-128.794 I-0.243 J-0.176
X-175.431 Y-128.901 I0.248 J-0.169
X-175.531 Y-129.656 I8.65 J-1.534
X-175.564 Y-130.255 I8.751 J-0.78 F212.5
G1 X-175.541 Y-130.296 F850
X-175.519 Y-130.337
X-175.489 Y-130.378
X-175.472 Y-130.398
X-175.451 Y-130.418
X-175.41 Y-130.447 F212.5
X-175.369 Y-130.468
X-175.328 Y-130.481
G3 X-172.505 Y-130.491 I1.603 J56.592 F850
X-170.991 Y-129.595 I-0.184 J2.039
X-171.114 Y-128.953 I-0.446 J0.248
X-171.22 Y-128.903 I-0.18 J-0.241
X-171.472 Y-128.952 I-0.074 J-0.291
G1 X-172.831 Y-129.956
G3 X-172.776 Y-130.471 I0.178 J-0.241
X-172.662 Y-130.497 I0.123 J0.274
G1 X-171.678 Y-130.491
X-171.186 Y-130.488
G3 X-170.344 Y-130.022 J0.992
X-170.517 Y-129.396 I-0.462 J0.21
X-170.626 Y-129.354 I-0.161 J-0.254
X-170.898 Y-129.446 I-0.051 J-0.296
G1 X-171.397 Y-129.984
G3 X-171.3 Y-130.462 I0.22 J-0.204
X-171.186 Y-130.488 I0.123 J0.274
G1 X-170.366 Y-130.482
X-170.216 Y-130.474 F212.5
X-170.07 Y-130.388 F850
X-169.966 Y-130.255
X-169.916 Y-130.094
X-169.928 Y-129.925
X-170.001 Y-129.772
X-170.123 Y-129.656
G3 X-170.228 Y-129.611 I-0.233 J-0.391
X-170.482 Y-130.464 I-0.125 J-0.427
X-170.366 Y-130.482 I0.128 J0.426
X-169.85 Y-130.475 I0.198 J4.067
G1 X-169.816 Y-130.468
X-169.783 Y-130.459
X-169.751 Y-130.447
G3 X-169.658 Y-130.208 I-0.121 J0.184
X-170.079 Y-130.311 I-0.21 J-0.054
X-169.985 Y-130.444 I0.211 J0.049
X-169.874 Y-130.478 I0.117 J0.183
G1 X-169.833 Y-130.474
X-169.792 Y-130.464
X-169.751 Y-130.447
X-169.71 Y-130.422
X-169.685 Y-130.402
X-169.661 Y-130.378
X-169.628 Y-130.337
X-169.604 Y-130.296
X-169.588 Y-130.255 F212.5
X-169.579 Y-130.214 F850
X-169.575 Y-130.173
X-169.577 Y-130.132
X-169.585 Y-130.091
X-169.599 Y-130.05
X-169.615 Y-130.016 F212.5
X-169.638 Y-129.983
X-169.654 Y-129.964 F850
G2 X-170.859 Y-129.156 I16.3 J25.626
X-171.884 Y-128.273 I5.818 J7.785
G3 X-171.985 Y-128.214 I-0.198 J-0.225
G1 X-172.048 Y-128.193 Z-2.992
X-172.108 Y-128.172 Z-2.97
X-172.162 Y-128.154 Z-2.935
X-172.207 Y-128.139 Z-2.887
X-172.241 Y-128.127 Z-2.83
X-172.262 Y-128.12 Z-2.767
X-172.269 Y-128.118 Z-2.7
G0 Z5
X-167.986 Y-115.397
Z-2.4
G1 Z-2.7 F850
X-167.993 Y-115.4 Z-2.767
X-168.013 Y-115.409 Z-2.83
X-168.046 Y-115.424 Z-2.887
X-168.089 Y-115.443 Z-2.935
X-168.142 Y-115.465 Z-2.97
X-168.2 Y-115.491 Z-2.992
X-168.261 Y-115.518 Z-3
G3 X-168.233 Y-115.632 I0.024 J-0.055
X-163.802 Y-114.965 I-2.46 J31.369
X-160.037 Y-113.244 I-3.209 J12.002
X-157.608 Y-111.376 I-4.568 J8.455
X-152.124 Y-98.874 I-14.642 J13.876
X-152.092 Y-98.275 I-20.126 J1.374 F212.5
G1 X-152.112 Y-98.192
G2 X-153.723 Y-95.012 I313.032 J160.527 F850
G1 X-153.755 Y-94.963
X-153.797 Y-94.922
X-153.849 Y-94.88 Z-2.992
X-153.898 Y-94.84 Z-2.97
X-153.942 Y-94.804 Z-2.935
X-153.979 Y-94.774 Z-2.887
X-154.007 Y-94.751 Z-2.83
X-154.024 Y-94.737 Z-2.767
X-154.03 Y-94.733 Z-2.7
G0 Z5
X-159.738 Y-112.843
Z-2.4
G1 Z-2.7 F850
X-159.743 Y-112.848 Z-2.767
X-159.758 Y-112.865 Z-2.83
X-159.782 Y-112.891 Z-2.887
X-159.814 Y-112.927 Z-2.935
X-159.852 Y-112.969 Z-2.97
X-159.895 Y-113.016 Z-2.992
X-159.94 Y-113.065 Z-3
G3 X-159.868 Y-113.158 I0.044 J-0.04
G2 X-156.585 Y-111.584 I14.296 J-25.605
G1 X-156.227 Y-111.396
X-155.898 Y-111.185
X-155.496 Y-110.867
X-155.002 Y-110.389
G3 X-153.007 Y-107.392 I-10.398 J9.082
X-150.842 Y-100.639 I-18.943 J9.797
G1 X-150.867 Y-100.529
G3 X-151.746 Y-98.877 I-68.978 J-35.63
G1 X-152.145 Y-98.114
G3 X-152.221 Y-98.025 I-0.261 J-0.148
X-152.691 Y-98.168 I-0.185 J-0.236
G1 X-156.985 Y-111.207
G3 X-156.587 Y-111.579 I0.285 J-0.094
X-155.249 Y-110.928 I-4.345 J10.638
X-153.805 Y-108.915 I-19.658 J15.625
G2 X-151.843 Y-106.914 I7.529 J-5.42
G1 X-151.605 Y-106.708
X-151.356 Y-106.441
X-151.086 Y-106.087
X-150.769 Y-105.573
G3 X-149.734 Y-102.625 I-10.029 J5.176
G1 X-149.759 Y-102.499
X-149.808 Y-102.384
G3 X-150.333 Y-102.415 I-0.254 J-0.159
G1 X-152.291 Y-106.546
G3 X-151.841 Y-106.916 I0.271 J-0.128
G2 X-150.098 Y-105.769 I13.387 J-18.458
G3 X-149.216 Y-104.888 I-1.721 J2.605
G1 X-148.954 Y-104.464
X-148.901 Y-104.355
X-148.854 Y-104.197
X-148.862 Y-104.033
X-148.922 Y-103.88
G3 X-149.415 Y-103.865 I-0.252 J-0.163
G1 X-150.492 Y-105.331
G3 X-150.209 Y-105.805 I0.242 J-0.178
X-150.099 Y-105.767 I-0.04 J0.297
X-149.096 Y-105.1 I-12.71 J20.204
X-148.609 Y-104.75 I-13.713 J19.537 F212.5
G1 X-148.591 Y-104.701 F850
X-148.576 Y-104.66
X-148.566 Y-104.619
X-148.563 Y-104.578
X-148.565 Y-104.537 F212.5
X-148.572 Y-104.496
X-148.584 Y-104.455 F850
G2 X-150.911 Y-100.428 I103.215 J62.339
G1 X-150.945 Y-100.381
X-150.988 Y-100.34
X-151.041 Y-100.301 Z-2.992
X-151.092 Y-100.263 Z-2.97
X-151.137 Y-100.228 Z-2.935
X-151.175 Y-100.2 Z-2.887
X-151.204 Y-100.179 Z-2.83
X-151.222 Y-100.165 Z-2.767
X-151.228 Y-100.161 Z-2.7
G0 Z5
X-191.108 Y-96.912
Z-2.4
G1 Z-2.7 F850
X-191.107 Y-96.905 Z-2.767
X-191.105 Y-96.883 Z-2.83
X-191.1 Y-96.848 Z-2.887
X-191.094 Y-96.8 Z-2.935
X-191.087 Y-96.744 Z-2.97
X-191.078 Y-96.681 Z-2.992
X-191.07 Y-96.615 Z-3
G3 X-191.182 Y-96.579 I-0.059 J0.008
G1 X-192.597 Y-99.449
X-192.696 Y-99.748
X-192.781 Y-100.121
X-192.842 Y-100.607
X-192.858 Y-101.255
G3 X-192.356 Y-104.092 I11.662 J0.601
X-188.05 Y-111.93 I19.863 J5.809
G2 X-187.423 Y-112.382 I-1.766 J-3.111
X-186.73 Y-113.221 I-8.083 J-7.381
G3 X-183.2 Y-116.027 I11.651 J11.035
X-182.599 Y-115.919 I0.226 J0.47
G2 X-181.52 Y-115.056 I2.846 J-2.451
G3 X-181.435 Y-114.975 I-0.159 J0.254
X-181.559 Y-114.527 I-0.245 J0.174
G1 X-186.807 Y-112.226
G3 X-187.224 Y-112.549 I-0.12 J-0.275
X-187.183 Y-112.658 I0.296 J0.047
G2 X-186.768 Y-114.046 I-1.849 J-1.31
G3 X-186.18 Y-115.326 I2.991 J0.597
G1 X-185.841 Y-115.744
X-185.345 Y-116.242
X-184.883 Y-116.622
X-184.531 Y-116.857
X-184.264 Y-117
X-184.051 Y-117.087
X-183.895 Y-117.124
X-183.736 Y-117.109
X-183.59 Y-117.045
X-183.471 Y-116.939
G2 X-182.6 Y-115.918 I14.898 J-11.824
G1 X-182.566 Y-115.87
X-182.541 Y-115.817
G3 X-182.691 Y-115.453 I-0.285 J0.095
G1 X-186.339 Y-113.628
G3 X-186.75 Y-113.782 I-0.134 J-0.268
X-186.773 Y-113.897 I0.277 J-0.114
G2 X-186.89 Y-114.79 I-4.371 J0.12
G3 X-186.475 Y-116.721 I2.433 J-0.487
X-184.956 Y-118.081 I3.053 J1.884
G1 X-184.844 Y-118.119
G3 X-184.275 Y-117.956 I0.173 J0.469
G2 X-183.471 Y-116.939 I44.086 J-34.036
G3 X-183.42 Y-116.833 I-0.24 J0.18
X-183.567 Y-116.495 I-0.291 J0.074
G1 X-186.488 Y-114.903
G3 X-186.887 Y-115.01 I-0.144 J-0.263
X-186.927 Y-115.119 I0.256 J-0.157
X-187.114 Y-116.916 I43.981 J-5.48
X-186.133 Y-118.747 I2.478 J0.15
X-185.448 Y-119.112 I1.062 J1.165
G1 X-185.279 Y-119.096
X-185.125 Y-119.027
X-185.002 Y-118.91
X-184.8 Y-118.642
X-184.472 Y-118.21
X-184.275 Y-117.956
G3 X-184.227 Y-117.849 I-0.243 J0.175
X-184.401 Y-117.505 I-0.292 J0.069
G1 X-186.689 Y-116.524
G3 X-187.066 Y-116.649 I-0.118 J-0.276
X-187.104 Y-116.76 I0.259 J-0.151
G2 X-187.277 Y-118.266 I-59.815 J6.12
G3 X-186.256 Y-119.924 I1.888 J0.019
X-185.627 Y-119.765 I0.221 J0.45
G1 X-185.292 Y-119.302
X-185.002 Y-118.91
G3 X-185.155 Y-118.455 I-0.247 J0.17
G1 X-186.871 Y-117.886
G3 X-187.218 Y-118.008 I-0.094 J-0.285
X-187.261 Y-118.117 I0.252 J-0.162
G2 X-187.481 Y-119.368 I-12.304 J1.526
G3 X-186.813 Y-120.664 I1.408 J-0.095
G1 X-186.636 Y-120.729
X-186.448 Y-120.722
X-186.276 Y-120.647
X-186.143 Y-120.513
X-186.047 Y-120.37
X-185.707 Y-119.877
X-185.627 Y-119.765
G3 X-185.811 Y-119.307 I-0.251 J0.165
G1 X-187.097 Y-119.013
G3 X-187.397 Y-119.117 I-0.067 J-0.292
X-187.451 Y-119.221 I0.234 J-0.188
G2 X-187.771 Y-120.104 I-3.226 J0.669
G3 X-187.144 Y-121.431 I1.12 J-0.282
X-186.566 Y-121.2 I0.138 J0.494
G2 X-186.143 Y-120.512 I11.245 J-6.43
G3 X-186.102 Y-120.403 I-0.255 J0.158
X-186.332 Y-120.062 I-0.296 J0.048
G1 X-187.381 Y-119.823
G3 X-187.632 Y-119.879 I-0.067 J-0.293
X-187.708 Y-119.968 I0.184 J-0.237
G2 X-188.133 Y-120.545 I-2.48 J1.38
G3 X-187.916 Y-121.92 I0.985 J-0.55
X-187.344 Y-122.197 I0.555 J0.418
G1 X-187.191 Y-122.148
X-187.06 Y-122.057
X-186.964 Y-121.93
X-186.749 Y-121.518
X-186.656 Y-121.354
X-186.566 Y-121.2
G3 X-186.532 Y-121.088 I-0.264 J0.142
X-186.714 Y-120.782 I-0.298 J0.03
G1 X-187.704 Y-120.364
G3 X-187.939 I-0.117 J-0.276
X-188.036 Y-120.431 I0.118 J-0.276
G1 X-188.129 Y-120.534
X-188.245 Y-120.65
X-188.543 Y-120.892
G3 X-188.876 Y-121.692 I0.619 J-0.728
X-187.979 Y-123.002 I1.471 J0.046
X-187.343 Y-122.73 I0.175 J0.47
G2 X-186.964 Y-121.93 I9.997 J-4.237
G3 X-186.935 Y-121.816 I-0.271 J0.13
X-187.082 Y-121.542 I-0.3 J0.017
G1 X-188.209 Y-120.873
G3 X-188.437 Y-120.841 I-0.153 J-0.258
X-188.543 Y-120.892 I0.075 J-0.29
G2 X-189.246 Y-121.409 I-5.983 J7.402
G3 X-189.537 Y-122.547 I0.93 J-0.844
X-188.303 Y-123.952 I1.74 J0.284
X-187.71 Y-123.644 I0.121 J0.492
G1 X-187.524 Y-123.159
X-187.456 Y-122.995
X-187.343 Y-122.73
G3 X-187.438 Y-122.385 I-0.28 J0.109
G1 X-188.78 Y-121.337
G3 X-189.125 Y-121.321 I-0.185 J-0.236
G2 X-189.937 Y-121.836 I-10.825 J16.174
G3 X-190.344 Y-122.992 I0.97 J-0.991
X-188.6 Y-124.994 I2.185 J0.142
X-188.03 Y-124.636 I0.073 J0.518
G1 X-187.882 Y-124.143
X-187.772 Y-123.815
X-187.71 Y-123.644
G3 X-187.694 Y-123.528 I-0.284 J0.097
X-187.791 Y-123.325 I-0.299 J-0.019
G1 X-189.464 Y-121.796
G3 X-189.7 Y-121.719 I-0.202 J-0.221
X-189.811 Y-121.755 I0.034 J-0.298
X-190.757 Y-122.379 I3.385 J-6.155
X-191.111 Y-122.995 I0.675 J-0.798
G1 X-191.107 Y-123.083
G3 X-191.067 Y-123.193 I0.297 J0.044
X-190.549 Y-123.187 I0.257 J0.154
G1 X-190.309 Y-122.764
G3 X-190.651 Y-122.327 I-0.261 J0.148
X-190.756 Y-122.38 I0.082 J-0.289
X-191.067 Y-122.666 I2.003 J-2.493
G1 X-191.091 Y-122.708 F212.5
X-191.108 Y-122.749
X-191.119 Y-122.79
G3 X-190.891 Y-124.372 I8.568 J0.427 F850
X-188.798 Y-126.095 I2.34 J0.71
X-188.287 Y-125.69 I-0.002 J0.526
G2 X-188.03 Y-124.636 I12.356 J-2.454
G3 X-188.026 Y-124.518 I-0.292 J0.07
X-188.264 Y-124.271 I-0.296 J-0.047
G1 X-190.592 Y-123.809
G3 X-190.94 Y-124.026 I-0.058 J-0.294
X-190.948 Y-124.143 I0.29 J-0.077
G2 X-190.638 Y-125.858 I-45.893 J-9.166
G3 X-188.967 Y-127.116 I1.756 J0.593
X-188.45 Y-126.68 I0.018 J0.503
G2 X-188.288 Y-125.69 I10.294 J-1.174
G3 X-188.291 Y-125.573 I-0.295 J0.052
X-188.59 Y-125.338 I-0.293 J-0.065
G1 X-190.374 Y-125.375
G3 X-190.656 Y-125.593 I0.006 J-0.3
X-190.665 Y-125.71 I0.289 J-0.082
G2 X-190.552 Y-126.918 I-10.107 J-1.56
G3 X-189.009 Y-128.085 I1.523 J0.411
G1 X-188.827 Y-128.045
X-188.673 Y-127.941
X-188.568 Y-127.787
X-188.527 Y-127.606
G2 X-188.45 Y-126.68 I9.849 J-0.348
G3 X-188.462 Y-126.564 I-0.299 J0.029
X-188.773 Y-126.352 I-0.287 J-0.088
G1 X-190.285 Y-126.475
G3 X-190.56 Y-126.768 I0.024 J-0.299
G2 X-190.587 Y-127.829 I-11.275 J-0.243
G3 X-188.98 Y-129.037 I1.48 J0.296
G1 X-188.797 Y-128.986
X-188.647 Y-128.868
X-188.553 Y-128.702
X-188.527 Y-128.513
G3 X-188.561 Y-128.4 I-0.299 J-0.028
X-188.677 Y-128.28 I-0.265 J-0.14
G1 X-190.135 Y-127.449
G3 X-190.547 Y-127.567 I-0.149 J-0.261
X-190.582 Y-127.679 I0.264 J-0.142
X-190.676 Y-128.723 I44.134 J-4.519
X-189.732 Y-129.893 I1.443 J0.199
X-188.802 Y-129.994 I0.619 J1.361
G1 X-188.633 Y-129.916
X-188.505 Y-129.78
X-188.435 Y-129.606
Y-129.419
G3 X-188.587 Y-129.219 I-0.293 J-0.065
G1 X-190.229 Y-128.347
G3 X-190.63 Y-128.462 I-0.141 J-0.265
X-190.668 Y-128.573 I0.26 J-0.149
X-190.713 Y-129.081 I9.418 J-1.093
X-190.731 Y-129.681 I9.463 J-0.585 F212.5
G1 X-190.712 Y-129.722 F850
X-190.705 Y-129.736
X-190.686 Y-129.773
X-190.66 Y-129.811
G3 X-189.557 Y-130.426 I1.979 J2.251
X-189.091 Y-130.457 I0.847 J9.193
X-188.491 Y-130.462 I0.381 J9.224 F212.5
G1 X-188.45 Y-130.438
X-188.409 Y-130.414
X-188.362 Y-130.378 F850
X-188.341 Y-130.357
X-188.325 Y-130.337
X-188.299 Y-130.296 F212.5
X-188.282 Y-130.255
X-188.271 Y-130.214 F850
G3 X-188.33 Y-129.886 I-0.671 J0.049
G2 X-188.523 Y-127.606 I7.126 J1.754
G1 X-188.531 Y-127.547
X-188.549 Y-127.491
X-188.575 Y-127.429 Z-2.992
X-188.599 Y-127.37 Z-2.97
X-188.62 Y-127.318 Z-2.935
X-188.638 Y-127.274 Z-2.887
X-188.652 Y-127.241 Z-2.83
X-188.66 Y-127.22 Z-2.767
X-188.663 Y-127.213 Z-2.7
G0 Z5
X-192.421 Y-99.539
Z-2.4
G1 Z-2.7 F850
X-192.42 Y-99.532 Z-2.767
X-192.416 Y-99.51 Z-2.83
X-192.411 Y-99.474 Z-2.887
X-192.404 Y-99.428 Z-2.935
X-192.395 Y-99.371 Z-2.97
X-192.385 Y-99.309 Z-2.992
X-192.375 Y-99.243 Z-3
G3 X-192.487 Y-99.205 I-0.059 J0.009
G2 X-193.665 Y-101.448 I-360.196 J187.741
G3 X-193.913 Y-102.814 I3.285 J-1.303
G1 X-193.889 Y-103.418
G3 X-193.18 Y-106.209 I10.976 J1.304
X-190.45 Y-111.265 I19.586 J7.309
G1 X-190.338 Y-111.33
X-190.218 Y-111.371
G2 X-188.243 Y-111.854 I-2.39 J-14.051
G1 X-188.081 Y-111.934
X-187.942 Y-112.002
G3 X-187.554 Y-111.589 I0.123 J0.274
G1 X-193.008 Y-101.188
G3 X-193.452 Y-101.087 I-0.266 J-0.139
X-193.531 Y-101.173 I0.179 J-0.241
G2 X-194.665 Y-103.151 I-61.078 J33.713
G3 X-194.91 Y-104.766 I3.183 J-1.309
G1 X-194.847 Y-105.384
G3 X-193.966 Y-108.127 I11.057 J2.037
X-192.596 Y-110.717 I18.992 J8.387
G1 X-192.513 Y-110.817
X-192.408 Y-110.891
X-192.286 Y-110.936
G3 X-190.218 Y-111.37 I13.11 J57.379
G1 X-190.159 Y-111.374
X-190.101 Y-111.367
G3 X-189.903 Y-110.936 I-0.068 J0.292
G1 X-194.05 Y-103.002
G3 X-194.568 Y-102.978 I-0.266 J-0.139
G2 X-195.613 Y-104.623 I-41.463 J25.192
G3 X-195.907 Y-105.996 I2.636 J-1.283
G1 X-195.883 Y-106.487
X-195.792 Y-107.09
G3 X-194.552 Y-110.229 I11.214 J2.615
G1 X-194.455 Y-110.309
X-194.345 Y-110.365
G3 X-193.958 Y-110.025 I0.092 J0.286
G1 X-194.969 Y-104.577
G3 X-195.421 Y-104.375 I-0.295 J-0.055
X-195.507 Y-104.455 I0.157 J-0.256
G2 X-196.576 Y-105.961 I-33.793 J22.853
G3 X-196.894 Y-107.607 I2.596 J-1.355
G1 X-196.844 Y-108.112
X-196.82 Y-108.192
X-196.783 Y-108.268
X-196.734 Y-108.336
G3 X-196.216 Y-108.175 I0.221 J0.203
G1 X-195.909 Y-105.997
G3 X-196.351 Y-105.692 I-0.297 J0.042
X-196.441 Y-105.767 I0.145 J-0.263
G2 X-197.496 Y-107.079 I-22.665 J17.158
G1 X-197.517 Y-107.121
X-197.531 Y-107.162
X-197.541 Y-107.203
X-197.546 Y-107.244
X-197.545 Y-107.285 F212.5
X-197.538 Y-107.326
X-197.526 Y-107.367
G3 X-196.251 Y-108.883 I16.63 J12.693 F850
X-195.14 Y-110.041 I10.171 J8.637
X-192.508 Y-110.877 I5.157 J11.679
G1 X-192.286 Y-110.936
G3 X-192.169 I0.057 J0.295
G1 X-192.104 Y-110.922 Z-2.992
X-192.042 Y-110.91 Z-2.97
X-191.986 Y-110.898 Z-2.935
X-191.939 Y-110.889 Z-2.887
X-191.904 Y-110.882 Z-2.83
X-191.883 Y-110.877 Z-2.767
X-191.875 Y-110.876 Z-2.7
G0 Z5
X-158.366 Y-85.641
Z-2.4
G1 Z-2.7 F850
X-158.361 Y-85.646 Z-2.767
X-158.346 Y-85.662 Z-2.83
X-158.322 Y-85.689 Z-2.887
X-158.29 Y-85.724 Z-2.935
X-158.251 Y-85.766 Z-2.97
X-158.208 Y-85.812 Z-2.992
X-158.163 Y-85.861 Z-3
G3 X-158.064 Y-85.798 I0.044 J0.04
X-159.658 Y-82.229 I-239.561 J-104.912
G1 X-159.857 Y-81.925
X-160.147 Y-81.553
X-160.572 Y-81.105
G3 X-162.945 Y-79.474 I-7.278 J-8.041
X-181.948 Y-79.455 I-9.52 J-18.13
X-182.514 Y-80.174 I3.852 J-3.608
X-184.168 Y-82.639 I27.59 J-20.305
X-184.205 Y-82.75 I0.261 J-0.148
G1 X-184.213 Y-82.816 Z-2.992
X-184.221 Y-82.879 Z-2.97
X-184.228 Y-82.936 Z-2.935
X-184.234 Y-82.983 Z-2.887
X-184.238 Y-83.018 Z-2.83
X-184.241 Y-83.04 Z-2.767
X-184.242 Y-83.048 Z-2.7
G0 Z5
X-159.765 Y-82.472
Z-2.4
G1 Z-2.7 F850
X-159.76 Y-82.478 Z-2.767
X-159.745 Y-82.494 Z-2.83
X-159.721 Y-82.521 Z-2.887
X-159.689 Y-82.556 Z-2.935
X-159.651 Y-82.599 Z-2.97
X-159.609 Y-82.646 Z-2.992
X-159.564 Y-82.695 Z-3
G3 X-159.464 Y-82.633 I0.045 J0.04
X-160.676 Y-79.86 I-143.454 J-61.056
G1 X-160.831 Y-79.619
X-161.047 Y-79.337
X-161.347 Y-79.015
X-161.784 Y-78.633
X-162.371 Y-78.213
G3 X-166.346 Y-76.526 I-8.063 J-13.477
X-179.189 Y-76.717 I-6.11 J-21.001
X-179.757 Y-76.91 I6.733 J-20.81 F212.5
G1 X-179.826 Y-76.957
G3 X-182.051 Y-79.554 I23.156 J-22.086 F850
X-182.099 Y-79.66 I0.243 J-0.175
G1 X-182.115 Y-79.725 Z-2.992
X-182.129 Y-79.787 Z-2.97
X-182.142 Y-79.842 Z-2.935
X-182.153 Y-79.889 Z-2.887
X-182.161 Y-79.923 Z-2.83
X-182.166 Y-79.945 Z-2.767
X-182.168 Y-79.952 Z-2.7
G0 Z5
X-160.823 Y-80.021
Z-2.4
G1 Z-2.7 F850
X-160.818 Y-80.027 Z-2.767
X-160.804 Y-80.043 Z-2.83
X-160.78 Y-80.07 Z-2.887
X-160.748 Y-80.106 Z-2.935
X-160.711 Y-80.148 Z-2.97
X-160.669 Y-80.196 Z-2.992
X-160.625 Y-80.246 Z-3
G3 X-160.524 Y-80.185 I0.045 J0.04
G2 X-161.494 Y-77.869 I116.951 J50.33
G3 X-162.297 Y-76.883 I-2.923 J-1.563
G1 X-162.723 Y-76.549
X-163.332 Y-76.162
G3 X-166.706 Y-74.905 I-6.754 J-12.966
X-177.936 Y-74.842 I-5.74 J-22.43
G1 X-178.03 Y-74.91
G2 X-178.895 Y-75.936 I-35.564 J29.121
X-179.887 Y-77.012 I-38.864 J34.831
G3 X-179.945 Y-77.114 I0.226 J-0.197
G1 X-179.966 Y-77.177 Z-2.992
X-179.986 Y-77.237 Z-2.97
X-180.005 Y-77.291 Z-2.935
X-180.02 Y-77.336 Z-2.887
X-180.031 Y-77.37 Z-2.83
X-180.038 Y-77.391 Z-2.767
X-180.04 Y-77.398 Z-2.7
G0 Z5
X-161.714 Y-77.863
Z-2.4
G1 Z-2.7 F850
X-161.709 Y-77.869 Z-2.767
X-161.695 Y-77.886 Z-2.83
X-161.672 Y-77.914 Z-2.887
X-161.643 Y-77.951 Z-2.935
X-161.607 Y-77.995 Z-2.97
X-161.567 Y-78.044 Z-2.992
X-161.525 Y-78.096 Z-3
G3 X-161.422 Y-78.039 I0.047 J0.038
G2 X-161.649 Y-76.815 I2.358 J1.072
G3 X-162.184 Y-75.663 I-2.145 J-0.296
G1 X-162.423 Y-75.397
X-162.748 Y-75.105
X-163.185 Y-74.785
X-163.807 Y-74.418
G3 X-167.221 Y-73.274 I-6.263 J-13.024
X-176.978 Y-73.13 I-5.231 J-23.844
X-177.391 Y-73.61 I0.087 J-0.493
G2 X-177.619 Y-74.266 I-2.298 J0.43
G1 X-177.911 Y-74.736
X-177.927 Y-74.758
X-178.109 Y-74.991
G3 X-178.158 Y-75.098 I0.243 J-0.176
G1 X-178.173 Y-75.163 Z-2.992
X-178.188 Y-75.224 Z-2.97
X-178.201 Y-75.28 Z-2.935
X-178.212 Y-75.326 Z-2.887
X-178.22 Y-75.361 Z-2.83
X-178.226 Y-75.382 Z-2.767
X-178.227 Y-75.389 Z-2.7
G0 Z5
X-161.85 Y-76.689
Z-2.4
G1 Z-2.7 F850
X-161.848 Y-76.697 Z-2.767
X-161.842 Y-76.718 Z-2.83
X-161.832 Y-76.752 Z-2.887
X-161.819 Y-76.798 Z-2.935
X-161.803 Y-76.852 Z-2.97
X-161.785 Y-76.913 Z-2.992
X-161.766 Y-76.977 Z-3
G3 X-161.649 Y-76.965 I0.057 J0.017
G2 X-161.419 Y-76.098 I2.119 J-0.099
G3 X-161.617 Y-74.845 I-1.7 J0.373
X-162.525 Y-73.727 I-3.124 J-1.612
G1 X-162.955 Y-73.393
X-163.545 Y-73.024
G3 X-166.24 Y-72.004 I-5.558 J-10.616
X-176.667 Y-71.588 I-6.193 J-24.32
G1 X-176.985 Y-71.692
X-177.148 Y-71.76
G3 X-177.446 Y-72.305 I0.194 J-0.461
G2 X-177.379 Y-73.549 I-4.185 J-0.85
G1 X-177.382 Y-73.607
X-177.374 Y-73.665
X-177.355 Y-73.729 Z-2.992
X-177.337 Y-73.79 Z-2.97
X-177.321 Y-73.844 Z-2.935
X-177.308 Y-73.89 Z-2.887
X-177.298 Y-73.924 Z-2.83
X-177.292 Y-73.946 Z-2.767
X-177.29 Y-73.953 Z-2.7
G0 Z5
X-161.549 Y-75.901
Z-2.4
G1 Z-2.7 F850
X-161.55 Y-75.908 Z-2.767
X-161.553 Y-75.93 Z-2.83
X-161.558 Y-75.966 Z-2.887
X-161.565 Y-76.013 Z-2.935
X-161.573 Y-76.069 Z-2.97
X-161.582 Y-76.132 Z-2.992
X-161.591 Y-76.198 Z-3
G3 X-161.479 Y-76.235 I0.059 J-0.008
G2 X-160.987 Y-75.525 I2.49 J-1.201
G3 X-160.832 Y-74.362 I-1.378 J0.776
X-161.549 Y-72.966 I-3.171 J-0.746
G1 X-161.874 Y-72.615
X-162.29 Y-72.247
X-162.807 Y-71.874
G3 X-165.444 Y-70.718 I-5.452 J-8.849
X-173.295 Y-69.776 I-6.807 J-23.548
X-176.171 Y-70.015 I0.438 J-22.657
G1 X-176.684 Y-70.129
G3 X-177.552 Y-70.506 I0.705 J-2.806
X-177.714 Y-71.147 I0.303 J-0.418
G2 X-177.447 Y-72.305 I-14.152 J-3.88
G3 X-177.401 Y-72.413 I0.294 J0.061
G1 X-177.363 Y-72.468 Z-2.992
X-177.327 Y-72.521 Z-2.97
X-177.295 Y-72.568 Z-2.935
X-177.269 Y-72.607 Z-2.887
X-177.249 Y-72.637 Z-2.83
X-177.236 Y-72.655 Z-2.767
X-177.232 Y-72.661 Z-2.7
G0 Z5
X-161.05 Y-75.299
Z-2.4
G1 Z-2.7 F850
X-161.054 Y-75.306 Z-2.767
X-161.063 Y-75.326 Z-2.83
X-161.079 Y-75.358 Z-2.887
X-161.1 Y-75.401 Z-2.935
X-161.124 Y-75.452 Z-2.97
X-161.152 Y-75.509 Z-2.992
X-161.181 Y-75.569 Z-3
G3 X-161.086 Y-75.638 I0.054 J-0.026
G2 X-160.397 Y-75.12 I2.605 J-2.748
G3 X-159.988 Y-73.825 I-1.161 J1.08
X-160.509 Y-72.299 I-3.204 J-0.241
G1 X-160.755 Y-71.943
X-161.096 Y-71.544
X-161.538 Y-71.119
X-162.059 Y-70.71
G3 X-164.647 Y-69.449 I-5.715 J-8.443
X-171.023 Y-68.317 I-7.206 J-22.05
X-176.065 Y-68.519 I-1.481 J-26.075
G1 X-176.695 Y-68.653
X-177.183 Y-68.807
X-177.519 Y-68.951
X-177.767 Y-69.088
X-177.925 Y-69.196
X-178.037 Y-69.303
X-178.112 Y-69.438
X-178.141 Y-69.59
X-178.123 Y-69.744
X-178.004 Y-70.164
X-177.957 Y-70.328
X-177.744 Y-71.055
G3 X-177.686 Y-71.157 I0.285 J0.094
G1 X-177.643 Y-71.208 Z-2.992
X-177.601 Y-71.256 Z-2.97
X-177.564 Y-71.299 Z-2.935
X-177.533 Y-71.335 Z-2.887
X-177.51 Y-71.362 Z-2.83
X-177.495 Y-71.378 Z-2.767
X-177.491 Y-71.384 Z-2.7
G0 Z5
X-160.387 Y-74.888
Z-2.4
G1 Z-2.7 F850
X-160.393 Y-74.894 Z-2.767
X-160.408 Y-74.91 Z-2.83
X-160.432 Y-74.936 Z-2.887
X-160.465 Y-74.97 Z-2.935
X-160.504 Y-75.012 Z-2.97
X-160.548 Y-75.058 Z-2.992
X-160.594 Y-75.106 Z-3
G3 X-160.524 Y-75.201 I0.043 J-0.041
G2 X-159.684 Y-74.784 I5.128 J-9.266
G3 X-159.041 Y-73.58 I-0.958 J1.286
X-159.257 Y-72.038 I-3.108 J0.35
X-160.391 Y-70.323 I-4.829 J-1.96
G1 X-160.905 Y-69.84
G3 X-163.382 Y-68.377 I-6.009 J-7.345
X-168.975 Y-67.008 I-7.684 J-19.283
X-176.174 Y-67.051 I-3.438 J-27.402
G1 X-176.878 Y-67.213
X-177.446 Y-67.396
X-177.844 Y-67.569
X-178.123 Y-67.725
G3 X-178.42 Y-68.521 I0.254 J-0.548
X-178.122 Y-69.743 I11.445 J2.137
G1 X-178.099 Y-69.797
X-178.066 Y-69.846
X-178.023 Y-69.897 Z-2.992
X-177.982 Y-69.946 Z-2.97
X-177.946 Y-69.989 Z-2.935
X-177.915 Y-70.025 Z-2.887
X-177.892 Y-70.053 Z-2.83
X-177.877 Y-70.069 Z-2.767
X-177.873 Y-70.075 Z-2.7
G0 Z5
X-159.658 Y-74.55
Z-2.4
G1 Z-2.7 F850
X-159.664 Y-74.555 Z-2.767
X-159.68 Y-74.57 Z-2.83
X-159.707 Y-74.594 Z-2.887
X-159.742 Y-74.626 Z-2.935
X-159.784 Y-74.664 Z-2.97
X-159.831 Y-74.706 Z-2.992
X-159.881 Y-74.751 Z-3
G3 X-159.818 Y-74.851 I0.04 J-0.044
X-158.52 Y-73.984 I-1.122 J3.087
G1 X-158.307 Y-73.61
G3 X-158.093 Y-71.838 I-2.284 J1.175
X-158.798 Y-70.144 I-4.444 J-0.856
X-160.786 Y-68.15 I-6.261 J-4.253
X-161.181 Y-68.013 I-0.851 J-1.815
G2 X-162.159 Y-67.422 I2.448 J5.156
G3 X-165.523 Y-66.143 I-6.375 J-11.71
X-175.558 Y-65.486 I-6.873 J-27.986
G1 X-176.271 Y-65.595
X-176.977 Y-65.748
X-177.625 Y-65.944
X-178.07 Y-66.127
X-178.319 Y-66.26
X-178.459 Y-66.371
X-178.551 Y-66.525
X-178.583 Y-66.701
G3 X-178.469 Y-68.308 I10.289 J-0.078
G1 X-178.451 Y-68.364
X-178.422 Y-68.416
X-178.385 Y-68.472 Z-2.992
X-178.35 Y-68.524 Z-2.97
X-178.319 Y-68.572 Z-2.935
X-178.292 Y-68.611 Z-2.887
X-178.273 Y-68.641 Z-2.83
X-178.26 Y-68.66 Z-2.767
X-178.256 Y-68.666 Z-2.7
G0 Z5
X-162.077 Y-67.714
Z-2.4
G1 Z-2.7 F850
X-162.07 Y-67.717 Z-2.767
X-162.049 Y-67.723 Z-2.83
X-162.015 Y-67.734 Z-2.887
X-161.969 Y-67.749 Z-2.935
X-161.915 Y-67.767 Z-2.97
X-161.855 Y-67.786 Z-2.992
X-161.791 Y-67.807 Z-3
G3 X-161.736 Y-67.703 I0.018 J0.057
G2 X-162.848 Y-66.33 I1.994 J2.754
G3 X-163.651 Y-65.542 I-2.474 J-1.713
G1 X-164.056 Y-65.289
X-164.633 Y-65.004
G3 X-167.415 Y-64.252 I-4.689 J-11.821
X-176.045 Y-64.065 I-4.945 J-29.022
G1 X-176.754 Y-64.205
X-177.456 Y-64.377
X-178.007 Y-64.564
X-178.229 Y-64.664
G3 X-178.521 Y-65.078 I0.206 J-0.456
X-178.583 Y-66.701 I14.314 J-1.355
G1 X-178.575 Y-66.759
X-178.557 Y-66.815
X-178.529 Y-66.876 Z-2.992
X-178.503 Y-66.933 Z-2.97
X-178.479 Y-66.985 Z-2.935
X-178.459 Y-67.028 Z-2.887
X-178.445 Y-67.061 Z-2.83
X-178.435 Y-67.081 Z-2.767
X-178.432 Y-67.088 Z-2.7
G0 Z5
X-163.086 Y-66.312
Z-2.4
G1 Z-2.7 F850
X-163.081 Y-66.318 Z-2.767
X-163.066 Y-66.334 Z-2.83
X-163.041 Y-66.359 Z-2.887
X-163.009 Y-66.394 Z-2.935
X-162.969 Y-66.435 Z-2.97
X-162.926 Y-66.481 Z-2.992
X-162.879 Y-66.529 Z-3
G3 X-162.781 Y-66.464 I0.043 J0.041
G2 X-163.252 Y-65.097 I4.759 J2.401
G3 X-164.226 Y-63.947 I-2.346 J-1
G1 X-164.605 Y-63.701
X-165.135 Y-63.433
G3 X-167.918 Y-62.691 I-4.222 J-10.248
X-175.835 Y-62.556 I-4.456 J-29.185
X-177.881 Y-63.002 I1.689 J-12.677
X-178.207 Y-63.437 I0.222 J-0.506
X-178.518 Y-65.06 I9.109 J-2.587
G1 Y-65.119
X-178.506 Y-65.177
X-178.486 Y-65.24 Z-2.992
X-178.467 Y-65.301 Z-2.97
X-178.449 Y-65.355 Z-2.935
X-178.435 Y-65.4 Z-2.887
X-178.424 Y-65.434 Z-2.83
X-178.417 Y-65.455 Z-2.767
X-178.415 Y-65.462 Z-2.7
G0 Z5
X-163.475 Y-65.024
Z-2.4
G1 Z-2.7 F850
X-163.471 Y-65.03 Z-2.767
X-163.46 Y-65.049 Z-2.83
X-163.442 Y-65.08 Z-2.887
X-163.418 Y-65.121 Z-2.935
X-163.389 Y-65.17 Z-2.97
X-163.357 Y-65.225 Z-2.992
X-163.324 Y-65.283 Z-3
G3 X-163.213 Y-65.242 I0.052 J0.03
G2 X-163.359 Y-63.944 I7.283 J1.477
G3 X-164.008 Y-62.839 I-2.178 J-0.536
G1 X-164.27 Y-62.598
X-164.598 Y-62.356
X-165.035 Y-62.096
X-165.626 Y-61.819
G3 X-168.426 Y-61.138 I-4.175 J-11.08
X-176.343 Y-61.145 I-3.935 J-28.828
G1 X-177.052 Y-61.283
G3 X-177.521 Y-61.632 I0.042 J-0.545
X-178.179 Y-63.33 I10.088 J-4.89
G1 X-178.188 Y-63.388
X-178.184 Y-63.447
G3 X-177.902 Y-63.704 I0.297 J0.043
G1 X-163.663 Y-64.397
G3 X-163.349 Y-64.093 I0.015 J0.3
X-163.526 Y-62.616 I-5.453 J0.093
X-164.949 Y-60.801 I-2.929 J-0.831
X-168.828 Y-59.618 I-5.357 J-10.618
X-176.194 Y-59.641 I-3.597 J-28.422
X-176.613 Y-59.993 I0.133 J-0.584
X-177.494 Y-61.576 I14.462 J-9.081
G1 X-177.512 Y-61.632
X-177.519 Y-61.691
G3 X-177.19 Y-61.997 I0.3 J-0.008
G1 X-166.124 Y-60.893
G3 X-165.937 Y-60.387 I-0.03 J0.299
X-166.033 Y-60.32 I-0.216 J-0.208
G2 X-168.073 Y-59.315 I3.558 J9.797
G3 X-168.758 Y-58.728 I-4.424 J-4.473
G1 X-169.03 Y-58.576
X-169.394 Y-58.412
X-169.886 Y-58.248
X-170.59 Y-58.088
G3 X-174.191 Y-57.971 I-2.362 J-17.26
G1 X-174.912 Y-58.016
X-175.082 Y-58.032
G3 X-175.519 Y-58.352 I0.078 J-0.565
X-176.539 Y-59.871 I22.692 J-16.332
X-176.577 Y-59.982 I0.259 J-0.152
X-176.249 Y-60.322 I0.297 J-0.041
G1 X-168.582 Y-59.521
G3 X-168.334 Y-59.113 I-0.031 J0.298
X-168.397 Y-59.015 I-0.279 J-0.109
G2 X-169.088 Y-58.023 I2.003 J2.13
G3 X-170.02 Y-57.145 I-1.859 J-1.041
G1 X-170.356 Y-56.979
X-170.798 Y-56.817
X-171.404 Y-56.661
G3 X-173.523 Y-56.487 I-1.9 J-10.149
X-174.123 Y-56.518 I0.219 J-10.323 F212.5
G1 X-174.261 Y-56.602 F850
X-174.369 Y-56.717
G2 X-175.441 Y-58.237 I-34.768 J23.377
G1 X-175.468 Y-58.29
X-175.485 Y-58.346
G3 X-175.177 Y-58.704 I0.294 J-0.058
G1 X-169.348 Y-58.446
G3 X-169.088 Y-58.023 I-0.013 J0.3
G2 X-169.391 Y-56.965 I2.891 J1.4
G3 X-170.326 Y-55.863 I-1.99 J-0.741
G1 X-170.649 Y-55.672
X-171.026 Y-55.502
G3 X-173.144 Y-55.082 I-2.285 J-5.974
X-173.626 Y-55.398 I-0.009 J-0.513
G2 X-174.372 Y-56.715 I-6.511 J2.813
G1 X-174.396 Y-56.769
X-174.41 Y-56.827
G3 X-174.133 Y-57.176 I0.296 J-0.05
G1 X-169.68 Y-57.449
G3 X-169.364 Y-57.112 I0.018 J0.299
G2 X-169.383 Y-56.069 I3.305 J0.58
G3 X-169.977 Y-54.916 I-1.819 J-0.208
X-171.211 Y-54.119 I-2.529 J-2.562
G1 X-171.691 Y-53.946
G3 X-172.931 Y-53.801 I-0.977 J-2.963
X-173.406 Y-54.121 I0.013 J-0.532
G1 X-173.441 Y-54.29
G2 X-173.624 Y-55.399 I-3.219 J-0.04
G1 X-173.638 Y-55.455
X-173.641 Y-55.514
G3 X-173.397 Y-55.788 I0.299 J0.021
G1 X-169.747 Y-56.467
G3 X-169.436 Y-56.328 I0.055 J0.295
X-169.396 Y-56.218 I-0.256 J0.156
G2 X-169.178 Y-55.197 I5.095 J-0.554
G3 X-169.545 Y-53.999 I-1.734 J0.124
X-171.22 Y-52.755 I-2.844 J-2.08
X-173.004 Y-52.567 I-1.2 J-2.838
G1 X-173.197 Y-52.627
X-173.306 Y-52.671
G3 X-173.601 Y-53.271 I0.186 J-0.464
G2 X-173.44 Y-54.29 I-3.274 J-1.039
G1 X-173.435 Y-54.348
X-173.418 Y-54.405
G3 X-173.215 Y-54.581 I0.277 J0.114
G1 X-169.567 Y-55.514
G3 X-169.218 Y-55.342 I0.074 J0.291
G2 X-168.816 Y-54.524 I4.136 J-1.527
G3 X-168.983 Y-53.122 I-1.61 J0.519
X-170.075 Y-51.926 I-2.873 J-1.528
X-172.985 Y-51.26 I-2.285 J-3.291
X-173.996 Y-51.745 I0.427 J-2.183
X-174.034 Y-52.444 I0.339 J-0.369
G2 X-173.601 Y-53.271 I-2.305 J-1.733
G3 X-173.405 Y-53.465 I0.286 J0.092
G1 X-169.229 Y-54.775
G3 X-168.972 Y-54.738 I0.09 J0.286
X-168.889 Y-54.655 I-0.168 J0.249
G2 X-168.301 Y-53.876 I3.485 J-2.019
G3 X-168.217 Y-52.488 I-1.491 J0.787
X-169.06 Y-51.158 I-3.008 J-0.973
X-173.207 Y-49.959 I-3.231 J-3.406
X-174.672 Y-50.731 I0.571 J-2.861
G1 X-174.799 Y-50.886
G3 X-174.985 Y-51.446 I0.485 J-0.472
G1 X-174.908 Y-51.614
X-174.778 Y-51.744
G2 X-174.053 Y-52.417 I-1.593 J-2.441
G1 X-174.012 Y-52.459
X-173.963 Y-52.492
G3 X-173.909 Y-52.515 I0.141 J0.265
G1 X-168.704 Y-54.074
G3 X-168.397 Y-53.991 I0.086 J0.287
G1 X-168.337 Y-53.921
X-168.233 Y-53.805
X-168.182 Y-53.757
X-167.828 Y-53.478
G3 X-167.337 Y-52.312 I-0.899 J1.066
X-167.868 Y-50.686 I-2.802 J-0.015
X-169.602 Y-49.156 I-3.896 J-2.67
X-173.383 Y-48.602 I-2.668 J-5.032
X-175.436 Y-49.674 I0.798 J-4.033
X-176.019 Y-50.708 I1.587 J-1.576
X-175.74 Y-51.272 I0.488 J-0.11
G2 X-174.777 Y-51.742 I-2.314 J-5.961
G1 X-174.737 Y-51.764
X-174.694 Y-51.78
X-174.669 Y-51.787
X-168.082 Y-53.527
G3 X-167.828 Y-53.478 I0.077 J0.29
G2 X-167.023 Y-52.986 I2.819 J-3.707
G3 X-166.426 Y-51.779 I-0.989 J1.24
X-166.686 Y-50.314 I-2.968 J0.23
X-168.142 Y-48.481 I-4.453 J-2.044
X-170.43 Y-47.337 I-3.995 J-5.131
X-173.712 Y-47.245 I-1.825 J-6.477
X-175.689 Y-48.115 I1.216 J-5.439
X-176.794 Y-49.278 I2.419 J-3.407
X-177.158 Y-50.239 I2.082 J-1.338
G1 X-177.151 Y-50.392
X-177.097 Y-50.536
X-177.002 Y-50.657
X-176.875 Y-50.743
X-176.271 Y-51.026
X-175.943 Y-51.179
X-175.74 Y-51.272
G3 X-175.687 Y-51.288 I0.116 J0.277
G1 X-175.626 Y-51.301
X-167.346 Y-53.079
G3 X-167.155 Y-53.057 I0.063 J0.293
G2 X-166.198 Y-52.676 I2.879 J-5.839
G3 X-165.441 Y-51.522 I-0.891 J1.409
X-165.512 Y-49.973 I-3.048 J0.638
X-166.408 Y-48.288 I-4.599 J-1.366
G1 X-166.809 Y-47.835
X-167.286 Y-47.395
G3 X-169.763 Y-46.056 I-4.653 J-5.647
X-174.04 Y-45.859 I-2.5 J-7.722
G1 X-174.721 Y-46.055
G3 X-176.908 Y-47.307 I2.032 J-6.083
X-178.075 Y-48.812 I3.203 J-3.689
X-178.334 Y-49.646 I2.434 J-1.212
G1 X-178.317 Y-49.836
X-178.229 Y-50.006
X-178.085 Y-50.13
G3 X-176.874 Y-50.742 I7.035 J12.412
G1 X-176.812 Y-50.762
X-176.761 Y-50.772
X-166.477 Y-52.733
X-166.466 Y-52.735
X-166.456 Y-52.736
G3 X-166.339 Y-52.727 I0.035 J0.298
G2 X-165.373 Y-52.475 I2.767 J-8.658
G3 X-164.443 Y-51.455 I-0.64 J1.517
X-164.272 Y-49.906 I-2.924 J1.106
X-165.222 Y-47.581 I-5.207 J-0.771
X-167.27 Y-45.659 I-5.957 J-4.295
X-171.334 Y-44.278 I-4.878 J-7.686
X-176.243 Y-45.153 I-0.973 J-8.755
G1 X-176.869 Y-45.512
X-177.46 Y-45.926
X-177.985 Y-46.377
X-178.435 Y-46.85
X-178.809 Y-47.329
X-179.088 Y-47.772
X-179.298 Y-48.192
X-179.419 Y-48.508
G3 X-179.221 Y-49.21 I0.531 J-0.229
G1 X-179.059 Y-49.376
X-178.938 Y-49.491
X-178.403 Y-49.934
X-178.329 Y-49.983
X-178.239 Y-50.042
X-178.085 Y-50.13
G3 X-178.001 Y-50.16 I0.14 J0.265
G1 X-177.973 Y-50.165
X-165.636 Y-52.506
X-165.623 Y-52.508
G3 X-165.519 Y-52.509 I0.056 J0.295
G2 X-164.387 Y-52.318 I3.91 J-19.687
G3 X-163.353 Y-51.322 I-0.613 J1.67
X-163.047 Y-49.684 I-3.056 J1.42
X-163.579 Y-47.659 I-5.318 J-0.317
X-165.268 Y-45.405 I-6.713 J-3.268
X-169.006 Y-43.287 I-6.531 J-7.171
X-176.086 Y-43.502 I-3.235 J-10.139
X-179.092 Y-45.462 I3.469 J-8.601
G1 X-179.578 Y-45.996
X-179.989 Y-46.544
X-180.287 Y-47.038
X-180.4 Y-47.273
G3 X-180.371 Y-47.757 I0.456 J-0.216
X-179.335 Y-49.096 I7.287 J4.57
X-179.238 Y-49.161 I0.213 J0.211
G1 X-179.177 Y-49.187 Z-2.992
X-179.118 Y-49.211 Z-2.97
X-179.066 Y-49.233 Z-2.935
X-179.022 Y-49.252 Z-2.887
X-178.989 Y-49.266 Z-2.83
X-178.968 Y-49.274 Z-2.767
X-178.962 Y-49.277 Z-2.7
G0 Z5
X-164.298 Y-52.097
Z-2.4
G1 Z-2.7 F850
X-164.305 Y-52.1 Z-2.767
X-164.325 Y-52.11 Z-2.83
X-164.357 Y-52.126 Z-2.887
X-164.399 Y-52.147 Z-2.935
X-164.45 Y-52.172 Z-2.97
X-164.507 Y-52.2 Z-2.992
X-164.567 Y-52.229 Z-3
G3 X-164.535 Y-52.343 I0.026 J-0.054
G2 X-163.328 Y-52.206 I4.975 J-38.576
G3 X-162.199 Y-51.204 I-0.578 J1.789
X-161.785 Y-49.443 I-3.248 J1.692
X-162.266 Y-47.195 I-5.844 J-0.076
X-163.851 Y-44.798 I-7.497 J-3.233
X-167.388 Y-42.35 I-7.566 J-7.153
X-176.538 Y-42.126 I-4.849 J-11.073
X-180.142 Y-44.478 I3.994 J-10.059
G1 X-180.626 Y-45.014
X-181.047 Y-45.565
G3 X-181.076 Y-46.209 I0.468 J-0.344
X-180.389 Y-47.724 I8.118 J2.766
X-180.312 Y-47.812 I0.26 J0.15
G1 X-180.259 Y-47.852 Z-2.992
X-180.209 Y-47.891 Z-2.97
X-180.164 Y-47.926 Z-2.935
X-180.126 Y-47.954 Z-2.887
X-180.098 Y-47.976 Z-2.83
X-180.08 Y-47.99 Z-2.767
X-180.074 Y-47.994 Z-2.7
G0 Z5
X-163.227 Y-51.994
Z-2.4
G1 Z-2.7 F850
X-163.234 Y-51.996 Z-2.767
X-163.254 Y-52.005 Z-2.83
X-163.287 Y-52.019 Z-2.887
X-163.331 Y-52.038 Z-2.935
X-163.383 Y-52.06 Z-2.97
X-163.442 Y-52.085 Z-2.992
X-163.503 Y-52.111 Z-3
G3 X-163.477 Y-52.226 I0.024 J-0.055
X-162.253 Y-52.127 I-7.266 J97.607
X-161.046 Y-51.187 I-0.48 J1.86
G1 X-160.891 Y-50.925
X-160.848 Y-50.824
X-160.844 Y-50.813
G3 X-160.83 Y-50.697 I-0.286 J0.092
X-161.327 Y-50.496 I-0.299 J-0.025
G1 X-162.611 Y-51.618
G3 X-162.402 Y-52.144 I0.197 J-0.226
X-161.816 Y-52.098 I-0.965 J16.034
X-161.22 Y-52.028 I-1.551 J15.988 F212.5
G1 X-161.18 Y-52.004 F850
X-161.146 Y-51.982
X-161.113 Y-51.952
X-161.075 Y-51.911 F212.5
X-161.049 Y-51.87
X-161.031 Y-51.829
G2 X-160.899 Y-50.968 I8.248 J-0.822 F850
G1 X-160.781 Y-50.64
G3 X-160.501 Y-48.995 I-4.164 J1.556
G1 X-160.514 Y-48.889
X-160.548 Y-48.788
X-160.602 Y-48.697
G3 X-161.133 Y-48.844 I-0.234 J-0.188
G1 X-161.357 Y-50.488
G3 X-160.781 Y-50.64 I0.297 J-0.04
G2 X-160.172 Y-49.533 I4.566 J-1.791
G3 X-160.257 Y-49.081 I-0.599 J0.122
G2 X-161.089 Y-47.124 I1.604 J1.837
G3 X-161.278 Y-46.702 I-0.634 J-0.03
X-161.38 Y-46.646 I-0.193 J-0.23
X-161.761 Y-47.006 I-0.09 J-0.286
G1 X-161.677 Y-47.334
G3 X-161.087 Y-47.274 I0.291 J0.075
G1 X-161.086 Y-47.194
X-161.077 Y-47.03
X-161.078 Y-46.989 F212.5
X-161.085 Y-46.948
X-161.098 Y-46.907 F850
G3 X-161.346 Y-46.645 I-0.625 J-0.343
G2 X-162.212 Y-45.167 I1.867 J2.086
G1 X-162.338 Y-44.844
X-162.545 Y-44.437
X-162.816 Y-44.015
X-163.21 Y-43.518
G3 X-165.45 Y-41.713 I-6.828 J-6.183
X-177.273 Y-40.86 I-6.78 J-11.62
X-181.464 Y-43.785 I4.493 J-10.907
G1 X-181.539 Y-43.911
X-181.577 Y-44.051
G3 X-181.401 Y-45.061 I5.074 J0.365
X-181.14 Y-46.039 I9.659 J2.056
X-181.08 Y-46.14 I0.284 J0.098
G1 X-181.036 Y-46.19 Z-2.992
X-180.994 Y-46.237 Z-2.97
X-180.956 Y-46.28 Z-2.935
X-180.925 Y-46.315 Z-2.887
X-180.901 Y-46.342 Z-2.83
X-180.886 Y-46.359 Z-2.767
X-180.881 Y-46.364 Z-2.7
G0 Z5
X-162.437 Y-45.096
Z-2.4
G1 Z-2.7 F850
X-162.433 Y-45.102 Z-2.767
X-162.422 Y-45.121 Z-2.83
X-162.403 Y-45.152 Z-2.887
X-162.379 Y-45.192 Z-2.935
X-162.35 Y-45.241 Z-2.97
X-162.317 Y-45.296 Z-2.992
X-162.283 Y-45.353 Z-3
G3 X-162.173 Y-45.311 I0.051 J0.031
G2 X-162.271 Y-44.651 I4.778 J1.047 F212.5
X-162.677 Y-43.107 I2.325 J1.437 F850
G3 X-163.277 Y-41.841 I-2.871 J-0.587
G1 X-163.595 Y-41.466
X-164.006 Y-41.07
X-164.574 Y-40.624
G3 X-168.523 Y-38.897 I-6.834 J-10.25
X-179.043 Y-40.087 I-3.718 J-14.237
X-181.678 Y-41.951 I6.6 J-12.12
G1 X-181.775 Y-42.078
X-181.83 Y-42.227
X-181.836 Y-42.386
G3 X-181.574 Y-44.196 I36.047 J4.279
G1 X-181.557 Y-44.252
X-181.528 Y-44.304
X-181.491 Y-44.359 Z-2.992
X-181.455 Y-44.411 Z-2.97
X-181.424 Y-44.458 Z-2.935
X-181.397 Y-44.498 Z-2.887
X-181.377 Y-44.527 Z-2.83
X-181.364 Y-44.546 Z-2.767
X-181.36 Y-44.552 Z-2.7
G0 Z5
X-162.858 Y-42.969
Z-2.4
G1 Z-2.7 F850
X-162.857 Y-42.976 Z-2.767
X-162.852 Y-42.998 Z-2.83
X-162.844 Y-43.033 Z-2.887
X-162.834 Y-43.079 Z-2.935
X-162.821 Y-43.135 Z-2.97
X-162.807 Y-43.197 Z-2.992
X-162.793 Y-43.262 Z-3
G3 X-162.675 Y-43.257 I0.058 J0.013
X-162.578 Y-41.541 I-11.019 J1.484
X-163.442 Y-39.947 I-3.157 J-0.68
G1 X-163.811 Y-39.58
X-164.317 Y-39.172
G3 X-166.888 Y-37.876 I-5.89 J-8.484
X-179.509 Y-38.686 I-5.361 J-15.203
X-181.838 Y-40.185 I7.38 J-14.028
G1 X-181.955 Y-40.311
X-182.023 Y-40.469
X-182.034 Y-40.641
X-181.907 Y-41.78
X-181.87 Y-42.108
X-181.836 Y-42.386
G3 X-181.795 Y-42.495 I0.296 J0.048
G1 X-181.76 Y-42.552 Z-2.992
X-181.727 Y-42.606 Z-2.97
X-181.697 Y-42.655 Z-2.935
X-181.672 Y-42.695 Z-2.887
X-181.653 Y-42.725 Z-2.83
X-181.642 Y-42.744 Z-2.767
X-181.638 Y-42.751 Z-2.7
G0 Z5
X-162.767 Y-41.666
Z-2.4
G1 Z-2.7 F850
X-162.765 Y-41.673 Z-2.767
X-162.759 Y-41.694 Z-2.83
X-162.749 Y-41.729 Z-2.887
X-162.736 Y-41.774 Z-2.935
X-162.721 Y-41.829 Z-2.97
X-162.704 Y-41.89 Z-2.992
X-162.687 Y-41.955 Z-3
G3 X-162.569 Y-41.944 I0.058 J0.016
X-162.505 Y-40.071 I-37.974 J2.237
X-163.128 Y-38.652 I-2.661 J-0.321
G1 X-163.396 Y-38.338
X-163.786 Y-37.97
X-164.292 Y-37.578
G3 X-166.892 Y-36.342 I-5.61 J-8.443
X-180.985 Y-37.832 I-5.373 J-16.574
X-181.264 Y-38.171 I0.815 J-0.954
G2 X-181.905 Y-38.991 I-6.288 J4.259
G3 X-182.217 Y-39.278 I2.375 J-2.892
G1 X-182.246 Y-39.319 F212.5
X-182.265 Y-39.36
X-182.277 Y-39.401
X-182.283 Y-39.442 F850
G3 X-182.193 Y-39.811 I1.104 J0.073
G2 X-182.034 Y-40.641 I-6.492 J-1.678
G3 X-181.995 Y-40.751 I0.297 J0.044
G1 X-181.96 Y-40.808 Z-2.992
X-181.928 Y-40.863 Z-2.97
X-181.899 Y-40.911 Z-2.935
X-181.874 Y-40.952 Z-2.887
X-181.856 Y-40.983 Z-2.83
X-181.845 Y-41.002 Z-2.767
X-181.841 Y-41.008 Z-2.7
G0 Z5
X-162.707 Y-40.029
Z-2.4
G1 Z-2.7 F850
X-162.705 Y-40.036 Z-2.767
X-162.699 Y-40.057 Z-2.83
X-162.688 Y-40.092 Z-2.887
X-162.675 Y-40.137 Z-2.935
X-162.659 Y-40.192 Z-2.97
X-162.641 Y-40.252 Z-2.992
X-162.621 Y-40.316 Z-3
G3 X-162.504 Y-40.303 I0.057 J0.017
G1 X-162.457 Y-38.663
G3 X-162.852 Y-37.394 I-2.214 J0.006
G1 X-163.059 Y-37.096
X-163.328 Y-36.788
X-163.702 Y-36.435
X-164.17 Y-36.075
G3 X-166.777 Y-34.857 I-5.387 J-8.131
G1 X-167.468 Y-34.649
X-167.84 Y-34.557
X-167.919 Y-34.544 F212.5
X-167.999 F850
G2 X-170.038 Y-34.783 I-1.799 J6.517
X-172.169 Y-34.521 I7.227 J67.533
G3 X-176.108 Y-34.627 I-1.576 J-14.72
X-179.227 Y-35.881 I1.459 J-8.134
X-181.126 Y-37.986 I4.256 J-5.748
G1 X-181.156 Y-38.035
X-181.176 Y-38.091
X-181.188 Y-38.156 Z-2.992
X-181.199 Y-38.219 Z-2.97
X-181.209 Y-38.275 Z-2.935
X-181.217 Y-38.321 Z-2.887
X-181.223 Y-38.357 Z-2.83
X-181.227 Y-38.378 Z-2.767
X-181.229 Y-38.386 Z-2.7
G0 Z5
X-162.66 Y-38.389
Z-2.4
G1 Z-2.7 F850
X-162.658 Y-38.396 Z-2.767
X-162.651 Y-38.417 Z-2.83
X-162.641 Y-38.451 Z-2.887
X-162.627 Y-38.497 Z-2.935
X-162.611 Y-38.551 Z-2.97
X-162.593 Y-38.612 Z-2.992
X-162.574 Y-38.676 Z-3
G3 X-162.457 Y-38.663 I0.057 J0.017
G1 X-162.433 Y-37.842
G2 X-162.339 Y-37.203 I2.776 J-0.083
G3 X-162.658 Y-36.009 I-2.075 J0.085
G1 X-162.829 Y-35.738
G3 X-164.618 Y-34.234 I-4.252 J-3.241
G1 X-164.66 Y-34.217
X-164.702 Y-34.205
G3 X-165.001 Y-34.681 I-0.06 J-0.294
G1 X-162.892 Y-37.436
G3 X-162.369 Y-37.35 I0.238 J0.182
G2 X-162.285 Y-37.106 I2.712 J-0.802
X-162.006 Y-36.576 I2.628 J-1.046 F212.5
G1 X-162.007 Y-36.53 F850
Y-36.489
G3 X-162.164 Y-36.183 I-0.496 J-0.063
X-163.897 Y-34.518 I-5.543 J-4.032
X-164.788 Y-34.181 I-2.06 J-4.108
X-166.592 Y-34.222 I-0.805 J-4.366
X-168.077 Y-34.559 I2.844 J-15.971
G1 X-168.132 Y-34.579
X-168.182 Y-34.609
X-168.235 Y-34.65 Z-2.992
X-168.285 Y-34.69 Z-2.97
X-168.329 Y-34.725 Z-2.935
X-168.367 Y-34.754 Z-2.887
X-168.395 Y-34.776 Z-2.83
X-168.412 Y-34.79 Z-2.767
X-168.418 Y-34.794 Z-2.7
G0 Z5
X-158.353 Y-73.272
Z-2.4
G1 Z-2.7 F850
X-158.355 Y-73.279 Z-2.767
X-158.359 Y-73.301 Z-2.83
X-158.367 Y-73.336 Z-2.887
X-158.377 Y-73.382 Z-2.935
X-158.389 Y-73.438 Z-2.97
X-158.402 Y-73.5 Z-2.992
X-158.416 Y-73.565 Z-3
G3 X-158.307 Y-73.61 I0.059 J-0.013
G2 X-157.843 Y-72.861 I7.896 J-4.377
G3 X-157.464 Y-72.455 I-2.582 J2.791
X-157.194 Y-70.978 I-1.925 J1.115
G1 X-157.247 Y-70.633
G3 X-158.058 Y-68.862 I-4.85 J-1.149
G1 X-158.479 Y-68.318
X-158.756 Y-68.028
G3 X-159.375 Y-67.941 I-0.365 J-0.347
G2 X-160.946 Y-68.082 I-0.978 J2.066
G3 X-161.063 Y-68.083 I-0.057 J-0.294
X-161.24 Y-68.56 I0.06 J-0.294
G1 X-158.093 Y-72.636
G3 X-157.661 Y-72.681 I0.237 J0.183
G2 X-156.904 Y-72.243 I1.436 J-1.61
G3 X-156.242 Y-71.252 I-0.939 J1.345
X-156.256 Y-69.681 I-3.192 J0.757
X-157.317 Y-67.586 I-5.008 J-1.22
G1 X-157.525 Y-67.378
X-157.717 Y-67.219
G3 X-158.316 Y-67.127 I-0.368 J-0.4
G1 X-158.456 Y-67.236
G2 X-159.335 Y-67.923 I-2.105 J1.789
G1 X-159.384 Y-67.954
X-159.427 Y-67.995
G3 X-159.46 Y-68.329 I0.231 J-0.192
G1 X-157.392 Y-72.152
G3 X-157.161 Y-72.307 I0.264 J0.143
X-157.044 Y-72.297 I0.033 J0.298
G2 X-156.274 Y-72.154 I0.8 J-2.163
G3 X-155.297 Y-71.271 I-0.402 J1.425
X-155.009 Y-69.806 I-2.687 J1.289
G1 X-155.046 Y-69.39
X-155.136 Y-68.912
G3 X-155.44 Y-68.568 I-0.53 J-0.161
G2 X-156.349 Y-67.231 I1.124 J1.742
G3 X-157.265 Y-66.249 I-1.797 J-0.759
X-157.903 Y-66.457 I-0.204 J-0.456
X-157.827 Y-66.83 I0.265 J-0.14
G1 X-156.793 Y-67.671
G3 X-156.31 Y-67.375 I0.189 J0.233
G2 X-156.375 Y-66.405 I2.596 J0.661
G3 X-156.973 Y-65.54 I-1.016 J-0.063
X-157.553 Y-65.807 I-0.118 J-0.507
G1 X-157.572 Y-65.863
X-157.579 Y-65.922
G3 X-157.49 Y-66.145 I0.3 J-0.01
G1 X-156.891 Y-66.736
G3 X-156.382 Y-66.555 I0.211 J0.214
G2 X-156.277 Y-65.585 I11.724 J-0.777
G3 X-156.603 Y-65.038 I-0.679 J-0.033
G1 X-156.759 Y-64.983
X-156.923
X-157.079 Y-65.036
X-157.21 Y-65.137
X-157.3 Y-65.274
G3 X-157.337 Y-65.386 I0.928 J-0.372
X-157.371 Y-65.613 I0.966 J-0.26
X-156.295 Y-65.734 I0.543 J-0.018
X-156.173 Y-65.003 I-165.285 J28.03
G1 X-156.197 Y-64.855
G3 X-157.133 Y-64.872 I-0.464 J-0.186
G1 X-157.141 Y-64.9
G3 X-157.159 Y-64.987 I0.469 J-0.14
X-156.235 Y-65.262 I0.487 J-0.053
X-156.195 Y-65.152 I-0.437 J0.222
G1 X-156.18 Y-65.078
X-156.095 Y-64.714
X-156.066 Y-64.567
X-156.087 Y-64.418 F212.5
X-156.198 Y-64.263 F850
X-156.36 Y-64.162
X-156.549 Y-64.132
X-156.734 Y-64.178
X-156.888 Y-64.292
X-156.985 Y-64.456
X-156.988 Y-64.466
G3 X-157.004 Y-64.572 I0.447 J-0.121
X-156.095 Y-64.714 I0.463 J-0.015
G1 X-156.063 Y-64.586
X-155.987 Y-64.331
X-155.951 Y-64.186
X-155.963 Y-64.036 F212.5
X-156.05 Y-63.89 F850
X-156.183 Y-63.784
X-156.344 Y-63.731
X-156.514 Y-63.738
X-156.671 Y-63.803
X-156.795 Y-63.919
X-156.871 Y-64.072
G3 X-156.877 Y-64.188 I0.291 J-0.074
X-156.663 Y-64.434 I0.297 J0.043
G1 X-156.354 Y-64.523
G3 X-156.045 Y-64.433 I0.083 J0.288
X-155.987 Y-64.331 I-0.226 J0.198
G1 X-155.915 Y-64.093
X-155.854 Y-63.929
X-155.808 Y-63.786
X-155.82 Y-63.637 F212.5
X-155.912 Y-63.482 F850
X-156.054 Y-63.37
X-156.226 Y-63.316
X-156.406 Y-63.327
X-156.57 Y-63.401
X-156.698 Y-63.528
X-156.771 Y-63.693
G3 X-156.772 Y-63.81 I0.294 J-0.061
X-156.529 Y-64.049 I0.295 J0.056
G1 X-156.183 Y-64.11
G3 X-155.854 Y-63.929 I0.052 J0.296
G1 X-155.731 Y-63.601
G3 X-156.464 Y-62.898 I-0.443 J0.272
G1 X-156.587 Y-63.034
X-156.657 Y-63.202
G3 X-156.669 Y-63.301 I0.985 J-0.174
G1 X-156.67 Y-63.319
G3 X-155.772 Y-63.652 I0.504 J-0.019
X-155.71 Y-63.552 I-0.395 J0.313
G2 X-155.453 Y-62.972 I24.712 J-10.587
G3 X-156.149 Y-62.209 I-0.647 J0.109
G1 X-156.328 Y-62.293
X-156.465 Y-62.432
X-156.538 Y-62.613
G2 X-157.674 Y-66.065 I-11.187 J1.766
X-158.454 Y-67.238 I-5.912 J3.085
G1 X-158.488 Y-67.286
X-158.513 Y-67.339
G3 X-158.505 Y-67.543 I0.286 J-0.092
G1 X-156.702 Y-71.98
G3 X-156.423 Y-72.167 I0.278 J0.113
G1 X-156.259 Y-72.161
X-155.513 Y-72.155
G3 X-154.389 Y-71.503 I-0.089 J1.448
X-153.829 Y-70.18 I-2.268 J1.741
G1 X-153.786 Y-69.819
X-153.78 Y-69.516
X-153.792 Y-69.375
G3 X-154.291 Y-68.906 I-0.509 J-0.041
G2 X-155.353 Y-68.624 I-0.03 J2.03
G1 X-155.406 Y-68.598
X-155.462 Y-68.583
G3 X-155.803 Y-68.88 I-0.041 J-0.297
G1 X-155.805 Y-71.855
G3 X-155.627 Y-72.129 I0.3
X-155.513 Y-72.155 I0.122 J0.274
X-154.455 Y-72.085 I0.129 J6.051
X-152.821 Y-70.704 I-0.388 J2.117
X-152.757 Y-68.967 I-1.899 J0.939
X-153.376 Y-68.709 I-0.453 J-0.213
X-153.552 Y-68.896 I0.11 J-0.279
G1 X-154.418 Y-71.589
G3 X-154.165 Y-71.979 I0.286 J-0.092
X-154.048 Y-71.969 I0.033 J0.298
X-152.326 Y-70.881 I-2.601 J6.026
X-151.818 Y-68.548 I-1.105 J1.462
G1 X-151.932 Y-68.419
X-152.084 Y-68.338
X-152.255 Y-68.312
X-152.424 Y-68.346
G2 X-153.961 Y-68.887 I-4.641 J10.725
G1 X-154.127 Y-68.899
X-154.291 Y-68.906
G3 X-154.447 Y-69.445 I0.023 J-0.299
G1 X-152.602 Y-70.821
G3 X-152.242 Y-70.82 I0.179 J0.241
X-151.067 Y-69.794 I-13.682 J16.857
X-150.901 Y-68.265 I-1.228 J0.906
X-151.542 Y-68.002 I-0.458 J-0.205
X-151.638 Y-68.069 I0.119 J-0.275
X-151.723 Y-68.289 I0.216 J-0.209
G1 X-151.667 Y-69.681
G3 X-151.277 Y-69.955 I0.3 J0.012
X-151.174 Y-69.898 I-0.09 J0.286
X-150.291 Y-69.073 I-17.533 J19.66
X-150.185 Y-67.868 I-0.913 J0.687
X-150.779 Y-67.7 I-0.411 J-0.318
G1 X-150.83 Y-67.729
X-150.875 Y-67.768
G3 X-150.958 Y-67.996 I0.216 J-0.208
G1 X-150.893 Y-68.974
G3 X-150.498 Y-69.238 I0.299 J0.02
X-150.396 Y-69.18 I-0.096 J0.284
G1 X-149.775 Y-68.59
G3 X-149.529 Y-67.7 I-0.523 J0.624
X-150.169 Y-67.457 I-0.455 J-0.235
G1 X-150.274 Y-67.512
G3 X-150.648 Y-67.905 I0.51 J-0.86
X-149.871 Y-68.659 I0.499 J-0.263
X-149.776 Y-68.591 I-0.278 J0.49
G1 X-149.357 Y-68.195
X-149.236 Y-68.082
X-149.132 Y-67.974 F212.5
X-149.083 Y-67.811 F850
X-149.093 Y-67.64
X-149.159 Y-67.483
X-149.275 Y-67.358
X-149.426 Y-67.28
X-149.595 Y-67.257
X-149.762 Y-67.294
G3 X-149.862 Y-67.356 I0.176 J-0.393
G1 X-149.881 Y-67.373
G3 X-149.334 Y-68.148 I0.329 J-0.349
X-149.236 Y-68.082 I-0.219 J0.426
G1 X-149.042 Y-67.902
X-148.934 Y-67.805
X-148.828 Y-67.699 F212.5
X-148.785 Y-67.538 F850
X-148.809 Y-67.372
X-148.896 Y-67.23
X-149.032 Y-67.133
X-149.196 Y-67.098
X-149.36 Y-67.13
G3 X-149.408 Y-67.155 I0.172 J-0.375
X-149.458 Y-67.193 I0.215 J-0.341
X-148.934 Y-67.805 I0.265 J-0.303
G1 X-148.639 Y-67.539
X-148.531 Y-67.434 F212.5
X-148.507 Y-67.299 F850
X-148.537 Y-67.165
X-148.615 Y-67.051
X-148.73 Y-66.977
X-148.865 Y-66.951
X-148.999 Y-66.979
G3 X-149.072 Y-67.026 I0.131 J-0.282
X-149.094 Y-67.047 I0.219 J-0.254
X-148.741 Y-67.597 I0.242 J-0.233
X-148.639 Y-67.539 I-0.112 J0.317
G1 X-148.501 Y-67.418
X-148.481 Y-67.396
X-148.465 Y-67.375
X-148.441 Y-67.334
X-148.424 Y-67.293
X-148.415 Y-67.252
X-148.411 Y-67.211
Y-67.17
X-148.415 Y-67.129
X-148.426 Y-67.088
X-148.443 Y-67.047
X-148.46 Y-67.017
X-148.482 Y-66.988
X-148.516 Y-66.954
X-148.55 Y-66.929
X-148.591 Y-66.908 F212.5
X-148.632 Y-66.893 F850
X-148.673 Y-66.885 F212.5
X-148.714 Y-66.883
X-148.755 Y-66.886
G2 X-152.423 Y-68.346 I-101.299 J249.118 F850
G1 X-152.475 Y-68.375
X-152.52 Y-68.412
X-152.567 Y-68.46 Z-2.992
X-152.611 Y-68.505 Z-2.97
X-152.651 Y-68.546 Z-2.935
X-152.684 Y-68.58 Z-2.887
X-152.709 Y-68.606 Z-2.83
X-152.724 Y-68.622 Z-2.767
X-152.729 Y-68.627 Z-2.7
G0 Z5
X-155.582 Y-62.775
Z-2.4
G1 Z-2.7 F850
X-155.583 Y-62.782 Z-2.767
X-155.586 Y-62.804 Z-2.83
X-155.591 Y-62.84 Z-2.887
X-155.598 Y-62.887 Z-2.935
X-155.607 Y-62.943 Z-2.97
X-155.616 Y-63.006 Z-2.992
X-155.626 Y-63.072 Z-3
G3 X-155.514 Y-63.109 I0.059 J-0.009
G1 X-155.431 Y-62.945
X-155.274 Y-62.645
G3 X-155.39 Y-61.815 I-0.619 J0.337
X-155.753 Y-61.546 I-0.712 J-0.583
G1 X-155.923 Y-61.517
X-156.093 Y-61.548
X-156.242 Y-61.635
X-156.353 Y-61.768
X-156.412 Y-61.93
X-156.476 Y-62.289
X-156.538 Y-62.613
G3 X-156.175 Y-62.951 I0.296 J-0.046
G1 X-155.469 Y-62.791
G3 X-155.275 Y-62.647 I-0.066 J0.293
G2 X-154.909 Y-61.993 I25.245 J-13.716
G3 X-155.804 Y-60.743 I-0.97 J0.251
G1 X-155.971 Y-60.776
X-156.117 Y-60.865
X-156.224 Y-60.997
X-156.281 Y-61.158
X-156.389 Y-61.796
X-156.412 Y-61.93
G3 X-156.111 Y-62.272 I0.297 J-0.042
G1 X-155.228 Y-62.26
G3 X-155.063 Y-62.208 I-0.004 J0.3
X-154.981 Y-62.125 I-0.169 J0.248
G1 X-154.882 Y-61.961
X-154.621 Y-61.553
G3 X-154.569 Y-60.688 I-0.752 J0.479
X-155.586 Y-59.878 I-1.213 J-0.48
G1 X-155.775 Y-59.892
X-155.945 Y-59.975
X-156.072 Y-60.115
X-156.138 Y-60.293
G3 X-156.13 Y-60.409 I0.297 J-0.039
X-156.06 Y-60.536 I0.29 J0.078
G1 X-155.086 Y-61.583
G3 X-154.619 Y-61.549 I0.22 J0.204
X-154.11 Y-60.756 I-11.406 J7.884
X-154.524 Y-59.367 I-1.254 J0.383
X-155.44 Y-58.949 I-0.963 J-0.895
G1 X-155.605 Y-59.007
X-155.742 Y-59.112
X-155.835 Y-59.258
G3 X-156.115 Y-60.156 I4.11 J-1.772
G1 X-156.281 Y-61.158
G3 X-156.273 Y-61.275 I0.297 J-0.039
X-155.894 Y-61.484 I0.29 J0.078
G1 X-154.344 Y-61.002
G3 X-154.27 Y-60.967 I-0.089 J0.286
X-154.186 Y-60.886 I-0.163 J0.252
X-153.616 Y-59.785 I-3.612 J2.569
X-154.769 Y-58.056 I-1.673 J0.133
G1 X-154.945 Y-58.026
X-155.119 Y-58.062
X-155.27 Y-58.157
X-155.378 Y-58.299
G3 X-155.405 Y-58.413 I0.272 J-0.127
X-155.346 Y-58.605 I0.3 J-0.013
G1 X-154.224 Y-60.105
G3 X-153.793 Y-60.156 I0.24 J0.18
X-153.719 Y-60.066 I-0.191 J0.231
X-153.845 Y-57.729 I-2.363 J1.044
X-154.471 Y-57.255 I-0.999 J-0.669
X-154.998 Y-57.537 I-0.064 J-0.515
G1 X-155.016 Y-57.593
X-155.023 Y-57.651
G3 X-154.899 Y-57.902 I0.3 J-0.007
G1 X-154.102 Y-58.479
G3 X-153.629 Y-58.28 I0.176 J0.243
X-153.635 Y-58.163 I-0.297 J0.044
X-154.496 Y-57.079 I-1.756 J-0.51
G1 X-154.537 Y-57.069
X-154.578 Y-57.066
X-154.619 Y-57.068
X-154.66 Y-57.076 F212.5
X-154.701 Y-57.09
X-154.742 Y-57.111
X-154.783 Y-57.142
X-154.812 Y-57.172
G3 X-155.843 Y-59.255 I52.116 J-27.093 F850
G1 X-155.847 Y-59.288 Z-2.996
X-155.85 Y-59.319 Z-2.982
X-155.853 Y-59.345 Z-2.96
X-155.854 Y-59.363 Z-2.931
Y-59.371 Z-2.907
Y-59.374 Z-2.882
G0 Z5
X-190.183 Y-39.528
Z2.85
G1 Z2.55 F850
G3 X-190.195 Y-42.378 Z2.394 I-0.006 J-1.425 F283.3
X-190.183 Y-39.528 Z2.237 I0.006 J1.425
X-190.195 Y-42.378 Z2.081 I-0.006 J-1.425
X-190.183 Y-39.528 Z1.925 I0.006 J1.425
X-190.195 Y-42.378 Z1.768 I-0.006 J-1.425
X-189.048 Y-40.1 Z1.658 I0.006 J1.425
X-191.434 Y-40.259 Z1.559 I-1.142 J-0.853
X-188.944 Y-41.646 Z1.403 I1.245 J-0.694
X-188.843 Y-40.486 Z1.361 I-1.245 J0.694
X-191.165 Y-39.914 Z1.262 I-1.347 J-0.466
X-189.213 Y-41.991 Z1.105 I0.976 J-1.039
X-188.765 Y-40.917 Z1.063 I-0.976 J1.039
X-190.804 Y-39.667 Z0.964 I-1.425 J-0.036
X-189.575 Y-42.238 Z0.808 I0.615 J-1.286
X-190.804 Y-39.667 Z0.652 I-0.615 J1.286
X-189.575 Y-42.238 Z0.495 I0.615 J-1.286
X-190.804 Y-39.667 Z0.339 I-0.614 J1.286
X-189.575 Y-42.238 Z0.183 I0.614 J-1.286
X-190.804 Y-39.667 Z0.026 I-0.614 J1.286
X-189.575 Y-42.238 Z-0.13 I0.614 J-1.286
X-190.804 Y-39.667 Z-0.286 I-0.614 J1.286
X-189.575 Y-42.238 Z-0.443 I0.614 J-1.286
X-188.922 Y-40.301 Z-0.522 I-0.614 J1.286
X-191.302 Y-40.062 Z-0.621 I-1.267 J-0.652
X-189.077 Y-41.843 Z-0.778 I1.113 J-0.89
X-188.784 Y-40.716 Z-0.82 I-1.113 J0.89
X-191.594 Y-41.189 Z-0.976 I-1.405 J-0.236
X-188.784 Y-40.716 Z-1.132 I1.405 J0.236
X-191.594 Y-41.189 Z-1.289 I-1.405 J-0.236
X-188.784 Y-40.716 Z-1.445 I1.405 J0.236
X-191.594 Y-41.189 Z-1.601 I-1.405 J-0.236
X-188.784 Y-40.716 Z-1.758 I1.405 J0.236
X-191.594 Y-41.189 Z-1.914 I-1.405 J-0.236
X-188.784 Y-40.716 Z-2.07 I1.405 J0.236
X-191.594 Y-41.189 Z-2.227 I-1.405 J-0.236
X-188.784 Y-40.716 Z-2.383 I1.405 J0.236
X-191.594 Y-41.189 Z-2.539 I-1.405 J-0.236
X-188.784 Y-40.716 Z-2.696 I1.405 J0.236
X-191.594 Y-41.189 Z-2.852 I-1.405 J-0.236
X-188.764 Y-40.953 Z-3 I1.405 J0.236
X-191.614 I-1.425
X-189.538 Y-42.221 I1.425
X-188.764 Y-40.953 I-0.651 J1.268
G1 X-188.729 Y-40.232 F850
G3 X-188.931 Y-39.172 I-0.927 J0.373
X-190.819 Y-38.553 I-1.44 J-1.202
X-191.65 Y-38.917 I0.165 J-1.505
X-192.191 Y-41.124 I4.237 J-2.209
G1 X-192.201 Y-41.616
G3 X-190.853 Y-43.343 I1.88 J0.078
X-188.224 Y-42.591 I0.786 J2.227
G1 X-188.184 Y-42.442
X-188.183 Y-42.291
G2 X-187.924 Y-39.741 I5.911 J0.688
G3 X-188.591 Y-38.037 I-1.888 J0.244
X-190.406 Y-37.323 I-1.794 J-1.899
X-190.84 Y-37.678 I0.296 J-0.806
X-191.696 Y-39.006 I5.459 J-4.461
G1 X-191.714 Y-39.071
X-191.724 Y-39.121
X-192.182 Y-41.5
X-192.196 Y-41.573
X-192.199 Y-41.587
X-192.2 Y-41.601
X-192.201 Y-41.616
G3 X-192.109 Y-42.6 I4.51 J-0.074
X-191.687 Y-43.24 I1.111 J0.274
X-190.445 Y-44.229 I8.483 J9.387
X-188.094 Y-44.039 I1.001 J2.265
G1 X-187.968 Y-43.929
X-187.887 Y-43.782
X-187.86 Y-43.617
X-187.889 Y-43.452
G2 X-188.184 Y-42.291 I4.709 J1.817
G1 X-188.2 Y-42.235
X-188.226 Y-42.182
G3 X-188.655 Y-42.103 I-0.252 J-0.163
G1 X-190.681 Y-43.584
G3 X-190.775 Y-43.954 I0.177 J-0.242
X-190.705 Y-44.048 I0.271 J0.128
G2 X-189.725 Y-44.956 I-7.402 J-8.976
G3 X-187.729 Y-45.048 I1.071 J1.537
G1 X-187.587 Y-44.933
X-187.495 Y-44.774
X-187.467 Y-44.593
X-187.507 Y-44.414
G3 X-187.576 Y-44.319 I-0.272 J-0.127
X-187.797 Y-44.241 I-0.203 J-0.221
G1 X-189.624 Y-44.353
G3 X-189.89 Y-44.749 I0.018 J-0.299
X-189.832 Y-44.85 I0.284 J0.096
G2 X-189.126 Y-45.713 I-4.516 J-4.417
G3 X-187.355 Y-45.943 I1.046 J1.124
G1 X-187.217 Y-45.832
G3 X-187.172 Y-45.227 I-0.412 J0.334
G2 X-187.893 Y-43.453 I92.725 J38.696
G1 X-187.918 Y-43.401
X-187.952 Y-43.354
G3 X-188.444 Y-43.446 I-0.216 J-0.209
G1 X-189.232 Y-45.32
G3 X-189.252 Y-45.48 I0.277 J-0.116
X-189.213 Y-45.591 I0.297 J0.044
G2 X-188.725 Y-46.433 I-4.879 J-3.385
G3 X-186.974 Y-46.772 I1.071 J0.841
G1 X-186.859 Y-46.62
X-186.805 Y-46.439
X-186.821 Y-46.252
X-186.926 Y-45.882
X-187.107 Y-45.389
X-187.13 Y-45.329
G3 X-187.572 Y-45.196 I-0.276 J-0.117
G1 X-188.684 Y-45.933
G3 X-188.818 Y-46.185 I0.166 J-0.25
X-188.794 Y-46.3 I0.3 J0.002
G2 X-188.46 Y-47.172 I-4.81 J-2.341
G3 X-186.926 Y-47.728 I1.109 J0.666
G1 X-186.789 Y-47.607
X-186.7 Y-47.449
X-186.673 Y-47.27
G3 X-186.821 Y-46.252 I-3.973 J-0.057
X-186.878 Y-46.149 I-0.286 J-0.092
X-187.252 Y-46.081 I-0.229 J-0.194
G1 X-188.362 Y-46.692
G3 X-188.514 Y-46.913 I0.145 J-0.263
X-188.508 Y-47.03 I0.297 J-0.041
G2 X-188.319 Y-47.884 I-6.012 J-1.776
G3 X-187.014 Y-48.633 I1.114 J0.429
G1 X-186.851 Y-48.536
X-186.733 Y-48.389
X-186.678 Y-48.209
G3 X-186.692 Y-48.092 I-0.299 J0.022
X-186.854 Y-47.913 I-0.285 J-0.094
G1 X-187.924 Y-47.435
G3 X-188.333 Y-47.62 I-0.122 J-0.274
X-188.345 Y-47.736 I0.286 J-0.089
G2 X-188.262 Y-48.656 I-7.654 J-1.154
G3 X-187.208 Y-49.466 I1.057 J0.285
G1 X-187.031 Y-49.386
X-186.892 Y-49.254
X-186.814 Y-49.08
G3 Y-48.963 I-0.294 J0.058
X-186.954 Y-48.764 I-0.294 J-0.059
G1 X-187.823 Y-48.246
G3 X-188.277 Y-48.507 I-0.154 J-0.258
G2 X-188.285 Y-49.363 I-9.057 J-0.344
G3 X-187.6 Y-50.163 I0.921 J0.095
G1 X-187.406 Y-50.134
X-187.236 Y-50.043
X-187.113 Y-49.894
G3 X-187.083 Y-49.781 I-0.269 J0.133
X-187.186 Y-49.534 I-0.299 J0.02
G1 X-187.785 Y-49.017
G3 X-188.245 Y-49.101 I-0.196 J-0.227
X-188.28 Y-49.213 I0.263 J-0.144
G2 X-188.388 Y-50.057 I-6.371 J0.389
G3 X-188.012 Y-50.599 I0.544 J-0.024
G1 X-187.817 Y-50.613
X-187.632 Y-50.553
X-187.484 Y-50.426
X-187.418 Y-50.328
X-187.403 Y-50.304
G3 X-188.289 Y-49.744 I-0.452 J0.265
X-188.322 Y-49.8 I0.434 J-0.294
X-188.363 Y-49.91 I0.467 J-0.239
G2 X-188.518 Y-50.547 I-7.431 J1.463 F212.5
G1 X-188.478 Y-50.695 F850
X-188.386 Y-50.817
X-188.255 Y-50.897
X-188.104 Y-50.921
X-187.954 Y-50.887
X-187.828 Y-50.8
G3 X-187.778 Y-50.732 I-0.328 J0.299
G1 X-187.762 Y-50.703
G3 X-188.427 Y-50.298 I-0.35 J0.175
X-188.481 Y-50.402 I0.315 J-0.231
G1 X-188.504 Y-50.476
X-188.559 Y-50.64
X-188.567 Y-50.681
X-188.569 Y-50.722 F212.5
X-188.566 Y-50.763 F850
X-188.557 Y-50.804
X-188.541 Y-50.845
X-188.518 Y-50.886
X-188.489 Y-50.927
X-188.468 Y-50.949
X-188.447 Y-50.968
X-188.409 Y-50.994
X-188.368 Y-51.014
X-188.327 Y-51.027 F212.5
X-188.286 Y-51.034 F850
X-188.245 Y-51.035
G3 X-187.835 Y-50.801 I-0.065 J0.592
X-186.755 Y-48.835 I-2.196 J2.486
X-186.675 Y-47.27 I-6.573 J1.12
G1 X-186.684 Y-47.212
X-186.704 Y-47.157
X-186.734 Y-47.097 Z-2.992
X-186.762 Y-47.041 Z-2.97
X-186.788 Y-46.99 Z-2.935
X-186.809 Y-46.947 Z-2.887
X-186.825 Y-46.915 Z-2.83
X-186.835 Y-46.895 Z-2.767
X-186.838 Y-46.889 Z-2.7
G0 Z5
X-188.08 Y-39.563
Z-2.4
G1 Z-2.7 F850
Y-39.571 Z-2.767
Y-39.593 Z-2.83
Y-39.629 Z-2.887
X-188.081 Y-39.676 Z-2.935
Y-39.733 Z-2.97
X-188.082 Y-39.796 Z-2.992
Y-39.863 Z-3
G3 X-187.967 Y-39.885 I0.06 J-0.001
G2 X-187.515 Y-38.884 I4.2 J-1.291
G3 X-187.845 Y-37.349 I-1.672 J0.444
X-188.948 Y-36.43 I-2.141 J-1.448
G1 X-189.071 Y-36.416
X-189.193 Y-36.429
G3 X-189.37 Y-36.874 I0.079 J-0.289
G1 X-188.084 Y-38.989
G3 X-187.589 Y-39.014 I0.256 J0.156
G2 X-187.05 Y-38.319 I3.324 J-2.02
G3 X-186.878 Y-37.754 I-0.746 J0.536
G1 X-186.926 Y-37.61
X-187.011 Y-37.487
G3 X-187.512 Y-37.624 I-0.211 J-0.214
G1 X-187.648 Y-38.139
G3 X-187.15 Y-38.431 I0.29 J-0.077
X-186.785 Y-38.072 I-10.934 J11.475
G1 X-186.769 Y-38.038
X-186.756 Y-38.006
X-186.746 Y-37.965
X-186.742 Y-37.924
Y-37.883 F212.5
X-186.747 Y-37.842 F850
X-186.755 Y-37.807
G3 X-186.933 Y-37.57 I-0.514 J-0.198
X-188.076 Y-36.548 I-4.081 J-3.417
X-189.768 Y-36.698 I-0.725 J-1.447
X-190.67 Y-37.482 I1.892 J-3.088
G1 X-190.704 Y-37.529
X-190.729 Y-37.583
X-190.75 Y-37.646 Z-2.992
X-190.769 Y-37.706 Z-2.97
X-190.787 Y-37.76 Z-2.935
X-190.801 Y-37.806 Z-2.887
X-190.812 Y-37.84 Z-2.83
X-190.819 Y-37.861 Z-2.767
X-190.822 Y-37.868 Z-2.7
G0 Z15

(adaptive_girl_13mm 4)
M9
X-148.183 Y-42.576
Z15
Z2.85
G1 Z2.55 F850
G3 X-146.847 Y-43.928 Z2.446 I0.668 J-0.676 F283.3
X-146.575 Y-43.113 Z2.415 I-0.668 J0.676
X-148.064 Y-42.477 Z2.347 I-0.94 J-0.139
X-146.966 Y-44.027 Z2.243 I0.549 J-0.775
X-146.565 Y-43.267 Z2.212 I-0.549 J0.775
X-148.465 Y-43.237 Z2.107 I-0.95 J0.015
X-148.088 Y-44.01 Z2.076 I0.95 J-0.015
X-146.58 Y-43.42 Z2.009 I0.573 J0.758
X-148.45 Y-43.084 Z1.904 I-0.935 J0.168
X-148.203 Y-43.907 Z1.873 I0.935 J-0.168
X-146.62 Y-43.569 Z1.805 I0.688 J0.655
X-148.41 Y-42.935 Z1.701 I-0.895 J0.317
X-146.62 Y-43.569 Z1.597 I0.895 J-0.317
X-148.41 Y-42.935 Z1.493 I-0.895 J0.317
X-146.62 Y-43.569 Z1.389 I0.895 J-0.317
X-148.41 Y-42.935 Z1.284 I-0.895 J0.317
X-146.62 Y-43.569 Z1.18 I0.895 J-0.317
X-148.41 Y-42.935 Z1.076 I-0.895 J0.317
X-146.62 Y-43.569 Z0.972 I0.895 J-0.317
X-148.41 Y-42.935 Z0.867 I-0.895 J0.317
X-146.62 Y-43.569 Z0.763 I0.895 J-0.317
X-148.41 Y-42.935 Z0.659 I-0.895 J0.317
X-146.62 Y-43.569 Z0.555 I0.895 J-0.317
X-148.41 Y-42.935 Z0.451 I-0.895 J0.317
X-146.62 Y-43.569 Z0.346 I0.895 J-0.317
X-148.41 Y-42.935 Z0.242 I-0.895 J0.317
X-146.62 Y-43.569 Z0.138 I0.895 J-0.317
X-148.41 Y-42.935 Z0.034 I-0.895 J0.317
X-146.62 Y-43.569 Z-0.07 I0.895 J-0.317
X-148.41 Y-42.935 Z-0.175 I-0.895 J0.317
X-146.62 Y-43.569 Z-0.279 I0.895 J-0.317
X-148.41 Y-42.935 Z-0.383 I-0.895 J0.317
X-146.62 Y-43.569 Z-0.487 I0.895 J-0.317
X-148.41 Y-42.935 Z-0.592 I-0.895 J0.317
X-146.62 Y-43.569 Z-0.696 I0.895 J-0.317
X-148.41 Y-42.935 Z-0.8 I-0.895 J0.317
X-146.62 Y-43.569 Z-0.904 I0.895 J-0.317
X-148.41 Y-42.935 Z-1.008 I-0.895 J0.317
X-146.62 Y-43.569 Z-1.113 I0.895 J-0.317
X-148.41 Y-42.935 Z-1.217 I-0.895 J0.317
X-146.62 Y-43.569 Z-1.321 I0.895 J-0.317
X-148.41 Y-42.935 Z-1.425 I-0.895 J0.317
X-146.62 Y-43.569 Z-1.53 I0.895 J-0.317
X-148.41 Y-42.935 Z-1.634 I-0.895 J0.317
X-146.62 Y-43.569 Z-1.738 I0.895 J-0.317
X-148.41 Y-42.935 Z-1.842 I-0.895 J0.317
X-146.62 Y-43.569 Z-1.946 I0.895 J-0.317
X-148.41 Y-42.935 Z-2.051 I-0.895 J0.317
X-146.62 Y-43.569 Z-2.155 I0.895 J-0.317
X-148.41 Y-42.935 Z-2.259 I-0.895 J0.317
X-146.62 Y-43.569 Z-2.363 I0.895 J-0.317
X-148.41 Y-42.935 Z-2.468 I-0.895 J0.317
X-146.62 Y-43.569 Z-2.572 I0.895 J-0.317
X-148.41 Y-42.935 Z-2.676 I-0.895 J0.317
X-146.62 Y-43.569 Z-2.78 I0.895 J-0.317
X-148.41 Y-42.935 Z-2.884 I-0.895 J0.317
X-146.62 Y-43.569 Z-2.989 I0.895 J-0.317
X-146.565 Y-43.252 Z-3 I-0.895 J0.317
X-148.465 I-0.95
X-146.565 I0.95
X-147.604 Y-42.293 I-0.954 J0.009 F850
X-148.456 Y-43.421 I0.085 J-0.95
X-146.568 Y-43.112 I0.942 J0.163
G1 X-146.587 Y-43.056
X-146.617 Y-43.005
X-146.655 Y-42.95 Z-2.992
X-146.69 Y-42.898 Z-2.97
X-146.723 Y-42.851 Z-2.935
X-146.75 Y-42.812 Z-2.887
X-146.77 Y-42.782 Z-2.83
X-146.782 Y-42.764 Z-2.767
X-146.787 Y-42.758 Z-2.7
G0 Z15

(adaptive_girl_13mm 3)
M9
X-136.714 Y-39.867
Z15
Z2.85
G1 Z2.55 F850
G3 X-135.379 Y-41.218 Z2.446 I0.668 J-0.676 F283.3
X-136.714 Y-39.867 Z2.342 I-0.668 J0.676
X-135.379 Y-41.218 Z2.237 I0.668 J-0.676
X-136.714 Y-39.867 Z2.133 I-0.668 J0.676
X-135.379 Y-41.218 Z2.029 I0.668 J-0.676
X-136.714 Y-39.867 Z1.925 I-0.668 J0.676
X-135.379 Y-41.218 Z1.82 I0.668 J-0.676
X-136.714 Y-39.867 Z1.716 I-0.668 J0.676
X-135.379 Y-41.218 Z1.612 I0.668 J-0.676
X-136.714 Y-39.867 Z1.508 I-0.668 J0.676
X-135.379 Y-41.218 Z1.404 I0.668 J-0.676
X-136.714 Y-39.867 Z1.299 I-0.668 J0.676
X-135.379 Y-41.218 Z1.195 I0.668 J-0.676
X-136.714 Y-39.867 Z1.091 I-0.668 J0.676
X-135.379 Y-41.218 Z0.987 I0.668 J-0.676
X-136.714 Y-39.867 Z0.882 I-0.668 J0.676
X-135.379 Y-41.218 Z0.778 I0.668 J-0.676
X-136.714 Y-39.867 Z0.674 I-0.668 J0.676
X-135.379 Y-41.218 Z0.57 I0.668 J-0.676
X-135.335 Y-39.913 Z0.52 I-0.668 J0.676
X-136.93 Y-40.192 Z0.452 I-0.712 J-0.629
X-135.163 Y-40.893 Z0.348 I0.883 J-0.35
X-136.93 Y-40.192 Z0.243 I-0.883 J0.35
X-135.163 Y-40.893 Z0.139 I0.883 J-0.35
X-136.93 Y-40.192 Z0.035 I-0.883 J0.35
X-135.163 Y-40.893 Z-0.069 I0.883 J-0.35
X-136.93 Y-40.192 Z-0.173 I-0.883 J0.35
X-135.163 Y-40.893 Z-0.278 I0.883 J-0.35
X-136.93 Y-40.192 Z-0.382 I-0.883 J0.35
X-135.163 Y-40.893 Z-0.486 I0.883 J-0.35
X-136.93 Y-40.192 Z-0.59 I-0.883 J0.35
X-135.163 Y-40.893 Z-0.695 I0.883 J-0.35
X-136.93 Y-40.192 Z-0.799 I-0.883 J0.35
X-135.163 Y-40.893 Z-0.903 I0.883 J-0.35
X-136.93 Y-40.192 Z-1.007 I-0.883 J0.35
X-135.163 Y-40.893 Z-1.111 I0.883 J-0.35
X-136.93 Y-40.192 Z-1.216 I-0.883 J0.35
X-135.163 Y-40.893 Z-1.32 I0.883 J-0.35
X-136.93 Y-40.192 Z-1.424 I-0.883 J0.35
X-135.163 Y-40.893 Z-1.528 I0.883 J-0.35
X-136.93 Y-40.192 Z-1.633 I-0.883 J0.35
X-135.163 Y-40.893 Z-1.737 I0.883 J-0.35
X-136.93 Y-40.192 Z-1.841 I-0.883 J0.35
X-135.163 Y-40.893 Z-1.945 I0.883 J-0.35
X-136.93 Y-40.192 Z-2.049 I-0.883 J0.35
X-135.163 Y-40.893 Z-2.154 I0.883 J-0.35
X-136.93 Y-40.192 Z-2.258 I-0.883 J0.35
X-135.163 Y-40.893 Z-2.362 I0.883 J-0.35
X-136.93 Y-40.192 Z-2.466 I-0.883 J0.35
X-135.163 Y-40.893 Z-2.571 I0.883 J-0.35
X-136.93 Y-40.192 Z-2.675 I-0.883 J0.35
X-135.163 Y-40.893 Z-2.779 I0.883 J-0.35
X-136.93 Y-40.192 Z-2.883 I-0.883 J0.35
X-135.163 Y-40.893 Z-2.987 I0.883 J-0.35
X-135.096 Y-40.543 Z-3 I-0.883 J0.35
X-136.318 Y-39.632 I-0.95
X-135.774 Y-41.453 I0.272 J-0.91
X-135.096 Y-40.543 I-0.272 J0.91
G1 X-135.059 Y-39.821 F850
G3 X-135.326 Y-39.274 I-0.509 J0.091
G1 X-135.562 Y-39.155
G3 X-136.904 Y-39.348 I-0.475 J-1.453
G1 X-137.047 Y-39.483
X-137.211 Y-39.647
G3 X-137.461 Y-40.138 I1.926 J-1.29
X-137.431 Y-41.031 I1.552 J-0.396
X-137.233 Y-41.413 I4.278 J1.979
G1 X-137.198 Y-41.452
G3 X-136.412 Y-41.96 I1.169 J0.946
G1 X-136.084 Y-42.011
G3 X-134.833 Y-41.37 I0.02 J1.502
X-134.636 Y-40.139 I-1.268 J0.834
X-134.882 Y-39.647 I-2.038 J-0.713
G1 X-135.099 Y-39.429
X-135.169 Y-39.362
X-135.204 Y-39.337
X-135.326 Y-39.274
G3 X-135.44 Y-39.247 I-0.127 J-0.272
G1 X-135.507 Y-39.244 Z-2.992
X-135.57 Y-39.241 Z-2.97
X-135.627 Y-39.238 Z-2.935
X-135.674 Y-39.236 Z-2.887
X-135.71 Y-39.235 Z-2.83
X-135.732 Y-39.234 Z-2.767
X-135.74 Z-2.7
G0 Z15

(adaptive_girl_13mm 5)
M9
X-132.165 Y-29.092
Z15
Z2.85
G1 Z2.55 F850
G3 X-130.83 Y-30.443 Z2.446 I0.668 J-0.676 F283.3
X-132.165 Y-29.092 Z2.342 I-0.668 J0.676
X-130.83 Y-30.443 Z2.237 I0.668 J-0.676
X-132.165 Y-29.092 Z2.133 I-0.668 J0.676
X-130.83 Y-30.443 Z2.029 I0.668 J-0.676
X-132.165 Y-29.092 Z1.925 I-0.668 J0.676
X-130.83 Y-30.443 Z1.82 I0.668 J-0.676
X-132.165 Y-29.092 Z1.716 I-0.668 J0.676
X-130.83 Y-30.443 Z1.612 I0.668 J-0.676
X-132.165 Y-29.092 Z1.508 I-0.668 J0.676
X-130.83 Y-30.443 Z1.404 I0.668 J-0.676
X-132.165 Y-29.092 Z1.299 I-0.668 J0.676
X-130.83 Y-30.443 Z1.195 I0.668 J-0.676
X-132.165 Y-29.092 Z1.091 I-0.668 J0.676
X-130.83 Y-30.443 Z0.987 I0.668 J-0.676
X-132.165 Y-29.092 Z0.882 I-0.668 J0.676
X-130.83 Y-30.443 Z0.778 I0.668 J-0.676
X-132.165 Y-29.092 Z0.674 I-0.668 J0.676
X-130.83 Y-30.443 Z0.57 I0.668 J-0.676
X-130.786 Y-29.138 Z0.52 I-0.668 J0.676
X-132.381 Y-29.417 Z0.452 I-0.712 J-0.629
X-130.615 Y-30.118 Z0.348 I0.883 J-0.35
X-132.381 Y-29.417 Z0.243 I-0.883 J0.35
X-130.615 Y-30.118 Z0.139 I0.883 J-0.35
X-132.381 Y-29.417 Z0.035 I-0.883 J0.35
X-130.615 Y-30.118 Z-0.069 I0.883 J-0.35
X-132.381 Y-29.417 Z-0.173 I-0.883 J0.35
X-130.615 Y-30.118 Z-0.278 I0.883 J-0.35
X-132.381 Y-29.417 Z-0.382 I-0.883 J0.35
X-130.615 Y-30.118 Z-0.486 I0.883 J-0.35
X-132.381 Y-29.417 Z-0.59 I-0.883 J0.35
X-130.615 Y-30.118 Z-0.695 I0.883 J-0.35
X-132.381 Y-29.417 Z-0.799 I-0.883 J0.35
X-130.615 Y-30.118 Z-0.903 I0.883 J-0.35
X-132.381 Y-29.417 Z-1.007 I-0.883 J0.35
X-130.615 Y-30.118 Z-1.111 I0.883 J-0.35
X-132.381 Y-29.417 Z-1.216 I-0.883 J0.35
X-130.615 Y-30.118 Z-1.32 I0.883 J-0.35
X-132.381 Y-29.417 Z-1.424 I-0.883 J0.35
X-130.615 Y-30.118 Z-1.528 I0.883 J-0.35
X-132.381 Y-29.417 Z-1.633 I-0.883 J0.35
X-130.615 Y-30.118 Z-1.737 I0.883 J-0.35
X-132.381 Y-29.417 Z-1.841 I-0.883 J0.35
X-130.615 Y-30.118 Z-1.945 I0.883 J-0.35
X-132.381 Y-29.417 Z-2.049 I-0.883 J0.35
X-130.615 Y-30.118 Z-2.154 I0.883 J-0.35
X-132.381 Y-29.417 Z-2.258 I-0.883 J0.35
X-130.615 Y-30.118 Z-2.362 I0.883 J-0.35
X-132.381 Y-29.417 Z-2.466 I-0.883 J0.35
X-130.615 Y-30.118 Z-2.571 I0.883 J-0.35
X-132.381 Y-29.417 Z-2.675 I-0.883 J0.35
X-130.615 Y-30.118 Z-2.779 I0.883 J-0.35
X-132.381 Y-29.417 Z-2.883 I-0.883 J0.35
X-130.615 Y-30.118 Z-2.987 I0.883 J-0.35
X-130.548 Y-29.768 Z-3 I-0.883 J0.35
X-131.77 Y-28.857 I-0.95
X-131.226 Y-30.678 I0.272 J-0.91
X-130.548 Y-29.768 I-0.272 J0.91
G1 X-130.511 Y-29.05 F850
G3 X-131.077 Y-28.136 I-0.945 J0.047
X-132.988 Y-28.547 I-0.696 J-1.414
X-133.404 Y-29.31 I1.127 J-1.109
G1 X-133.459 Y-29.68
X-133.467 Y-29.741
X-133.469 Y-29.772
X-133.467 Y-29.803
X-133.389 Y-30.295
X-133.372 Y-30.377
X-133.335 Y-30.459
X-133.131 Y-30.859
X-133.105 Y-30.905
G3 X-132.639 Y-31.373 I4.337 J3.853
G1 X-132.475 Y-31.459
X-132.147 Y-31.626
X-132.106 Y-31.642
X-132.065 Y-31.653
X-131.532 Y-31.737
G3 X-130.833 Y-31.623 I-0.188 J3.361
G1 X-130.49 Y-31.443
X-130.343 Y-31.363
G3 X-129.881 Y-30.891 I-2.405 J2.812
G1 X-129.661 Y-30.459
X-129.624 Y-30.377
X-129.607 Y-30.295
X-129.529 Y-29.803
X-129.527 Y-29.762
X-129.531 Y-29.721
X-129.595 Y-29.311
X-129.629 Y-29.146
X-129.686 Y-29.026
X-129.876 Y-28.654
G3 X-130.356 Y-28.162 I-3.815 J-3.237
G1 X-130.507 Y-28.083
X-130.835 Y-27.916
G3 X-131.532 Y-27.798 I-0.804 J-2.629
G1 X-132.065 Y-27.882
G3 X-132.681 Y-28.192 I1.798 J-4.338
G1 X-132.979 Y-28.49
X-133.061 Y-28.572
X-133.08 Y-28.593
X-133.096 Y-28.613
X-133.12 Y-28.654
X-133.224 Y-28.859
G3 X-133.252 Y-28.973 I0.272 J-0.127
G1 X-133.255 Y-29.04 Z-2.992
X-133.258 Y-29.103 Z-2.97
X-133.26 Y-29.16 Z-2.935
X-133.263 Y-29.207 Z-2.887
X-133.264 Y-29.243 Z-2.83
X-133.265 Y-29.265 Z-2.767
Y-29.273 Z-2.7
G0 Z15

(adaptive_girl_13mm 6)
M9
X-121.636 Y-37.376
Z15
Z2.85
G1 Z2.55 F850
G3 X-120.301 Y-38.728 Z2.446 I0.668 J-0.676 F283.3
X-121.636 Y-37.376 Z2.342 I-0.668 J0.676
X-120.301 Y-38.728 Z2.237 I0.668 J-0.676
X-121.636 Y-37.376 Z2.133 I-0.668 J0.676
X-120.301 Y-38.728 Z2.029 I0.668 J-0.676
X-121.636 Y-37.376 Z1.925 I-0.668 J0.676
X-120.301 Y-38.728 Z1.82 I0.668 J-0.676
X-121.636 Y-37.376 Z1.716 I-0.668 J0.676
X-120.301 Y-38.728 Z1.612 I0.668 J-0.676
X-121.636 Y-37.376 Z1.508 I-0.668 J0.676
X-120.301 Y-38.728 Z1.404 I0.668 J-0.676
X-121.636 Y-37.376 Z1.299 I-0.668 J0.676
X-120.301 Y-38.728 Z1.195 I0.668 J-0.676
X-121.636 Y-37.376 Z1.091 I-0.668 J0.676
X-120.301 Y-38.728 Z0.987 I0.668 J-0.676
X-121.636 Y-37.376 Z0.882 I-0.668 J0.676
X-120.301 Y-38.728 Z0.778 I0.668 J-0.676
X-121.636 Y-37.376 Z0.674 I-0.668 J0.676
X-120.301 Y-38.728 Z0.57 I0.668 J-0.676
X-121.636 Y-37.376 Z0.466 I-0.668 J0.676
X-120.301 Y-38.728 Z0.361 I0.668 J-0.676
X-121.636 Y-37.376 Z0.257 I-0.668 J0.676
X-120.301 Y-38.728 Z0.153 I0.668 J-0.676
X-121.636 Y-37.376 Z0.049 I-0.668 J0.676
X-120.301 Y-38.728 Z-0.056 I0.668 J-0.676
X-121.636 Y-37.376 Z-0.16 I-0.668 J0.676
X-120.301 Y-38.728 Z-0.264 I0.668 J-0.676
X-121.636 Y-37.376 Z-0.368 I-0.668 J0.676
X-120.301 Y-38.728 Z-0.472 I0.668 J-0.676
X-121.636 Y-37.376 Z-0.577 I-0.668 J0.676
X-120.301 Y-38.728 Z-0.681 I0.668 J-0.676
X-121.636 Y-37.376 Z-0.785 I-0.668 J0.676
X-120.301 Y-38.728 Z-0.889 I0.668 J-0.676
X-121.636 Y-37.376 Z-0.994 I-0.668 J0.676
X-120.301 Y-38.728 Z-1.098 I0.668 J-0.676
X-121.636 Y-37.376 Z-1.202 I-0.668 J0.676
X-120.301 Y-38.728 Z-1.306 I0.668 J-0.676
X-121.636 Y-37.376 Z-1.41 I-0.668 J0.676
X-120.301 Y-38.728 Z-1.515 I0.668 J-0.676
X-121.636 Y-37.376 Z-1.619 I-0.668 J0.676
X-120.301 Y-38.728 Z-1.723 I0.668 J-0.676
X-121.636 Y-37.376 Z-1.827 I-0.668 J0.676
X-120.301 Y-38.728 Z-1.932 I0.668 J-0.676
X-121.636 Y-37.376 Z-2.036 I-0.668 J0.676
X-120.301 Y-38.728 Z-2.14 I0.668 J-0.676
X-121.636 Y-37.376 Z-2.244 I-0.668 J0.676
X-120.301 Y-38.728 Z-2.348 I0.668 J-0.676
X-121.636 Y-37.376 Z-2.453 I-0.668 J0.676
X-120.301 Y-38.728 Z-2.557 I0.668 J-0.676
X-121.636 Y-37.376 Z-2.661 I-0.668 J0.676
X-120.301 Y-38.728 Z-2.765 I0.668 J-0.676
X-121.636 Y-37.376 Z-2.87 I-0.668 J0.676
X-120.301 Y-38.728 Z-2.974 I0.668 J-0.676
X-120.018 Y-38.052 Z-3 I-0.668 J0.676
X-121.918 I-0.95
X-120.018 I0.95
G1 X-119.982 Y-37.335 F850
G3 X-120.548 Y-36.42 I-0.945 J0.047
X-122.459 Y-36.831 I-0.696 J-1.414
X-121.594 Y-39.949 I1.435 J-1.281
X-119.157 Y-38.934 I0.645 J1.882
X-118.936 Y-36.606 I-2.261 J1.39
X-122.105 Y-35.236 I-2.324 J-1.026
X-124.137 Y-38.508 I0.916 J-2.836
X-118.752 Y-40.42 I3.178 J0.413
X-118.242 Y-35.28 I-2.538 J2.847
X-118.776 Y-34.734 I-2.865 J-2.273
G1 X-118.818 Y-34.712
X-119.517 Y-34.346
X-119.558 Y-34.328
X-119.599 Y-34.315
X-120.46 Y-34.103
G3 X-121.444 Y-34.098 I-0.551 J-11.241
G1 X-121.485 Y-34.104
X-122.305 Y-34.307
X-122.387 Y-34.331
G3 X-123.254 Y-34.789 I5.163 J-10.818
G1 X-123.92 Y-35.381
G3 X-124.495 Y-36.202 I7.164 J-5.622
G1 X-124.56 Y-36.366
X-124.809 Y-37.022
X-124.836 Y-37.104
X-124.848 Y-37.186
X-124.948 Y-38.006
G3 X-124.828 Y-39.032 I7.631 J0.373
G1 X-124.532 Y-39.811
X-124.5 Y-39.893
X-124.448 Y-39.975
X-123.995 Y-40.631
X-123.945 Y-40.697
X-123.838 Y-40.795
X-123.282 Y-41.288
X-123.243 Y-41.321
X-123.204 Y-41.346
X-122.469 Y-41.732
X-122.367 Y-41.78
X-122.305 Y-41.797
X-121.485 Y-41.999
G3 X-120.46 Y-42.001 I0.53 J8.004
G1 X-119.681 Y-41.809
X-119.568 Y-41.78
G3 X-118.653 Y-41.291 I-3.23 J7.14
G1 X-118.04 Y-40.743
X-117.983 Y-40.687
X-117.942 Y-40.631
X-117.489 Y-39.975
X-117.438 Y-39.893
X-117.405 Y-39.811
X-117.156 Y-39.155
X-117.098 Y-38.991
X-117.077 Y-38.827
X-116.988 Y-38.088
X-116.985 Y-38.047
X-116.988 Y-38.006
X-117.088 Y-37.186
X-117.101 Y-37.104
X-117.128 Y-37.022
X-117.384 Y-36.346
X-117.442 Y-36.202
G3 X-118.014 Y-35.379 I-7.234 J-4.429
G1 X-118.572 Y-34.889
X-118.696 Y-34.781
X-118.794 Y-34.725
X-118.818 Y-34.712
G3 X-118.931 Y-34.683 I-0.13 J-0.27
G1 X-118.998 Y-34.679 Z-2.992
X-119.061 Y-34.676 Z-2.97
X-119.118 Y-34.673 Z-2.935
X-119.166 Y-34.67 Z-2.887
X-119.201 Y-34.668 Z-2.83
X-119.223 Y-34.667 Z-2.767
X-119.231 Y-34.666 Z-2.7
G0 Z15

(adaptive_girl_13mm 7)
M9
X-111.243 Y-19.618
Z15
Z2.85
G1 Z2.55 F850
G3 X-109.908 Y-20.97 Z2.446 I0.668 J-0.676 F283.3
X-111.243 Y-19.618 Z2.342 I-0.668 J0.676
X-109.908 Y-20.97 Z2.237 I0.668 J-0.676
X-111.243 Y-19.618 Z2.133 I-0.668 J0.676
X-109.908 Y-20.97 Z2.029 I0.668 J-0.676
X-111.243 Y-19.618 Z1.925 I-0.668 J0.676
X-109.908 Y-20.97 Z1.82 I0.668 J-0.676
X-111.243 Y-19.618 Z1.716 I-0.668 J0.676
X-109.908 Y-20.97 Z1.612 I0.668 J-0.676
X-111.243 Y-19.618 Z1.508 I-0.668 J0.676
X-109.908 Y-20.97 Z1.404 I0.668 J-0.676
X-111.243 Y-19.618 Z1.299 I-0.668 J0.676
X-109.908 Y-20.97 Z1.195 I0.668 J-0.676
X-111.243 Y-19.618 Z1.091 I-0.668 J0.676
X-109.908 Y-20.97 Z0.987 I0.668 J-0.676
X-111.243 Y-19.618 Z0.882 I-0.668 J0.676
X-109.908 Y-20.97 Z0.778 I0.668 J-0.676
X-111.243 Y-19.618 Z0.674 I-0.668 J0.676
X-109.908 Y-20.97 Z0.57 I0.668 J-0.676
X-111.243 Y-19.618 Z0.466 I-0.668 J0.676
X-109.908 Y-20.97 Z0.361 I0.668 J-0.676
X-111.243 Y-19.618 Z0.257 I-0.668 J0.676
X-109.908 Y-20.97 Z0.153 I0.668 J-0.676
X-111.243 Y-19.618 Z0.049 I-0.668 J0.676
X-109.908 Y-20.97 Z-0.056 I0.668 J-0.676
X-111.243 Y-19.618 Z-0.16 I-0.668 J0.676
X-109.908 Y-20.97 Z-0.264 I0.668 J-0.676
X-111.243 Y-19.618 Z-0.368 I-0.668 J0.676
X-109.908 Y-20.97 Z-0.472 I0.668 J-0.676
X-111.243 Y-19.618 Z-0.577 I-0.668 J0.676
X-109.908 Y-20.97 Z-0.681 I0.668 J-0.676
X-111.243 Y-19.618 Z-0.785 I-0.668 J0.676
X-109.908 Y-20.97 Z-0.889 I0.668 J-0.676
X-111.243 Y-19.618 Z-0.994 I-0.668 J0.676
X-109.908 Y-20.97 Z-1.098 I0.668 J-0.676
X-111.243 Y-19.618 Z-1.202 I-0.668 J0.676
X-109.908 Y-20.97 Z-1.306 I0.668 J-0.676
X-111.243 Y-19.618 Z-1.41 I-0.668 J0.676
X-109.908 Y-20.97 Z-1.515 I0.668 J-0.676
X-111.243 Y-19.618 Z-1.619 I-0.668 J0.676
X-109.908 Y-20.97 Z-1.723 I0.668 J-0.676
X-111.243 Y-19.618 Z-1.827 I-0.668 J0.676
X-109.908 Y-20.97 Z-1.932 I0.668 J-0.676
X-111.243 Y-19.618 Z-2.036 I-0.668 J0.676
X-109.908 Y-20.97 Z-2.14 I0.668 J-0.676
X-111.243 Y-19.618 Z-2.244 I-0.668 J0.676
X-109.908 Y-20.97 Z-2.348 I0.668 J-0.676
X-111.243 Y-19.618 Z-2.453 I-0.668 J0.676
X-109.908 Y-20.97 Z-2.557 I0.668 J-0.676
X-111.243 Y-19.618 Z-2.661 I-0.668 J0.676
X-109.908 Y-20.97 Z-2.765 I0.668 J-0.676
X-111.243 Y-19.618 Z-2.87 I-0.668 J0.676
X-109.908 Y-20.97 Z-2.974 I0.668 J-0.676
X-109.626 Y-20.294 Z-3 I-0.668 J0.676
X-111.526 I-0.95
X-109.626 I0.95
G1 X-109.589 Y-19.577 F850
G3 X-110.155 Y-18.662 I-0.945 J0.047
X-112.066 Y-19.074 I-0.696 J-1.414
X-111.201 Y-22.191 I1.435 J-1.281
X-108.765 Y-21.176 I0.645 J1.882
X-108.543 Y-18.848 I-2.261 J1.39
X-111.712 Y-17.478 I-2.324 J-1.026
X-113.744 Y-20.75 I0.916 J-2.836
X-108.359 Y-22.662 I3.178 J0.413
X-107.849 Y-17.522 I-2.538 J2.847
X-112.776 Y-16.515 I-3.067 J-2.449
X-115.008 Y-21.234 I1.99 J-3.828
X-107.915 Y-24.017 I4.443 J0.894
X-107.758 Y-15.735 I-2.933 J4.198
X-113.753 Y-15.495 I-3.175 J-4.301
X-116.459 Y-20.765 I2.959 J-4.85
X-109.473 Y-26.147 I5.88 J0.408
X-106.262 Y-24.454 I-1.116 J6.008
X-109.086 Y-13.542 I-4.578 J4.637
X-114.314 Y-14.186 I-1.85 J-6.526
X-117.648 Y-18.525 I3.491 J-6.132
X-116.024 Y-25.234 I7.002 J-1.856
X-108.102 Y-27.242 I5.46 J4.909
X-104.202 Y-24.167 I-2.599 J7.306
X-105.754 Y-13.72 I-6.64 J4.352
X-114.576 Y-12.716 I-5.184 J-6.289
X-118.196 Y-16.133 I3.642 J-7.483
X-119.292 Y-20.992 I7.37 J-4.217
X-114.17 Y-28.318 I8.677 J0.614
X-105.869 Y-27.745 I3.616 J8.025
X-102.055 Y-23.071 I-4.841 J7.844
G1 X-101.779 Y-22.091
X-101.737 Y-21.927
X-101.6 Y-20.451
X-101.587 Y-20.287
X-101.601 Y-20.123
X-101.722 Y-18.81
X-101.739 Y-18.646
X-101.783 Y-18.482
X-102.18 Y-17.087
X-102.193 Y-17.046
X-102.212 Y-17.005
X-102.866 Y-15.693
X-102.95 Y-15.537
X-103.823 Y-14.38
X-103.934 Y-14.235
X-103.953 Y-14.216
X-105.082 Y-13.187
X-105.161 Y-13.118
X-105.246 Y-13.063
X-106.394 Y-12.353
X-106.568 Y-12.247
X-106.722 Y-12.185
X-108.035 Y-11.677
X-108.117 Y-11.647
X-108.199 Y-11.63
X-109.675 Y-11.354
X-109.757 Y-11.341
X-109.839 Y-11.34
X-111.315
X-111.397 Y-11.342
X-111.479 Y-11.354
X-112.955 Y-11.63
X-113.037 Y-11.647
G3 X-114.596 Y-12.253 I14.262 J-38.998
G1 X-114.924 Y-12.455
X-115.913 Y-13.068
X-115.992 Y-13.118
X-116.072 Y-13.189
X-117.199 Y-14.216
X-117.22 Y-14.239
X-117.33 Y-14.38
X-118.204 Y-15.538
X-118.287 Y-15.693
X-118.941 Y-17.005
X-118.96 Y-17.046
X-118.973 Y-17.087
X-119.369 Y-18.482
X-119.414 Y-18.646
X-119.43 Y-18.81
X-119.552 Y-20.123
X-119.565 Y-20.287
X-119.553 Y-20.451
X-119.416 Y-21.927
X-119.373 Y-22.091
X-118.965 Y-23.527
X-118.948 Y-23.568
X-118.294 Y-24.881
X-118.208 Y-25.045
X-117.34 Y-26.193
X-117.22 Y-26.349
G3 X-116.003 Y-27.46 I66.116 J71.193
G1 X-115.935 Y-27.506
X-114.596 Y-28.335
X-114.432 Y-28.401
X-113.119 Y-28.91
X-113.037 Y-28.94
X-112.955 Y-28.957
X-111.479 Y-29.233
X-111.397 Y-29.245
X-111.315 Y-29.247
X-109.839
X-109.757 Y-29.246
X-109.675 Y-29.233
X-108.199 Y-28.957
X-108.117 Y-28.94
G3 X-106.542 Y-28.327 I-11.258 J31.23
G1 X-105.217 Y-27.506
G3 X-103.934 Y-26.35 I-17.933 J21.205
G1 X-103.812 Y-26.193
X-102.945 Y-25.045
X-102.859 Y-24.881
X-102.205 Y-23.568
X-102.153 Y-23.404
X-102.058 Y-23.07
G3 X-102.052 Y-22.953 I-0.291 J0.072
G1 X-102.062 Y-22.887 Z-2.992
X-102.072 Y-22.824 Z-2.97
X-102.08 Y-22.768 Z-2.935
X-102.088 Y-22.721 Z-2.887
X-102.093 Y-22.686 Z-2.83
X-102.096 Y-22.664 Z-2.767
X-102.097 Y-22.656 Z-2.7
G0 Z15
M9
M30
%
