%
(1001)
(z0 top machine -5-5)
(T1  D=3 CR=0 - ZMIN=-3 - flat end mill)
G90 G94
G17
G21

(adaptive_girl_13mm 2)
M9
T1 M6
S10000 M3
G54
M9
G0 X-172.103 Y-96.604
Z15
Z2.85
G1 Z2.55 F850
G3 X-172.115 Y-99.454 Z2.394 I-0.006 J-1.425 F283.3
X-172.103 Y-96.604 Z2.237 I0.006 J1.425
X-172.115 Y-99.454 Z2.081 I-0.006 J-1.425
X-172.103 Y-96.604 Z1.925 I0.006 J1.425
X-172.115 Y-99.454 Z1.768 I-0.006 J-1.425
X-172.103 Y-96.604 Z1.612 I0.006 J1.425
X-172.115 Y-99.454 Z1.456 I-0.006 J-1.425
X-172.103 Y-96.604 Z1.299 I0.006 J1.425
X-172.115 Y-99.454 Z1.143 I-0.006 J-1.425
X-172.103 Y-96.604 Z0.987 I0.006 J1.425
X-172.115 Y-99.454 Z0.83 I-0.006 J-1.425
X-172.103 Y-96.604 Z0.674 I0.006 J1.425
X-172.115 Y-99.454 Z0.518 I-0.006 J-1.425
X-172.103 Y-96.604 Z0.361 I0.006 J1.425
X-172.115 Y-99.454 Z0.205 I-0.006 J-1.425
X-172.103 Y-96.604 Z0.049 I0.006 J1.425
X-172.115 Y-99.454 Z-0.108 I-0.006 J-1.425
X-172.103 Y-96.604 Z-0.264 I0.006 J1.425
X-172.115 Y-99.454 Z-0.42 I-0.006 J-1.425
X-172.103 Y-96.604 Z-0.577 I0.006 J1.425
X-172.115 Y-99.454 Z-0.733 I-0.006 J-1.425
X-172.103 Y-96.604 Z-0.889 I0.006 J1.425
X-172.115 Y-99.454 Z-1.046 I-0.006 J-1.425
X-172.103 Y-96.604 Z-1.202 I0.006 J1.425
X-172.115 Y-99.454 Z-1.358 I-0.006 J-1.425
X-172.103 Y-96.604 Z-1.515 I0.006 J1.425
X-172.115 Y-99.454 Z-1.671 I-0.006 J-1.425
X-172.103 Y-96.604 Z-1.827 I0.006 J1.425
X-172.115 Y-99.454 Z-1.984 I-0.006 J-1.425
X-172.103 Y-96.604 Z-2.14 I0.006 J1.425
X-172.115 Y-99.454 Z-2.296 I-0.006 J-1.425
X-172.103 Y-96.604 Z-2.453 I0.006 J1.425
X-172.115 Y-99.454 Z-2.609 I-0.006 J-1.425
X-172.103 Y-96.604 Z-2.765 I0.006 J1.425
X-172.115 Y-99.454 Z-2.922 I-0.006 J-1.425
X-170.684 Y-98.029 Z-3 I0.006 J1.425
X-173.534 I-1.425
X-170.684 I1.425
G1 X-170.676 Y-97.874 F850
X-170.482 Y-97.359
G3 X-170.758 Y-96.237 I-1.114 J0.321
X-172.755 Y-95.612 I-1.502 J-1.294
X-174.449 Y-99.101 I0.544 J-2.42
X-170.022 Y-99.552 I2.344 J1.054
X-169.263 Y-97.99 I-3.579 J2.705
X-171.297 Y-94.485 I-2.864 J0.681
X-174.839 Y-95.358 I-1.066 J-3.296
X-172.422 Y-101.88 I2.696 J-2.71
X-169.213 Y-100.612 I0.335 J3.849
X-167.852 Y-97.192 I-3.399 J3.333
X-171.217 Y-93.122 I-4.371 J-0.188
X-175.686 Y-94.301 I-1.157 J-4.676
X-175.085 Y-102.319 I3.517 J-3.768
X-169.186 Y-102.366 I2.984 J4.268
X-166.47 Y-97.338 I-3.329 J5.046
X-170.161 Y-92.009 I-5.762 J-0.049
X-174.912 Y-92.135 I-2.226 J-5.693
X-178.715 Y-98.101 I2.644 J-5.881
X-168.324 Y-103.47 I6.61 J0.053
X-165.073 Y-97.703 I-4.126 J6.126
X-168.906 Y-91.04 I-7.151 J0.321
X-176.088 Y-91.15 I-3.49 J-6.662
X-179.821 Y-100.24 I3.842 J-6.889
X-168.295 Y-105.109 I7.714 J2.185
X-163.972 Y-95.024 I-4.117 J7.735
X-171.739 Y-88.787 I-8.334 J-2.425
X-179.826 Y-92.628 I-0.644 J-9.078
X-173.999 Y-107.301 I7.69 J-5.439
X-165.842 Y-105.158 I1.905 J9.345
X-163.099 Y-93.26 I-6.511 J7.767
X-173.838 Y-87.434 I-9.249 J-4.239
X-182.767 Y-95.877 I1.491 J-10.521
X-166.689 Y-107.492 I10.659 J-2.181
X-162.216 Y-91.808 I-5.667 J10.096
X-176.201 Y-86.521 I-10.164 J-5.747
X-184.382 Y-99.14 I3.89 J-11.484
X-166.288 Y-108.921 I12.275 J1.082
X-161.205 Y-90.67 I-6.066 J11.523
X-177.007 Y-85.27 I-11.183 J-6.902
X-185.297 Y-102.01 I4.721 J-12.76
X-165.66 Y-110.229 I13.19 J3.946
X-160.003 Y-89.856 I-6.688 J12.829
X-177.455 Y-83.886 I-12.385 J-7.712
X-187.332 Y-98.368 I5.136 J-14.112
X-165.384 Y-111.722 I15.225 J0.31
X-158.912 Y-88.853 I-6.961 J14.32
X-178.683 Y-82.803 I-13.482 J-8.727
X-188.513 Y-101.096 I6.383 J-15.217
X-164.931 Y-113.123 I16.406 J3.035
X-158.289 Y-87.18 I-7.409 J15.719
X-180.629 Y-82.105 I-14.116 J-10.433
X-189.789 Y-102.137 I8.337 J-15.923
X-164.316 Y-114.45 I17.683 J4.076
X-153.909 Y-93.489 I-8.028 J17.05
G2 X-157.019 Y-86.888 I214.815 J105.239
G3 X-158.809 Y-84.349 I-8.609 J-4.168
X-169.722 Y-78.794 I-13.429 J-12.885
X-185.333 Y-83.611 I-2.689 J-18.987
X-189.691 Y-92.261 I96.318 J-53.962
X-191.316 Y-95.753 I104.422 J-50.685
X-191.692 Y-98.148 I7.479 J-2.403
X-189.487 Y-107.145 I18.854 J-0.148
X-181.362 Y-115.347 I17.315 J9.028
X-180.835 Y-115.34 I0.256 J0.574
G2 X-179.132 Y-115.802 I0.394 J-1.915
G1 X-178.886 Y-116.02
X-178.552 Y-116.262
G3 X-176.334 Y-117.167 I3.816 J6.176
X-172.927 Y-117.647 I3.95 J15.73
X-172.446 Y-117.349 I0.023 J0.501
G2 X-171.194 Y-116.46 I1.601 J-0.93
X-169.777 Y-116.268 I1.678 J-7.06
G3 X-164.389 Y-115.616 I-3.257 J49.501
X-161.936 Y-114.776 I-2.147 J10.269
X-156.726 Y-110.371 I-8.815 J15.708
X-152.039 Y-97.888 I-15.548 J12.959
X-152.034 Y-97.288 I-20.234 J0.476 F212.5
G1 X-152.057 Y-97.211
G2 X-153.932 Y-93.454 I275.574 J139.862 F850
G1 X-153.964 Y-93.405
X-154.005 Y-93.363
X-154.057 Y-93.32 Z-2.992
X-154.106 Y-93.28 Z-2.97
X-154.15 Y-93.244 Z-2.935
X-154.186 Y-93.213 Z-2.887
X-154.214 Y-93.191 Z-2.83
X-154.231 Y-93.177 Z-2.767
X-154.237 Y-93.172 Z-2.7
G0 Z5
X-163.474 Y-115.17
Z-2.4
G1 Z-2.7 F850
X-163.481 Y-115.174 Z-2.767
X-163.499 Y-115.186 Z-2.83
X-163.529 Y-115.205 Z-2.887
X-163.569 Y-115.231 Z-2.935
X-163.617 Y-115.262 Z-2.97
X-163.671 Y-115.296 Z-2.992
X-163.727 Y-115.332 Z-3
G3 X-163.682 Y-115.441 I0.032 J-0.05
X-159.86 Y-113.722 I-3.054 J11.902
G2 X-156.943 Y-112.266 I16.321 J-29.057
G3 X-155.219 Y-110.762 I-3.552 J5.809
X-151.875 Y-104.81 I-14.996 J12.343
X-150.703 Y-99.832 I-19.64 J7.248
G1 X-150.73 Y-99.733
G2 X-152.088 Y-97.138 I830.44 J436.485
G1 X-152.122 Y-97.09
X-152.164 Y-97.049
X-152.216 Y-97.007 Z-2.992
X-152.266 Y-96.968 Z-2.97
X-152.311 Y-96.933 Z-2.935
X-152.348 Y-96.903 Z-2.887
X-152.376 Y-96.881 Z-2.83
X-152.393 Y-96.868 Z-2.767
X-152.399 Y-96.863 Z-2.7
G0 Z5
X-157.142 Y-112.136
Z-2.4
G1 Z-2.7 F850
X-157.148 Y-112.141 Z-2.767
X-157.164 Y-112.155 Z-2.83
X-157.191 Y-112.179 Z-2.887
X-157.226 Y-112.211 Z-2.935
X-157.269 Y-112.249 Z-2.97
X-157.316 Y-112.291 Z-2.992
X-157.366 Y-112.336 Z-3
G3 X-157.304 Y-112.436 I0.04 J-0.045
X-154.961 Y-111.352 I-11.724 J28.399
X-153.442 Y-109.264 I-14.48 J12.137
G2 X-151.856 Y-107.54 I8.242 J-5.992
G3 X-150.652 Y-105.596 I-4.894 J4.375
X-149.554 Y-101.937 I-16.261 J6.875
G1 X-149.577 Y-101.815
X-149.624 Y-101.702
G2 X-150.769 Y-99.64 I87.945 J50.156
G3 X-150.846 Y-99.553 I-0.259 J-0.152
X-151.323 Y-99.745 I-0.181 J-0.239
G1 X-152.543 Y-107.449
G3 X-152.059 Y-107.73 I0.296 J-0.047
G2 X-150.082 Y-106.347 I9.411 J-11.351
G3 X-149.134 Y-105.179 I-2.651 J3.12
G1 X-148.854 Y-104.622
X-148.623 Y-104.042
X-148.559 Y-103.847
X-148.535 Y-103.706
X-148.551 Y-103.565
X-148.606 Y-103.434
G3 X-149.116 Y-103.445 I-0.252 J-0.163
G1 X-150.63 Y-106.021
G3 X-150.222 Y-106.433 I0.259 J-0.152
X-148.106 Y-105.009 I-15.52 J25.344
X-148.031 Y-104.399 I-0.368 J0.355
X-148.112 Y-104.314 I-0.253 J-0.161
X-148.564 Y-104.453 I-0.172 J-0.246
G1 X-148.678 Y-104.749
G3 X-148.232 Y-105.106 I0.28 J-0.108
G1 X-148.019 Y-104.953
X-147.978 Y-104.916
X-147.949 Y-104.879
X-147.925 Y-104.838
X-147.911 Y-104.803
X-147.902 Y-104.767
X-147.897 Y-104.732
X-147.896 Y-104.697 F212.5
X-147.9 Y-104.661
X-147.908 Y-104.626 F850
G2 X-149.625 Y-101.703 I859.11 J506.575
G1 X-149.66 Y-101.656
X-149.704 Y-101.617
X-149.758 Y-101.578 Z-2.992
X-149.81 Y-101.541 Z-2.97
X-149.856 Y-101.507 Z-2.935
X-149.895 Y-101.48 Z-2.887
X-149.924 Y-101.459 Z-2.83
X-149.942 Y-101.446 Z-2.767
X-149.948 Y-101.441 Z-2.7
G0 Z5
X-178.793 Y-115.839
Z-2.4
G1 Z-2.7 F850
X-178.8 Y-115.835 Z-2.767
X-178.82 Y-115.826 Z-2.83
X-178.852 Y-115.81 Z-2.887
X-178.895 Y-115.789 Z-2.935
X-178.946 Y-115.764 Z-2.97
X-179.003 Y-115.736 Z-2.992
X-179.063 Y-115.707 Z-3
G3 X-179.132 Y-115.802 I-0.026 J-0.054
G2 X-178.286 Y-117.058 I-2.411 J-2.539
G3 X-177.202 Y-118.113 I2.288 J1.266
G1 X-176.765 Y-118.345
G3 X-174.361 Y-118.978 I3.289 J7.605
G1 X-173.815 Y-119.041
X-173.476 Y-119.045
X-173.169 Y-119.018
G3 X-172.719 Y-118.567 I-0.054 J0.504
G1 X-172.683 Y-118.2
X-172.637 Y-117.916
G3 X-172.88 Y-117.584 I-0.298 J0.037
G1 X-177.95 Y-116.648
G3 X-178.282 Y-117.056 I-0.054 J-0.295
G2 X-177.661 Y-118.623 I-22.329 J-9.758
G3 X-176.422 Y-119.747 I2.485 J1.494
X-173.876 Y-120.417 I2.687 J5.037
G1 X-173.572 Y-120.398
X-173.307 Y-120.357
G3 X-172.855 Y-120.028 I-0.05 J0.544
G1 X-172.821 Y-119.876
G2 X-172.72 Y-118.567 I41.103 J-2.52
G3 X-172.735 Y-118.451 I-0.299 J0.019
X-173.008 Y-118.249 I-0.284 J-0.097
G1 X-177.419 Y-118.09
G3 X-177.715 Y-118.483 I-0.011 J-0.3
G1 X-177.159 Y-120.045
G3 X-176.135 Y-121.11 I2.277 J1.162
X-173.552 Y-121.704 I2.16 J3.483
G1 X-173.303 Y-121.65
G3 X-172.903 Y-121.19 I-0.106 J0.496
G1 X-172.821 Y-119.876
G3 X-173.117 Y-119.567 I-0.3 J0.009
G1 X-176.923 Y-119.515
G3 X-177.225 Y-119.784 I-0.004 J-0.3
X-177.214 Y-119.901 I0.298 J-0.03
G1 X-177.119 Y-120.184
G3 X-176.704 Y-121.466 I189.231 J60.58
X-175.562 Y-122.595 I2.122 J1.004
X-173.352 Y-122.927 I1.564 J2.888
X-172.975 Y-122.311 I-0.173 J0.53
G1 X-172.947 Y-121.885
X-172.903 Y-121.19
G3 X-173.208 Y-120.881 I-0.3 J0.009
G1 X-176.473 Y-120.941
G3 X-176.765 Y-121.202 I0.005 J-0.3
X-176.757 Y-121.318 I0.297 J-0.039
G2 X-176.318 Y-122.815 I-644.235 J-189.617
G3 X-175.051 Y-123.968 I2.011 J0.937
X-173.46 Y-124.163 I1.111 J2.474
G1 X-173.32 Y-124.125
G3 X-172.945 Y-123.609 I-0.124 J0.484
G2 X-172.977 Y-122.452 I12.916 J0.934
G3 X-173.004 Y-122.338 I-0.3 J-0.009
X-173.292 Y-122.162 I-0.273 J-0.123
G1 X-176.087 Y-122.305
G3 X-176.368 Y-122.555 I0.015 J-0.3
X-176.364 Y-122.672 I0.296 J-0.049
X-175.979 Y-124.157 I92.308 J23.135
X-174.2 Y-125.339 I2.032 J1.129
X-173.033 Y-125.202 I0.38 J1.806
G1 X-172.917 Y-125.068
X-172.85 Y-124.908
X-172.841 Y-124.734
G2 X-172.945 Y-123.609 I19.568 J2.374
G3 X-173.265 Y-123.339 I-0.298 J-0.03
G1 X-175.79 Y-123.517
G3 X-176.064 Y-123.87 I0.021 J-0.299
X-175.775 Y-125.295 I88.674 J17.224
X-174.154 Y-126.467 I1.922 J0.952
X-172.989 Y-126.39 I0.454 J1.997
X-172.674 Y-125.821 I-0.178 J0.47
G2 X-172.841 Y-124.734 I12.615 J2.492
G3 X-172.882 Y-124.624 I-0.297 J-0.048
X-173.16 Y-124.483 I-0.255 J-0.158
G1 X-175.57 Y-124.668
G3 X-175.836 Y-124.887 I0.023 J-0.299
X-175.845 Y-125.004 I0.289 J-0.08
G2 X-175.668 Y-126.287 I-20.787 J-3.509
G3 X-174.526 Y-127.453 I1.749 J0.571
X-172.577 Y-127.42 I0.941 J2.048
X-172.424 Y-126.706 I-0.275 J0.432
G2 X-172.674 Y-125.821 I3.245 J1.394
G3 X-172.995 Y-125.593 I-0.292 J-0.071
G1 X-175.416 Y-125.827
G3 X-175.668 Y-126.023 I0.029 J-0.299
X-175.686 Y-126.138 I0.282 J-0.103
G2 X-175.664 Y-127.217 I-8.071 J-0.708
G3 X-174.908 Y-128.347 I1.617 J0.264
X-172.143 Y-128.483 I1.488 J2.094
G1 X-172 Y-128.367
G3 X-171.728 Y-127.904 I-0.33 J0.506
G1 X-171.761 Y-127.723
G3 X-172.273 Y-126.989 I-18.315 J-12.223
G1 X-172.329 Y-126.89
X-172.352 Y-126.847
X-172.393 Y-126.766
G3 X-172.675 Y-126.611 I-0.263 J-0.144
G1 X-175.387 Y-126.787
G3 X-175.637 Y-126.954 I0.019 J-0.299
X-175.667 Y-127.067 I0.269 J-0.133
G2 X-175.8 Y-128.13 I-9.886 J0.694
G3 X-175.156 Y-129.341 I1.679 J0.116
X-172.076 Y-129.807 I1.927 J2.323
X-170.995 Y-128.966 I-0.715 J2.034
X-171.09 Y-128.328 I-0.432 J0.262
G2 X-171.858 Y-127.566 I4.294 J5.092
G3 X-171.954 Y-127.5 I-0.215 J-0.209
X-172.096 Y-127.476 I-0.118 J-0.276
G1 X-175.508 Y-127.742
G3 X-175.779 Y-127.981 I0.023 J-0.299
X-175.969 Y-129.287 I9.296 J-2.021
X-174.958 Y-130.744 I2.047 J0.341
G1 X-174.698 Y-130.904
G3 X-174.381 Y-131 I0.339 J0.551
X-174.267 Y-130.973 I-0.01 J0.3
X-174.152 Y-130.518 I-0.124 J0.273
G1 X-175.415 Y-128.852
G3 X-175.948 Y-128.974 I-0.239 J-0.181
X-176.059 Y-130.16 I6.516 J-1.204
X-176.033 Y-130.759 I6.626 J-0.017 F212.5
G1 X-176.014 Y-130.787 F850
X-175.998 Y-130.816
X-175.972 Y-130.854
X-175.955 Y-130.872
X-175.935 Y-130.891 F212.5
X-175.904 Y-130.916
X-175.872 Y-130.937 F850
G3 X-175.447 Y-130.983 I0.309 J0.865
X-172.153 Y-130.984 I1.659 J68.621
X-170.301 Y-130.016 I-0.31 J2.85
G1 X-170.178 Y-129.837
G3 X-170.024 Y-129.267 I-0.56 J0.458
G1 X-170.1 Y-129.112
X-170.222 Y-128.991
G3 X-170.558 Y-128.996 I-0.163 J-0.252
G1 X-172.633 Y-130.451
G3 X-172.47 Y-130.996 I0.172 J-0.246
G1 X-170.628 Y-130.984
G3 X-169.258 Y-130.17 I-0.013 J1.582
X-169.442 Y-129.492 I-0.438 J0.245
X-169.554 Y-129.457 I-0.142 J-0.264
X-169.784 Y-129.533 I-0.03 J-0.298
G1 X-170.82 Y-130.461
G3 X-170.628 Y-130.984 I0.2 J-0.223
G1 X-169.416 Y-130.975
G3 X-168.555 Y-130.429 I0.007 J0.94
X-168.806 Y-129.85 I-0.505 J0.125
G1 X-168.861 Y-129.829
X-168.919 Y-129.82
G3 X-169.168 Y-129.926 I-0.02 J-0.299
G1 X-169.637 Y-130.482
G3 X-169.416 Y-130.975 I0.229 J-0.193
G1 X-168.643 Y-130.969
X-168.493 Y-130.961 F212.5
X-168.324 Y-130.868 F850
X-168.203 Y-130.716
X-168.15 Y-130.53
X-168.173 Y-130.338
X-168.267 Y-130.17
X-168.42 Y-130.05
G3 X-168.516 Y-130.017 I-0.221 J-0.481
G1 X-168.531 Y-130.014
G3 X-168.759 Y-130.952 I-0.099 J-0.473
X-168.643 Y-130.969 I0.129 J0.465
G1 X-168.175 Y-130.966
X-168.025 Y-130.957 F212.5
X-167.905 Y-130.871 F850
X-167.825 Y-130.746
X-167.797 Y-130.6
X-167.825 Y-130.455
X-167.905 Y-130.33
X-168.025 Y-130.243
G3 X-168.139 Y-130.216 I-0.14 J-0.332
G1 X-168.162 Y-130.215
G3 X-168.29 Y-130.944 I-0.003 J-0.375
X-168.175 Y-130.966 I0.126 J0.354
G1 X-167.934 Y-130.964
X-167.821 Y-130.96
X-167.793 Y-130.959
X-167.752 Y-130.95
X-167.718 Y-130.937
X-167.685 Y-130.92 F212.5
X-167.651 Y-130.896 F850
X-167.631 Y-130.878
X-167.61 Y-130.856 F212.5
X-167.582 Y-130.816 F850
X-167.564 Y-130.781
X-167.552 Y-130.746
X-167.544 Y-130.71
X-167.54 Y-130.675
X-167.541 Y-130.639
X-167.545 Y-130.604
X-167.554 Y-130.568
X-167.568 Y-130.533
X-167.582 Y-130.506
X-167.6 Y-130.48 F212.5
X-167.622 Y-130.453
X-167.651 Y-130.426 F850
G2 X-170.489 Y-128.81 I7.121 J15.806
X-171.09 Y-128.329 I10.965 J14.327
G1 X-171.139 Y-128.296
X-171.193 Y-128.273
X-171.257 Y-128.253 Z-2.992
X-171.317 Y-128.235 Z-2.97
X-171.371 Y-128.218 Z-2.935
X-171.417 Y-128.204 Z-2.887
X-171.451 Y-128.194 Z-2.83
X-171.472 Y-128.187 Z-2.767
X-171.479 Y-128.185 Z-2.7
G0 Z5
X-191.017 Y-95.566
Z-2.4
G1 Z-2.7 F850
X-191.016 Y-95.559 Z-2.767
X-191.014 Y-95.537 Z-2.83
X-191.009 Y-95.502 Z-2.887
X-191.003 Y-95.454 Z-2.935
X-190.996 Y-95.398 Z-2.97
X-190.988 Y-95.335 Z-2.992
X-190.98 Y-95.269 Z-3
G3 X-191.093 Y-95.234 I-0.059 J0.007
G2 X-192.543 Y-98.211 I-132.152 J62.523
G1 X-192.667 Y-98.492
X-192.777 Y-98.827
X-192.872 Y-99.259
G3 X-192.838 Y-101.688 I7.646 J-1.105
X-189.292 Y-110.257 I19.739 J3.15
X-182.736 Y-116.255 I16.905 J11.896
X-182.063 Y-116.072 I0.23 J0.482
G2 X-181.118 Y-115.425 I2.023 J-1.945
G1 X-180.975 Y-115.378
G3 X-180.876 Y-115.314 I-0.11 J0.279
G1 X-180.828 Y-115.268 Z-2.992
X-180.783 Y-115.224 Z-2.97
X-180.742 Y-115.185 Z-2.935
X-180.708 Y-115.152 Z-2.887
X-180.682 Y-115.127 Z-2.83
X-180.666 Y-115.111 Z-2.767
X-180.661 Y-115.106 Z-2.7
G0 Z5
X-192.475 Y-98.545
Z-2.4
G1 Z-2.7 F850
X-192.474 Y-98.538 Z-2.767
X-192.471 Y-98.516 Z-2.83
X-192.466 Y-98.48 Z-2.887
X-192.459 Y-98.433 Z-2.935
X-192.45 Y-98.377 Z-2.97
X-192.441 Y-98.314 Z-2.992
X-192.431 Y-98.248 Z-3
G3 X-192.543 Y-98.211 I-0.059 J0.009
G2 X-193.795 Y-100.625 I-106.85 J53.898
G3 X-194.054 Y-102.138 I3.781 J-1.424
X-193.659 Y-104.595 I9.235 J0.223
X-189.902 Y-111.897 I20.354 J5.857
G1 X-189.797 Y-111.953
X-189.688 Y-111.99
G2 X-188.283 Y-112.384 I-1.159 J-6.832
X-187.268 Y-113.811 I-0.743 J-1.603
G3 X-186.552 Y-115.082 I3.571 J1.173
X-184.691 Y-116.734 I6.847 J5.841
G1 X-184.2 Y-117.066
X-183.892 Y-117.23
X-183.603 Y-117.349
G3 X-183.035 Y-117.197 I0.178 J0.473
G2 X-182.138 Y-116.152 I14.403 J-11.455
G1 X-182.103 Y-116.105
X-182.078 Y-116.052
G3 X-182.227 Y-115.686 I-0.283 J0.098
G1 X-186.861 Y-113.37
G3 X-187.281 Y-113.547 I-0.134 J-0.268
X-187.294 Y-113.663 I0.286 J-0.092
G2 X-187.326 Y-114.371 I-1.779 J-0.275
G1 X-187.391 Y-114.797
G3 X-187.088 Y-116.086 I2.202 J-0.162
X-184.946 Y-118.228 I4.938 J2.798
G1 X-184.658 Y-118.364
X-184.454 Y-118.438
X-184.3 Y-118.467
X-184.146 Y-118.447
X-184.004 Y-118.381
X-183.89 Y-118.274
X-183.611 Y-117.916
X-183.243 Y-117.453
X-183.035 Y-117.197
G3 X-182.984 Y-117.092 I-0.239 J0.181
X-183.127 Y-116.754 I-0.29 J0.076
G1 X-186.949 Y-114.593
G3 X-187.347 Y-114.689 I-0.148 J-0.261
X-187.391 Y-114.797 I0.25 J-0.166
X-187.579 Y-116.564 I34.068 J-4.519
X-187.05 Y-118.05 I2.716 J0.129
X-185.387 Y-119.455 I3.254 J2.166
G1 X-185.249 Y-119.498
G3 X-184.686 Y-119.322 I0.162 J0.473
G2 X-183.891 Y-118.274 I49.358 J-36.625
G3 X-183.842 Y-118.168 I-0.243 J0.176
X-183.99 Y-117.835 I-0.292 J0.07
G1 X-187.126 Y-116.133
G3 X-187.566 Y-116.357 I-0.143 J-0.264
G2 X-187.756 Y-118.093 I-77.262 J7.55
G3 X-187.191 Y-119.588 I2.379 J0.044
X-185.994 Y-120.504 I2.198 J1.633
X-185.405 Y-120.319 I0.172 J0.479
G2 X-184.686 Y-119.322 I29.308 J-20.413
G3 X-184.639 Y-119.215 I-0.247 J0.17
X-184.805 Y-118.881 I-0.294 J0.062
G1 X-187.315 Y-117.694
G3 X-187.697 Y-117.806 I-0.128 J-0.271
X-187.739 Y-117.916 I0.255 J-0.159
G2 X-188.005 Y-119.486 I-23.753 J3.219
G3 X-186.612 Y-121.459 I2.247 J0.108
X-185.975 Y-121.176 I0.166 J0.485
G2 X-185.406 Y-120.319 I17.518 J-11.009
G3 X-185.363 Y-120.21 I-0.252 J0.162
X-185.538 Y-119.881 I-0.295 J0.053
G1 X-187.545 Y-119.003
G3 X-187.898 Y-119.088 I-0.12 J-0.275
X-187.953 Y-119.192 I0.232 J-0.19
G2 X-188.364 Y-120.062 I-2.077 J0.45
G3 X-188.247 Y-121.379 I1.5 J-0.531
X-187.147 Y-122.403 I1.809 J0.84
X-186.519 Y-122.156 I0.176 J0.473
G2 X-186.011 Y-121.241 I12.865 J-6.542
G3 X-185.976 Y-121.129 I-0.263 J0.143
X-186.131 Y-120.834 I-0.298 J0.032
G1 X-187.902 Y-119.867
G3 X-188.186 Y-119.865 I-0.144 J-0.263
X-188.277 Y-119.939 I0.14 J-0.265
G2 X-188.852 Y-120.522 I-3.223 J2.603
G3 X-189.07 Y-121.768 I1.153 J-0.844
X-187.537 Y-123.425 I2.147 J0.45
X-186.929 Y-123.019 I0.094 J0.518
G1 X-186.734 Y-122.594
X-186.645 Y-122.41
X-186.519 Y-122.156
G3 X-186.608 Y-121.796 I-0.273 J0.123
G1 X-188.372 Y-120.419
G3 X-188.743 Y-120.42 I-0.185 J-0.236
G2 X-189.504 Y-120.982 I-6.622 J8.17
G3 X-189.91 Y-122.198 I1.048 J-1.026
X-187.919 Y-124.5 I2.541 J0.186
X-187.358 Y-124.158 I0.067 J0.521
G2 X-186.968 Y-123.122 I13.155 J-4.37
G3 X-186.949 Y-123.007 I-0.281 J0.104
X-187.043 Y-122.8 I-0.3 J-0.011
G1 X-189.021 Y-120.931
G3 X-189.273 Y-120.853 I-0.206 J-0.218
X-189.383 Y-120.893 I0.046 J-0.296
G2 X-190.314 Y-121.477 I-12.748 J19.278
G3 X-190.792 Y-122.975 I1.22 J-1.215
X-189.39 Y-125.213 I3.015 J0.332
X-188.182 Y-125.635 I1.343 J1.902
X-187.68 Y-125.26 I0.014 J0.505
G2 X-187.359 Y-124.157 I13.012 J-3.184
G3 X-187.348 Y-124.041 I-0.287 J0.086
X-187.434 Y-123.86 I-0.298 J-0.031
G1 X-189.832 Y-121.447
G3 X-190.077 Y-121.36 I-0.213 J-0.211
X-190.188 Y-121.395 I0.032 J-0.298
X-191.345 Y-122.23 I3.112 J-5.53
X-191.616 Y-122.739 I0.978 J-0.847
G1 X-191.625 Y-122.803
X-191.627 Y-122.867
G3 X-191.595 Y-122.98 I0.299 J0.023
X-191.069 Y-122.996 I0.268 J0.136
G1 X-190.783 Y-122.51
G3 X-191.235 Y-122.128 I-0.259 J0.152
X-191.624 Y-122.63 I0.717 J-0.957
X-191.5 Y-123.869 I6.06 J-0.022
X-188.718 Y-126.815 I3.311 J0.341
G1 X-188.488 Y-126.821
X-188.378 Y-126.816
X-188.21 Y-126.778
G3 X-187.892 Y-126.28 I-0.214 J0.487
G2 X-187.68 Y-125.26 I16.869 J-2.973
G3 X-187.677 Y-125.143 I-0.292 J0.066
X-187.876 Y-124.91 I-0.296 J-0.051
G1 X-191.059 Y-123.827
G3 X-191.447 Y-124.037 I-0.097 J-0.284
X-191.453 Y-124.154 I0.291 J-0.075
G2 X-191.088 Y-126.286 I-33.434 J-6.815
G3 X-189.885 Y-127.667 I2.255 J0.75
X-188.448 Y-127.973 I1.168 J1.958
X-188.023 Y-127.511 I-0.074 J0.495
G2 X-187.906 Y-126.388 I10.542 J-0.536
G3 X-187.916 Y-126.272 I-0.298 J0.033
X-188.176 Y-126.057 I-0.288 J-0.084
G1 X-190.786 Y-125.816
G3 X-191.099 Y-126.022 I-0.028 J-0.299
X-191.112 Y-126.138 I0.285 J-0.093
G2 X-191.061 Y-127.422 I-7.999 J-0.966
G3 X-190.001 Y-128.802 I1.963 J0.411
X-188.412 Y-129.103 I1.182 J1.895
X-188.027 Y-128.548 I-0.118 J0.493
G2 X-188.024 Y-127.511 I10.298 J0.487
G3 X-188.043 Y-127.395 I-0.3 J0.009
X-188.298 Y-127.203 I-0.28 J-0.107
G1 X-190.735 Y-126.997
G3 X-191.028 Y-127.16 I-0.025 J-0.299
X-191.06 Y-127.272 I0.267 J-0.136
G2 X-191.148 Y-128.415 I-515.315 J39.129
G3 X-190.512 Y-129.65 I1.702 J0.095
X-188.219 Y-130.21 I1.647 J1.765
X-187.886 Y-129.615 I-0.175 J0.489
G1 X-187.907 Y-129.56
X-187.938 Y-129.51
G3 X-188.038 Y-129.426 I-0.239 J-0.182
G1 X-190.704 Y-128.04
G3 X-191.101 Y-128.154 I-0.138 J-0.266
X-191.14 Y-128.265 I0.259 J-0.152
X-191.229 Y-129.803 I10.681 J-1.393
X-191.08 Y-130.1 I0.641 J0.136
X-190.982 Y-130.164 I0.21 J0.215
X-190.581 Y-129.807 I0.111 J0.279
G1 X-190.643 Y-129.58
G3 X-191.207 Y-129.539 I-0.289 J-0.079
X-191.232 Y-129.654 I0.275 J-0.12
G1 Y-129.682
X-191.225 Y-129.824
X-191.214 Y-129.895
X-191.204 Y-129.93
G3 X-190.918 Y-130.249 I0.763 J0.396
X-189.905 Y-130.842 I2.481 J3.079
X-189.055 Y-130.953 I0.737 J2.34
X-188.036 Y-130.958 I0.549 J7.386
X-187.654 Y-130.272 I-0.092 J0.5
G1 X-187.684 Y-130.221
X-187.723 Y-130.177
G3 X-188.124 Y-130.167 I-0.206 J-0.218
G1 X-188.449 Y-130.445
G3 X-188.381 Y-130.945 I0.195 J-0.228
X-188.268 Y-130.973 I0.128 J0.271
G1 X-187.92 Y-130.975
X-187.779 Y-130.973
X-187.744 Y-130.968
X-187.709 Y-130.958 F212.5
X-187.673 Y-130.943 F850
X-187.637 Y-130.921
X-187.606 Y-130.897
X-187.576 Y-130.869
X-187.553 Y-130.843
X-187.535 Y-130.816
X-187.52 Y-130.789
X-187.509 Y-130.761
X-187.501 Y-130.733
X-187.495 Y-130.706
X-187.492 Y-130.675
Y-130.645 F212.5
X-187.495 Y-130.616
X-187.505 Y-130.574 F850
G2 X-188.018 Y-128.574 I3.662 J2.007
G1 X-188.034 Y-128.516
X-188.06 Y-128.463
X-188.092 Y-128.404 Z-2.992
X-188.123 Y-128.349 Z-2.97
X-188.151 Y-128.299 Z-2.935
X-188.174 Y-128.258 Z-2.887
X-188.191 Y-128.226 Z-2.83
X-188.202 Y-128.207 Z-2.767
X-188.205 Y-128.2 Z-2.7
G0 Z5
X-193.664 Y-100.815
Z-2.4
G1 Z-2.7 F850
X-193.663 Y-100.808 Z-2.767
X-193.659 Y-100.786 Z-2.83
X-193.652 Y-100.751 Z-2.887
X-193.644 Y-100.704 Z-2.935
X-193.634 Y-100.648 Z-2.97
X-193.623 Y-100.586 Z-2.992
X-193.611 Y-100.52 Z-3
G3 X-193.722 Y-100.479 I-0.059 J0.011
G2 X-194.822 Y-102.444 I-88.561 J48.339
G3 X-195.078 Y-103.675 I3.076 J-1.282
X-194.705 Y-106.04 I7.188 J-0.077
X-192.039 Y-111.445 I19.285 J6.153
G1 X-191.927 Y-111.513
X-191.806 Y-111.556
G3 X-189.688 Y-111.99 I37.387 J177.263
X-189.571 Y-111.987 I0.051 J0.296
X-189.37 Y-111.556 I-0.066 J0.293
G1 X-194.205 Y-102.285
G3 X-194.643 Y-102.179 I-0.266 J-0.139
X-194.724 Y-102.263 I0.173 J-0.245
G2 X-195.795 Y-103.996 I-40.548 J23.867
G3 X-196.084 Y-105.453 I2.788 J-1.31
G1 X-196.052 Y-105.981
G3 X-195.376 Y-108.376 I9.141 J1.287
X-194.109 Y-110.914 I16.393 J6.597
G1 X-194.004 Y-110.988
X-193.89 Y-111.039
G3 X-191.806 Y-111.556 I8.068 J28.055
X-191.689 Y-111.554 I0.053 J0.295
X-191.487 Y-111.123 I-0.064 J0.293
G1 X-195.206 Y-103.906
G3 X-195.631 Y-103.789 I-0.267 J-0.137
X-195.716 Y-103.869 I0.159 J-0.255
G2 X-196.756 Y-105.364 I-31.262 J20.622
G3 X-197.083 Y-106.626 I2.379 J-1.291
G1 X-197.081 Y-107.06
G3 X-196.498 Y-109.362 I6.895 J0.52
G1 X-196.455 Y-109.409
G3 X-195.939 Y-109.186 I0.216 J0.208
G1 X-196.129 Y-105.403
G3 X-196.575 Y-105.156 I-0.3 J-0.015
X-196.664 Y-105.231 I0.146 J-0.262
G2 X-197.722 Y-106.582 I-24.794 J18.328
G3 X-198.025 Y-107.418 I1.371 J-0.97
G1 X-197.992 Y-107.568
X-197.917 Y-107.7
G3 X-197.405 Y-107.603 I0.228 J0.195
G1 X-197.103 Y-106.731
G3 X-197.61 Y-106.433 I-0.283 J0.098
G1 X-197.984 Y-106.884
X-198.126 Y-107.059
X-198.154 Y-107.1
X-198.173 Y-107.142 F212.5
X-198.183 Y-107.177 F850
X-198.189 Y-107.213
X-198.191 Y-107.248
X-198.188 Y-107.284
X-198.182 Y-107.319 F212.5
X-198.17 Y-107.355
X-198.154 Y-107.39 F850
G3 X-195.491 Y-110.408 I23.704 J18.237
X-193.89 Y-111.036 I3.449 J6.432
G1 X-193.832 Y-111.047
X-193.774 Y-111.046
X-193.707 Y-111.037 Z-2.992
X-193.645 Y-111.029 Z-2.97
X-193.588 Y-111.021 Z-2.935
X-193.541 Y-111.015 Z-2.887
X-193.506 Y-111.01 Z-2.83
X-193.484 Y-111.007 Z-2.767
X-193.476 Y-111.006 Z-2.7
G0 Z5
X-157.323 Y-86.733
Z-2.4
G1 Z-2.7 F850
X-157.318 Y-86.738 Z-2.767
X-157.303 Y-86.755 Z-2.83
X-157.279 Y-86.781 Z-2.887
X-157.247 Y-86.816 Z-2.935
X-157.208 Y-86.857 Z-2.97
X-157.165 Y-86.904 Z-2.992
X-157.119 Y-86.953 Z-3
G3 X-157.02 Y-86.889 I0.044 J0.041
X-158.869 Y-82.788 I-406.46 J-180.747
X-160.324 Y-81.151 I-5.282 J-3.231
X-165.212 Y-78.439 I-10.726 J-13.568
X-183.064 Y-80.107 I-7.205 J-19.248
X-183.665 Y-80.941 I4.686 J-4.008
X-185.358 Y-83.662 I32.991 J-22.414
X-185.392 Y-83.774 I0.265 J-0.14
G1 X-185.398 Y-83.841 Z-2.992
X-185.404 Y-83.904 Z-2.97
X-185.409 Y-83.961 Z-2.935
X-185.414 Y-84.008 Z-2.887
X-185.417 Y-84.043 Z-2.83
X-185.419 Y-84.066 Z-2.767
X-185.42 Y-84.073 Z-2.7
G0 Z5
X-158.978 Y-83.023
Z-2.4
G1 Z-2.7 F850
X-158.973 Y-83.029 Z-2.767
X-158.958 Y-83.045 Z-2.83
X-158.934 Y-83.072 Z-2.887
X-158.902 Y-83.107 Z-2.935
X-158.864 Y-83.149 Z-2.97
X-158.822 Y-83.197 Z-2.992
X-158.777 Y-83.246 Z-3
G3 X-158.677 Y-83.184 I0.044 J0.04
X-159.956 Y-80.264 I-209.836 J-90.14
G1 X-160.129 Y-79.993
X-160.362 Y-79.69
G3 X-162.211 Y-78.228 I-5.117 J-4.573
X-168.663 Y-75.992 I-9.544 J-17.111
X-180.28 Y-77.122 I-3.765 J-21.581
X-180.837 Y-77.345 I7.852 J-20.451 F212.5
G1 X-180.9 Y-77.392
G3 X-183.157 Y-80.206 I22.778 J-20.573 F850
G1 X-183.185 Y-80.258
X-183.203 Y-80.314
X-183.216 Y-80.379 Z-2.992
X-183.229 Y-80.441 Z-2.97
X-183.24 Y-80.497 Z-2.935
X-183.249 Y-80.543 Z-2.887
X-183.256 Y-80.578 Z-2.83
X-183.261 Y-80.6 Z-2.767
X-183.262 Y-80.608 Z-2.7
G0 Z5
X-160.149 Y-80.328
Z-2.4
G1 Z-2.7 F850
X-160.144 Y-80.333 Z-2.767
X-160.129 Y-80.35 Z-2.83
X-160.105 Y-80.377 Z-2.887
X-160.074 Y-80.412 Z-2.935
X-160.036 Y-80.455 Z-2.97
X-159.994 Y-80.502 Z-2.992
X-159.949 Y-80.552 Z-3
G3 X-159.849 Y-80.49 I0.045 J0.04
X-160.865 Y-78.12 I-232.901 J-98.431
X-161.806 Y-77.031 I-3.185 J-1.8
X-163.969 Y-75.803 I-5.215 J-6.665
X-172.498 Y-74.202 I-8.258 J-20.475
X-178.774 Y-75.078 I-0.007 J-22.867
G1 X-178.854 Y-75.138
G2 X-180.636 Y-77.088 I-56.572 J49.884
G1 X-180.891 Y-77.372
X-180.957 Y-77.447
G3 X-181.012 Y-77.55 I0.232 J-0.19
G1 X-181.031 Y-77.614 Z-2.992
X-181.049 Y-77.675 Z-2.97
X-181.065 Y-77.729 Z-2.935
X-181.079 Y-77.775 Z-2.887
X-181.089 Y-77.809 Z-2.83
X-181.096 Y-77.83 Z-2.767
X-181.098 Y-77.838 Z-2.7
G0 Z5
X-161.047 Y-78.196
Z-2.4
G1 Z-2.7 F850
X-161.042 Y-78.201 Z-2.767
X-161.028 Y-78.218 Z-2.83
X-161.005 Y-78.245 Z-2.887
X-160.974 Y-78.282 Z-2.935
X-160.937 Y-78.325 Z-2.97
X-160.896 Y-78.373 Z-2.992
X-160.852 Y-78.424 Z-3
G3 X-160.751 Y-78.364 I0.045 J0.039
G2 X-161.147 Y-77.231 I5.508 J2.565
G3 X-161.431 Y-76.18 I-1.65 J0.118
X-162.504 Y-75.083 I-3.271 J-2.124
X-164.733 Y-73.978 I-5.012 J-7.31
X-173.328 Y-72.748 I-7.52 J-21.893
X-177.519 Y-73.254 I0.728 J-23.624
X-177.918 Y-73.686 I0.099 J-0.493
G1 X-178.028 Y-73.969
G2 X-178.926 Y-75.204 I-5.794 J3.273
G1 X-178.957 Y-75.255
X-178.977 Y-75.311
X-178.995 Y-75.375 Z-2.992
X-179.012 Y-75.436 Z-2.97
X-179.028 Y-75.491 Z-2.935
X-179.04 Y-75.536 Z-2.887
X-179.05 Y-75.571 Z-2.83
X-179.056 Y-75.592 Z-2.767
X-179.058 Y-75.6 Z-2.7
G0 Z5
X-161.353 Y-76.77
Z-2.4
G1 Z-2.7 F850
X-161.351 Y-76.777 Z-2.767
X-161.345 Y-76.799 Z-2.83
X-161.335 Y-76.833 Z-2.887
X-161.321 Y-76.878 Z-2.935
X-161.305 Y-76.933 Z-2.97
X-161.288 Y-76.994 Z-2.992
X-161.269 Y-77.058 Z-3
G3 X-161.152 Y-77.045 I0.057 J0.017
G2 X-160.935 Y-76.243 I1.726 J-0.035
G3 X-161.139 Y-74.996 I-1.717 J0.359
X-162.077 Y-73.858 I-3.169 J-1.655
X-164.2 Y-72.653 I-4.681 J-5.777
X-170.277 Y-71.343 I-7.447 J-19.786
X-177.236 Y-71.705 I-2.181 J-25.138
G1 X-177.534 Y-71.812
X-177.652 Y-71.863
X-177.79 Y-71.955
X-177.89 Y-72.087
X-177.94 Y-72.244
X-177.935 Y-72.41
G2 X-177.865 Y-73.402 I-4.014 J-0.782
G1 X-177.889 Y-73.544
X-177.909 Y-73.637
G3 X-177.907 Y-73.754 I0.295 J-0.054
G1 X-177.893 Y-73.819 Z-2.992
X-177.879 Y-73.881 Z-2.97
X-177.867 Y-73.937 Z-2.935
X-177.857 Y-73.983 Z-2.887
X-177.85 Y-74.018 Z-2.83
X-177.845 Y-74.04 Z-2.767
X-177.843 Y-74.047 Z-2.7
G0 Z5
X-161.073 Y-76.047
Z-2.4
G1 Z-2.7 F850
X-161.074 Y-76.054 Z-2.767
X-161.076 Y-76.077 Z-2.83
X-161.08 Y-76.112 Z-2.887
X-161.086 Y-76.159 Z-2.935
X-161.093 Y-76.216 Z-2.97
X-161.101 Y-76.279 Z-2.992
X-161.108 Y-76.345 Z-3
G3 X-160.996 Y-76.379 I0.059 J-0.007
G2 X-160.485 Y-75.759 I1.594 J-0.792
G3 X-160.309 Y-74.6 I-1.378 J0.802
X-160.982 Y-73.212 I-3.15 J-0.671
X-162.718 Y-71.794 I-4.458 J-3.686
X-166.219 Y-70.5 I-6.551 J-12.342
X-176.749 Y-70.125 I-6.194 J-25.91
G1 X-177.235 Y-70.239
X-177.568 Y-70.354
X-177.829 Y-70.474
X-178.01 Y-70.58
G3 X-178.238 Y-71.148 I0.253 J-0.431
G2 X-177.935 Y-72.41 I-11.169 J-3.348
G3 X-177.886 Y-72.516 I0.292 J0.07
G1 X-177.847 Y-72.57 Z-2.992
X-177.81 Y-72.622 Z-2.97
X-177.776 Y-72.668 Z-2.935
X-177.748 Y-72.706 Z-2.887
X-177.727 Y-72.735 Z-2.83
X-177.714 Y-72.753 Z-2.767
X-177.71 Y-72.759 Z-2.7
G0 Z5
X-160.525 Y-75.527
Z-2.4
G1 Z-2.7 F850
X-160.529 Y-75.533 Z-2.767
X-160.541 Y-75.552 Z-2.83
X-160.559 Y-75.583 Z-2.887
X-160.584 Y-75.623 Z-2.935
X-160.614 Y-75.672 Z-2.97
X-160.648 Y-75.726 Z-2.992
X-160.683 Y-75.782 Z-3
G3 X-160.595 Y-75.861 I0.051 J-0.031
G2 X-159.955 Y-75.453 I2.26 J-2.841
G3 X-159.442 Y-74.249 I-0.955 J1.118
X-159.793 Y-72.813 I-2.956 J0.038
G1 X-160.002 Y-72.449
G3 X-161.571 Y-70.87 I-4.724 J-3.123
X-164.966 Y-69.328 I-6.544 J-9.899
X-172.356 Y-68.305 I-7.155 J-24.498
X-176.706 Y-68.631 I-0.315 J-25.051
G1 X-177.311 Y-68.777
X-177.759 Y-68.931
X-178.075 Y-69.075
X-178.321 Y-69.219
G3 X-178.634 Y-69.686 I0.245 J-0.503
G1 X-178.616 Y-69.836
G3 X-178.237 Y-71.148 I78.089 J21.836
G1 X-178.214 Y-71.202
X-178.181 Y-71.25
X-178.138 Y-71.301 Z-2.992
X-178.097 Y-71.35 Z-2.97
X-178.06 Y-71.393 Z-2.935
X-178.029 Y-71.429 Z-2.887
X-178.006 Y-71.456 Z-2.83
X-177.992 Y-71.473 Z-2.767
X-177.987 Y-71.479 Z-2.7
G0 Z5
X-159.944 Y-75.218
Z-2.4
G1 Z-2.7 F850
X-159.949 Y-75.224 Z-2.767
X-159.964 Y-75.239 Z-2.83
X-159.989 Y-75.265 Z-2.887
X-160.022 Y-75.299 Z-2.935
X-160.062 Y-75.34 Z-2.97
X-160.106 Y-75.385 Z-2.992
X-160.153 Y-75.433 Z-3
G3 X-160.085 Y-75.529 I0.043 J-0.042
G2 X-159.154 Y-75.092 I15.473 J-31.761
G3 X-158.484 Y-73.9 I-0.975 J1.333
X-158.666 Y-72.346 I-3.111 J0.424
G1 X-158.838 Y-71.936
G3 X-160.199 Y-70.18 I-5.107 J-2.554
X-162.846 Y-68.555 I-6.304 J-7.298
X-168.256 Y-67.117 I-7.961 J-19.061
X-176.341 Y-67.086 I-4.153 J-28.685
G1 X-176.954 Y-67.205
X-177.558 Y-67.36
X-178.077 Y-67.544
X-178.434 Y-67.713
X-178.689 Y-67.865
X-178.761 Y-67.919
X-178.885 Y-68.053
X-178.953 Y-68.223
X-178.955 Y-68.405
G3 X-178.615 Y-69.836 I12.814 J2.294
G1 X-178.593 Y-69.89
X-178.56 Y-69.939
X-178.517 Y-69.99 Z-2.992
X-178.476 Y-70.038 Z-2.97
X-178.439 Y-70.082 Z-2.935
X-178.409 Y-70.118 Z-2.887
X-178.386 Y-70.145 Z-2.83
X-178.372 Y-70.162 Z-2.767
X-178.367 Y-70.168 Z-2.7
G0 Z5
X-159.129 Y-74.857
Z-2.4
G1 Z-2.7 F850
X-159.135 Y-74.863 Z-2.767
X-159.151 Y-74.877 Z-2.83
X-159.178 Y-74.902 Z-2.887
X-159.213 Y-74.934 Z-2.935
X-159.255 Y-74.972 Z-2.97
X-159.302 Y-75.015 Z-2.992
X-159.351 Y-75.06 Z-3
G3 X-159.288 Y-75.159 I0.04 J-0.044
X-158.104 Y-74.258 I-1.274 J2.901
X-157.618 Y-73.324 I-4.736 J3.06
X-157.673 Y-71.587 I-2.915 J0.777
X-158.673 Y-69.775 I-4.978 J-1.565
X-161.085 Y-67.822 I-6.718 J-5.831
X-165.746 Y-66.088 I-8.238 J-15.012
X-176.285 Y-65.595 I-6.638 J-29.006
X-178.549 Y-66.212 I1.321 J-9.304
G1 X-178.815 Y-66.356
X-178.958 Y-66.47
X-179.051 Y-66.627
X-179.082 Y-66.808
G3 X-178.958 Y-68.406 I9.611 J-0.061
G1 X-178.939 Y-68.462
X-178.91 Y-68.513
X-178.872 Y-68.568 Z-2.992
X-178.836 Y-68.62 Z-2.97
X-178.804 Y-68.667 Z-2.935
X-178.777 Y-68.707 Z-2.887
X-178.757 Y-68.736 Z-2.83
X-178.745 Y-68.755 Z-2.767
X-178.741 Y-68.761 Z-2.7
G0 Z5
X-157.832 Y-73.349
Z-2.4
G1 Z-2.7 F850
X-157.833 Y-73.357 Z-2.767
X-157.837 Y-73.378 Z-2.83
X-157.844 Y-73.414 Z-2.887
X-157.853 Y-73.46 Z-2.935
X-157.863 Y-73.516 Z-2.97
X-157.875 Y-73.579 Z-2.992
X-157.887 Y-73.644 Z-3
G3 X-157.777 Y-73.686 I0.059 J-0.011
G2 X-157.402 Y-73.119 I1.831 J-0.803
X-157.098 Y-72.871 I1.447 J-1.466
G3 X-156.636 Y-71.68 I-1.357 J1.211
X-157.033 Y-69.89 I-3.829 J0.09
X-159.001 Y-67.51 I-6.149 J-3.08
X-159.571 Y-67.481 I-0.306 J-0.406
G2 X-161.554 Y-67.209 I-0.785 J1.636
X-162.297 Y-66.33 I1.921 J2.378
G1 X-162.477 Y-66.131
X-162.718 Y-65.912
X-163.047 Y-65.668
G3 X-165.255 Y-64.73 I-4 J-6.346
X-171.422 Y-63.887 I-6.588 J-25.218
X-177.016 Y-64.236 I-1.171 J-26.25
X-178.759 Y-64.77 I1.783 J-8.927
X-179.042 Y-65.322 I0.283 J-0.493
X-179.081 Y-66.808 I14.321 J-1.116
G1 X-179.072 Y-66.866
X-179.053 Y-66.921
X-179.024 Y-66.982 Z-2.992
X-178.996 Y-67.039 Z-2.97
X-178.972 Y-67.09 Z-2.935
X-178.951 Y-67.133 Z-2.887
X-178.936 Y-67.165 Z-2.83
X-178.926 Y-67.185 Z-2.767
X-178.923 Y-67.192 Z-2.7
G0 Z5
X-162.531 Y-66.327
Z-2.4
G1 Z-2.7 F850
X-162.525 Y-66.332 Z-2.767
X-162.509 Y-66.347 Z-2.83
X-162.482 Y-66.371 Z-2.887
X-162.447 Y-66.403 Z-2.935
X-162.405 Y-66.441 Z-2.97
X-162.358 Y-66.483 Z-2.992
X-162.308 Y-66.528 Z-3
G3 X-162.215 Y-66.456 I0.04 J0.044
G2 X-162.722 Y-65.178 I3.647 J2.186
G3 X-163.741 Y-64.028 I-2.463 J-1.155
G1 X-164.157 Y-63.768
G3 X-166.509 Y-62.958 I-3.932 J-7.6
X-173.334 Y-62.404 I-5.733 J-28.288
X-177.666 Y-62.891 I0.159 J-20.924
G1 X-178.267 Y-63.061
X-178.425 Y-63.12
X-178.564 Y-63.2
X-178.671 Y-63.319
X-178.735 Y-63.467
G3 X-179.032 Y-65.172 I9.814 J-2.588
X-179.017 Y-65.288 I0.299 J-0.019
G1 X-178.995 Y-65.351 Z-2.992
X-178.975 Y-65.411 Z-2.97
X-178.956 Y-65.465 Z-2.935
X-178.941 Y-65.51 Z-2.887
X-178.93 Y-65.544 Z-2.83
X-178.922 Y-65.565 Z-2.767
X-178.92 Y-65.572 Z-2.7
G0 Z5
X-162.956 Y-65.12
Z-2.4
G1 Z-2.7 F850
X-162.952 Y-65.127 Z-2.767
X-162.94 Y-65.145 Z-2.83
X-162.92 Y-65.175 Z-2.887
X-162.893 Y-65.214 Z-2.935
X-162.862 Y-65.261 Z-2.97
X-162.826 Y-65.314 Z-2.992
X-162.789 Y-65.369 Z-3
G3 X-162.681 Y-65.322 I0.05 J0.033
G2 X-162.854 Y-64.038 I5.632 J1.412
G3 X-163.509 Y-62.932 I-2.172 J-0.54
G1 X-163.772 Y-62.694
X-164.113 Y-62.445
G3 X-166.313 Y-61.545 I-3.719 J-5.955
X-171.257 Y-60.932 I-5.369 J-23.057
X-177.469 Y-61.346 I-1.328 J-26.889
G1 X-177.768 Y-61.428
G3 X-178.138 Y-61.783 I0.129 J-0.506
X-178.736 Y-63.467 I9.55 J-4.335
G1 X-178.742 Y-63.525
X-178.737 Y-63.584
X-178.725 Y-63.65 Z-2.992
X-178.713 Y-63.712 Z-2.97
X-178.703 Y-63.768 Z-2.935
X-178.694 Y-63.815 Z-2.887
X-178.688 Y-63.85 Z-2.83
X-178.684 Y-63.872 Z-2.767
X-178.683 Y-63.879 Z-2.7
G0 Z5
X-163.065 Y-63.927
Z-2.4
G1 Z-2.7 F850
X-163.062 Y-63.934 Z-2.767
X-163.055 Y-63.955 Z-2.83
X-163.042 Y-63.988 Z-2.887
X-163.026 Y-64.033 Z-2.935
X-163.006 Y-64.086 Z-2.97
X-162.984 Y-64.146 Z-2.992
X-162.961 Y-64.208 Z-3
G3 X-162.845 Y-64.188 I0.056 J0.021
X-162.971 Y-62.77 I-7.128 J0.08
X-163.893 Y-61.266 I-2.523 J-0.512
G1 X-164.216 Y-61.013
G3 X-166.388 Y-60.07 I-3.686 J-5.519
X-170.707 Y-59.476 I-5.035 J-20.625
X-176.841 Y-59.741 I-1.798 J-29.594
G1 X-176.981 Y-59.79
X-177.104 Y-59.873
X-177.196 Y-59.987
G3 X-178.108 Y-61.709 I14.074 J-8.558
G1 X-178.125 Y-61.766
X-178.13 Y-61.824
X-178.129 Y-61.891 Z-2.992
Y-61.954 Z-2.97
X-178.128 Y-62.011 Z-2.935
Y-62.059 Z-2.887
Y-62.095 Z-2.83
Y-62.117 Z-2.767
Y-62.124 Z-2.7
G0 Z5
X-163.323 Y-62.282
Z-2.4
G1 Z-2.7 F850
X-163.319 Y-62.288 Z-2.767
X-163.307 Y-62.307 Z-2.83
X-163.287 Y-62.337 Z-2.887
X-163.261 Y-62.376 Z-2.935
X-163.23 Y-62.424 Z-2.97
X-163.195 Y-62.477 Z-2.992
X-163.158 Y-62.533 Z-3
G3 X-163.05 Y-62.487 I0.05 J0.033
X-164.106 Y-60.781 I-3.46 J-0.962
X-166.008 Y-59.8 I-3.896 J-5.22
G2 X-167.963 Y-58.791 I3.689 J9.547
G1 X-168.266 Y-58.62
X-168.686 Y-58.444
G3 X-171.128 Y-58.008 I-2.738 J-8.282
X-175.76 Y-58.115 I-1.699 J-26.643
G1 X-175.896 Y-58.151
X-176.018 Y-58.223
G3 X-176.626 Y-59.086 I4.776 J-4.009
X-177.196 Y-59.987 I15.331 J-10.331
X-177.231 Y-60.099 I0.264 J-0.143
X-176.901 Y-60.429 I0.298 J-0.031
G1 X-167.885 Y-59.474
G3 X-167.653 Y-59.033 I-0.032 J0.298
X-167.727 Y-58.942 I-0.264 J-0.143
G2 X-168.613 Y-57.88 I1.8 J2.401
G3 X-169.508 Y-57.141 I-1.943 J-1.441
G1 X-169.873 Y-56.975
G3 X-172.215 Y-56.531 I-2.523 J-6.909
X-174.612 Y-56.541 I-1.114 J-19.617
G1 X-174.761 Y-56.571
X-174.894 Y-56.645
X-174.999 Y-56.756
G2 X-176.114 Y-58.326 I-80.1 J55.749
G3 X-176.158 Y-58.434 I0.252 J-0.163
X-175.848 Y-58.789 I0.295 J-0.055
G1 X-168.796 Y-58.436
G3 X-168.539 Y-58.01 I-0.015 J0.3
G2 X-168.89 Y-56.952 I2.766 J1.506
G3 X-169.606 Y-56.024 I-1.836 J-0.677
G1 X-169.857 Y-55.848
X-170.186 Y-55.667
X-170.601 Y-55.489
G3 X-172.994 Y-55.072 I-2.5 J-7.276
G1 X-173.618 Y-55.054
G3 X-174.144 Y-55.344 I-0.051 J-0.53
G2 X-175.002 Y-56.754 I-8.215 J4.036
G1 X-175.027 Y-56.808
X-175.042 Y-56.865
G3 X-174.758 Y-57.218 I0.295 J-0.053
G1 X-169.172 Y-57.431
G3 X-168.863 Y-57.1 I0.011 J0.3
G2 X-168.888 Y-56.099 I3.477 J0.587
G3 X-169.447 Y-54.957 I-1.795 J-0.171
X-170.657 Y-54.159 I-2.579 J-2.595
X-173.187 Y-53.663 I-2.483 J-5.965
G1 X-173.474 Y-53.697
G3 X-173.945 Y-54.219 I0.042 J-0.512
G2 X-174.102 Y-55.256 I-2.438 J-0.16
G1 X-174.143 Y-55.345
G3 X-173.914 Y-55.759 I0.276 J-0.118
G1 X-169.241 Y-56.494
G3 X-168.899 Y-56.249 I0.047 J0.296
G2 X-168.651 Y-55.257 I3.849 J-0.435
G3 X-168.994 Y-54.056 I-1.765 J0.145
X-170.339 Y-52.925 I-2.948 J-2.138
X-172.449 Y-52.312 I-2.613 J-5.06
X-173.93 Y-52.56 I-0.302 J-2.748
X-174.134 Y-53.271 I0.24 J-0.454
G2 X-173.943 Y-54.219 I-2.292 J-0.956
G1 X-173.933 Y-54.277
X-173.913 Y-54.332
G3 X-173.712 Y-54.49 I0.268 J0.134
G1 X-169.038 Y-55.56
G3 X-168.772 Y-55.492 I0.067 J0.292
X-168.701 Y-55.398 I-0.199 J0.224
G1 X-168.576 Y-55.115
X-168.505 Y-54.973
X-168.36 Y-54.745
G3 X-168.242 Y-53.648 I-1.202 J0.684
X-169.191 Y-52.215 I-2.794 J-0.82
X-171.475 Y-51.073 I-3.466 J-4.077
X-173.628 Y-51.066 I-1.092 J-4.408
X-174.723 Y-51.705 I0.576 J-2.244
X-174.719 Y-52.421 I0.382 J-0.356
G2 X-174.163 Y-53.208 I-1.774 J-1.843
G3 X-174.093 Y-53.302 I0.271 J0.128
X-173.973 Y-53.368 I0.202 J0.222
G1 X-168.689 Y-54.864
G3 X-168.444 Y-54.827 I0.082 J0.289
X-168.36 Y-54.745 I-0.163 J0.252
G2 X-167.776 Y-54.058 I2.874 J-1.849
G3 X-167.589 Y-52.724 I-1.339 J0.868
X-168.328 Y-51.351 I-3.035 J-0.747
X-169.95 Y-50.157 I-3.751 J-3.399
X-173.302 Y-49.609 I-2.587 J-5.297
X-175.045 Y-50.298 I0.545 J-3.93
X-175.793 Y-51.273 I1.29 J-1.765
G1 X-175.829 Y-51.457
X-175.795 Y-51.641
X-175.695 Y-51.8
X-175.544 Y-51.911
X-175.447 Y-51.957
X-175.083 Y-52.138
X-174.88 Y-52.28
X-174.719 Y-52.421
G3 X-174.616 Y-52.477 I0.192 J0.231
G1 X-174.606 Y-52.48
X-168.161 Y-54.231
G3 X-167.982 Y-54.224 I0.079 J0.29
X-167.882 Y-54.164 I-0.1 J0.283
G2 X-167.158 Y-53.614 I3.325 J-3.621
G3 X-166.706 Y-52.357 I-1.099 J1.105
X-167.133 Y-50.92 I-3.008 J-0.112
X-168.4 Y-49.511 I-4.137 J-2.446
X-174.215 Y-48.385 I-4.069 J-5.432
X-176.132 Y-49.487 I1.313 J-4.5
X-176.782 Y-50.428 I2.078 J-2.13
G1 X-176.861 Y-50.652
G3 X-176.862 Y-51.195 I0.63 J-0.273
G1 X-176.763 Y-51.32
X-176.632 Y-51.41
G2 X-175.544 Y-51.911 I-269.761 J-587.709
G3 X-175.49 Y-51.928 I0.119 J0.275
G1 X-175.43 Y-51.942
X-167.498 Y-53.73
G3 X-167.283 Y-53.697 I0.066 J0.293
G2 X-166.444 Y-53.282 I3.051 J-5.111
G3 X-165.767 Y-52.121 I-0.887 J1.295
X-165.928 Y-50.634 I-2.954 J0.432
X-166.896 Y-49.056 I-4.443 J-1.641
X-169.425 Y-47.333 I-5.143 J-4.832
X-174.325 Y-46.956 I-3.041 J-7.494
X-176.453 Y-47.953 I1.539 J-6.057
X-177.697 Y-49.309 I2.812 J-3.829
X-178.078 Y-50.36 I2.399 J-1.465
X-177.714 Y-50.892 I0.517 J-0.037
G1 X-177.431 Y-51.033
X-176.864 Y-51.301
X-176.632 Y-51.41
G3 X-176.572 Y-51.428 I0.118 J0.276
G1 X-176.518 Y-51.439
X-166.743 Y-53.357
G3 X-166.581 Y-53.344 I0.058 J0.294
G2 X-165.621 Y-53.041 I2.506 J-6.276
G3 X-164.776 Y-51.962 I-0.754 J1.46
X-164.721 Y-50.426 I-2.959 J0.876
X-165.487 Y-48.658 I-4.727 J-0.999
X-167.763 Y-46.58 I-5.79 J-4.054
X-174.992 Y-45.669 I-4.681 J-8.009
X-177.706 Y-47.165 I2.185 J-7.172
X-178.995 Y-48.842 I3.649 J-4.137
G1 X-179.127 Y-49.163
X-179.216 Y-49.452
X-179.238 Y-49.563
X-179.242 Y-49.739
X-179.184 Y-49.905
G3 X-178.707 Y-50.328 I1.573 J1.294
X-177.804 Y-50.849 I3.663 J5.309
G1 X-177.77 Y-50.863
X-177.734 Y-50.873
X-177.691 Y-50.881
X-165.883 Y-53.08
X-165.88 Y-53.081
G3 X-165.765 Y-53.08 I0.055 J0.295
G2 X-164.733 Y-52.871 I3.073 J-12.569
G3 X-163.749 Y-51.889 I-0.588 J1.572
X-163.495 Y-50.325 I-2.92 J1.278
X-164.054 Y-48.405 I-4.995 J-0.415
X-166.048 Y-46.036 I-6.383 J-3.348
X-171.81 Y-43.902 I-6.284 J-8.123
X-177.753 Y-45.408 I-0.74 J-9.562
X-179.567 Y-47.109 I4.489 J-6.604
G1 X-179.9 Y-47.599
X-180.146 Y-48.049
X-180.273 Y-48.348
G3 X-180.122 Y-48.953 I0.503 J-0.196
X-179.073 Y-50.041 I6.409 J5.128
X-178.969 Y-50.095 I0.187 J0.235
G1 X-178.945 Y-50.1
X-164.997 Y-52.89
X-164.973 Y-52.895
G3 X-164.88 Y-52.899 I0.059 J0.294
G2 X-163.739 Y-52.749 I3.928 J-25.454
G3 X-162.653 Y-51.81 I-0.516 J1.695
X-162.255 Y-50.179 I-3.004 J1.597
X-162.688 Y-48.085 I-5.407 J-0.028
X-164.919 Y-45.122 I-7.249 J-3.136
X-171.155 Y-42.511 I-7.319 J-8.73
X-178.334 Y-44.077 I-1.352 J-11.043
X-180.994 Y-46.674 I4.944 J-7.724
G1 X-181.122 Y-46.909
G3 X-181.095 Y-47.458 I0.471 J-0.252
X-180.205 Y-48.851 I5.881 J2.779
G1 X-180.163 Y-48.892
X-180.115 Y-48.925
X-180.056 Y-48.956 Z-2.992
X-179.999 Y-48.985 Z-2.97
X-179.949 Y-49.011 Z-2.935
X-179.907 Y-49.033 Z-2.887
X-179.875 Y-49.05 Z-2.83
X-179.855 Y-49.06 Z-2.767
X-179.849 Y-49.063 Z-2.7
G0 Z5
X-163.642 Y-52.532
Z-2.4
G1 Z-2.7 F850
X-163.649 Y-52.535 Z-2.767
X-163.67 Y-52.544 Z-2.83
X-163.702 Y-52.558 Z-2.887
X-163.746 Y-52.578 Z-2.935
X-163.797 Y-52.601 Z-2.97
X-163.855 Y-52.627 Z-2.992
X-163.916 Y-52.654 Z-3
G3 X-163.888 Y-52.769 I0.024 J-0.055
G1 X-162.683 Y-52.658
G3 X-161.653 Y-51.966 I-0.375 J1.669
X-161.038 Y-50.49 I-2.591 J1.947
X-161.129 Y-48.439 I-5.199 J0.797
X-162.472 Y-45.646 I-7.638 J-1.954
X-166.281 Y-42.485 I-8.778 J-6.703
X-177.161 Y-41.865 I-6.127 J-11.742
X-181.651 Y-45.14 I4.111 J-10.352
X-181.776 Y-45.642 I0.418 J-0.37
X-181.14 Y-47.365 I8.938 J2.318
X-181.068 Y-47.457 I0.268 J0.135
G1 X-181.018 Y-47.501 Z-2.992
X-180.969 Y-47.542 Z-2.97
X-180.926 Y-47.579 Z-2.935
X-180.89 Y-47.61 Z-2.887
X-180.863 Y-47.633 Z-2.83
X-180.846 Y-47.648 Z-2.767
X-180.841 Y-47.653 Z-2.7
G0 Z5
X-162.58 Y-52.446
Z-2.4
G1 Z-2.7 F850
X-162.587 Y-52.449 Z-2.767
X-162.607 Y-52.457 Z-2.83
X-162.64 Y-52.471 Z-2.887
X-162.684 Y-52.489 Z-2.935
X-162.737 Y-52.511 Z-2.97
X-162.795 Y-52.535 Z-2.992
X-162.857 Y-52.561 Z-3
G3 X-162.832 Y-52.676 I0.023 J-0.055
X-161.408 Y-52.552 I-1.061 J20.437
X-160.569 Y-52.004 I-0.47 J1.634
G1 X-160.526 Y-51.888
X-160.508 Y-51.768
G3 X-160.973 Y-51.52 I-0.3 J-0.003
G1 X-161.742 Y-52.023
G3 X-161.672 Y-52.558 I0.164 J-0.251
X-161.556 Y-52.573 I0.095 J0.285
X-161.243 Y-52.543 I-0.194 J3.635
X-160.658 Y-52.411 I-0.507 J3.605 F212.5
G1 X-160.628 Y-52.378 F850
X-160.592 Y-52.34
X-160.564 Y-52.302
X-160.55 Y-52.28
X-160.534 Y-52.244
G3 X-160.514 Y-51.996 I-0.514 J0.166
G2 X-160.14 Y-50.437 I2.839 J0.143
G3 X-159.818 Y-48.894 I-2.702 J1.368
G1 X-159.88 Y-48.766
X-159.969 Y-48.658
G3 X-160.46 Y-48.835 I-0.196 J-0.227
G1 X-160.699 Y-50.243
G3 X-160.215 Y-50.526 I0.296 J-0.05
X-160.14 Y-50.437 I-0.188 J0.234
G2 X-159.648 Y-49.659 I5.469 J-2.913
G1 X-159.637 Y-49.622
G3 X-159.66 Y-49.303 I-0.521 J0.122
X-159.737 Y-48.907 I-2.36 J-0.252 F212.5
G1 X-159.752 Y-48.877
X-159.771 Y-48.849
G2 X-160.272 Y-48.312 I2.43 J2.773 F850
X-160.564 Y-46.955 I1.574 J1.048
G1 X-160.595 Y-46.785
X-160.628 Y-46.665
X-160.69 Y-46.557
X-160.778 Y-46.467
G3 X-161.252 Y-46.775 I-0.182 J-0.238
G1 X-161.167 Y-47.133
G3 X-160.616 Y-47.214 I0.292 J0.07
X-160.578 Y-47.103 I-0.259 J0.151
G1 X-160.571 Y-47.034
X-160.539 Y-46.822
X-160.54 Y-46.786 F212.5
X-160.544 Y-46.751
X-160.551 Y-46.716 F850
G3 X-160.818 Y-46.441 I-0.499 J-0.217
G2 X-161.693 Y-45.193 I1.492 J1.976
G1 X-161.829 Y-44.773
X-161.987 Y-44.426
X-162.208 Y-44.045
G3 X-163.883 Y-42.305 I-5.861 J-3.967
X-170.161 Y-39.717 I-8.17 J-10.907
X-179.222 Y-41.246 I-2.31 J-13.922
X-182.007 Y-43.378 I6.355 J-11.191
G1 X-182.096 Y-43.506
X-182.144 Y-43.654
G3 X-182.002 Y-44.624 I4.846 J0.215
G1 X-181.92 Y-45.05
X-181.821 Y-45.475
X-181.776 Y-45.642
G3 X-181.719 Y-45.745 I0.286 J0.09
G1 X-181.676 Y-45.796 Z-2.992
X-181.636 Y-45.845 Z-2.97
X-181.599 Y-45.888 Z-2.935
X-181.569 Y-45.925 Z-2.887
X-181.546 Y-45.952 Z-2.83
X-181.531 Y-45.969 Z-2.767
X-181.526 Y-45.975 Z-2.7
G0 Z5
X-161.963 Y-44.991
Z-2.4
G1 Z-2.7 F850
X-161.959 Y-44.998 Z-2.767
X-161.946 Y-45.016 Z-2.83
X-161.926 Y-45.046 Z-2.887
X-161.9 Y-45.085 Z-2.935
X-161.868 Y-45.132 Z-2.97
X-161.832 Y-45.184 Z-2.992
X-161.794 Y-45.239 Z-3
G3 X-161.687 Y-45.191 I0.049 J0.034
G2 X-161.768 Y-44.518 I3.518 J0.767 F212.5
X-162.171 Y-43.057 I1.888 J1.307 F850
G3 X-162.663 Y-41.868 I-2.609 J-0.383
G1 X-162.92 Y-41.529
G3 X-164.793 Y-40.028 I-5.262 J-4.647
X-171.324 Y-38.118 I-7.407 J-13.208
X-180.831 Y-40.527 I-1.192 J-15.258
G1 X-181.338 Y-40.891
X-181.834 Y-41.271
X-182.207 Y-41.585
X-182.314 Y-41.709
X-182.374 Y-41.861
X-182.383 Y-42.024
G3 X-182.145 Y-43.809 I45.246 J5.122
X-182.1 Y-43.917 I0.295 J0.056
G1 X-182.064 Y-43.973 Z-2.992
X-182.029 Y-44.026 Z-2.97
X-181.998 Y-44.074 Z-2.935
X-181.972 Y-44.113 Z-2.887
X-181.952 Y-44.143 Z-2.83
X-181.94 Y-44.162 Z-2.767
X-181.936 Y-44.168 Z-2.7
G0 Z5
X-162.367 Y-42.927
Z-2.4
G1 Z-2.7 F850
X-162.365 Y-42.934 Z-2.767
X-162.36 Y-42.956 Z-2.83
X-162.35 Y-42.99 Z-2.887
X-162.338 Y-43.036 Z-2.935
X-162.323 Y-43.091 Z-2.97
X-162.307 Y-43.152 Z-2.992
X-162.289 Y-43.217 Z-3
G3 X-162.172 Y-43.207 I0.058 J0.016
X-162.059 Y-41.585 I-15.49 J1.898
X-162.659 Y-40.145 I-2.69 J-0.276
G1 X-162.952 Y-39.788
G3 X-164.887 Y-38.367 I-5.076 J-4.883
X-170.854 Y-36.689 I-7.214 J-14.197
X-181.572 Y-39.272 I-1.638 J-16.73
G1 X-182.082 Y-39.632
X-182.393 Y-39.866
X-182.518 Y-40.004
X-182.584 Y-40.178
X-182.582 Y-40.363
G2 X-182.383 Y-42.024 I-23.772 J-3.693
G3 X-182.343 Y-42.134 I0.297 J0.045
G1 X-182.309 Y-42.192 Z-2.992
X-182.276 Y-42.246 Z-2.97
X-182.247 Y-42.295 Z-2.935
X-182.222 Y-42.335 Z-2.887
X-182.204 Y-42.366 Z-2.83
X-182.192 Y-42.385 Z-2.767
X-182.188 Y-42.392 Z-2.7
G0 Z5
X-162.258 Y-41.511
Z-2.4
G1 Z-2.7 F850
X-162.256 Y-41.518 Z-2.767
X-162.25 Y-41.539 Z-2.83
X-162.24 Y-41.574 Z-2.887
X-162.228 Y-41.62 Z-2.935
X-162.213 Y-41.674 Z-2.97
X-162.196 Y-41.736 Z-2.992
X-162.178 Y-41.8 Z-3
G3 X-162.061 Y-41.789 I0.058 J0.016
X-161.998 Y-39.933 I-53.901 J2.753
X-162.628 Y-38.499 I-2.671 J-0.319
G1 X-162.909 Y-38.171
G3 X-164.872 Y-36.793 I-4.918 J-4.918
X-170.872 Y-35.22 I-7.118 J-14.918
X-181.346 Y-37.436 I-1.63 J-18.158
X-181.938 Y-38.247 I17.212 J-13.198
G1 X-182.169 Y-38.529
G2 X-182.782 Y-39.032 I-1.661 J1.398
G1 X-182.818 Y-39.065
X-182.843 Y-39.096 F212.5
X-182.864 Y-39.131 F850
X-182.88 Y-39.166
X-182.89 Y-39.202
X-182.896 Y-39.237
X-182.898 Y-39.273 F212.5
X-182.895 Y-39.308
X-182.889 Y-39.344 F850
G2 X-182.582 Y-40.363 I-4.092 J-1.791
G3 X-182.533 Y-40.47 I0.292 J0.069
G1 X-182.494 Y-40.524 Z-2.992
X-182.457 Y-40.575 Z-2.97
X-182.424 Y-40.622 Z-2.935
X-182.396 Y-40.66 Z-2.887
X-182.375 Y-40.689 Z-2.83
X-182.362 Y-40.707 Z-2.767
X-182.358 Y-40.713 Z-2.7
G0 Z5
X-162.201 Y-39.814
Z-2.4
G1 Z-2.7 F850
X-162.198 Y-39.821 Z-2.767
X-162.192 Y-39.842 Z-2.83
X-162.182 Y-39.877 Z-2.887
X-162.168 Y-39.922 Z-2.935
X-162.152 Y-39.977 Z-2.97
X-162.134 Y-40.037 Z-2.992
X-162.114 Y-40.101 Z-3
G3 X-161.997 Y-40.088 I0.057 J0.017
G1 X-161.953 Y-38.529
G3 X-162.35 Y-37.239 I-2.228 J0.02
G1 X-162.561 Y-36.935
X-162.829 Y-36.628
G3 X-164.781 Y-35.273 I-4.723 J-4.719
X-167.771 Y-34.23 I-6.188 J-12.941
X-168.359 Y-34.109 I-3.198 J-13.983 F212.5
G2 X-170.627 Y-34.217 I-1.385 J5.174 F850
G3 X-174.029 Y-33.933 I-3.532 J-21.784
X-177.859 Y-34.593 I0.043 J-11.69
X-180.433 Y-36.259 I2.693 J-6.984
X-181.444 Y-37.555 I6.153 J-5.84
G1 X-181.471 Y-37.607
X-181.487 Y-37.663
X-181.499 Y-37.729 Z-2.992
X-181.51 Y-37.791 Z-2.97
X-181.52 Y-37.847 Z-2.935
X-181.528 Y-37.894 Z-2.887
X-181.534 Y-37.929 Z-2.83
X-181.538 Y-37.951 Z-2.767
X-181.539 Y-37.958 Z-2.7
G0 Z5
X-162.156 Y-38.255
Z-2.4
G1 Z-2.7 F850
X-162.154 Y-38.262 Z-2.767
X-162.147 Y-38.283 Z-2.83
X-162.137 Y-38.317 Z-2.887
X-162.123 Y-38.363 Z-2.935
X-162.107 Y-38.417 Z-2.97
X-162.089 Y-38.478 Z-2.992
X-162.07 Y-38.542 Z-3
G3 X-161.953 Y-38.529 I0.057 J0.017
G2 X-161.902 Y-37.536 I7.534 J0.113
G3 X-162.008 Y-36.093 I-1.622 J0.606
X-162.931 Y-34.891 I-3.293 J-1.571
X-164.982 Y-33.635 I-4.573 J-5.167
G1 X-165.043 Y-33.631
G3 X-165.281 Y-34.129 I-0.013 J-0.3
G1 X-162.356 Y-37.449
G3 X-161.85 Y-37.357 I0.225 J0.198
G2 X-161.444 Y-36.725 I1.514 J-0.525
G1 X-161.426 Y-36.686
X-161.414 Y-36.662
X-161.403 Y-36.632
X-161.395 Y-36.603
X-161.39 Y-36.573
X-161.388 Y-36.544 F212.5
X-161.389 Y-36.511
X-161.393 Y-36.479
X-161.402 Y-36.447 F850
G3 X-163.679 Y-34.064 I-6.198 J-3.643
X-166.374 Y-33.68 I-1.894 J-3.646
X-168.432 Y-34.131 I2.64 J-16.964
G1 X-168.487 Y-34.15
X-168.538 Y-34.179
X-168.592 Y-34.219 Z-2.992
X-168.642 Y-34.257 Z-2.97
X-168.688 Y-34.291 Z-2.935
X-168.726 Y-34.32 Z-2.887
X-168.754 Y-34.341 Z-2.83
X-168.772 Y-34.355 Z-2.767
X-168.778 Y-34.359 Z-2.7
G0 Z5
X-157.114 Y-72.636
Z-2.4
G1 Z-2.7 F850
X-157.118 Y-72.642 Z-2.767
X-157.132 Y-72.659 Z-2.83
X-157.154 Y-72.688 Z-2.887
X-157.183 Y-72.725 Z-2.935
X-157.218 Y-72.77 Z-2.97
X-157.256 Y-72.82 Z-2.992
X-157.297 Y-72.873 Z-3
G3 X-157.218 Y-72.961 I0.047 J-0.037
G2 X-156.473 Y-72.657 I0.978 J-1.336
G3 X-155.737 Y-71.768 I-0.741 J1.362
X-155.694 Y-69.902 I-3.009 J1.003
X-156.649 Y-67.918 I-5.292 J-1.325
G1 X-157.039 Y-67.43
X-157.386 Y-67.06
X-157.657 Y-66.824
X-157.888 Y-66.66
X-158.027 Y-66.581
G3 X-158.694 Y-66.74 I-0.249 J-0.436
G2 X-159.516 Y-67.454 I-1.963 J1.428
G3 X-159.639 Y-67.873 I0.136 J-0.267
G1 X-156.917 Y-72.547
G3 X-156.736 Y-72.686 I0.259 J0.151
X-156.619 Y-72.694 I0.078 J0.29
G2 X-155.8 Y-72.655 I0.629 J-4.613
G3 X-154.769 Y-71.814 I-0.376 J1.514
X-154.398 Y-70.357 I-2.632 J1.446
X-154.802 Y-68.415 I-4.662 J0.044
X-155.163 Y-68.157 I-0.78 J-0.712
G2 X-155.863 Y-67.166 I1.004 J1.451
G3 X-157.002 Y-65.762 I-2.976 J-1.25
X-157.669 Y-65.507 I-0.821 J-1.143
X-158.152 Y-65.89 I0.035 J-0.539
G2 X-158.669 Y-66.71 I-6.822 J3.728
G1 X-158.699 Y-66.76
X-158.719 Y-66.815
G3 X-158.489 Y-67.177 I0.292 J-0.069
G1 X-156.166 Y-67.666
G3 X-155.808 Y-67.424 I0.062 J0.294
X-155.811 Y-67.306 I-0.296 J0.051
G2 X-155.861 Y-66.315 I2.142 J0.604
G3 X-157.07 Y-64.599 I-1.726 J0.067
G1 X-157.251 Y-64.578
X-157.429 Y-64.625
X-157.577 Y-64.734
X-157.676 Y-64.888
G2 X-158.096 Y-65.775 I-9.252 J3.838
G3 X-158.124 Y-65.889 I0.271 J-0.129
X-157.889 Y-66.198 I0.3 J-0.016
G1 X-156.225 Y-66.565
G3 X-155.903 Y-66.425 I0.065 J0.293
X-155.864 Y-66.314 I-0.258 J0.153
G2 X-155.685 Y-65.131 I13.32 J-1.405
G3 X-156.912 Y-63.678 I-1.468 J0.005
X-157.384 Y-64.047 I0.028 J-0.524
G1 X-157.393 Y-64.106
X-157.389 Y-64.164
G3 X-157.304 Y-64.333 I0.297 J0.044
G1 X-156.214 Y-65.417
G3 X-155.712 Y-65.279 I0.212 J0.213
G2 X-155.444 Y-64.249 I10.069 J-2.072
G3 X-156.58 Y-62.803 I-1.407 J0.064
G1 X-156.773 Y-62.8
X-156.952 Y-62.873
X-157.089 Y-63.008
X-157.166 Y-63.186
G2 X-157.674 Y-64.888 I-9.775 J1.992
G1 X-157.689 Y-64.945
X-157.694 Y-65.004
G3 X-157.275 Y-65.267 I0.3 J0.012
G1 X-155.648 Y-64.567
G3 X-155.485 Y-64.393 I-0.119 J0.276
G2 X-155.144 Y-63.48 I10.125 J-3.259
G3 X-155.738 Y-62.155 I-1.35 J0.19
X-156.631 Y-61.872 I-0.785 J-0.925
G1 X-156.794 Y-61.963
X-156.916 Y-62.099
X-156.982 Y-62.27
G2 X-157.165 Y-63.186 I-27.712 J5.083
G3 X-157.163 Y-63.303 I0.295 J-0.052
X-156.924 Y-63.534 I0.293 J0.065
G1 X-155.521 Y-63.788
G3 X-155.266 Y-63.715 I0.054 J0.295
X-155.196 Y-63.621 I-0.202 J0.222
G2 X-154.787 Y-62.778 I13.759 J-6.161
G3 X-155.031 Y-61.61 I-1.272 J0.343
X-156.312 Y-60.875 I-1.393 J-0.945
X-156.81 Y-61.293 I-0.004 J-0.501
G1 X-156.868 Y-61.636
X-156.918 Y-61.919
X-156.982 Y-62.27
G3 X-156.767 Y-62.602 I0.297 J-0.043
G1 X-155.193 Y-63.047
G3 X-154.932 Y-62.999 I0.082 J0.289
X-154.853 Y-62.912 I-0.18 J0.24
G2 X-154.369 Y-62.073 I22.673 J-12.537
G3 X-154.496 Y-60.86 I-1.29 J0.477
X-156.133 Y-59.831 I-1.727 J-0.93
X-156.638 Y-60.253 I-0.003 J-0.51
G1 X-156.81 Y-61.293
G3 X-156.802 Y-61.41 I0.297 J-0.039
X-156.621 Y-61.612 I0.29 J0.078
G1 X-154.801 Y-62.317
G3 X-154.525 Y-62.286 I0.108 J0.28
X-154.443 Y-62.203 I-0.168 J0.249
G1 X-153.863 Y-61.297
G3 X-153.949 Y-60.019 I-1.385 J0.548
X-155.793 Y-58.734 I-2.067 J-1.001
X-156.311 Y-59.084 I-0.029 J-0.515
X-156.638 Y-60.253 I4.335 J-1.844
X-156.63 Y-60.369 I0.297 J-0.039
X-156.462 Y-60.566 I0.29 J0.078
G1 X-154.305 Y-61.524
G3 X-153.939 Y-61.425 I0.122 J0.274
X-153.306 Y-60.352 I-6.917 J4.805
X-153.571 Y-58.793 I-1.696 J0.514
X-155.218 Y-57.644 I-2.176 J-1.365
X-155.743 Y-57.915 I-0.074 J-0.502
X-156.292 Y-59.037 I14.352 J-7.713
G1 X-156.307 Y-59.094
X-156.312 Y-59.152
G3 X-156.148 Y-59.415 I0.3 J0.005
G1 X-153.772 Y-60.618
G3 X-153.455 Y-60.59 I0.136 J0.268
X-153.377 Y-60.502 I-0.182 J0.239
X-153.008 Y-59.084 I-2.416 J1.386
X-153.236 Y-57.848 I-2.646 J0.151
X-154.704 Y-56.621 I-2.048 J-0.959
X-155.257 Y-56.909 I-0.092 J-0.499
X-155.279 Y-57.024 I0.278 J-0.114
X-155.175 Y-57.25 I0.3 J0.001
G1 X-153.556 Y-58.64
G3 X-153.072 Y-58.492 I0.195 J0.228
X-153.063 Y-58.375 I-0.289 J0.08
X-153.458 Y-57.383 I-3.05 J-0.64
X-154.751 Y-56.444 I-1.808 J-1.13
X-155.183 Y-56.727 I0.073 J-0.583
G2 X-155.744 Y-57.915 I-13.946 J5.869
G1 X-155.763 Y-57.971
X-155.77 Y-58.031
X-156.242 Y-72.349
G3 X-155.95 Y-72.659 I0.3 J-0.01
X-154.745 Y-72.622 I0.275 J10.783
X-153.608 Y-71.697 I-0.496 J1.772
X-153.148 Y-70.041 I-3.001 J1.725
X-153.307 Y-68.686 I-3.866 J0.234
G1 X-153.395 Y-68.522
X-153.539 Y-68.402
X-153.716 Y-68.345
X-153.902 Y-68.357
X-153.98 Y-68.373
G3 X-154.202 Y-68.587 I0.068 J-0.292
G1 X-155.196 Y-72.258
G3 X-155.01 Y-72.619 I0.29 J-0.078
X-154.894 Y-72.637 I0.103 J0.282
X-152.715 Y-71.762 I-0.188 J3.621
X-151.968 Y-70.262 I-2.12 J1.991
X-152 Y-68.72 I-2.992 J0.711
X-152.384 Y-68.026 I-1.478 J-0.366
G1 X-152.533 Y-67.961
X-152.694 Y-67.942
X-152.852 Y-67.976
G2 X-153.901 Y-68.361 I-4.183 J9.775
G1 X-153.955 Y-68.381
X-154.005 Y-68.412
G3 X-154.11 Y-68.703 I0.19 J-0.232
G1 X-153.49 Y-71.821
G3 X-153.051 Y-72.025 I0.294 J0.059
X-151.37 Y-70.731 I-6.681 J10.416
X-150.808 Y-68.715 I-1.849 J1.602
X-151.272 Y-67.615 I-1.907 J-0.155
G1 X-151.427 Y-67.54
X-151.596 Y-67.517
X-151.762 Y-67.551
X-152.814 Y-67.961
X-152.851 Y-67.976
G3 X-153.008 Y-68.373 I0.118 J-0.276
G1 X-151.958 Y-70.737
G3 X-151.498 Y-70.851 I0.274 J0.122
X-150.246 Y-69.717 I-17.695 J20.806
X-150.137 Y-67.316 I-1.644 J1.278
G1 X-150.252 Y-67.199
X-150.401 Y-67.127
X-150.565 Y-67.107
X-150.726 Y-67.142
X-151.35 Y-67.39
X-151.762 Y-67.551
G3 X-151.858 Y-67.618 I0.119 J-0.275
X-151.899 Y-67.983 I0.215 J-0.209
G1 X-150.81 Y-69.758
G3 X-150.358 Y-69.828 I0.256 J0.157
X-149.261 Y-68.784 I-28.999 J31.562
X-149.162 Y-66.981 I-1.42 J0.982
X-149.788 Y-66.764 I-0.436 J-0.248
G1 X-150.216 Y-66.938
X-150.726 Y-67.142
G3 X-150.822 Y-67.209 I0.121 J-0.275
X-150.836 Y-67.609 I0.217 J-0.208
G1 X-149.796 Y-68.859
G3 X-149.366 Y-68.891 I0.231 J0.192
X-148.474 Y-68.051 I-63 J67.694
X-148.381 Y-66.555 I-1.049 J0.816
X-149.081 Y-66.474 I-0.397 J-0.37
G1 X-149.508 Y-66.65
X-149.787 Y-66.764
G3 X-149.883 Y-66.832 I0.123 J-0.274
X-149.877 Y-67.25 I0.218 J-0.206
G1 X-148.987 Y-68.141
G3 X-148.58 Y-68.157 I0.212 J0.212
G2 X-147.75 Y-67.433 I17.837 J-19.617
G3 X-147.652 Y-66.228 I-0.829 J0.674
X-148.272 Y-66.095 I-0.396 J-0.332
G1 X-148.516 Y-66.218
X-148.657 Y-66.285
X-148.966 Y-66.422
G3 X-149.02 Y-66.931 I0.128 J-0.271
G1 X-148.227 Y-67.537
G3 X-147.965 Y-67.588 I0.182 J0.238
X-147.86 Y-67.535 I-0.08 J0.289
X-147.069 Y-66.925 I-13.416 J18.2
X-147.092 Y-65.74 I-0.798 J0.578
X-147.807 Y-65.779 I-0.337 J-0.4
G2 X-148.272 Y-66.096 I-1.191 J1.246
G1 X-148.32 Y-66.129
X-148.362 Y-66.171
G3 X-148.308 Y-66.599 I0.234 J-0.188
G1 X-147.638 Y-67.101
G3 X-147.409 Y-67.157 I0.18 J0.24
X-147.299 Y-67.116 I-0.05 J0.296
G2 X-146.565 Y-66.661 I6.377 J-9.483
G3 X-146.711 Y-65.049 I-0.705 J0.749
X-147.322 Y-65.201 I-0.21 J-0.459
X-147.369 Y-65.308 I0.245 J-0.173
Y-65.44 I0.293 J-0.066
G1 X-147.124 Y-66.539
G3 X-146.693 Y-66.739 I0.293 J0.065
G2 X-145.931 Y-66.33 I10.312 J-18.27
G3 X-145.663 Y-64.959 I-0.776 J0.864
X-146.32 Y-64.267 I-1.116 J-0.402
X-146.879 Y-64.502 I-0.12 J-0.497
G2 X-147.769 Y-65.75 I-5.589 J3.042
G1 X-147.805 Y-65.796
X-147.832 Y-65.848
G3 X-147.589 Y-66.246 I0.282 J-0.101
G1 X-146.228 Y-66.427
G3 X-146.177 Y-66.429 I0.04 J0.297
X-146.063 Y-66.402 I-0.012 J0.3
G1 X-145.964 Y-66.353
X-145.397 Y-66.076
G3 X-144.797 Y-65.104 I-0.49 J0.974
X-144.873 Y-64.574 I-0.763 J0.16
X-144.957 Y-64.493 I-0.248 J-0.169
X-145.401 Y-64.638 I-0.164 J-0.251
G1 X-145.8 Y-65.696
G3 X-145.397 Y-66.076 I0.281 J-0.106
X-144.886 Y-65.823 I-4.203 J9.135
X-144.364 Y-65.526 I-4.714 J8.882 F212.5
G1 X-144.293 Y-65.4 F850
X-144.276 Y-65.258
X-144.32 Y-65.122
X-144.415 Y-65.016
G3 X-144.52 Y-64.963 I-0.258 J-0.385
X-144.614 Y-64.941 I-0.153 J-0.438
X-144.705 Y-65.645 I-0.046 J-0.352
X-144.492 Y-65.605 I0.046 J0.352
G1 X-144.405 Y-65.554
X-144.355 Y-65.517
X-144.327 Y-65.49
X-144.305 Y-65.464
X-144.28 Y-65.423
X-144.263 Y-65.382
X-144.255 Y-65.352
X-144.25 Y-65.322
X-144.248 Y-65.29
X-144.249 Y-65.258
X-144.254 Y-65.225
X-144.263 Y-65.193 F212.5
X-144.268 Y-65.18
X-144.284 Y-65.145
X-144.307 Y-65.109 F850
G3 X-144.547 Y-64.921 I-0.761 J-0.723
G2 X-145.102 Y-64.114 I1.091 J1.346
G3 X-145.447 Y-63.684 I-1.222 J-0.624
X-145.976 Y-63.412 I-0.877 J-1.055 F212.5
G1 X-146.164 Y-63.449 F850
X-146.327 Y-63.544
X-146.443 Y-63.691
G3 X-146.471 Y-63.805 I0.271 J-0.128
X-146.331 Y-64.074 I0.3 J-0.015
G1 X-145.484 Y-64.604
G3 X-145.026 Y-64.367 I0.159 J0.254
X-145.041 Y-64.251 I-0.299 J0.018
G2 X-145.137 Y-63.428 I1.598 J0.602
G3 X-145.349 Y-63.01 I-0.853 J-0.169
G1 X-145.5 Y-62.906
X-145.679 Y-62.864
G3 X-146.178 Y-63.196 I-0.017 J-0.517
G2 X-146.876 Y-64.503 I-139.888 J73.857
G1 X-146.9 Y-64.556
X-146.913 Y-64.614
G3 X-146.409 Y-64.863 I0.298 J-0.031
G1 X-145.238 Y-63.761
G3 X-145.182 Y-63.689 I-0.206 J0.218
X-145.146 Y-63.578 I-0.262 J0.147
G2 X-145.016 Y-62.937 I3.085 J-0.29 F212.5
G1 X-145.066 Y-62.769 F850
X-145.17 Y-62.629
X-145.317 Y-62.534
X-145.487 Y-62.497
X-145.659 Y-62.523
X-145.812 Y-62.607
X-145.925 Y-62.74
G3 X-145.955 Y-62.816 I0.31 J-0.166
G1 X-145.963 Y-62.851
G3 X-145.103 Y-63.189 I0.463 J-0.085
X-145.053 Y-63.082 I-0.397 J0.253
G1 X-145.045 Y-63.054
X-144.993 Y-62.912
X-144.92 Y-62.727
X-144.872 Y-62.585 F212.5
X-144.908 Y-62.425 F850
X-144.999 Y-62.288
X-145.133 Y-62.193
X-145.292 Y-62.153
X-145.455 Y-62.172
X-145.6 Y-62.248
X-145.708 Y-62.372
G3 X-145.724 Y-62.407 I0.219 J-0.12
X-144.982 Y-62.827 I0.407 J-0.147
X-144.92 Y-62.727 I-0.335 J0.274
G1 X-144.881 Y-62.628
X-144.814 Y-62.487
X-144.776 Y-62.409
X-144.717 Y-62.271
X-144.711 Y-62.121 F212.5
X-144.781 Y-61.973 F850
X-144.903 Y-61.862
X-145.057 Y-61.807
X-145.221 Y-61.814
X-145.37 Y-61.882
X-145.482 Y-62.003
X-145.494 Y-62.024
G3 X-145.528 Y-62.11 I0.358 J-0.193
X-144.776 Y-62.409 I0.393 J-0.107
G1 X-144.676 Y-62.203
X-144.605 Y-62.061
X-144.587 Y-62.028
X-144.523 Y-61.893 F212.5
X-144.563 Y-61.725 F850
X-144.668 Y-61.589
X-144.819 Y-61.508
X-144.991 Y-61.497
X-145.152 Y-61.556
X-145.274 Y-61.677
G3 X-145.294 Y-61.72 I0.165 J-0.1
X-145.308 Y-61.789 I0.371 J-0.114
X-144.661 Y-62.12 I0.385 J-0.046
X-144.587 Y-62.028 I-0.262 J0.286
G1 X-144.427 Y-61.728
X-144.362 Y-61.593
X-144.358 Y-61.443 F212.5
X-144.425 Y-61.314 F850
X-144.534 Y-61.22
X-144.671 Y-61.171
X-144.815 Y-61.177
X-144.948 Y-61.234
X-145.05 Y-61.337
X-145.056 Y-61.346
G3 X-145.099 Y-61.444 I0.312 J-0.196
X-144.427 Y-61.728 I0.355 J-0.098
G1 X-144.376 Y-61.636
X-144.249 Y-61.41
X-144.182 Y-61.276 F212.5
X-144.208 Y-61.122 F850
X-144.296 Y-60.992
X-144.43 Y-60.911
X-144.586 Y-60.893
X-144.735 Y-60.941
X-144.85 Y-61.047
X-144.858 Y-61.059
G3 X-144.893 Y-61.156 I0.309 J-0.168
X-144.249 Y-61.41 I0.344 J-0.071
G1 X-144.121 Y-61.184
X-144.085 Y-61.121
X-144.016 Y-60.987 F212.5
X-144.041 Y-60.842 F850
X-144.124 Y-60.719
X-144.25 Y-60.642
X-144.397 Y-60.624
X-144.538 Y-60.667
X-144.649 Y-60.765
X-144.656 Y-60.776
G3 X-144.693 Y-60.873 I0.288 J-0.167
X-144.164 Y-61.207 I0.326 J-0.07
X-144.085 Y-61.121 I-0.204 J0.264
G1 X-143.927 Y-60.849
X-143.859 Y-60.716 F212.5
X-143.881 Y-60.578 F850
X-143.958 Y-60.461
X-144.077 Y-60.387
X-144.216 Y-60.369
X-144.35 Y-60.41
X-144.455 Y-60.502
X-144.459 Y-60.507
G3 X-144.503 Y-60.609 I0.264 J-0.174
X-143.927 Y-60.849 I0.308 J-0.072
G1 X-143.838 Y-60.695
X-143.826 Y-60.669
X-143.817 Y-60.644
X-143.808 Y-60.608
X-143.804 Y-60.573
Y-60.537
X-143.808 Y-60.502
X-143.819 Y-60.458
X-143.838 Y-60.414
X-143.854 Y-60.387
X-143.875 Y-60.36
X-143.901 Y-60.333
X-143.927 Y-60.312
X-143.953 Y-60.295
X-143.98 Y-60.281
X-144.015 Y-60.268
X-144.051 Y-60.259
X-144.086 Y-60.255
X-144.121
X-144.157 Y-60.257
X-144.192 Y-60.264 F212.5
X-144.228 Y-60.276 F850
X-144.263 Y-60.292
G3 X-144.455 Y-60.502 I0.29 J-0.458
X-146.138 Y-63.121 I17.577 J-13.146
G1 X-146.148 Y-63.155 Z-2.994
X-146.157 Y-63.187 Z-2.977
X-146.164 Y-63.212 Z-2.951
X-146.169 Y-63.228 Z-2.918
X-146.17 Y-63.233 Z-2.882
G0 Z5
X-190.2 Y-39.837
Z2.85
G1 Z2.55 F850
G3 X-190.212 Y-42.687 Z2.394 I-0.006 J-1.425 F283.3
X-190.2 Y-39.837 Z2.237 I0.006 J1.425
X-190.212 Y-42.687 Z2.081 I-0.006 J-1.425
X-190.2 Y-39.837 Z1.925 I0.006 J1.425
X-190.212 Y-42.687 Z1.768 I-0.006 J-1.425
X-190.2 Y-39.837 Z1.612 I0.006 J1.425
X-190.212 Y-42.687 Z1.456 I-0.006 J-1.425
X-190.2 Y-39.837 Z1.299 I0.006 J1.425
X-190.212 Y-42.687 Z1.143 I-0.006 J-1.425
X-190.2 Y-39.837 Z0.987 I0.006 J1.425
X-190.212 Y-42.687 Z0.83 I-0.006 J-1.425
X-190.2 Y-39.837 Z0.674 I0.006 J1.425
X-190.212 Y-42.687 Z0.518 I-0.006 J-1.425
X-190.2 Y-39.837 Z0.361 I0.006 J1.425
X-190.212 Y-42.687 Z0.205 I-0.006 J-1.425
X-190.2 Y-39.837 Z0.049 I0.006 J1.425
X-190.212 Y-42.687 Z-0.108 I-0.006 J-1.425
X-190.2 Y-39.837 Z-0.264 I0.006 J1.425
X-190.212 Y-42.687 Z-0.42 I-0.006 J-1.425
X-190.2 Y-39.837 Z-0.577 I0.006 J1.425
X-190.212 Y-42.687 Z-0.733 I-0.006 J-1.425
X-190.2 Y-39.837 Z-0.889 I0.006 J1.425
X-190.212 Y-42.687 Z-1.046 I-0.006 J-1.425
X-190.2 Y-39.837 Z-1.202 I0.006 J1.425
X-190.212 Y-42.687 Z-1.358 I-0.006 J-1.425
X-190.2 Y-39.837 Z-1.515 I0.006 J1.425
X-190.212 Y-42.687 Z-1.671 I-0.006 J-1.425
X-190.2 Y-39.837 Z-1.827 I0.006 J1.425
X-190.212 Y-42.687 Z-1.984 I-0.006 J-1.425
X-190.2 Y-39.837 Z-2.14 I0.006 J1.425
X-190.212 Y-42.687 Z-2.296 I-0.006 J-1.425
X-190.2 Y-39.837 Z-2.453 I0.006 J1.425
X-190.212 Y-42.687 Z-2.609 I-0.006 J-1.425
X-190.2 Y-39.837 Z-2.765 I0.006 J1.425
X-190.212 Y-42.687 Z-2.922 I-0.006 J-1.425
X-188.781 Y-41.262 Z-3 I0.006 J1.425
X-191.631 I-1.425
X-188.781 I1.425
G1 X-188.773 Y-41.107 F850
X-188.579 Y-40.592
G3 X-188.855 Y-39.47 I-1.114 J0.321
X-190.852 Y-38.845 I-1.502 J-1.294
X-192.649 Y-40.483 I0.487 J-2.339
X-192.651 Y-41.864 I5.221 J-0.696
X-188.176 Y-42.849 I2.465 J0.543
G1 X-187.97 Y-42.572
X-187.779 Y-42.234
G3 X-187.722 Y-41.789 I-0.598 J0.302
G2 X-187.57 Y-40.249 I7.137 J0.072
G3 X-188.772 Y-38.051 I-2.419 J0.105
X-191.441 Y-37.717 I-1.684 J-2.63
X-191.759 Y-38.104 I0.713 J-0.911
X-192.648 Y-40.484 I4.452 J-3.018
G1 X-192.653 Y-40.602
X-192.69 Y-41.105
X-192.699 Y-41.222
G3 X-192.583 Y-42.782 I6.636 J-0.292
X-192.003 Y-43.631 I1.649 J0.504
X-191.037 Y-44.418 I8.485 J9.433
X-189.369 Y-44.851 I1.335 J1.712
X-187.399 Y-43.856 I-0.329 J3.098
Y-43.349 I-0.503 J0.253
G2 X-187.714 Y-41.965 I4.17 J1.676
G3 X-188.198 Y-41.753 I-0.299 J-0.024
G1 X-191.025 Y-43.959
G3 X-191.11 Y-44.328 I0.185 J-0.236
X-191.039 Y-44.421 I0.269 J0.132
G2 X-190.013 Y-45.378 I-7.485 J-9.041
G3 X-188.512 Y-45.745 I1.179 J1.57
X-187.05 Y-45.172 I-0.247 J2.782
X-186.937 Y-44.484 I-0.328 J0.407
G1 X-187.174 Y-43.916
X-187.353 Y-43.467
X-187.37 Y-43.423
G3 X-187.816 Y-43.292 I-0.277 J-0.116
G1 X-190.062 Y-44.828
G3 X-190.177 Y-45.17 I0.169 J-0.248
X-190.119 Y-45.272 I0.285 J0.094
G2 X-189.396 Y-46.211 I-4.877 J-4.502
G3 X-188 Y-46.704 I1.273 J1.385
X-186.619 Y-46.282 I0.029 J2.38
X-186.454 Y-45.721 I-0.311 J0.397
X-186.893 Y-44.581 I-15.42 J-5.292
X-187.321 Y-44.449 I-0.273 J-0.125
G1 X-189.372 Y-45.684
G3 X-189.515 Y-45.975 I0.155 J-0.257
X-189.48 Y-46.087 I0.298 J0.034
G2 X-189.042 Y-46.964 I-4.446 J-2.767
G3 X-187.879 Y-47.669 I1.352 J0.917
X-186.46 Y-47.497 I0.447 J2.239
X-186.198 Y-46.893 I-0.254 J0.469
X-186.455 Y-45.721 I-4.584 J-0.39
G1 X-186.481 Y-45.669
X-186.517 Y-45.622
G3 X-186.851 Y-45.554 I-0.217 J-0.207
G1 X-188.944 Y-46.446
G3 X-189.107 Y-46.829 I0.118 J-0.276
G2 X-188.844 Y-47.747 I-4.741 J-1.853
G3 X-187.867 Y-48.623 I1.414 J0.594
X-186.535 Y-48.709 I0.8 J2.039
X-186.179 Y-48.252 I-0.146 J0.48
X-186.186 Y-47.016 I-9.143 J0.573
G1 X-186.198 Y-46.958
X-186.221 Y-46.904
G3 X-186.556 Y-46.754 I-0.264 J-0.142
G1 X-188.654 Y-47.263
G3 X-188.875 Y-47.484 I0.071 J-0.292
X-188.88 Y-47.601 I0.292 J-0.07
G2 X-188.768 Y-48.601 I-6.091 J-1.188
G3 X-187.718 Y-49.687 I1.565 J0.463
X-186.708 Y-49.83 I0.728 J1.503
G1 X-186.578 Y-49.75
X-186.475 Y-49.641
X-186.408 Y-49.506
G3 X-186.399 Y-49.389 I-0.289 J0.081
X-186.553 Y-49.162 I-0.298 J-0.036
G1 X-188.334 Y-48.188
G3 X-188.756 Y-48.337 I-0.144 J-0.263
X-188.778 Y-48.452 I0.277 J-0.114
G2 X-188.796 Y-49.452 I-7.194 J-0.368
G3 X-188.104 Y-50.538 I1.501 J0.194
X-187.544 Y-50.821 I1.038 J1.36
G1 X-187.399 Y-50.839
X-187.256 Y-50.816
X-187.125 Y-50.752
X-187.018 Y-50.653
G3 X-187.056 Y-50.252 I-0.24 J0.18
G1 X-188.287 Y-49.123
G3 X-188.749 Y-49.192 I-0.203 J-0.221
X-188.787 Y-49.303 I0.259 J-0.152
G2 X-188.961 Y-50.273 I-4.489 J0.303
G3 X-188.318 Y-51.482 I1.379 J-0.042
G1 X-188.154 Y-51.51
X-187.991 Y-51.491
G3 X-187.824 Y-51.058 I-0.094 J0.285
G1 X-188.379 Y-50.08
G3 X-188.862 Y-50.027 I-0.261 J-0.148
X-188.923 Y-50.128 I0.222 J-0.201
G1 X-189.054 Y-50.526
X-189.196 Y-50.823
X-189.254 Y-50.961
X-189.258 Y-51.127
X-189.207 Y-51.285
X-189.107 Y-51.417
X-188.969 Y-51.51
X-188.809 Y-51.552
G3 X-188.692 Y-51.545 I0.029 J0.542
X-188.525 Y-51.489 I-0.088 J0.536
X-188.99 Y-50.615 I-0.232 J0.437
X-189.13 Y-50.726 I0.232 J-0.437
X-189.196 Y-50.823 I0.372 J-0.326
G1 X-189.215 Y-50.862
X-189.287 Y-51.004
X-189.316 Y-51.052
X-189.328 Y-51.077
X-189.338 Y-51.101
X-189.349 Y-51.145
X-189.354 Y-51.181
Y-51.216
X-189.35 Y-51.252
X-189.341 Y-51.287
X-189.338 Y-51.296
X-189.324 Y-51.33
X-189.305 Y-51.363
X-189.282 Y-51.396 F212.5
X-189.253 Y-51.429
X-189.224 Y-51.453 F850
G3 X-188.63 Y-51.556 I0.482 J1.018
X-187.776 Y-51.404 I0.131 J1.74
X-186.234 Y-48.735 I-2.326 J3.124
G1 X-186.182 Y-48.31
X-186.179 Y-48.252
G3 X-186.191 Y-48.168 I-0.3 J0.003
G1 X-186.199 Y-48.136
X-188.317 Y-40.628
G2 X-187.759 Y-40.413 I0.289 J0.081
X-187.73 Y-40.508 I-0.269 J-0.134
G3 X-187.613 Y-40.513 I0.059 J0.008
G2 X-187.188 Y-39.308 I4.191 J-0.799
G3 X-187.56 Y-37.679 I-1.838 J0.437
X-189.121 Y-36.519 I-2.584 J-1.848
G1 X-189.489 Y-36.399
X-189.888 Y-36.315
G3 X-190.237 Y-36.401 I-0.062 J-0.497
X-191.607 Y-37.878 I3.511 J-4.629
G1 X-191.634 Y-37.929
X-191.651 Y-37.986
G3 X-191.449 Y-38.322 I0.296 J-0.052
G1 X-187.61 Y-39.585
G3 X-187.252 Y-39.443 I0.094 J0.285
G2 X-186.728 Y-38.698 I2.946 J-1.518
G3 X-186.629 Y-37.366 I-1.375 J0.772
X-186.775 Y-37.013 I-0.877 J-0.158
G1 X-186.81 Y-36.973
G3 X-186.908 Y-36.91 I-0.21 J-0.215
X-187.319 Y-37.184 I-0.112 J-0.278
G1 X-187.339 Y-38.598
G3 X-186.921 Y-38.878 I0.3 J-0.004
X-186.825 Y-38.812 I-0.118 J0.276
G2 X-186.581 Y-38.579 I2.312 J-2.167
X-186.092 Y-38.232 I2.068 J-2.4 F212.5
G1 X-186.032 Y-38.115 F850
X-186.012 Y-37.988
X-186.037 Y-37.861
X-186.103 Y-37.75
G3 X-186.195 Y-37.676 I-0.299 J-0.279
X-186.319 Y-37.628 I-0.208 J-0.352
X-186.469 Y-38.348 I-0.075 J-0.36
X-186.22 Y-38.312 I0.075 J0.36
G1 X-186.106 Y-38.245
X-186.078 Y-38.221
X-186.051 Y-38.192
X-186.03 Y-38.162
X-186.015 Y-38.133
X-186.003 Y-38.103
X-185.993 Y-38.068
X-185.987 Y-38.032
X-185.986 Y-37.997 F212.5
X-185.989 Y-37.961 F850
X-185.997 Y-37.926
G3 X-186.166 Y-37.678 I-0.511 J-0.167
X-187.493 Y-36.333 I-8.804 J-7.362
X-190.02 Y-36.265 I-1.309 J-1.655
G1 X-190.188 Y-36.367
X-190.237 Y-36.401
X-190.241 Y-36.428
X-190.25 Y-36.494 Z-2.992
X-190.259 Y-36.556 Z-2.97
X-190.267 Y-36.613 Z-2.935
X-190.274 Y-36.66 Z-2.887
X-190.279 Y-36.695 Z-2.83
X-190.282 Y-36.717 Z-2.767
X-190.283 Y-36.725 Z-2.7
G0 Z15
M9
M30
%
