%
(1001)
(z0 top machine -5-5)
(T1  D=12.7 CR=0 - ZMIN=-1 - flat end mill)
G90 G94
G17
G21

(Face7)
M9
T1 M6
S6000 M3
G54
M9
G0 X10.255 Y-136.223
Z15
Z5
G1 Z0.27 F850
G18 G3 X8.985 Z-1 I-1.27
G1 X5
X-215
G17 G2 Y-124.217 J6.003
G1 X5
G3 Y-112.21 J6.003
G1 X-215
G2 Y-100.204 J6.003
G1 X5
G3 Y-88.198 J6.003
G1 X-215
G2 Y-76.191 J6.003
G1 X5
G3 Y-64.185 J6.003
G1 X-215
G2 Y-52.179 J6.003
G1 X5
G3 Y-40.172 J6.003
G1 X-215
G2 Y-28.166 J6.003
G1 X5
G3 Y-16.16 J6.003
G1 X-215
G2 Y-4.153 J6.003
G1 X5
G0 Z15
M9
M30
%
