%
(1001)
(z0 mdf bottom machine -5-5)
(T1  D=12.7 CR=0 - ZMIN=10 - flat end mill)
G90 G94
G17
G21

(lid pocket)
M9
T1 M6
S6000 M3
G54
M9
G0 X-178.308 Y-75.346
Z37
Z27
Z25.77
G1 Z24.5 F850
G3 X-167.67 Y-69.654 Z23.838 I5.319 J2.846 F283.3
X-178.308 Y-75.346 Z23.176 I-5.319 J-2.846
X-167.67 Y-69.654 Z22.515 I5.319 J2.846
X-178.308 Y-75.346 Z21.853 I-5.319 J-2.846
X-167.67 Y-69.654 Z21.191 I5.319 J2.846
X-178.308 Y-75.346 Z20.529 I-5.319 J-2.846
X-167.67 Y-69.654 Z19.867 I5.319 J2.846
X-178.308 Y-75.346 Z19.206 I-5.319 J-2.846
X-167.67 Y-69.654 Z18.544 I5.319 J2.846
X-178.308 Y-75.346 Z17.882 I-5.319 J-2.846
X-167.67 Y-69.654 Z17.22 I5.319 J2.846
X-178.308 Y-75.346 Z16.558 I-5.319 J-2.846
X-166.957 Y-72.5 Z16 I5.319 J2.846
X-179.022 I-6.033
X-167.233 Y-74.305 I6.033
X-166.957 Y-72.5 I-5.756 J1.805
G1 X-166.953 Y-72.164 F850
X-166.815 Y-70.829
X-166.778 Y-70.754
X-166.719 Y-70.616
X-166.668 Y-70.468
X-166.623 Y-70.301
X-166.585 Y-70.116
X-166.557 Y-69.911
X-166.542 Y-69.689
Y-69.449
X-166.559 Y-69.194
X-166.595 Y-68.923
X-166.652 Y-68.639
X-166.731 Y-68.344
X-166.836 Y-68.039
X-166.967 Y-67.728
X-167.125 Y-67.411
X-167.311 Y-67.093
X-167.526 Y-66.776
X-167.771 Y-66.463
X-168.044 Y-66.156
X-168.347 Y-65.859
X-168.678 Y-65.575
X-169.037 Y-65.307
X-169.422 Y-65.056
X-169.831 Y-64.827
X-170.264 Y-64.621
X-170.718 Y-64.442
X-171.19 Y-64.29
X-171.679 Y-64.168
X-172.182 Y-64.077
X-172.697 Y-64.019
X-173.22 Y-63.995
X-173.749 Y-64.006
X-174.281 Y-64.053
X-174.813 Y-64.135
X-175.342 Y-64.253
X-175.866 Y-64.408
X-176.382 Y-64.597
X-176.886 Y-64.822
X-177.377 Y-65.081
X-177.852 Y-65.373
X-178.308 Y-65.697
X-178.743 Y-66.052
X-179.154 Y-66.437
X-179.541 Y-66.848
X-179.9 Y-67.286
X-180.23 Y-67.747
X-180.529 Y-68.23
X-180.796 Y-68.733
X-181.029 Y-69.253
X-181.228 Y-69.788
X-181.39 Y-70.336
X-181.517 Y-70.894
X-181.606 Y-71.46
X-181.657 Y-72.03
X-181.671 Y-72.604
X-181.646 Y-73.177
X-181.584 Y-73.748
X-181.483 Y-74.314
X-181.346 Y-74.872
X-181.171 Y-75.42
X-180.961 Y-75.955
X-180.715 Y-76.475
X-180.435 Y-76.978
X-180.123 Y-77.462
X-179.779 Y-77.924
X-179.405 Y-78.362
X-179.003 Y-78.774
X-178.574 Y-79.159
X-178.12 Y-79.515
X-177.644 Y-79.84
X-177.148 Y-80.132
X-176.633 Y-80.391
X-176.102 Y-80.615
X-175.557 Y-80.804
X-175.001 Y-80.956
X-174.436 Y-81.071
X-173.865 Y-81.148
X-173.289 Y-81.187
X-172.713 Y-81.188
X-172.137 Y-81.151
X-171.565 Y-81.075
X-171 Y-80.962
X-170.443 Y-80.812
X-169.898 Y-80.625
X-169.366 Y-80.402
X-168.85 Y-80.144
X-168.352 Y-79.853
X-167.874 Y-79.529
X-167.42 Y-79.174
X-166.989 Y-78.79
X-166.585 Y-78.379
X-166.21 Y-77.941
X-165.864 Y-77.479
X-165.549 Y-76.996
X-165.152 Y-76.287
X-164.594 Y-75.115
X-164.237 Y-74.215
X-163.985 Y-73.431
X-163.802 Y-72.699
X-163.678 Y-72.011
X-163.604 Y-71.354
X-163.575 Y-70.715
X-163.588 Y-70.09
X-163.641 Y-69.477
X-163.734 Y-68.875
X-163.866 Y-68.286
X-164.036 Y-67.708
X-164.243 Y-67.142
X-164.489 Y-66.59
X-164.773 Y-66.053
X-165.093 Y-65.531
X-165.451 Y-65.028
X-165.844 Y-64.546
X-166.273 Y-64.086
X-166.737 Y-63.65
X-167.234 Y-63.242
X-167.763 Y-62.864
X-168.321 Y-62.518
X-168.908 Y-62.206
X-169.52 Y-61.932
X-170.154 Y-61.696
X-170.809 Y-61.501
X-171.48 Y-61.349
X-172.166 Y-61.241
X-172.864 Y-61.178
X-173.569 Y-61.161
X-174.28 Y-61.191
X-174.991 Y-61.269
X-175.701 Y-61.395
X-176.405 Y-61.568
X-177.1 Y-61.789
X-177.782 Y-62.057
X-178.449 Y-62.372
X-179.096 Y-62.732
X-179.721 Y-63.135
X-180.32 Y-63.581
X-180.89 Y-64.067
X-181.428 Y-64.592
X-181.931 Y-65.152
X-182.398 Y-65.746
X-182.825 Y-66.372
X-183.21 Y-67.025
X-183.552 Y-67.704
X-183.849 Y-68.406
X-184.098 Y-69.126
X-184.3 Y-69.863
X-184.452 Y-70.612
X-184.555 Y-71.371
X-184.607 Y-72.135
X-184.609 Y-72.902
X-184.559 Y-73.668
X-184.459 Y-74.43
X-184.308 Y-75.184
X-184.108 Y-75.926
X-183.858 Y-76.654
X-183.561 Y-77.364
X-183.217 Y-78.054
X-182.828 Y-78.719
X-182.396 Y-79.357
X-181.922 Y-79.965
X-181.409 Y-80.54
X-180.858 Y-81.081
X-180.273 Y-81.584
X-179.655 Y-82.047
X-179.009 Y-82.468
X-178.335 Y-82.845
X-177.638 Y-83.177
X-176.92 Y-83.462
X-176.185 Y-83.698
X-175.436 Y-83.886
X-174.676 Y-84.023
X-173.909 Y-84.11
X-173.137 Y-84.146
X-172.365 Y-84.13
X-171.595 Y-84.063
X-170.831 Y-83.945
X-170.077 Y-83.777
X-169.336 Y-83.559
X-168.611 Y-83.293
X-167.905 Y-82.979
X-167.221 Y-82.619
X-166.563 Y-82.214
X-165.933 Y-81.767
X-165.305 Y-81.255
X-164.676 Y-80.669
X-164.043 Y-79.995
X-163.427 Y-79.245
X-162.856 Y-78.447
X-162.34 Y-77.615
X-161.887 Y-76.763
X-161.498 Y-75.897
X-161.174 Y-75.025
X-160.913 Y-74.15
X-160.715 Y-73.277
X-160.578 Y-72.41
X-160.5 Y-71.549
X-160.479 Y-70.696
X-160.515 Y-69.851
X-160.606 Y-69.018
X-160.751 Y-68.196
X-160.95 Y-67.389
X-161.202 Y-66.598
X-161.505 Y-65.825
X-161.859 Y-65.073
X-162.263 Y-64.345
X-162.717 Y-63.643
X-163.217 Y-62.97
X-163.764 Y-62.329
X-164.355 Y-61.723
X-164.988 Y-61.153
X-165.662 Y-60.625
X-166.373 Y-60.139
X-167.119 Y-59.698
X-167.898 Y-59.306
X-168.706 Y-58.964
X-169.539 Y-58.675
X-170.396 Y-58.44
X-171.271 Y-58.262
X-172.162 Y-58.141
X-173.065 Y-58.079
X-173.975 Y-58.077
X-174.889 Y-58.136
X-175.802 Y-58.256
X-176.71 Y-58.437
X-177.608 Y-58.68
X-178.492 Y-58.982
X-179.357 Y-59.344
X-180.2 Y-59.765
X-181.017 Y-60.242
X-181.802 Y-60.774
X-182.553 Y-61.359
X-183.266 Y-61.994
X-183.937 Y-62.677
X-184.562 Y-63.405
X-185.139 Y-64.174
X-185.665 Y-64.981
X-186.138 Y-65.824
X-186.554 Y-66.697
X-186.911 Y-67.597
X-187.209 Y-68.521
X-187.445 Y-69.463
X-187.618 Y-70.42
X-187.728 Y-71.387
X-187.773 Y-72.361
X-187.754 Y-73.336
X-187.669 Y-74.309
X-187.521 Y-75.274
X-187.308 Y-76.229
X-187.033 Y-77.167
X-186.696 Y-78.086
X-186.298 Y-78.981
X-185.842 Y-79.847
X-185.329 Y-80.682
X-184.761 Y-81.482
X-184.142 Y-82.242
X-183.473 Y-82.96
X-182.758 Y-83.631
X-182 Y-84.255
X-181.202 Y-84.826
X-180.368 Y-85.344
X-179.501 Y-85.805
X-178.605 Y-86.208
X-177.685 Y-86.55
X-176.744 Y-86.831
X-175.786 Y-87.049
X-174.815 Y-87.202
X-173.837 Y-87.291
X-172.854 Y-87.315
X-171.873 Y-87.274
X-170.896 Y-87.168
X-169.928 Y-86.997
X-168.973 Y-86.762
X-168.036 Y-86.465
X-167.115 Y-86.103
X-166.207 Y-85.675
X-165.308 Y-85.176
X-164.421 Y-84.604
X-163.557 Y-83.962
X-162.725 Y-83.253
X-161.93 Y-82.479
X-161.18 Y-81.644
X-160.481 Y-80.756
X-159.841 Y-79.819
X-159.265 Y-78.844
X-158.758 Y-77.836
X-158.321 Y-76.805
X-157.956 Y-75.755
X-157.665 Y-74.693
X-157.446 Y-73.623
X-157.3 Y-72.548
X-157.227 Y-71.474
X-157.224 Y-70.404
X-157.292 Y-69.34
X-157.43 Y-68.287
X-157.637 Y-67.249
X-157.913 Y-66.228
X-158.254 Y-65.228
X-158.662 Y-64.253
X-159.133 Y-63.307
X-159.667 Y-62.392
X-160.262 Y-61.514
X-160.915 Y-60.674
X-161.625 Y-59.878
X-162.388 Y-59.128
X-163.202 Y-58.427
X-164.065 Y-57.78
X-164.972 Y-57.189
X-165.92 Y-56.657
X-166.905 Y-56.187
X-167.924 Y-55.782
X-168.973 Y-55.444
X-170.047 Y-55.174
X-171.141 Y-54.976
X-172.252 Y-54.85
X-173.373 Y-54.798
X-174.501 Y-54.82
X-175.63 Y-54.917
X-176.754 Y-55.09
X-177.87 Y-55.338
X-178.971 Y-55.661
X-180.052 Y-56.057
X-181.109 Y-56.527
X-182.135 Y-57.067
X-183.126 Y-57.675
X-184.078 Y-58.35
X-184.985 Y-59.089
X-185.844 Y-59.888
X-186.649 Y-60.745
X-187.397 Y-61.655
X-188.085 Y-62.614
X-188.709 Y-63.619
X-189.265 Y-64.664
X-189.752 Y-65.746
X-190.166 Y-66.859
X-190.507 Y-67.999
X-190.771 Y-69.16
X-190.958 Y-70.337
X-191.066 Y-71.526
X-191.096 Y-72.72
X-191.046 Y-73.914
X-190.917 Y-75.103
X-190.709 Y-76.282
X-190.423 Y-77.445
X-190.061 Y-78.587
X-189.623 Y-79.703
X-189.112 Y-80.788
X-188.531 Y-81.838
X-187.88 Y-82.846
X-187.164 Y-83.81
X-186.385 Y-84.724
X-185.547 Y-85.585
X-184.654 Y-86.389
X-183.709 Y-87.132
X-182.717 Y-87.811
X-181.682 Y-88.422
X-180.608 Y-88.964
X-179.501 Y-89.433
X-178.364 Y-89.828
X-177.204 Y-90.146
X-176.026 Y-90.387
X-174.833 Y-90.55
X-173.633 Y-90.633
X-172.43 Y-90.636
X-171.229 Y-90.559
X-170.034 Y-90.403
X-168.848 Y-90.167
X-167.671 Y-89.85
X-166.507 Y-89.452
X-165.357 Y-88.972
X-164.229 Y-88.41
X-163.126 Y-87.767
X-162.057 Y-87.043
X-161.026 Y-86.242
X-160.043 Y-85.366
X-159.113 Y-84.421
X-158.245 Y-83.411
X-157.443 Y-82.344
X-156.714 Y-81.226
X-156.061 Y-80.063
X-155.488 Y-78.862
X-154.998 Y-77.63
X-154.592 Y-76.374
X-154.272 Y-75.098
X-154.038 Y-73.809
X-153.89 Y-72.512
X-153.829 Y-71.214
X-153.854 Y-69.918
X-153.965 Y-68.629
X-154.161 Y-67.354
X-154.44 Y-66.096
X-154.802 Y-64.861
X-155.245 Y-63.653
X-155.767 Y-62.476
X-156.366 Y-61.336
X-157.04 Y-60.238
X-157.787 Y-59.185
X-158.603 Y-58.181
X-159.486 Y-57.232
X-160.433 Y-56.342
X-161.439 Y-55.514
X-162.502 Y-54.752
X-163.616 Y-54.06
X-164.777 Y-53.441
X-165.981 Y-52.899
X-167.223 Y-52.436
X-168.498 Y-52.055
X-169.8 Y-51.758
X-171.124 Y-51.548
X-172.46 Y-51.426
X-173.802 Y-51.392
X-175.143 Y-51.447
X-176.478 Y-51.589
X-177.8 Y-51.818
X-179.105 Y-52.133
X-180.386 Y-52.532
X-181.639 Y-53.013
X-182.859 Y-53.573
X-184.04 Y-54.211
X-185.177 Y-54.924
X-186.266 Y-55.708
X-187.303 Y-56.56
X-188.283 Y-57.477
X-189.203 Y-58.454
X-190.059 Y-59.488
X-190.847 Y-60.575
X-191.566 Y-61.708
X-192.211 Y-62.885
X-192.781 Y-64.1
X-193.273 Y-65.349
X-193.686 Y-66.626
X-194.019 Y-67.926
X-194.269 Y-69.245
X-194.436 Y-70.577
X-194.52 Y-71.916
Y-73.258
X-194.437 Y-74.598
X-194.27 Y-75.929
X-194.019 Y-77.248
X-193.686 Y-78.548
X-193.272 Y-79.825
X-192.779 Y-81.073
X-192.208 Y-82.288
X-191.563 Y-83.465
X-190.846 Y-84.599
X-190.06 Y-85.687
X-189.207 Y-86.724
X-188.292 Y-87.705
X-187.317 Y-88.628
X-186.288 Y-89.489
X-185.206 Y-90.284
X-184.078 Y-91.011
X-182.907 Y-91.666
X-181.697 Y-92.248
X-180.453 Y-92.752
X-179.181 Y-93.178
X-177.884 Y-93.523
X-176.567 Y-93.787
X-175.238 Y-93.968
X-173.899 Y-94.065
X-172.557 Y-94.079
X-171.217 Y-94.01
X-169.883 Y-93.859
X-168.561 Y-93.625
X-167.256 Y-93.312
X-165.973 Y-92.92
X-164.715 Y-92.451
X-163.488 Y-91.908
X-162.295 Y-91.291
X-161.142 Y-90.604
X-160.032 Y-89.851
X-158.967 Y-89.033
X-157.951 Y-88.156
X-156.987 Y-87.223
X-156.077 Y-86.236
X-155.226 Y-85.198
X-154.437 Y-84.112
X-153.712 Y-82.983
X-153.053 Y-81.814
X-152.461 Y-80.609
X-151.938 Y-79.373
X-151.486 Y-78.11
X-151.108 Y-76.822
X-150.806 Y-75.514
X-150.58 Y-74.191
X-150.433 Y-72.857
X-150.362 Y-71.517
X-150.37 Y-70.175
X-150.454 Y-68.835
X-150.616 Y-67.503
X-150.855 Y-66.182
X-151.172 Y-64.878
X-151.566 Y-63.595
X-152.035 Y-62.337
X-152.577 Y-61.109
X-153.189 Y-59.915
X-153.87 Y-58.758
X-154.617 Y-57.643
X-155.426 Y-56.572
X-156.297 Y-55.551
X-157.227 Y-54.584
X-158.213 Y-53.673
X-159.249 Y-52.82
X-160.334 Y-52.029
X-161.461 Y-51.301
X-162.628 Y-50.638
X-163.831 Y-50.043
X-165.067 Y-49.519
X-166.331 Y-49.068
X-167.619 Y-48.69
X-168.926 Y-48.386
X-170.248 Y-48.156
X-171.581 Y-47.999
X-172.921 Y-47.918
X-174.263 Y-47.914
X-175.603 Y-47.986
X-176.937 Y-48.133
X-178.261 Y-48.355
X-179.571 Y-48.649
X-180.862 Y-49.014
X-182.132 Y-49.449
X-183.375 Y-49.956
X-184.587 Y-50.532
X-185.766 Y-51.174
X-186.907 Y-51.879
X-188.009 Y-52.646
X-189.068 Y-53.471
X-190.08 Y-54.353
X-191.041 Y-55.29
X-191.949 Y-56.278
X-192.801 Y-57.315
X-193.596 Y-58.396
X-194.332 Y-59.519
X-195.006 Y-60.679
X-195.618 Y-61.874
X-196.163 Y-63.1
X-196.639 Y-64.355
X-197.047 Y-65.634
X-197.386 Y-66.932
X-197.655 Y-68.247
X-197.854 Y-69.575
X-197.982 Y-70.911
X-198.037 Y-72.252
X-198.018 Y-73.594
X-197.927 Y-74.933
X-197.764 Y-76.265
X-197.53 Y-77.587
X-197.226 Y-78.894
X-196.853 Y-80.183
X-196.41 Y-81.45
X-195.899 Y-82.691
X-195.321 Y-83.903
X-194.679 Y-85.081
X-193.976 Y-86.224
X-193.213 Y-87.328
X-192.392 Y-88.391
X-191.516 Y-89.407
X-190.586 Y-90.375
X-189.605 Y-91.29
X-188.576 Y-92.152
X-187.503 Y-92.959
X-186.389 Y-93.707
X-185.237 Y-94.396
X-184.05 Y-95.022
X-182.83 Y-95.582
X-181.582 Y-96.075
X-180.309 Y-96.5
X-179.015 Y-96.857
X-177.704 Y-97.145
X-176.38 Y-97.363
X-175.045 Y-97.51
X-173.705 Y-97.584
X-172.363 Y-97.585
X-171.023 Y-97.515
X-169.688 Y-97.375
X-168.362 Y-97.165
X-167.05 Y-96.886
X-165.753 Y-96.54
X-164.476 Y-96.125
X-163.224 Y-95.643
X-161.998 Y-95.096
X-160.802 Y-94.487
X-159.639 Y-93.817
X-158.511 Y-93.09
X-157.421 Y-92.307
X-156.371 Y-91.471
X-155.366 Y-90.581
X-154.407 Y-89.642
X-153.497 Y-88.655
X-152.638 Y-87.625
X-151.83 Y-86.552
X-151.077 Y-85.442
X-150.379 Y-84.296
X-149.739 Y-83.116
X-149.159 Y-81.905
X-148.642 Y-80.667
X-148.187 Y-79.404
X-147.796 Y-78.12
X-147.469 Y-76.818
X-147.207 Y-75.502
X-147.011 Y-74.174
X-146.884 Y-72.838
X-146.824 Y-71.497
X-146.832 Y-70.155
X-146.908 Y-68.815
X-147.051 Y-67.481
X-147.26 Y-66.155
X-147.536 Y-64.841
X-147.879 Y-63.544
X-148.288 Y-62.266
X-148.762 Y-61.01
X-149.3 Y-59.78
X-149.898 Y-58.579
X-150.555 Y-57.408
X-151.27 Y-56.272
X-152.041 Y-55.174
X-152.868 Y-54.117
X-153.749 Y-53.104
X-154.679 Y-52.137
X-155.657 Y-51.218
X-156.68 Y-50.348
X-157.744 Y-49.531
X-158.847 Y-48.766
X-159.988 Y-48.059
X-161.163 Y-47.41
X-162.369 Y-46.822
X-163.604 Y-46.295
X-164.863 Y-45.83
X-166.143 Y-45.427
X-167.441 Y-45.086
X-168.754 Y-44.81
X-170.08 Y-44.599
X-171.414 Y-44.456
X-172.754 Y-44.378
X-174.096 Y-44.367
X-175.437 Y-44.421
X-176.774 Y-44.54
X-178.104 Y-44.722
X-179.423 Y-44.968
X-180.729 Y-45.279
X-182.018 Y-45.654
X-183.287 Y-46.092
X-184.533 Y-46.591
X-185.753 Y-47.148
X-186.946 Y-47.763
X-188.109 Y-48.434
X-189.238 Y-49.16
X-190.33 Y-49.94
X-191.383 Y-50.772
X-192.395 Y-51.654
X-193.363 Y-52.584
X-194.286 Y-53.558
X-195.162 Y-54.575
X-195.99 Y-55.631
X-196.767 Y-56.725
X-197.49 Y-57.856
X-198.158 Y-59.021
X-198.769 Y-60.215
X-199.323 Y-61.438
X-199.819 Y-62.685
X-200.256 Y-63.954
X-200.635 Y-65.242
X-200.952 Y-66.546
X-201.206 Y-67.864
X-201.397 Y-69.192
X-201.525 Y-70.528
X-201.59 Y-71.869
X-201.591 Y-73.211
X-201.531 Y-74.552
X-201.408 Y-75.888
X-201.222 Y-77.217
X-200.974 Y-78.536
X-200.662 Y-79.842
X-200.289 Y-81.131
X-199.855 Y-82.401
X-199.363 Y-83.65
X-198.813 Y-84.874
X-198.207 Y-86.072
X-197.546 Y-87.24
X-196.83 Y-88.375
X-196.061 Y-89.475
X-195.24 Y-90.537
X-194.371 Y-91.56
X-193.455 Y-92.541
X-192.495 Y-93.478
X-191.492 Y-94.371
X-190.449 Y-95.215
X-189.367 Y-96.01
X-188.249 Y-96.751
X-187.097 Y-97.44
X-185.913 Y-98.073
X-184.701 Y-98.65
X-183.464 Y-99.171
X-182.204 Y-99.633
X-180.924 Y-100.037
X-179.627 Y-100.379
X-178.314 Y-100.659
X-176.99 Y-100.877
X-175.656 Y-101.032
X-174.318 Y-101.125
X-172.976 Y-101.157
X-171.634 Y-101.126
X-170.295 Y-101.034
X-168.962 Y-100.879
X-167.637 Y-100.662
X-166.324 Y-100.384
X-165.026 Y-100.045
X-163.744 Y-99.647
X-162.482 Y-99.191
X-161.241 Y-98.679
X-160.025 Y-98.111
X-158.835 Y-97.489
X-157.676 Y-96.813
X-156.548 Y-96.086
X-155.454 Y-95.308
X-154.396 Y-94.483
X-153.375 Y-93.611
X-152.394 Y-92.695
X-151.454 Y-91.737
X-150.557 Y-90.739
X-149.706 Y-89.701
X-148.901 Y-88.627
X-148.145 Y-87.518
X-147.439 Y-86.377
X-146.784 Y-85.205
X-146.181 Y-84.006
X-145.63 Y-82.782
X-145.134 Y-81.535
X-144.693 Y-80.267
X-144.31 Y-78.981
X-143.984 Y-77.679
X-143.717 Y-76.364
X-143.508 Y-75.038
X-143.358 Y-73.704
X-143.266 Y-72.365
X-143.234 Y-71.024
X-143.26 Y-69.682
X-143.348 Y-68.342
X-143.495 Y-67.008
X-143.702 Y-65.682
X-143.969 Y-64.367
X-144.293 Y-63.065
X-144.675 Y-61.778
X-145.114 Y-60.509
X-145.607 Y-59.261
X-146.157 Y-58.037
X-146.761 Y-56.838
X-147.418 Y-55.668
X-148.127 Y-54.528
X-148.886 Y-53.422
X-149.694 Y-52.349
X-150.548 Y-51.314
X-151.446 Y-50.317
X-152.389 Y-49.361
X-153.373 Y-48.448
X-154.396 Y-47.581
X-155.458 Y-46.759
X-156.554 Y-45.985
X-157.684 Y-45.261
X-158.844 Y-44.586
X-160.033 Y-43.963
X-161.248 Y-43.392
X-162.487 Y-42.876
X-163.747 Y-42.415
X-165.027 Y-42.01
X-166.323 Y-41.662
X-167.633 Y-41.37
X-168.955 Y-41.136
X-170.285 Y-40.959
X-171.622 Y-40.839
X-172.963 Y-40.777
X-174.305 Y-40.775
X-175.646 Y-40.83
X-176.983 Y-40.944
X-178.314 Y-41.115
X-179.637 Y-41.343
X-180.949 Y-41.628
X-182.247 Y-41.969
X-183.529 Y-42.364
X-184.794 Y-42.814
X-186.038 Y-43.319
X-187.258 Y-43.876
X-188.455 Y-44.485
X-189.623 Y-45.144
X-190.763 Y-45.853
X-191.872 Y-46.609
X-192.948 Y-47.412
X-193.989 Y-48.259
X-194.993 Y-49.149
X-195.958 Y-50.082
X-196.883 Y-51.055
X-197.765 Y-52.066
X-198.604 Y-53.114
X-199.399 Y-54.196
X-200.147 Y-55.31
X-200.848 Y-56.455
X-201.5 Y-57.627
X-202.102 Y-58.827
X-202.653 Y-60.051
X-203.152 Y-61.297
X-203.598 Y-62.563
X-203.991 Y-63.846
X-204.33 Y-65.145
X-204.614 Y-66.457
X-204.844 Y-67.779
X-205.018 Y-69.11
X-205.136 Y-70.447
X-205.197 Y-71.787
X-205.202 Y-73.13
X-205.151 Y-74.471
X-205.045 Y-75.809
X-204.882 Y-77.141
X-204.664 Y-78.465
X-204.392 Y-79.779
X-204.064 Y-81.081
X-203.682 Y-82.368
X-203.246 Y-83.637
X-202.758 Y-84.887
X-202.217 Y-86.116
X-201.627 Y-87.321
X-200.986 Y-88.5
X-200.298 Y-89.652
X-199.562 Y-90.775
X-198.78 Y-91.866
X-197.953 Y-92.923
X-197.082 Y-93.944
X-196.169 Y-94.928
X-195.217 Y-95.874
X-194.226 Y-96.779
X-193.198 Y-97.642
X-192.136 Y-98.462
X-191.04 Y-99.238
X-189.913 Y-99.967
X-188.757 Y-100.648
X-187.572 Y-101.279
X-186.363 Y-101.861
X-185.13 Y-102.392
X-183.877 Y-102.871
X-182.604 Y-103.298
X-181.315 Y-103.672
X-180.012 Y-103.993
X-178.696 Y-104.259
X-177.371 Y-104.468
X-176.038 Y-104.623
X-174.699 Y-104.722
X-173.358 Y-104.765
X-172.015 Y-104.754
X-170.675 Y-104.687
X-169.338 Y-104.565
X-168.008 Y-104.389
X-166.686 Y-104.159
X-165.374 Y-103.873
X-164.076 Y-103.533
X-162.792 Y-103.141
X-161.526 Y-102.697
X-160.278 Y-102.202
X-159.051 Y-101.657
X-157.848 Y-101.064
X-156.668 Y-100.423
X-155.516 Y-99.735
X-154.392 Y-99.001
X-153.3 Y-98.221
X-152.239 Y-97.399
X-151.211 Y-96.536
X-150.219 Y-95.632
X-149.263 Y-94.69
X-148.344 Y-93.711
X-147.465 Y-92.697
X-146.627 Y-91.649
X-145.831 Y-90.569
X-145.078 Y-89.457
X-144.371 Y-88.317
X-143.709 Y-87.149
X-143.093 Y-85.956
X-142.525 Y-84.741
X-142.005 Y-83.503
X-141.534 Y-82.247
X-141.112 Y-80.972
X-140.741 Y-79.682
X-140.423 Y-78.379
X-140.157 Y-77.063
X-139.943 Y-75.738
X-139.781 Y-74.406
X-139.672 Y-73.068
X-139.616 Y-71.727
X-139.613 Y-70.385
X-139.662 Y-69.044
X-139.765 Y-67.705
X-139.922 Y-66.373
X-140.133 Y-65.047
X-140.396 Y-63.731
X-140.711 Y-62.426
X-141.078 Y-61.135
X-141.495 Y-59.86
X-141.962 Y-58.601
X-142.479 Y-57.363
X-143.045 Y-56.145
X-143.658 Y-54.952
X-144.32 Y-53.784
X-145.028 Y-52.644
X-145.781 Y-51.533
X-146.577 Y-50.452
X-147.415 Y-49.404
X-148.294 Y-48.389
X-149.211 Y-47.41
X-150.167 Y-46.468
X-151.16 Y-45.564
X-152.188 Y-44.701
X-153.25 Y-43.88
X-154.343 Y-43.102
X-155.466 Y-42.367
X-156.617 Y-41.677
X-157.794 Y-41.032
X-158.996 Y-40.434
X-160.22 Y-39.883
X-161.464 Y-39.38
X-162.728 Y-38.928
X-164.008 Y-38.525
X-165.303 Y-38.174
X-166.611 Y-37.873
X-167.93 Y-37.623
X-169.257 Y-37.425
X-170.591 Y-37.278
X-171.93 Y-37.182
X-173.272 Y-37.138
X-174.614 Y-37.147
X-175.955 Y-37.208
X-177.292 Y-37.321
X-178.624 Y-37.487
X-179.948 Y-37.703
X-181.264 Y-37.97
X-182.568 Y-38.287
X-183.859 Y-38.654
X-185.135 Y-39.069
X-186.395 Y-39.533
X-187.635 Y-40.046
X-188.855 Y-40.606
X-190.052 Y-41.213
X-191.225 Y-41.866
X-192.372 Y-42.562
X-193.492 Y-43.302
X-194.583 Y-44.083
X-195.644 Y-44.905
X-196.673 Y-45.767
X-197.669 Y-46.667
X-198.629 Y-47.605
X-199.552 Y-48.579
X-200.438 Y-49.587
X-201.285 Y-50.628
X-202.092 Y-51.701
X-202.858 Y-52.803
X-203.582 Y-53.933
X-204.263 Y-55.089
X-204.901 Y-56.27
X-205.493 Y-57.475
X-206.039 Y-58.701
X-206.537 Y-59.947
X-206.988 Y-61.211
X-207.392 Y-62.491
X-207.747 Y-63.786
X-208.054 Y-65.092
X-208.311 Y-66.409
X-208.519 Y-67.735
X-208.678 Y-69.068
X-208.786 Y-70.406
X-208.843 Y-71.747
X-208.849 Y-73.089
X-208.804 Y-74.43
X-208.709 Y-75.769
X-208.564 Y-77.103
X-208.37 Y-78.431
X-208.126 Y-79.751
X-207.833 Y-81.061
X-207.492 Y-82.359
X-207.101 Y-83.643
X-206.662 Y-84.911
X-206.175 Y-86.162
X-205.642 Y-87.394
X-205.063 Y-88.605
X-204.44 Y-89.793
X-203.772 Y-90.958
X-203.062 Y-92.097
X-202.31 Y-93.208
X-201.517 Y-94.291
X-200.684 Y-95.343
X-199.811 Y-96.363
X-198.901 Y-97.349
X-197.954 Y-98.3
X-196.972 Y-99.216
X-195.958 Y-100.094
X-194.911 Y-100.934
X-193.834 Y-101.735
X-192.728 Y-102.495
X-191.594 Y-103.213
X-190.433 Y-103.888
X-189.248 Y-104.518
X-188.04 Y-105.103
X-186.811 Y-105.643
X-185.563 Y-106.136
X-184.298 Y-106.583
X-183.016 Y-106.982
X-181.721 Y-107.334
X-180.414 Y-107.637
X-179.096 Y-107.891
X-177.769 Y-108.095
X-176.436 Y-108.249
X-175.098 Y-108.353
X-173.757 Y-108.407
X-172.414 Y-108.411
X-171.073 Y-108.366
X-169.734 Y-108.272
X-168.4 Y-108.128
X-167.072 Y-107.935
X-165.751 Y-107.694
X-164.441 Y-107.403
X-163.143 Y-107.063
X-161.857 Y-106.676
X-160.587 Y-106.243
X-159.334 Y-105.763
X-158.098 Y-105.238
X-156.883 Y-104.669
X-155.689 Y-104.057
X-154.517 Y-103.401
X-153.37 Y-102.704
X-152.25 Y-101.965
X-151.157 Y-101.186
X-150.093 Y-100.368
X-149.059 Y-99.512
X-148.057 Y-98.62
X-147.087 Y-97.692
X-146.15 Y-96.731
X-145.248 Y-95.737
X-144.382 Y-94.712
X-143.553 Y-93.656
X-142.763 Y-92.571
X-142.012 Y-91.459
X-141.302 Y-90.32
X-140.633 Y-89.156
X-140.006 Y-87.97
X-139.421 Y-86.761
X-138.88 Y-85.534
X-138.382 Y-84.287
X-137.928 Y-83.024
X-137.52 Y-81.745
X-137.158 Y-80.453
X-136.843 Y-79.148
X-136.575 Y-77.833
X-136.355 Y-76.509
X-136.182 Y-75.178
X-136.056 Y-73.842
X-135.978 Y-72.502
X-135.948 Y-71.16
X-135.965 Y-69.818
X-136.03 Y-68.478
X-136.144 Y-67.14
X-136.306 Y-65.808
X-136.516 Y-64.482
X-136.774 Y-63.165
X-137.079 Y-61.858
X-137.43 Y-60.563
X-137.827 Y-59.281
X-138.27 Y-58.014
X-138.757 Y-56.763
X-139.289 Y-55.531
X-139.865 Y-54.319
X-140.485 Y-53.128
X-141.147 Y-51.961
X-141.851 Y-50.818
X-142.596 Y-49.702
X-143.38 Y-48.612
X-144.202 Y-47.551
X-145.062 Y-46.52
X-145.957 Y-45.521
X-146.887 Y-44.553
X-147.852 Y-43.62
X-148.849 Y-42.722
X-149.879 Y-41.861
X-150.938 Y-41.037
X-152.027 Y-40.252
X-153.143 Y-39.506
X-154.284 Y-38.8
X-155.449 Y-38.134
X-156.638 Y-37.51
X-157.847 Y-36.928
X-159.076 Y-36.389
X-160.324 Y-35.895
X-161.589 Y-35.446
X-162.869 Y-35.042
X-164.162 Y-34.684
X-165.468 Y-34.371
X-166.783 Y-34.105
X-168.107 Y-33.885
X-169.438 Y-33.711
X-170.774 Y-33.584
X-172.114 Y-33.503
X-173.456 Y-33.469
X-174.798 Y-33.484
X-176.138 Y-33.545
X-177.476 Y-33.654
X-178.809 Y-33.81
X-180.136 Y-34.012
X-181.455 Y-34.26
X-182.765 Y-34.553
X-184.064 Y-34.892
X-185.35 Y-35.275
X-186.622 Y-35.702
X-187.879 Y-36.173
X-189.118 Y-36.689
X-190.338 Y-37.248
X-191.538 Y-37.849
X-192.717 Y-38.491
X-193.873 Y-39.173
X-195.005 Y-39.895
X-196.111 Y-40.654
X-197.191 Y-41.452
X-198.243 Y-42.285
X-199.265 Y-43.155
X-200.257 Y-44.059
X-201.216 Y-44.998
X-202.142 Y-45.969
X-203.034 Y-46.972
X-203.891 Y-48.005
X-204.713 Y-49.066
X-205.498 Y-50.155
X-206.245 Y-51.27
X-206.955 Y-52.409
X-207.625 Y-53.572
X-208.255 Y-54.757
X-208.843 Y-55.963
X-209.389 Y-57.19
X-209.892 Y-58.434
X-210.353 Y-59.694
X-210.771 Y-60.97
X-211.145 Y-62.259
X-211.475 Y-63.56
X-211.761 Y-64.871
X-212.003 Y-66.191
X-212.2 Y-67.519
X-212.351 Y-68.852
X-212.455 Y-70.19
X-212.514 Y-71.531
X-212.526 Y-72.873
X-212.493 Y-74.215
X-212.414 Y-75.555
X-212.29 Y-76.891
X-212.121 Y-78.223
X-211.908 Y-79.548
X-211.649 Y-80.865
X-211.346 Y-82.173
X-210.999 Y-83.469
X-210.606 Y-84.752
X-210.17 Y-86.022
X-209.691 Y-87.275
X-209.169 Y-88.512
X-208.606 Y-89.73
X-208.002 Y-90.929
X-207.358 Y-92.106
X-206.675 Y-93.262
X-205.953 Y-94.393
X-205.194 Y-95.5
X-204.397 Y-96.58
X-203.563 Y-97.631
X-202.693 Y-98.654
X-201.789 Y-99.646
X-200.852 Y-100.607
X-199.884 Y-101.536
X-198.884 Y-102.432
X-197.855 Y-103.293
X-196.798 Y-104.12
X-195.713 Y-104.911
X-194.602 Y-105.664
X-193.466 Y-106.378
X-192.306 Y-107.053
X-191.124 Y-107.688
X-189.92 Y-108.282
X-188.697 Y-108.836
X-187.457 Y-109.347
X-186.199 Y-109.817
X-184.927 Y-110.244
X-183.641 Y-110.628
X-182.343 Y-110.969
X-181.034 Y-111.265
X-179.715 Y-111.516
X-178.389 Y-111.722
X-177.056 Y-111.882
X-175.719 Y-111.997
X-174.379 Y-112.067
X-173.037 Y-112.093
X-171.695 Y-112.073
X-170.354 Y-112.009
X-169.017 Y-111.9
X-167.683 Y-111.747
X-166.356 Y-111.548
X-165.036 Y-111.304
X-163.725 Y-111.016
X-162.425 Y-110.684
X-161.136 Y-110.308
X-159.861 Y-109.89
X-158.6 Y-109.431
X-157.355 Y-108.93
X-156.127 Y-108.388
X-154.917 Y-107.807
X-153.727 Y-107.186
X-152.558 Y-106.526
X-151.413 Y-105.827
X-150.291 Y-105.09
X-149.194 Y-104.317
X-148.123 Y-103.508
X-147.079 Y-102.665
X-146.062 Y-101.788
X-145.075 Y-100.879
X-144.118 Y-99.938
X-143.191 Y-98.967
X-142.297 Y-97.966
X-141.435 Y-96.937
X-140.609 Y-95.88
X-139.817 Y-94.796
X-139.062 Y-93.687
X-138.343 Y-92.553
X-137.661 Y-91.397
X-137.016 Y-90.22
X-136.41 Y-89.022
X-135.843 Y-87.806
X-135.315 Y-86.572
X-134.828 Y-85.321
X-134.381 Y-84.056
X-133.976 Y-82.776
X-133.614 Y-81.484
X-133.294 Y-80.18
X-133.017 Y-78.867
X-132.783 Y-77.545
X-132.592 Y-76.217
X-132.443 Y-74.883
X-132.338 Y-73.545
X-132.276 Y-72.204
X-132.257 Y-70.862
X-132.282 Y-69.52
X-132.352 Y-68.18
X-132.466 Y-66.843
X-132.624 Y-65.51
X-132.825 Y-64.183
X-133.07 Y-62.863
X-133.358 Y-61.552
X-133.687 Y-60.251
X-134.059 Y-58.962
X-134.472 Y-57.685
X-134.927 Y-56.422
X-135.422 Y-55.174
X-135.958 Y-53.944
X-136.535 Y-52.732
X-137.151 Y-51.54
X-137.806 Y-50.368
X-138.5 Y-49.219
X-139.23 Y-48.093
X-139.996 Y-46.991
X-140.797 Y-45.914
X-141.633 Y-44.864
X-142.502 Y-43.841
X-143.404 Y-42.847
X-144.338 Y-41.884
X-145.303 Y-40.951
X-146.299 Y-40.051
X-147.324 Y-39.184
X-148.376 Y-38.351
X-149.455 Y-37.552
X-150.558 Y-36.789
X-151.686 Y-36.061
X-152.837 Y-35.37
X-154.009 Y-34.716
X-155.201 Y-34.1
X-156.413 Y-33.523
X-157.643 Y-32.987
X-158.89 Y-32.491
X-160.153 Y-32.035
X-161.43 Y-31.621
X-162.719 Y-31.248
X-164.02 Y-30.917
X-165.33 Y-30.627
X-166.649 Y-30.379
X-167.975 Y-30.173
X-169.307 Y-30.009
X-170.644 Y-29.888
X-171.984 Y-29.81
X-173.326 Y-29.776
X-174.668 Y-29.785
X-176.009 Y-29.838
X-177.348 Y-29.933
X-178.683 Y-30.071
X-180.013 Y-30.251
X-181.336 Y-30.473
X-182.653 Y-30.736
X-183.96 Y-31.041
X-185.257 Y-31.386
X-186.542 Y-31.773
X-187.814 Y-32.201
X-189.071 Y-32.67
X-190.313 Y-33.179
X-191.538 Y-33.727
X-192.746 Y-34.314
X-193.934 Y-34.938
X-195.102 Y-35.599
X-196.249 Y-36.296
X-197.373 Y-37.029
X-198.474 Y-37.797
X-199.551 Y-38.598
X-200.601 Y-39.434
X-201.624 Y-40.303
X-202.619 Y-41.204
X-203.584 Y-42.136
X-204.52 Y-43.098
X-205.426 Y-44.089
X-206.3 Y-45.107
X-207.142 Y-46.152
X-207.951 Y-47.223
X-208.727 Y-48.318
X-209.468 Y-49.437
X-210.174 Y-50.579
X-210.843 Y-51.742
X-211.475 Y-52.926
X-212.069 Y-54.13
X-212.625 Y-55.351
X-213.143 Y-56.59
X-213.622 Y-57.843
X-214.062 Y-59.111
X-214.462 Y-60.392
X-214.823 Y-61.685
X-215.144 Y-62.988
X-215.424 Y-64.301
X-215.662 Y-65.622
X-215.859 Y-66.949
X-216.014 Y-68.283
X-216.127 Y-69.62
X-216.198 Y-70.96
X-216.227 Y-72.302
X-216.214 Y-73.644
X-216.161 Y-74.985
X-216.065 Y-76.324
X-215.929 Y-77.659
X-215.752 Y-78.99
X-215.533 Y-80.314
X-215.273 Y-81.631
X-214.971 Y-82.938
X-214.629 Y-84.236
X-214.245 Y-85.522
X-213.822 Y-86.796
X-213.36 Y-88.056
X-212.859 Y-89.301
X-212.32 Y-90.53
X-211.743 Y-91.742
X-211.13 Y-92.936
X-210.48 Y-94.11
X-209.793 Y-95.264
X-209.071 Y-96.395
X-208.313 Y-97.503
X-207.521 Y-98.586
X-206.696 Y-99.645
X-205.838 Y-100.677
X-204.949 Y-101.682
X-204.029 Y-102.659
X-203.079 Y-103.608
X-202.101 Y-104.527
X-201.095 Y-105.416
X-200.063 Y-106.273
X-199.004 Y-107.097
X-197.919 Y-107.888
X-196.81 Y-108.644
X-195.678 Y-109.365
X-194.524 Y-110.051
X-193.35 Y-110.7
X-192.156 Y-111.313
X-190.943 Y-111.889
X-189.714 Y-112.427
X-188.468 Y-112.927
X-187.208 Y-113.389
X-185.934 Y-113.812
X-184.648 Y-114.194
X-183.35 Y-114.536
X-182.042 Y-114.837
X-180.725 Y-115.097
X-179.401 Y-115.316
X-178.071 Y-115.494
X-176.736 Y-115.631
X-175.397 Y-115.728
X-174.056 Y-115.783
X-172.714 Y-115.797
X-171.372 Y-115.771
X-170.031 Y-115.703
X-168.694 Y-115.593
X-167.36 Y-115.442
X-166.032 Y-115.249
X-164.71 Y-115.016
X-163.396 Y-114.742
X-162.091 Y-114.428
X-160.797 Y-114.074
X-159.513 Y-113.682
X-158.242 Y-113.251
X-156.985 Y-112.782
X-155.742 Y-112.276
X-154.515 Y-111.731
X-153.305 Y-111.15
X-152.114 Y-110.531
X-150.942 Y-109.877
X-149.791 Y-109.187
X-148.661 Y-108.463
X-147.553 Y-107.705
X-146.469 Y-106.914
X-145.408 Y-106.092
X-144.373 Y-105.238
X-143.363 Y-104.354
X-142.38 Y-103.44
X-141.424 Y-102.497
X-140.498 Y-101.526
X-139.602 Y-100.527
X-138.736 Y-99.502
X-137.901 Y-98.451
X-137.098 Y-97.375
X-136.328 Y-96.276
X-135.591 Y-95.154
X-134.887 Y-94.012
X-134.217 Y-92.849
X-133.582 Y-91.666
X-132.981 Y-90.466
X-132.417 Y-89.248
X-131.89 Y-88.014
X-131.4 Y-86.764
X-130.949 Y-85.5
X-130.535 Y-84.223
X-130.16 Y-82.935
X-129.823 Y-81.635
X-129.526 Y-80.327
X-129.267 Y-79.01
X-129.047 Y-77.686
X-128.867 Y-76.356
X-128.725 Y-75.021
X-128.624 Y-73.683
X-128.563 Y-72.342
X-128.542 Y-71
X-128.563 Y-69.658
X-128.624 Y-68.317
X-128.725 Y-66.979
X-128.866 Y-65.644
X-129.046 Y-64.314
X-129.267 Y-62.99
X-129.526 Y-61.673
X-129.824 Y-60.365
X-130.161 Y-59.066
X-130.537 Y-57.777
X-130.951 Y-56.5
X-131.404 Y-55.237
X-131.895 Y-53.988
X-132.423 Y-52.754
X-132.988 Y-51.537
X-133.59 Y-50.337
X-134.227 Y-49.156
X-134.899 Y-47.994
X-135.605 Y-46.852
X-136.344 Y-45.732
X-137.117 Y-44.635
X-137.921 Y-43.56
X-138.758 Y-42.511
X-139.626 Y-41.487
X-140.524 Y-40.49
X-141.452 Y-39.521
X-142.409 Y-38.579
X-143.394 Y-37.667
X-144.405 Y-36.785
X-145.442 Y-35.933
X-146.504 Y-35.112
X-147.589 Y-34.322
X-148.697 Y-33.565
X-149.827 Y-32.841
X-150.979 Y-32.151
X-152.15 Y-31.496
X-153.341 Y-30.876
X-154.549 Y-30.293
X-155.775 Y-29.745
X-157.016 Y-29.234
X-158.272 Y-28.761
X-159.541 Y-28.324
X-160.822 Y-27.925
X-162.115 Y-27.564
X-163.417 Y-27.24
X-164.729 Y-26.955
X-166.048 Y-26.708
X-167.374 Y-26.501
X-168.373 Y-26.376
X-168.51 Y-26.361
X-168.647 Y-26.353
X-168.785 Y-26.35
X-175.274
X-176.615 Y-26.417
X-177.956 Y-26.458
X-179.295 Y-26.553
X-180.629 Y-26.699
X-181.957 Y-26.893
X-183.278 Y-27.133
X-184.589 Y-27.417
X-185.891 Y-27.742
X-187.183 Y-28.109
X-188.462 Y-28.516
X-189.728 Y-28.961
X-190.98 Y-29.444
X-192.217 Y-29.964
X-193.439 Y-30.52
X-194.643 Y-31.112
X-195.83 Y-31.738
X-196.998 Y-32.399
X-198.147 Y-33.095
X-199.274 Y-33.823
X-200.379 Y-34.585
X-201.462 Y-35.378
X-202.521 Y-36.202
X-203.555 Y-37.057
X-204.565 Y-37.942
X-205.548 Y-38.855
X-206.505 Y-39.797
X-207.434 Y-40.765
X-208.335 Y-41.76
X-209.208 Y-42.779
X-210.05 Y-43.824
X-210.862 Y-44.893
X-211.642 Y-45.985
X-212.391 Y-47.099
X-213.106 Y-48.235
X-213.789 Y-49.39
X-214.438 Y-50.565
X-215.053 Y-51.758
X-215.634 Y-52.968
X-216.18 Y-54.194
X-216.691 Y-55.435
X-217.166 Y-56.69
X-217.605 Y-57.959
X-218.007 Y-59.239
X-218.372 Y-60.531
X-218.699 Y-61.832
X-218.989 Y-63.143
X-219.091 Y-63.679
X-219.124 Y-63.884
X-219.143 Y-64.09
X-219.15 Y-64.298
Y-77.262
X-219.083 Y-78.602
X-219.007 Y-79.942
X-218.863 Y-81.277
X-218.659 Y-82.604
X-218.402 Y-83.921
X-218.094 Y-85.227
X-217.74 Y-86.522
X-217.342 Y-87.804
X-216.902 Y-89.072
X-216.423 Y-90.325
X-215.906 Y-91.564
X-215.352 Y-92.786
X-214.761 Y-93.991
X-214.135 Y-95.179
X-213.475 Y-96.347
X-212.781 Y-97.496
X-212.054 Y-98.624
X-211.294 Y-99.731
X-210.502 Y-100.814
X-209.68 Y-101.875
X-208.827 Y-102.911
X-207.944 Y-103.922
X-207.034 Y-104.908
X-206.095 Y-105.868
X-205.13 Y-106.8
X-204.138 Y-107.705
X-203.121 Y-108.581
X-202.08 Y-109.427
X-201.014 Y-110.244
X-199.926 Y-111.029
X-198.816 Y-111.783
X-197.684 Y-112.505
X-196.532 Y-113.194
X-195.361 Y-113.849
X-194.172 Y-114.471
X-192.965 Y-115.058
X-191.742 Y-115.612
X-190.504 Y-116.13
X-189.252 Y-116.613
X-187.986 Y-117.06
X-186.709 Y-117.471
X-185.42 Y-117.845
X-184.121 Y-118.182
X-182.812 Y-118.482
X-182.287 Y-118.587
X-182.074 Y-118.622
X-181.859 Y-118.643
X-181.643 Y-118.65
X-168.039
X-166.698 Y-118.583
X-165.358 Y-118.513
X-164.023 Y-118.372
X-162.696 Y-118.171
X-161.379 Y-117.914
X-160.072 Y-117.608
X-158.777 Y-117.256
X-157.495 Y-116.86
X-156.226 Y-116.423
X-154.971 Y-115.946
X-153.731 Y-115.431
X-152.508 Y-114.88
X-151.301 Y-114.293
X-150.111 Y-113.671
X-148.94 Y-113.015
X-147.789 Y-112.326
X-146.657 Y-111.604
X-145.546 Y-110.851
X-144.457 Y-110.067
X-143.39 Y-109.253
X-142.346 Y-108.409
X-141.326 Y-107.537
X-140.33 Y-106.637
X-139.36 Y-105.709
X-138.416 Y-104.755
X-137.499 Y-103.776
X-136.609 Y-102.771
X-135.747 Y-101.742
X-134.913 Y-100.69
X-134.11 Y-99.615
X-133.336 Y-98.518
X-132.593 Y-97.401
X-131.881 Y-96.263
X-131.201 Y-95.106
X-130.552 Y-93.931
X-129.937 Y-92.738
X-129.354 Y-91.529
X-128.804 Y-90.305
X-128.289 Y-89.066
X-127.808 Y-87.813
X-127.361 Y-86.547
X-126.95 Y-85.269
X-126.574 Y-83.981
X-126.234 Y-82.683
X-125.93 Y-81.375
X-125.662 Y-80.06
X-125.431 Y-78.738
X-125.235 Y-77.41
X-125.077 Y-76.078
X-124.955 Y-74.741
X-124.87 Y-73.401
X-124.822 Y-72.06
X-124.811 Y-70.718
X-124.837 Y-69.376
X-124.9 Y-68.035
X-125 Y-66.697
X-125.138 Y-65.362
X-125.313 Y-64.031
X-125.524 Y-62.706
X-125.771 Y-61.387
X-126.055 Y-60.075
X-126.375 Y-58.771
X-126.73 Y-57.477
X-127.122 Y-56.193
X-127.548 Y-54.921
X-128.01 Y-53.661
X-128.506 Y-52.413
X-129.037 Y-51.181
X-129.601 Y-49.963
X-130.2 Y-48.762
X-130.831 Y-47.577
X-131.495 Y-46.411
X-132.191 Y-45.263
X-132.918 Y-44.135
X-133.676 Y-43.027
X-134.464 Y-41.941
X-135.281 Y-40.876
X-136.128 Y-39.835
X-137.003 Y-38.817
X-137.906 Y-37.824
X-138.836 Y-36.856
X-139.792 Y-35.915
X-140.774 Y-35
X-141.781 Y-34.113
X-142.812 Y-33.254
X-143.867 Y-32.423
X-144.943 Y-31.622
X-146.041 Y-30.85
X-147.16 Y-30.109
X-148.299 Y-29.398
X-149.457 Y-28.719
X-150.633 Y-28.073
X-151.826 Y-27.458
X-153.036 Y-26.877
X-153.571 Y-26.637
X-154.005 Y-26.479
X-154.457 Y-26.382
X-154.918 Y-26.35
X-168.785
X-168.797 Y-26.351
G2 X-169.276 Y-26.437 I-3.232 J16.629
X-170.259 Y-26.57 I-2.754 J16.715
X-170.392 Y-26.577 I-0.133 J1.263
G1 X-173.667
G2 X-173.8 Y-26.57 J1.27
X-174.783 Y-26.437 I1.771 J16.847
X-175.262 Y-26.351 I2.754 J16.715
G1 X-175.274 Y-26.35
X-188.602
X-189.943 Y-26.417
X-190.61 Y-26.492
X-191.691 Y-26.664
X-192.947 Y-26.951
X-194.232 Y-27.335
X-195.494 Y-27.794
X-196.73 Y-28.316
X-197.942 Y-28.892
X-199.131 Y-29.516
X-200.295 Y-30.183
X-201.436 Y-30.89
X-202.553 Y-31.634
X-203.647 Y-32.413
X-204.716 Y-33.224
X-205.76 Y-34.066
X-206.781 Y-34.939
X-207.776 Y-35.839
X-208.746 Y-36.767
X-209.69 Y-37.721
X-210.607 Y-38.7
X-211.498 Y-39.704
X-212.361 Y-40.732
X-213.197 Y-41.783
X-214.003 Y-42.855
X-214.781 Y-43.949
X-215.529 Y-45.063
X-216.247 Y-46.198
X-216.933 Y-47.351
X-217.589 Y-48.522
X-218.213 Y-49.71
X-218.805 Y-50.915
X-218.849 Y-51.011
X-219.015 Y-51.454
X-219.116 Y-51.916
X-219.15 Y-52.388
Y-64.298
G3 X-219.036 Y-64.78 I1.269 J0.044
X-216.888 Y-65.046 I1.156 J0.527
G1 X-187.654 Y-28.411
G3 X-188.602 Y-26.35 I-0.993 J0.792
G1 X-196.599
X-197.438 Y-26.392
X-198.137 Y-26.474
X-198.955 Y-26.625
X-199.9 Y-26.865
X-200.968 Y-27.214
X-202.19 Y-27.705
X-203.4 Y-28.286
X-204.574 Y-28.936
X-205.715 Y-29.643
X-206.825 Y-30.398
X-207.904 Y-31.196
X-208.954 Y-32.032
X-209.976 Y-32.902
X-210.97 Y-33.804
X-211.937 Y-34.735
X-212.877 Y-35.693
X-213.79 Y-36.677
X-214.676 Y-37.685
X-215.535 Y-38.716
X-216.367 Y-39.769
X-217.171 Y-40.844
X-217.947 Y-41.939
X-218.589 Y-42.895
X-218.831 Y-43.318
X-219.007 Y-43.773
X-219.114 Y-44.249
X-219.15 Y-44.735
Y-52.388
G3 X-219.036 Y-52.87 I1.269 J0.044
X-216.917 Y-53.171 I1.156 J0.527
G1 X-195.68 Y-28.447
G3 X-196.599 Y-26.35 I-0.963 J0.828
G1 X-203.073
X-203.651 Y-26.379
X-204.261 Y-26.45
X-204.922 Y-26.573
X-205.694 Y-26.769
X-206.569 Y-27.054
X-207.542 Y-27.445
X-208.655 Y-27.98
X-209.823 Y-28.641
X-210.949 Y-29.372
X-212.036 Y-30.16
X-213.085 Y-30.997
X-214.1 Y-31.875
X-215.082 Y-32.79
X-216.033 Y-33.737
X-216.953 Y-34.714
X-217.845 Y-35.717
X-218.377 Y-36.351
X-218.648 Y-36.724
X-218.865 Y-37.131
X-219.022 Y-37.563
X-219.118 Y-38.014
X-219.15 Y-38.473
Y-44.735
G3 X-219.036 Y-45.217 I1.269 J0.044
X-216.92 Y-45.521 I1.156 J0.527
G1 X-202.157 Y-28.45
G3 X-203.073 Y-26.35 I-0.961 J0.831
G1 X-208.785
X-209.223 Y-26.372
X-209.769 Y-26.436
X-210.358 Y-26.545
X-211.042 Y-26.719
X-211.802 Y-26.967
X-212.647 Y-27.306
X-213.607 Y-27.768
X-214.686 Y-28.378
X-215.808 Y-29.115
X-216.883 Y-29.918
X-217.915 Y-30.777
X-218.094 Y-30.943
X-218.404 Y-31.273
X-218.665 Y-31.642
X-218.874 Y-32.043
X-219.027 Y-32.469
X-219.119 Y-32.912
X-219.15 Y-33.363
Y-38.473
G3 X-219.036 Y-38.956 I1.269 J0.044
X-216.907 Y-39.244 I1.156 J0.527
G1 X-207.855 Y-28.435
G3 X-208.785 Y-26.35 I-0.974 J0.815
G1 X-213.735
X-214.423 Y-26.384
X-214.916 Y-26.442
X-215.47 Y-26.544
X-216.085 Y-26.701
X-216.666 Y-26.89
X-217.212 Y-27.11
X-217.365 Y-27.183
X-217.748 Y-27.402
X-218.098 Y-27.672
X-218.406 Y-27.989
X-218.667 Y-28.346
X-218.875 Y-28.735
X-219.027 Y-29.15
X-219.119 Y-29.582
X-219.15 Y-30.023
G3 X-219.036 Y-30.505 I1.269 J0.044
X-217.247 Y-31.079 I1.156 J0.527
G1 X-213.146 Y-28.72
G3 X-213.735 Y-26.35 I-0.633 J1.101
G1 X-217.543
X-217.924 Y-26.376
X-218.115 Y-26.403
X-218.305 Y-26.461
X-218.431 Y-26.519
X-218.556 Y-26.594
X-218.686 Y-26.693
X-218.826 Y-26.834
X-218.929 Y-26.975
X-219.009 Y-27.123
X-219.067 Y-27.271
X-219.09 Y-27.356
X-219.14 Y-27.737
X-219.145 Y-28.118
X-219.15 Y-28.88
Y-33.363
G3 X-219.036 Y-33.845 I1.269 J0.044
G1 X-218.977 Y-33.975 Z16.008
X-218.919 Y-34.103 Z16.032
X-218.862 Y-34.227 Z16.071
X-218.808 Y-34.347 Z16.126
X-218.756 Y-34.46 Z16.195
X-218.708 Y-34.566 Z16.277
X-218.664 Y-34.663 Z16.372
X-218.625 Y-34.749 Z16.478
X-218.59 Y-34.824 Z16.594
X-218.562 Y-34.887 Z16.719
X-218.539 Y-34.936 Z16.851
X-218.523 Y-34.972 Z16.987
X-218.513 Y-34.994 Z17.128
X-218.51 Y-35.001 Z17.27
G0 Z27
X-169.609 Y-117.86
Z18.54
G1 Z17.27 F850
X-169.602 Y-117.864 Z17.128
X-169.581 Y-117.877 Z16.987
X-169.548 Y-117.897 Z16.851
X-169.501 Y-117.925 Z16.719
X-169.442 Y-117.96 Z16.594
X-169.371 Y-118.002 Z16.478
X-169.289 Y-118.051 Z16.372
X-169.198 Y-118.105 Z16.277
X-169.098 Y-118.164 Z16.195
X-168.991 Y-118.228 Z16.126
X-168.878 Y-118.295 Z16.071
X-168.76 Y-118.365 Z16.032
X-168.639 Y-118.437 Z16.008
X-168.517 Y-118.509 Z16
G3 X-168.039 Y-118.65 I0.514 J0.864
G1 X-156.234
X-155.153 Y-118.596
X-154.214 Y-118.486
X-153.119 Y-118.284
X-151.851 Y-117.961
X-150.576 Y-117.545
X-149.326 Y-117.056
X-148.101 Y-116.507
X-146.902 Y-115.904
X-145.726 Y-115.256
X-144.575 Y-114.566
X-143.448 Y-113.838
X-142.344 Y-113.074
X-141.264 Y-112.278
X-140.207 Y-111.45
X-139.175 Y-110.593
X-138.166 Y-109.707
X-137.182 Y-108.794
X-136.223 Y-107.856
X-135.288 Y-106.892
X-134.38 Y-105.904
X-133.497 Y-104.893
X-132.641 Y-103.86
X-131.812 Y-102.804
X-131.011 Y-101.727
X-130.237 Y-100.631
X-129.492 Y-99.514
X-128.777 Y-98.379
X-128.09 Y-97.225
X-127.434 Y-96.054
X-126.808 Y-94.867
X-126.213 Y-93.664
X-125.648 Y-92.447
X-125.115 Y-91.215
X-124.613 Y-89.97
X-124.143 Y-88.713
X-123.706 Y-87.444
X-123.301 Y-86.165
X-122.928 Y-84.875
X-122.589 Y-83.577
X-122.283 Y-82.27
X-122.012 Y-80.955
X-121.774 Y-79.634
X-121.57 Y-78.308
X-121.4 Y-76.976
X-121.265 Y-75.641
X-121.163 Y-74.303
X-121.096 Y-72.962
X-121.062 Y-71.621
X-121.063 Y-70.279
X-121.099 Y-68.937
X-121.169 Y-67.597
X-121.273 Y-66.258
X-121.411 Y-64.923
X-121.584 Y-63.592
X-121.791 Y-62.266
X-122.032 Y-60.946
X-122.307 Y-59.632
X-122.616 Y-58.326
X-122.958 Y-57.028
X-123.333 Y-55.74
X-123.741 Y-54.461
X-124.182 Y-53.193
X-124.655 Y-51.937
X-125.159 Y-50.694
X-125.696 Y-49.463
X-126.264 Y-48.247
X-126.863 Y-47.046
X-127.492 Y-45.861
X-128.152 Y-44.692
X-128.842 Y-43.541
X-129.562 Y-42.408
X-130.31 Y-41.294
X-131.086 Y-40.199
X-131.89 Y-39.124
X-132.722 Y-38.07
X-133.58 Y-37.038
X-134.464 Y-36.028
X-135.373 Y-35.041
X-136.307 Y-34.078
X-137.266 Y-33.139
X-138.249 Y-32.224
X-139.254 Y-31.335
X-140.283 Y-30.473
X-141.333 Y-29.637
X-142.404 Y-28.828
X-143.495 Y-28.047
X-144.606 Y-27.294
X-145.262 Y-26.872
X-145.675 Y-26.647
X-146.116 Y-26.483
X-146.575 Y-26.383
X-147.044 Y-26.35
X-154.918
G3 X-155.401 Y-26.464 I0.044 J-1.269
G1 X-155.53 Y-26.523 Z16.008
X-155.658 Y-26.581 Z16.032
X-155.782 Y-26.638 Z16.071
X-155.902 Y-26.692 Z16.126
X-156.015 Y-26.744 Z16.195
X-156.121 Y-26.792 Z16.277
X-156.218 Y-26.836 Z16.372
X-156.304 Y-26.875 Z16.478
X-156.379 Y-26.91 Z16.594
X-156.442 Y-26.938 Z16.719
X-156.491 Y-26.961 Z16.851
X-156.527 Y-26.977 Z16.987
X-156.549 Y-26.987 Z17.128
X-156.556 Y-26.99 Z17.27
G0 Z27
X-218.36 Y-75.692
Z18.54
G1 Z17.27 F850
X-218.364 Y-75.699 Z17.128
X-218.377 Y-75.719 Z16.987
X-218.397 Y-75.753 Z16.851
X-218.425 Y-75.8 Z16.719
X-218.46 Y-75.859 Z16.594
X-218.502 Y-75.93 Z16.478
X-218.551 Y-76.012 Z16.372
X-218.605 Y-76.103 Z16.277
X-218.664 Y-76.203 Z16.195
X-218.728 Y-76.31 Z16.126
X-218.795 Y-76.423 Z16.071
X-218.865 Y-76.541 Z16.032
X-218.937 Y-76.661 Z16.008
X-219.009 Y-76.784 Z16
G3 X-219.15 Y-77.262 I0.864 J-0.514
G1 Y-89.072
X-219.1 Y-90.071
X-218.99 Y-91.008
X-218.789 Y-92.098
X-218.469 Y-93.356
X-218.053 Y-94.632
X-217.563 Y-95.881
X-217.012 Y-97.105
X-216.408 Y-98.303
X-215.756 Y-99.477
X-215.062 Y-100.626
X-214.329 Y-101.75
X-213.56 Y-102.85
X-212.757 Y-103.925
X-211.923 Y-104.976
X-211.058 Y-106.003
X-210.165 Y-107.005
X-209.244 Y-107.981
X-208.296 Y-108.932
X-207.323 Y-109.856
X-206.326 Y-110.755
X-205.305 Y-111.626
X-204.261 Y-112.469
X-203.195 Y-113.284
X-202.107 Y-114.07
X-200.998 Y-114.827
X-199.87 Y-115.553
X-198.722 Y-116.249
X-197.556 Y-116.915
X-196.374 Y-117.549
X-195.174 Y-118.152
X-194.781 Y-118.336
X-194.33 Y-118.509
X-193.859 Y-118.615
X-193.377 Y-118.65
X-181.643
G3 X-181.161 Y-118.536 I-0.044 J1.269
X-180.906 Y-116.38 I-0.527 J1.156
G1 X-217.099 Y-88.115
G3 X-219.036 Y-88.589 I-0.782 J-1.001
X-219.15 Y-89.072 I1.156 J-0.527
G1 Y-96.691
X-219.118 Y-97.331
X-219.036 Y-98.029
X-218.89 Y-98.823
X-218.661 Y-99.722
X-218.323 Y-100.759
X-217.846 Y-101.946
X-217.264 Y-103.156
X-216.612 Y-104.329
X-215.902 Y-105.468
X-215.143 Y-106.574
X-214.34 Y-107.65
X-213.499 Y-108.696
X-212.624 Y-109.714
X-211.717 Y-110.703
X-210.781 Y-111.665
X-209.818 Y-112.6
X-208.83 Y-113.508
X-207.817 Y-114.388
X-206.78 Y-115.241
X-205.722 Y-116.066
X-204.642 Y-116.864
X-203.543 Y-117.633
X-202.837 Y-118.101
X-202.416 Y-118.337
X-201.966 Y-118.51
X-201.495 Y-118.615
X-201.014 Y-118.65
X-193.377
G3 X-192.895 Y-118.536 I-0.044 J1.269
X-192.602 Y-116.41 I-0.527 J1.156
G1 X-217.062 Y-95.765
G3 X-219.036 Y-96.209 I-0.819 J-0.97
X-219.15 Y-96.691 I1.156 J-0.527
G1 Y-102.786
X-219.116 Y-103.473
X-219.045 Y-104.073
X-218.925 Y-104.724
X-218.732 Y-105.482
X-218.451 Y-106.343
X-218.068 Y-107.297
X-217.543 Y-108.389
X-216.883 Y-109.557
X-216.151 Y-110.682
X-215.36 Y-111.766
X-214.52 Y-112.813
X-213.638 Y-113.825
X-212.72 Y-114.804
X-211.768 Y-115.75
X-210.787 Y-116.666
X-209.78 Y-117.553
X-209.375 Y-117.888
X-209.004 Y-118.156
X-208.6 Y-118.369
X-208.17 Y-118.524
X-207.723 Y-118.618
X-207.267 Y-118.65
X-201.014
G3 X-200.532 Y-118.536 I-0.044 J1.269
X-200.228 Y-116.42 I-0.527 J1.156
G1 X-217.05 Y-101.87
G3 X-219.036 Y-102.304 I-0.831 J-0.961
X-219.15 Y-102.786 I1.156 J-0.527
G1 Y-108.501
X-219.126 Y-108.986
X-219.063 Y-109.527
X-218.954 Y-110.111
X-218.782 Y-110.787
X-218.537 Y-111.539
X-218.202 Y-112.374
X-217.746 Y-113.322
X-217.144 Y-114.386
X-216.408 Y-115.508
X-215.603 Y-116.582
X-214.741 Y-117.613
X-214.412 Y-117.917
X-214.045 Y-118.175
X-213.647 Y-118.38
X-213.225 Y-118.529
X-212.786 Y-118.62
X-212.339 Y-118.65
X-207.267
G3 X-206.785 Y-118.536 I-0.044 J1.269
X-206.497 Y-116.406 I-0.527 J1.156
G1 X-217.066 Y-107.571
G3 X-219.036 Y-108.019 I-0.815 J-0.974
X-219.15 Y-108.501 I1.156 J-0.527
G1 Y-113.453
X-219.115 Y-114.151
X-219.058 Y-114.639
X-218.956 Y-115.19
X-218.804 Y-115.789
X-218.626 Y-116.333
X-218.426 Y-116.831
X-218.38 Y-116.927
X-218.169 Y-117.297
X-217.908 Y-117.634
X-217.602 Y-117.932
X-217.258 Y-118.183
X-216.882 Y-118.384
X-216.482 Y-118.531
X-216.065 Y-118.62
X-215.639 Y-118.65
G3 X-215.157 Y-118.536 I-0.044 J1.269
X-214.578 Y-116.755 I-0.527 J1.156
G1 X-216.775 Y-112.872
G3 X-219.036 Y-112.971 I-1.105 J-0.625
X-219.15 Y-113.453 I1.156 J-0.527
G1 Y-116.12
X-219.145 Y-116.882
X-219.142 Y-117.092
X-219.14 Y-117.263
X-219.09 Y-117.644
X-219.067 Y-117.729
X-219.009 Y-117.877
X-218.929 Y-118.025
X-218.826 Y-118.166
X-218.686 Y-118.307
X-218.556 Y-118.406
X-218.431 Y-118.481
X-218.305 Y-118.539
X-218.115 Y-118.596
X-217.924 Y-118.624
X-217.543 Y-118.65
X-212.339
X-212.327 Y-118.649
G2 X-211.849 Y-118.557 I28.04 J-144.255
X-199.647 Y-116.754 I27.563 J-144.347
X-199.515 Y-116.747 I0.133 J-1.263
G1 X-169.058
G2 X-168.925 Y-116.754 J-1.27
X-156.724 Y-118.557 I-15.361 J-146.15
X-156.246 Y-118.649 I-27.563 J-144.347
G1 X-156.234 Y-118.65
X-148.618
X-147.857 Y-118.612
X-147.154 Y-118.53
X-146.348 Y-118.381
X-145.44 Y-118.15
X-144.388 Y-117.806
X-143.18 Y-117.321
X-141.97 Y-116.74
X-140.796 Y-116.089
X-139.656 Y-115.382
X-138.547 Y-114.626
X-137.468 Y-113.828
X-136.418 Y-112.992
X-135.395 Y-112.122
X-134.4 Y-111.222
X-133.432 Y-110.293
X-132.489 Y-109.337
X-131.573 Y-108.356
X-130.683 Y-107.352
X-129.819 Y-106.324
X-128.982 Y-105.275
X-128.172 Y-104.205
X-127.389 Y-103.115
X-126.632 Y-102.007
X-125.903 Y-100.88
X-125.202 Y-99.735
X-124.528 Y-98.574
X-123.883 Y-97.398
X-123.266 Y-96.206
X-122.678 Y-94.999
X-122.118 Y-93.779
X-121.588 Y-92.546
X-121.087 Y-91.301
X-120.616 Y-90.044
X-120.176 Y-88.776
X-119.766 Y-87.498
X-119.388 Y-86.211
X-119.04 Y-84.914
X-118.723 Y-83.61
X-118.438 Y-82.299
X-118.184 Y-80.981
X-117.962 Y-79.657
X-117.771 Y-78.328
X-117.612 Y-76.996
X-117.485 Y-75.66
X-117.389 Y-74.321
X-117.325 Y-72.98
X-117.293 Y-71.639
Y-70.296
X-117.326 Y-68.955
X-117.391 Y-67.614
X-117.488 Y-66.275
X-117.618 Y-64.94
X-117.779 Y-63.607
X-117.972 Y-62.279
X-118.197 Y-60.956
X-118.454 Y-59.638
X-118.741 Y-58.327
X-119.06 Y-57.024
X-119.41 Y-55.728
X-119.791 Y-54.441
X-120.202 Y-53.163
X-120.643 Y-51.896
X-121.115 Y-50.639
X-121.617 Y-49.394
X-122.149 Y-48.162
X-122.71 Y-46.943
X-123.3 Y-45.738
X-123.92 Y-44.547
X-124.567 Y-43.371
X-125.243 Y-42.212
X-125.946 Y-41.068
X-126.676 Y-39.942
X-127.432 Y-38.833
X-128.215 Y-37.743
X-129.023 Y-36.672
X-129.857 Y-35.62
X-130.715 Y-34.588
X-131.598 Y-33.577
X-132.505 Y-32.588
X-133.436 Y-31.621
X-134.389 Y-30.676
X-135.365 Y-29.755
X-136.363 Y-28.857
X-137.382 Y-27.983
X-138.421 Y-27.134
X-138.534 Y-27.046
X-138.895 Y-26.801
X-139.286 Y-26.606
X-139.698 Y-26.465
X-140.126 Y-26.379
X-140.561 Y-26.35
X-147.044
G3 X-147.527 Y-26.464 I0.044 J-1.269
G1 X-147.656 Y-26.523 Z16.008
X-147.784 Y-26.581 Z16.032
X-147.908 Y-26.638 Z16.071
X-148.028 Y-26.692 Z16.126
X-148.141 Y-26.744 Z16.195
X-148.247 Y-26.792 Z16.277
X-148.344 Y-26.836 Z16.372
X-148.43 Y-26.875 Z16.478
X-148.505 Y-26.91 Z16.594
X-148.568 Y-26.938 Z16.719
X-148.617 Y-26.961 Z16.851
X-148.653 Y-26.977 Z16.987
X-148.675 Y-26.987 Z17.128
X-148.682 Y-26.99 Z17.27
G0 Z27
X-150.188 Y-117.86
Z18.54
G1 Z17.27 F850
X-150.181 Y-117.864 Z17.128
X-150.16 Y-117.877 Z16.987
X-150.127 Y-117.897 Z16.851
X-150.08 Y-117.925 Z16.719
X-150.02 Y-117.96 Z16.594
X-149.95 Y-118.002 Z16.478
X-149.868 Y-118.051 Z16.372
X-149.777 Y-118.105 Z16.277
X-149.677 Y-118.164 Z16.195
X-149.57 Y-118.228 Z16.126
X-149.457 Y-118.295 Z16.071
X-149.339 Y-118.365 Z16.032
X-149.218 Y-118.437 Z16.008
X-149.096 Y-118.509 Z16
G3 X-148.618 Y-118.65 I0.514 J0.864
G1 X-142.525
X-141.664 Y-118.607
X-141.058 Y-118.536
X-140.4 Y-118.414
X-139.633 Y-118.219
X-138.759 Y-117.934
X-137.788 Y-117.544
X-136.676 Y-117.01
X-135.508 Y-116.349
X-134.382 Y-115.618
X-133.295 Y-114.831
X-132.245 Y-113.995
X-131.23 Y-113.117
X-130.246 Y-112.204
X-129.293 Y-111.259
X-128.37 Y-110.285
X-127.476 Y-109.284
X-126.609 Y-108.259
X-125.77 Y-107.212
X-124.958 Y-106.143
X-124.172 Y-105.055
X-123.414 Y-103.947
X-122.682 Y-102.822
X-121.977 Y-101.68
X-121.298 Y-100.522
X-120.647 Y-99.349
X-120.023 Y-98.16
X-119.427 Y-96.958
X-118.858 Y-95.742
X-118.316 Y-94.514
X-117.803 Y-93.274
X-117.318 Y-92.023
X-116.861 Y-90.761
X-116.432 Y-89.489
X-116.032 Y-88.208
X-115.661 Y-86.918
X-115.319 Y-85.62
X-115.006 Y-84.315
X-114.722 Y-83.003
X-114.468 Y-81.686
X-114.243 Y-80.362
X-114.048 Y-79.034
X-113.883 Y-77.702
X-113.748 Y-76.367
X-113.643 Y-75.029
X-113.568 Y-73.689
X-113.523 Y-72.348
X-113.508 Y-71.006
X-113.523 Y-69.663
X-113.568 Y-68.322
X-113.643 Y-66.982
X-113.748 Y-65.644
X-113.883 Y-64.309
X-114.048 Y-62.977
X-114.243 Y-61.649
X-114.467 Y-60.325
X-114.721 Y-59.007
X-115.005 Y-57.696
X-115.318 Y-56.39
X-115.66 Y-55.093
X-116.031 Y-53.803
X-116.431 Y-52.522
X-116.859 Y-51.25
X-117.316 Y-49.988
X-117.802 Y-48.736
X-118.315 Y-47.496
X-118.856 Y-46.268
X-119.424 Y-45.052
X-120.019 Y-43.849
X-120.641 Y-42.66
X-121.289 Y-41.485
X-121.964 Y-40.324
X-122.664 Y-39.179
X-123.39 Y-38.051
X-124.142 Y-36.938
X-124.918 Y-35.843
X-125.718 Y-34.766
X-126.542 Y-33.706
X-127.39 Y-32.666
X-128.26 Y-31.644
X-129.154 Y-30.643
X-130.069 Y-29.661
X-131.007 Y-28.701
X-131.965 Y-27.761
X-132.519 Y-27.242
X-132.906 Y-26.931
X-133.335 Y-26.681
X-133.797 Y-26.499
X-134.281 Y-26.387
X-134.776 Y-26.35
X-140.561
G3 X-141.043 Y-26.464 I0.044 J-1.269
G1 X-141.173 Y-26.523 Z16.008
X-141.3 Y-26.581 Z16.032
X-141.425 Y-26.638 Z16.071
X-141.545 Y-26.692 Z16.126
X-141.658 Y-26.744 Z16.195
X-141.764 Y-26.792 Z16.277
X-141.86 Y-26.836 Z16.372
X-141.947 Y-26.875 Z16.478
X-142.022 Y-26.91 Z16.594
X-142.084 Y-26.938 Z16.719
X-142.134 Y-26.961 Z16.851
X-142.17 Y-26.977 Z16.987
X-142.192 Y-26.987 Z17.128
X-142.199 Y-26.99 Z17.27
G0 Z27
X-144.095 Y-117.86
Z18.54
G1 Z17.27 F850
X-144.088 Y-117.864 Z17.128
X-144.068 Y-117.877 Z16.987
X-144.034 Y-117.897 Z16.851
X-143.987 Y-117.925 Z16.719
X-143.928 Y-117.96 Z16.594
X-143.857 Y-118.002 Z16.478
X-143.775 Y-118.051 Z16.372
X-143.684 Y-118.105 Z16.277
X-143.584 Y-118.164 Z16.195
X-143.477 Y-118.228 Z16.126
X-143.364 Y-118.295 Z16.071
X-143.246 Y-118.365 Z16.032
X-143.126 Y-118.437 Z16.008
X-143.003 Y-118.509 Z16
G3 X-142.525 Y-118.65 I0.514 J0.864
G1 X-136.813
X-136.103 Y-118.614
X-135.557 Y-118.551
X-134.966 Y-118.441
X-134.282 Y-118.267
X-133.519 Y-118.018
X-132.671 Y-117.678
X-131.707 Y-117.214
X-130.621 Y-116.6
X-129.499 Y-115.864
X-128.424 Y-115.061
X-127.392 Y-114.203
X-126.399 Y-113.3
X-125.443 Y-112.358
X-124.521 Y-111.382
X-123.631 Y-110.377
X-122.772 Y-109.346
X-121.943 Y-108.291
X-121.142 Y-107.214
X-120.37 Y-106.116
X-119.625 Y-105
X-118.907 Y-103.865
X-118.217 Y-102.715
X-117.552 Y-101.548
X-116.915 Y-100.367
X-116.303 Y-99.173
X-115.718 Y-97.965
X-115.16 Y-96.744
X-114.628 Y-95.512
X-114.123 Y-94.268
X-113.644 Y-93.015
X-113.192 Y-91.751
X-112.767 Y-90.478
X-112.37 Y-89.196
X-111.999 Y-87.906
X-111.655 Y-86.608
X-111.339 Y-85.304
X-111.052 Y-83.993
X-110.792 Y-82.676
X-110.56 Y-81.354
X-110.356 Y-80.028
X-110.18 Y-78.697
X-110.032 Y-77.363
X-109.912 Y-76.026
X-109.821 Y-74.687
X-109.757 Y-73.347
X-109.722 Y-72.005
X-109.715 Y-70.663
X-109.736 Y-69.321
X-109.786 Y-67.98
X-109.863 Y-66.64
X-109.969 Y-65.302
X-110.102 Y-63.966
X-110.264 Y-62.634
X-110.455 Y-61.305
X-110.673 Y-59.981
X-110.92 Y-58.662
X-111.194 Y-57.348
X-111.496 Y-56.04
X-111.825 Y-54.739
X-112.182 Y-53.445
X-112.566 Y-52.159
X-112.977 Y-50.881
X-113.414 Y-49.613
X-113.879 Y-48.353
X-114.369 Y-47.104
X-114.886 Y-45.865
X-115.428 Y-44.638
X-115.997 Y-43.422
X-116.59 Y-42.218
X-117.209 Y-41.027
X-117.854 Y-39.85
X-118.523 Y-38.686
X-119.216 Y-37.537
X-119.934 Y-36.403
X-120.676 Y-35.284
X-121.44 Y-34.182
X-122.228 Y-33.095
X-123.039 Y-32.025
X-123.871 Y-30.973
X-124.726 Y-29.938
X-125.602 Y-28.921
X-126.5 Y-27.923
X-127.023 Y-27.374
X-127.351 Y-27.073
X-127.716 Y-26.819
X-128.112 Y-26.617
X-128.532 Y-26.469
X-128.968 Y-26.38
X-129.412 Y-26.35
X-134.776
G3 X-135.258 Y-26.464 I0.044 J-1.269
G1 X-135.388 Y-26.523 Z16.008
X-135.515 Y-26.581 Z16.032
X-135.64 Y-26.638 Z16.071
X-135.76 Y-26.692 Z16.126
X-135.873 Y-26.744 Z16.195
X-135.979 Y-26.792 Z16.277
X-136.075 Y-26.836 Z16.372
X-136.162 Y-26.875 Z16.478
X-136.237 Y-26.91 Z16.594
X-136.299 Y-26.938 Z16.719
X-136.349 Y-26.961 Z16.851
X-136.385 Y-26.977 Z16.987
X-136.407 Y-26.987 Z17.128
X-136.414 Y-26.99 Z17.27
G0 Z27
X-138.383 Y-117.86
Z18.54
G1 Z17.27 F850
X-138.376 Y-117.864 Z17.128
X-138.355 Y-117.877 Z16.987
X-138.322 Y-117.897 Z16.851
X-138.275 Y-117.925 Z16.719
X-138.215 Y-117.96 Z16.594
X-138.145 Y-118.002 Z16.478
X-138.063 Y-118.051 Z16.372
X-137.972 Y-118.105 Z16.277
X-137.872 Y-118.164 Z16.195
X-137.765 Y-118.228 Z16.126
X-137.652 Y-118.295 Z16.071
X-137.534 Y-118.365 Z16.032
X-137.413 Y-118.437 Z16.008
X-137.291 Y-118.509 Z16
G3 X-136.813 Y-118.65 I0.514 J0.864
G1 X-131.481
X-130.921 Y-118.622
X-130.423 Y-118.564
X-129.867 Y-118.461
X-129.242 Y-118.302
X-128.54 Y-118.073
X-127.772 Y-117.765
X-126.9 Y-117.345
X-125.924 Y-116.793
X-124.838 Y-116.08
X-123.768 Y-115.271
X-122.746 Y-114.401
X-121.769 Y-113.481
X-120.832 Y-112.52
X-119.933 Y-111.523
X-119.07 Y-110.495
X-118.24 Y-109.441
X-117.441 Y-108.362
X-116.673 Y-107.262
X-115.933 Y-106.141
X-115.222 Y-105.003
X-114.538 Y-103.849
X-113.881 Y-102.678
X-113.25 Y-101.494
X-112.645 Y-100.295
X-112.067 Y-99.084
X-111.514 Y-97.861
X-110.986 Y-96.627
X-110.485 Y-95.382
X-110.009 Y-94.127
X-109.558 Y-92.863
X-109.133 Y-91.59
X-108.734 Y-90.309
X-108.361 Y-89.019
X-108.014 Y-87.723
X-107.694 Y-86.419
X-107.399 Y-85.11
X-107.132 Y-83.795
X-106.89 Y-82.474
X-106.676 Y-81.15
X-106.487 Y-79.821
X-106.325 Y-78.488
X-106.19 Y-77.153
X-106.081 Y-75.815
X-105.999 Y-74.476
X-105.943 Y-73.135
X-105.914 Y-71.793
X-105.911 Y-70.451
X-105.935 Y-69.109
X-105.985 Y-67.768
X-106.062 Y-66.428
X-106.166 Y-65.089
X-106.296 Y-63.754
X-106.454 Y-62.421
X-106.638 Y-61.091
X-106.849 Y-59.766
X-107.086 Y-58.445
X-107.349 Y-57.129
X-107.638 Y-55.818
X-107.954 Y-54.514
X-108.295 Y-53.216
X-108.662 Y-51.924
X-109.054 Y-50.641
X-109.472 Y-49.365
X-109.915 Y-48.099
X-110.383 Y-46.841
X-110.875 Y-45.592
X-111.393 Y-44.354
X-111.934 Y-43.126
X-112.5 Y-41.909
X-113.091 Y-40.703
X-113.706 Y-39.51
X-114.344 Y-38.33
X-115.006 Y-37.162
X-115.691 Y-36.008
X-116.399 Y-34.868
X-117.129 Y-33.741
X-117.882 Y-32.63
X-118.656 Y-31.534
X-119.452 Y-30.453
X-120.269 Y-29.389
X-121.108 Y-28.341
X-121.81 Y-27.513
X-122.144 Y-27.174
X-122.523 Y-26.886
X-122.94 Y-26.655
X-123.385 Y-26.487
X-123.85 Y-26.384
X-124.325 Y-26.35
X-129.412
G3 X-129.895 Y-26.464 I0.044 J-1.269
G1 X-130.024 Y-26.523 Z16.008
X-130.152 Y-26.581 Z16.032
X-130.276 Y-26.638 Z16.071
X-130.396 Y-26.692 Z16.126
X-130.509 Y-26.744 Z16.195
X-130.615 Y-26.792 Z16.277
X-130.712 Y-26.836 Z16.372
X-130.798 Y-26.875 Z16.478
X-130.873 Y-26.91 Z16.594
X-130.936 Y-26.938 Z16.719
X-130.985 Y-26.961 Z16.851
X-131.021 Y-26.977 Z16.987
X-131.043 Y-26.987 Z17.128
X-131.05 Y-26.99 Z17.27
G0 Z27
X-133.052 Y-117.86
Z18.54
G1 Z17.27 F850
X-133.045 Y-117.864 Z17.128
X-133.024 Y-117.877 Z16.987
X-132.99 Y-117.897 Z16.851
X-132.943 Y-117.925 Z16.719
X-132.884 Y-117.96 Z16.594
X-132.813 Y-118.002 Z16.478
X-132.732 Y-118.051 Z16.372
X-132.641 Y-118.105 Z16.277
X-132.541 Y-118.164 Z16.195
X-132.434 Y-118.228 Z16.126
X-132.32 Y-118.295 Z16.071
X-132.203 Y-118.365 Z16.032
X-132.082 Y-118.437 Z16.008
X-131.96 Y-118.509 Z16
G3 X-131.481 Y-118.65 I0.514 J0.864
G1 X-126.531
X-125.986 Y-118.623
X-125.529 Y-118.569
X-124.993 Y-118.47
X-124.414 Y-118.323
X-123.748 Y-118.106
X-123.038 Y-117.821
X-122.229 Y-117.431
X-121.327 Y-116.921
X-120.339 Y-116.273
X-119.268 Y-115.463
X-118.252 Y-114.587
X-117.285 Y-113.656
X-116.364 Y-112.68
X-115.483 Y-111.667
X-114.64 Y-110.623
X-113.833 Y-109.55
X-113.059 Y-108.454
X-112.317 Y-107.336
X-111.604 Y-106.198
X-110.92 Y-105.044
X-110.264 Y-103.873
X-109.634 Y-102.688
X-109.031 Y-101.488
X-108.454 Y-100.277
X-107.902 Y-99.053
X-107.376 Y-97.819
X-106.874 Y-96.574
X-106.398 Y-95.319
X-105.946 Y-94.055
X-105.519 Y-92.783
X-105.116 Y-91.502
X-104.739 Y-90.214
X-104.387 Y-88.919
X-104.061 Y-87.617
X-103.759 Y-86.31
X-103.482 Y-84.996
X-103.231 Y-83.678
X-103.005 Y-82.355
X-102.803 Y-81.028
X-102.627 Y-79.697
X-102.476 Y-78.364
X-102.35 Y-77.028
X-102.249 Y-75.689
X-102.173 Y-74.349
X-102.122 Y-73.008
X-102.097 Y-71.666
X-102.096 Y-70.324
X-102.121 Y-68.982
X-102.171 Y-67.641
X-102.246 Y-66.301
X-102.346 Y-64.962
X-102.473 Y-63.626
X-102.624 Y-62.293
X-102.801 Y-60.962
X-103.003 Y-59.635
X-103.23 Y-58.312
X-103.482 Y-56.994
X-103.758 Y-55.681
X-104.06 Y-54.373
X-104.385 Y-53.071
X-104.735 Y-51.775
X-105.109 Y-50.486
X-105.508 Y-49.205
X-105.93 Y-47.931
X-106.376 Y-46.665
X-106.845 Y-45.407
X-107.338 Y-44.159
X-107.855 Y-42.92
X-108.394 Y-41.691
X-108.957 Y-40.473
X-109.544 Y-39.265
X-110.153 Y-38.069
X-110.784 Y-36.885
X-111.438 Y-35.713
X-112.114 Y-34.553
X-112.811 Y-33.407
X-113.53 Y-32.273
X-114.27 Y-31.154
X-115.031 Y-30.048
X-115.813 Y-28.958
X-116.624 Y-27.888
X-116.934 Y-27.521
X-117.268 Y-27.179
X-117.648 Y-26.889
X-118.065 Y-26.657
X-118.512 Y-26.488
X-118.979 Y-26.385
X-119.455 Y-26.35
X-124.325
G3 X-124.808 Y-26.464 I0.044 J-1.269
G1 X-124.937 Y-26.523 Z16.008
X-125.065 Y-26.581 Z16.032
X-125.189 Y-26.638 Z16.071
X-125.309 Y-26.692 Z16.126
X-125.423 Y-26.744 Z16.195
X-125.528 Y-26.792 Z16.277
X-125.625 Y-26.836 Z16.372
X-125.711 Y-26.875 Z16.478
X-125.786 Y-26.91 Z16.594
X-125.849 Y-26.938 Z16.719
X-125.899 Y-26.961 Z16.851
X-125.934 Y-26.977 Z16.987
X-125.956 Y-26.987 Z17.128
X-125.963 Y-26.99 Z17.27
G0 Z27
X-128.101 Y-117.86
Z18.54
G1 Z17.27 F850
X-128.094 Y-117.864 Z17.128
X-128.074 Y-117.877 Z16.987
X-128.04 Y-117.897 Z16.851
X-127.993 Y-117.925 Z16.719
X-127.934 Y-117.96 Z16.594
X-127.863 Y-118.002 Z16.478
X-127.781 Y-118.051 Z16.372
X-127.69 Y-118.105 Z16.277
X-127.59 Y-118.164 Z16.195
X-127.483 Y-118.228 Z16.126
X-127.37 Y-118.295 Z16.071
X-127.252 Y-118.365 Z16.032
X-127.132 Y-118.437 Z16.008
X-127.009 Y-118.509 Z16
G3 X-126.531 Y-118.65 I0.514 J0.864
G1 X-121.961
X-121.243 Y-118.614
X-120.804 Y-118.563
X-120.281 Y-118.466
X-119.739 Y-118.328
X-119.103 Y-118.12
X-118.435 Y-117.852
X-117.674 Y-117.486
X-116.828 Y-117.008
X-115.915 Y-116.408
X-114.897 Y-115.639
X-113.882 Y-114.76
X-112.921 Y-113.823
X-112.009 Y-112.838
X-111.142 Y-111.814
X-110.315 Y-110.757
X-109.525 Y-109.672
X-108.77 Y-108.562
X-108.048 Y-107.431
X-107.357 Y-106.28
X-106.695 Y-105.113
X-106.062 Y-103.93
X-105.455 Y-102.732
X-104.875 Y-101.522
X-104.321 Y-100.3
X-103.791 Y-99.066
X-103.287 Y-97.823
X-102.807 Y-96.569
X-102.352 Y-95.307
X-101.92 Y-94.036
X-101.514 Y-92.757
X-101.131 Y-91.47
X-100.773 Y-90.177
X-100.439 Y-88.877
X-100.128 Y-87.571
X-99.842 Y-86.26
X-99.58 Y-84.943
X-99.342 Y-83.623
X-99.128 Y-82.298
X-98.937 Y-80.969
X-98.77 Y-79.637
X-98.628 Y-78.303
X-98.509 Y-76.966
X-98.414 Y-75.627
X-98.342 Y-74.287
X-98.295 Y-72.946
X-98.271 Y-71.604
X-98.272 Y-70.261
X-98.296 Y-68.919
X-98.344 Y-67.578
X-98.417 Y-66.238
X-98.514 Y-64.899
X-98.635 Y-63.563
X-98.78 Y-62.228
X-98.949 Y-60.897
X-99.142 Y-59.569
X-99.358 Y-58.244
X-99.599 Y-56.924
X-99.863 Y-55.608
X-100.15 Y-54.297
X-100.46 Y-52.991
X-100.794 Y-51.691
X-101.151 Y-50.397
X-101.53 Y-49.11
X-101.932 Y-47.829
X-102.357 Y-46.556
X-102.805 Y-45.291
X-103.275 Y-44.034
X-103.767 Y-42.785
X-104.282 Y-41.545
X-104.819 Y-40.315
X-105.378 Y-39.095
X-105.959 Y-37.885
X-106.562 Y-36.686
X-107.186 Y-35.498
X-107.832 Y-34.321
X-108.498 Y-33.156
X-109.185 Y-32.003
X-109.893 Y-30.863
X-110.621 Y-29.736
X-111.375 Y-28.625
X-112.123 Y-27.613
X-112.205 Y-27.517
X-112.539 Y-27.176
X-112.918 Y-26.887
X-113.335 Y-26.656
X-113.781 Y-26.487
X-114.247 Y-26.384
X-114.723 Y-26.35
X-119.455
G3 X-119.938 Y-26.464 I0.044 J-1.269
G1 X-120.067 Y-26.523 Z16.008
X-120.195 Y-26.581 Z16.032
X-120.319 Y-26.638 Z16.071
X-120.439 Y-26.692 Z16.126
X-120.552 Y-26.744 Z16.195
X-120.658 Y-26.792 Z16.277
X-120.755 Y-26.836 Z16.372
X-120.841 Y-26.875 Z16.478
X-120.916 Y-26.91 Z16.594
X-120.979 Y-26.938 Z16.719
X-121.028 Y-26.961 Z16.851
X-121.064 Y-26.977 Z16.987
X-121.086 Y-26.987 Z17.128
X-121.093 Y-26.99 Z17.27
G0 Z27
X-123.531 Y-117.86
Z18.54
G1 Z17.27 F850
X-123.525 Y-117.864 Z17.128
X-123.504 Y-117.877 Z16.987
X-123.47 Y-117.897 Z16.851
X-123.423 Y-117.925 Z16.719
X-123.364 Y-117.96 Z16.594
X-123.293 Y-118.002 Z16.478
X-123.212 Y-118.051 Z16.372
X-123.12 Y-118.105 Z16.277
X-123.021 Y-118.164 Z16.195
X-122.913 Y-118.228 Z16.126
X-122.8 Y-118.295 Z16.071
X-122.683 Y-118.365 Z16.032
X-122.562 Y-118.437 Z16.008
X-122.44 Y-118.509 Z16
G3 X-121.961 Y-118.65 I0.514 J0.864
G1 X-117.011
X-116.692 Y-118.634
X-116.255 Y-118.583
X-115.752 Y-118.49
X-115.225 Y-118.356
X-114.613 Y-118.156
X-113.968 Y-117.897
X-113.242 Y-117.548
X-112.434 Y-117.091
X-111.57 Y-116.524
X-110.61 Y-115.798
X-109.596 Y-114.92
X-108.638 Y-113.979
X-107.733 Y-112.988
X-106.876 Y-111.955
X-106.061 Y-110.889
X-105.285 Y-109.793
X-104.546 Y-108.673
X-103.841 Y-107.531
X-103.167 Y-106.37
X-102.524 Y-105.192
X-101.909 Y-103.999
X-101.322 Y-102.792
X-100.761 Y-101.573
X-100.226 Y-100.342
X-99.716 Y-99.101
X-99.231 Y-97.849
X-98.77 Y-96.589
X-98.333 Y-95.32
X-97.92 Y-94.043
X-97.531 Y-92.758
X-97.165 Y-91.467
X-96.823 Y-90.169
X-96.504 Y-88.866
X-96.208 Y-87.556
X-95.935 Y-86.242
X-95.685 Y-84.924
X-95.457 Y-83.601
X-95.253 Y-82.274
X-95.072 Y-80.944
X-94.913 Y-79.612
X-94.777 Y-78.277
X-94.664 Y-76.939
X-94.573 Y-75.6
X-94.506 Y-74.26
X-94.46 Y-72.918
X-94.438 Y-71.576
X-94.439 Y-70.234
X-94.462 Y-68.892
X-94.509 Y-67.551
X-94.578 Y-66.21
X-94.671 Y-64.871
X-94.786 Y-63.534
X-94.925 Y-62.199
X-95.086 Y-60.867
X-95.271 Y-59.537
X-95.477 Y-58.211
X-95.707 Y-56.889
X-95.958 Y-55.571
X-96.232 Y-54.257
X-96.528 Y-52.948
X-96.846 Y-51.644
X-97.187 Y-50.345
X-97.549 Y-49.053
X-97.933 Y-47.767
X-98.338 Y-46.487
X-98.765 Y-45.215
X-99.213 Y-43.95
X-99.683 Y-42.693
X-100.175 Y-41.444
X-100.687 Y-40.203
X-101.221 Y-38.972
X-101.776 Y-37.75
X-102.352 Y-36.538
X-102.948 Y-35.335
X-103.565 Y-34.143
X-104.202 Y-32.962
X-104.86 Y-31.792
X-105.538 Y-30.634
X-106.24 Y-29.49
X-106.972 Y-28.365
X-107.616 Y-27.488
X-107.939 Y-27.156
X-108.308 Y-26.874
X-108.713 Y-26.649
X-109.147 Y-26.484
X-109.6 Y-26.384
X-110.063 Y-26.35
X-114.723
G3 X-115.205 Y-26.464 I0.044 J-1.269
G1 X-115.334 Y-26.523 Z16.008
X-115.462 Y-26.581 Z16.032
X-115.587 Y-26.638 Z16.071
X-115.706 Y-26.692 Z16.126
X-115.82 Y-26.744 Z16.195
X-115.925 Y-26.792 Z16.277
X-116.022 Y-26.836 Z16.372
X-116.108 Y-26.875 Z16.478
X-116.183 Y-26.91 Z16.594
X-116.246 Y-26.938 Z16.719
X-116.296 Y-26.961 Z16.851
X-116.332 Y-26.977 Z16.987
X-116.353 Y-26.987 Z17.128
X-116.361 Y-26.99 Z17.27
G0 Z27
X-118.581 Y-117.86
Z18.54
G1 Z17.27 F850
X-118.574 Y-117.864 Z17.128
X-118.554 Y-117.877 Z16.987
X-118.52 Y-117.897 Z16.851
X-118.473 Y-117.925 Z16.719
X-118.414 Y-117.96 Z16.594
X-118.343 Y-118.002 Z16.478
X-118.261 Y-118.051 Z16.372
X-118.17 Y-118.105 Z16.277
X-118.07 Y-118.164 Z16.195
X-117.963 Y-118.228 Z16.126
X-117.85 Y-118.295 Z16.071
X-117.732 Y-118.365 Z16.032
X-117.612 Y-118.437 Z16.008
X-117.489 Y-118.509 Z16
G3 X-117.011 Y-118.65 I0.514 J0.864
G1 X-112.822
X-112.204 Y-118.619
X-111.767 Y-118.568
X-111.293 Y-118.48
X-110.773 Y-118.348
X-110.189 Y-118.158
X-109.558 Y-117.904
X-108.865 Y-117.571
X-108.088 Y-117.131
X-107.262 Y-116.589
X-106.349 Y-115.899
X-105.341 Y-115.026
X-104.387 Y-114.082
X-103.488 Y-113.086
X-102.639 Y-112.047
X-101.834 Y-110.972
X-101.071 Y-109.868
X-100.346 Y-108.739
X-99.656 Y-107.588
X-98.998 Y-106.418
X-98.371 Y-105.231
X-97.774 Y-104.029
X-97.204 Y-102.814
X-96.661 Y-101.587
X-96.143 Y-100.348
X-95.651 Y-99.1
X-95.184 Y-97.842
X-94.74 Y-96.575
X-94.32 Y-95.3
X-93.923 Y-94.018
X-93.55 Y-92.729
X-93.199 Y-91.433
X-92.872 Y-90.132
X-92.566 Y-88.825
X-92.283 Y-87.513
X-92.023 Y-86.196
X-91.784 Y-84.875
X-91.567 Y-83.551
X-91.372 Y-82.223
X-91.199 Y-80.892
X-91.048 Y-79.558
X-90.919 Y-78.223
X-90.811 Y-76.885
X-90.725 Y-75.545
X-90.661 Y-74.205
X-90.619 Y-72.863
X-90.598 Y-71.521
X-90.599 Y-70.179
X-90.623 Y-68.837
X-90.668 Y-67.496
X-90.735 Y-66.155
X-90.824 Y-64.816
X-90.935 Y-63.478
X-91.068 Y-62.143
X-91.223 Y-60.81
X-91.399 Y-59.479
X-91.597 Y-58.152
X-91.817 Y-56.828
X-92.058 Y-55.507
X-92.32 Y-54.191
X-92.604 Y-52.879
X-92.908 Y-51.572
X-93.234 Y-50.27
X-93.58 Y-48.973
X-93.948 Y-47.683
X-94.336 Y-46.398
X-94.745 Y-45.119
X-95.174 Y-43.848
X-95.624 Y-42.583
X-96.094 Y-41.326
X-96.585 Y-40.077
X-97.096 Y-38.836
X-97.627 Y-37.603
X-98.178 Y-36.38
X-98.75 Y-35.165
X-99.341 Y-33.96
X-99.952 Y-32.765
X-100.583 Y-31.581
X-101.236 Y-30.408
X-101.917 Y-29.251
X-102.622 Y-28.147
X-103.205 Y-27.354
X-103.491 Y-27.061
X-103.816 Y-26.812
X-104.174 Y-26.613
X-104.557 Y-26.468
X-104.957 Y-26.38
X-105.366 Y-26.35
X-110.063
G3 X-110.545 Y-26.464 I0.044 J-1.269
G1 X-110.674 Y-26.523 Z16.008
X-110.802 Y-26.581 Z16.032
X-110.927 Y-26.638 Z16.071
X-111.046 Y-26.692 Z16.126
X-111.16 Y-26.744 Z16.195
X-111.265 Y-26.792 Z16.277
X-111.362 Y-26.836 Z16.372
X-111.448 Y-26.875 Z16.478
X-111.523 Y-26.91 Z16.594
X-111.586 Y-26.938 Z16.719
X-111.636 Y-26.961 Z16.851
X-111.672 Y-26.977 Z16.987
X-111.693 Y-26.987 Z17.128
X-111.701 Y-26.99 Z17.27
G0 Z27
X-114.392 Y-117.86
Z18.54
G1 Z17.27 F850
X-114.385 Y-117.864 Z17.128
X-114.365 Y-117.877 Z16.987
X-114.331 Y-117.897 Z16.851
X-114.284 Y-117.925 Z16.719
X-114.225 Y-117.96 Z16.594
X-114.154 Y-118.002 Z16.478
X-114.072 Y-118.051 Z16.372
X-113.981 Y-118.105 Z16.277
X-113.881 Y-118.164 Z16.195
X-113.774 Y-118.228 Z16.126
X-113.661 Y-118.295 Z16.071
X-113.543 Y-118.365 Z16.032
X-113.423 Y-118.437 Z16.008
X-113.3 Y-118.509 Z16
G3 X-112.822 Y-118.65 I0.514 J0.864
G1 X-108.252
X-107.838 Y-118.629
X-107.401 Y-118.578
X-106.946 Y-118.494
X-106.43 Y-118.363
X-105.864 Y-118.178
X-105.244 Y-117.929
X-104.572 Y-117.606
X-103.817 Y-117.179
X-103.02 Y-116.656
X-102.14 Y-115.991
X-101.173 Y-115.153
X-100.219 Y-114.209
X-99.323 Y-113.21
X-98.478 Y-112.167
X-97.681 Y-111.087
X-96.927 Y-109.977
X-96.212 Y-108.841
X-95.533 Y-107.683
X-94.888 Y-106.507
X-94.274 Y-105.313
X-93.69 Y-104.104
X-93.135 Y-102.883
X-92.606 Y-101.649
X-92.103 Y-100.405
X-91.626 Y-99.15
X-91.172 Y-97.887
X-90.743 Y-96.615
X-90.337 Y-95.336
X-89.954 Y-94.05
X-89.594 Y-92.757
X-89.256 Y-91.458
X-88.941 Y-90.153
X-88.647 Y-88.844
X-88.374 Y-87.53
X-88.123 Y-86.211
X-87.893 Y-84.889
X-87.685 Y-83.563
X-87.498 Y-82.234
X-87.331 Y-80.902
X-87.186 Y-79.568
X-87.061 Y-78.231
X-86.958 Y-76.893
X-86.875 Y-75.554
X-86.813 Y-74.213
X-86.772 Y-72.871
X-86.752 Y-71.529
X-86.753 Y-70.187
X-86.775 Y-68.845
X-86.817 Y-67.504
X-86.881 Y-66.163
X-86.966 Y-64.824
X-87.072 Y-63.486
X-87.199 Y-62.15
X-87.347 Y-60.816
X-87.515 Y-59.484
X-87.704 Y-58.155
X-87.914 Y-56.83
X-88.145 Y-55.507
X-88.395 Y-54.189
X-88.666 Y-52.874
X-88.957 Y-51.564
X-89.269 Y-50.259
X-89.6 Y-48.958
X-89.951 Y-47.663
X-90.323 Y-46.373
X-90.714 Y-45.089
X-91.125 Y-43.811
X-91.555 Y-42.54
X-92.005 Y-41.276
X-92.475 Y-40.018
X-92.964 Y-38.768
X-93.472 Y-37.526
X-94 Y-36.292
X-94.548 Y-35.067
X-95.114 Y-33.85
X-95.701 Y-32.643
X-96.308 Y-31.446
X-96.94 Y-30.262
X-97.603 Y-29.095
X-98.251 Y-28.056
X-98.794 Y-27.302
X-99.297 Y-26.693
X-99.465 Y-26.548
X-99.66 Y-26.439
X-99.872 Y-26.373
X-100.093 Y-26.35
X-105.366
G3 X-105.848 Y-26.464 I0.044 J-1.269
G1 X-105.978 Y-26.523 Z16.008
X-106.105 Y-26.581 Z16.032
X-106.23 Y-26.638 Z16.071
X-106.35 Y-26.692 Z16.126
X-106.463 Y-26.744 Z16.195
X-106.569 Y-26.792 Z16.277
X-106.665 Y-26.836 Z16.372
X-106.752 Y-26.875 Z16.478
X-106.827 Y-26.91 Z16.594
X-106.889 Y-26.938 Z16.719
X-106.939 Y-26.961 Z16.851
X-106.975 Y-26.977 Z16.987
X-106.997 Y-26.987 Z17.128
X-107.004 Y-26.99 Z17.27
G0 Z27
X-109.822 Y-117.86
Z18.54
G1 Z17.27 F850
X-109.816 Y-117.864 Z17.128
X-109.795 Y-117.877 Z16.987
X-109.761 Y-117.897 Z16.851
X-109.714 Y-117.925 Z16.719
X-109.655 Y-117.96 Z16.594
X-109.584 Y-118.002 Z16.478
X-109.503 Y-118.051 Z16.372
X-109.411 Y-118.105 Z16.277
X-109.312 Y-118.164 Z16.195
X-109.204 Y-118.228 Z16.126
X-109.091 Y-118.295 Z16.071
X-108.974 Y-118.365 Z16.032
X-108.853 Y-118.437 Z16.008
X-108.731 Y-118.509 Z16
G3 X-108.252 Y-118.65 I0.514 J0.864
G1 X-104.063
X-103.516 Y-118.623
X-103.085 Y-118.572
X-102.647 Y-118.491
X-102.131 Y-118.36
X-101.587 Y-118.182
X-100.972 Y-117.936
X-100.323 Y-117.623
X-99.588 Y-117.208
X-98.81 Y-116.697
X-97.96 Y-116.054
X-97.026 Y-115.246
X-96.072 Y-114.302
X-95.178 Y-113.301
X-94.339 Y-112.254
X-93.548 Y-111.169
X-92.801 Y-110.054
X-92.096 Y-108.912
X-91.427 Y-107.748
X-90.793 Y-106.565
X-90.191 Y-105.366
X-89.62 Y-104.151
X-89.077 Y-102.924
X-88.561 Y-101.685
X-88.072 Y-100.435
X-87.607 Y-99.176
X-87.167 Y-97.908
X-86.751 Y-96.632
X-86.358 Y-95.348
X-85.988 Y-94.058
X-85.64 Y-92.762
X-85.313 Y-91.46
X-85.008 Y-90.153
X-84.725 Y-88.841
X-84.462 Y-87.525
X-84.22 Y-86.205
X-83.999 Y-84.881
X-83.798 Y-83.554
X-83.618 Y-82.224
X-83.457 Y-80.892
X-83.317 Y-79.557
X-83.198 Y-78.22
X-83.098 Y-76.882
X-83.018 Y-75.542
X-82.959 Y-74.201
X-82.919 Y-72.859
X-82.9 Y-71.517
X-82.901 Y-70.175
X-82.922 Y-68.833
X-82.962 Y-67.492
X-83.023 Y-66.151
X-83.105 Y-64.811
X-83.206 Y-63.473
X-83.328 Y-62.136
X-83.469 Y-60.802
X-83.631 Y-59.469
X-83.812 Y-58.139
X-84.013 Y-56.812
X-84.234 Y-55.488
X-84.474 Y-54.168
X-84.734 Y-52.851
X-85.013 Y-51.538
X-85.312 Y-50.23
X-85.629 Y-48.926
X-85.966 Y-47.627
X-86.322 Y-46.333
X-86.697 Y-45.044
X-87.092 Y-43.761
X-87.505 Y-42.484
X-87.936 Y-41.213
X-88.387 Y-39.949
X-88.856 Y-38.692
X-89.344 Y-37.441
X-89.851 Y-36.198
X-90.376 Y-34.963
X-90.921 Y-33.737
X-91.486 Y-32.519
X-92.073 Y-31.312
X-92.686 Y-30.118
X-93.334 Y-28.943
X-94.029 Y-27.795
X-94.533 Y-27.071
X-94.98 Y-26.512
X-95.086 Y-26.424
X-95.211 Y-26.369
X-95.347 Y-26.35
X-100.093
G3 X-100.576 Y-26.464 I0.044 J-1.269
G1 X-100.705 Y-26.523 Z16.008
X-100.833 Y-26.581 Z16.032
X-100.957 Y-26.638 Z16.071
X-101.077 Y-26.692 Z16.126
X-101.19 Y-26.744 Z16.195
X-101.296 Y-26.792 Z16.277
X-101.393 Y-26.836 Z16.372
X-101.479 Y-26.875 Z16.478
X-101.554 Y-26.91 Z16.594
X-101.617 Y-26.938 Z16.719
X-101.666 Y-26.961 Z16.851
X-101.702 Y-26.977 Z16.987
X-101.724 Y-26.987 Z17.128
X-101.731 Y-26.99 Z17.27
G0 Z27
X-105.634 Y-117.86
Z18.54
G1 Z17.27 F850
X-105.627 Y-117.864 Z17.128
X-105.606 Y-117.877 Z16.987
X-105.572 Y-117.897 Z16.851
X-105.525 Y-117.925 Z16.719
X-105.466 Y-117.96 Z16.594
X-105.395 Y-118.002 Z16.478
X-105.314 Y-118.051 Z16.372
X-105.223 Y-118.105 Z16.277
X-105.123 Y-118.164 Z16.195
X-105.016 Y-118.228 Z16.126
X-104.902 Y-118.295 Z16.071
X-104.785 Y-118.365 Z16.032
X-104.664 Y-118.437 Z16.008
X-104.542 Y-118.509 Z16
G3 X-104.063 Y-118.65 I0.514 J0.864
G1 X-99.875
X-99.258 Y-118.619
X-98.838 Y-118.57
X-98.405 Y-118.49
X-97.89 Y-118.359
X-97.362 Y-118.187
X-96.753 Y-117.942
X-96.121 Y-117.638
X-95.402 Y-117.232
X-94.641 Y-116.732
X-93.813 Y-116.106
X-92.906 Y-115.32
X-91.952 Y-114.376
X-91.06 Y-113.373
X-90.224 Y-112.323
X-89.439 Y-111.235
X-88.7 Y-110.115
X-88.002 Y-108.968
X-87.342 Y-107.799
X-86.718 Y-106.611
X-86.127 Y-105.406
X-85.567 Y-104.187
X-85.035 Y-102.954
X-84.531 Y-101.71
X-84.053 Y-100.456
X-83.601 Y-99.192
X-83.173 Y-97.92
X-82.768 Y-96.641
X-82.386 Y-95.354
X-82.027 Y-94.061
X-81.69 Y-92.762
X-81.374 Y-91.457
X-81.079 Y-90.148
X-80.804 Y-88.834
X-80.55 Y-87.516
X-80.317 Y-86.195
X-80.103 Y-84.87
X-79.909 Y-83.541
X-79.735 Y-82.211
X-79.58 Y-80.877
X-79.445 Y-79.542
X-79.33 Y-78.205
X-79.234 Y-76.866
X-79.157 Y-75.526
X-79.1 Y-74.185
X-79.061 Y-72.844
X-79.043 Y-71.502
Y-70.16
X-79.063 Y-68.818
X-79.102 Y-67.476
X-79.161 Y-66.135
X-79.239 Y-64.795
X-79.336 Y-63.457
X-79.453 Y-62.119
X-79.588 Y-60.784
X-79.743 Y-59.451
X-79.918 Y-58.12
X-80.111 Y-56.792
X-80.322 Y-55.467
X-80.553 Y-54.145
X-80.803 Y-52.826
X-81.071 Y-51.511
X-81.358 Y-50.2
X-81.663 Y-48.893
X-81.987 Y-47.59
X-82.329 Y-46.292
X-82.689 Y-44.999
X-83.068 Y-43.712
X-83.465 Y-42.43
X-83.88 Y-41.153
X-84.313 Y-39.883
X-84.764 Y-38.619
X-85.233 Y-37.361
X-85.72 Y-36.111
X-86.226 Y-34.867
X-86.751 Y-33.632
X-87.296 Y-32.406
X-87.865 Y-31.19
X-88.462 Y-29.988
X-89.092 Y-28.803
X-89.752 Y-27.673
X-90.223 Y-26.978
X-90.621 Y-26.467
X-90.695 Y-26.404
X-90.784 Y-26.364
X-90.881 Y-26.35
X-95.347
G3 X-95.83 Y-26.464 I0.044 J-1.269
G1 X-95.959 Y-26.523 Z16.008
X-96.087 Y-26.581 Z16.032
X-96.211 Y-26.638 Z16.071
X-96.331 Y-26.692 Z16.126
X-96.444 Y-26.744 Z16.195
X-96.55 Y-26.792 Z16.277
X-96.647 Y-26.836 Z16.372
X-96.733 Y-26.875 Z16.478
X-96.808 Y-26.91 Z16.594
X-96.871 Y-26.938 Z16.719
X-96.92 Y-26.961 Z16.851
X-96.956 Y-26.977 Z16.987
X-96.978 Y-26.987 Z17.128
X-96.985 Y-26.99 Z17.27
G0 Z27
X-101.445 Y-117.86
Z18.54
G1 Z17.27 F850
X-101.438 Y-117.864 Z17.128
X-101.417 Y-117.877 Z16.987
X-101.383 Y-117.897 Z16.851
X-101.337 Y-117.925 Z16.719
X-101.277 Y-117.96 Z16.594
X-101.207 Y-118.002 Z16.478
X-101.125 Y-118.051 Z16.372
X-101.034 Y-118.105 Z16.277
X-100.934 Y-118.164 Z16.195
X-100.827 Y-118.228 Z16.126
X-100.714 Y-118.295 Z16.071
X-100.596 Y-118.365 Z16.032
X-100.475 Y-118.437 Z16.008
X-100.353 Y-118.509 Z16
G3 X-99.875 Y-118.65 I0.514 J0.864
G1 X-95.476
X-95.063 Y-118.629
X-94.653 Y-118.581
X-94.221 Y-118.501
X-93.709 Y-118.371
X-93.191 Y-118.202
X-92.586 Y-117.959
X-91.966 Y-117.661
X-91.259 Y-117.262
X-90.511 Y-116.771
X-89.702 Y-116.158
X-88.815 Y-115.39
X-87.861 Y-114.446
X-86.971 Y-113.442
X-86.138 Y-112.389
X-85.358 Y-111.297
X-84.624 Y-110.173
X-83.933 Y-109.022
X-83.282 Y-107.849
X-82.666 Y-106.656
X-82.084 Y-105.447
X-81.533 Y-104.223
X-81.012 Y-102.986
X-80.518 Y-101.738
X-80.051 Y-100.48
X-79.608 Y-99.213
X-79.191 Y-97.937
X-78.796 Y-96.654
X-78.425 Y-95.365
X-78.075 Y-94.069
X-77.747 Y-92.767
X-77.44 Y-91.461
X-77.154 Y-90.15
X-76.887 Y-88.834
X-76.641 Y-87.515
X-76.415 Y-86.192
X-76.208 Y-84.866
X-76.02 Y-83.537
X-75.851 Y-82.205
X-75.702 Y-80.872
X-75.571 Y-79.536
X-75.459 Y-78.198
X-75.366 Y-76.859
X-75.292 Y-75.519
X-75.236 Y-74.178
X-75.199 Y-72.837
X-75.181 Y-71.495
Y-70.152
X-75.2 Y-68.81
X-75.237 Y-67.469
X-75.293 Y-66.128
X-75.368 Y-64.788
X-75.461 Y-63.449
X-75.573 Y-62.111
X-75.703 Y-60.776
X-75.852 Y-59.442
X-76.019 Y-58.11
X-76.205 Y-56.781
X-76.409 Y-55.454
X-76.63 Y-54.13
X-76.87 Y-52.81
X-77.128 Y-51.493
X-77.404 Y-50.179
X-77.697 Y-48.87
X-78.009 Y-47.564
X-78.338 Y-46.263
X-78.684 Y-44.966
X-79.049 Y-43.674
X-79.431 Y-42.388
X-79.83 Y-41.106
X-80.247 Y-39.831
X-80.681 Y-38.561
X-81.133 Y-37.297
X-81.602 Y-36.039
X-82.09 Y-34.789
X-82.597 Y-33.546
X-83.125 Y-32.312
X-83.677 Y-31.089
X-84.256 Y-29.878
X-84.871 Y-28.685
X-85.467 Y-27.639
X-85.907 Y-26.973
X-86.286 Y-26.475
X-86.364 Y-26.407
X-86.458 Y-26.365
X-86.56 Y-26.35
X-90.881
G3 X-91.363 Y-26.464 I0.044 J-1.269
G1 X-91.493 Y-26.523 Z16.008
X-91.62 Y-26.581 Z16.032
X-91.745 Y-26.638 Z16.071
X-91.865 Y-26.692 Z16.126
X-91.978 Y-26.744 Z16.195
X-92.084 Y-26.792 Z16.277
X-92.18 Y-26.836 Z16.372
X-92.267 Y-26.875 Z16.478
X-92.342 Y-26.91 Z16.594
X-92.405 Y-26.938 Z16.719
X-92.454 Y-26.961 Z16.851
X-92.49 Y-26.977 Z16.987
X-92.512 Y-26.987 Z17.128
X-92.519 Y-26.99 Z17.27
G0 Z27
X-97.046 Y-117.86
Z18.54
G1 Z17.27 F850
X-97.04 Y-117.864 Z17.128
X-97.019 Y-117.877 Z16.987
X-96.985 Y-117.897 Z16.851
X-96.938 Y-117.925 Z16.719
X-96.879 Y-117.96 Z16.594
X-96.808 Y-118.002 Z16.478
X-96.727 Y-118.051 Z16.372
X-96.635 Y-118.105 Z16.277
X-96.536 Y-118.164 Z16.195
X-96.428 Y-118.228 Z16.126
X-96.315 Y-118.295 Z16.071
X-96.198 Y-118.365 Z16.032
X-96.077 Y-118.437 Z16.008
X-95.955 Y-118.509 Z16
G3 X-95.476 Y-118.65 I0.514 J0.864
G1 X-91.287
X-90.892 Y-118.63
X-90.494 Y-118.584
X-90.061 Y-118.504
X-89.555 Y-118.375
X-89.044 Y-118.208
X-88.446 Y-117.968
X-87.836 Y-117.675
X-87.141 Y-117.282
X-86.404 Y-116.798
X-85.61 Y-116.198
X-84.741 Y-115.445
X-83.8 Y-114.514
X-82.911 Y-113.509
X-82.081 Y-112.454
X-81.304 Y-111.36
X-80.575 Y-110.233
X-79.89 Y-109.079
X-79.245 Y-107.902
X-78.636 Y-106.706
X-78.062 Y-105.492
X-77.519 Y-104.265
X-77.006 Y-103.025
X-76.521 Y-101.773
X-76.063 Y-100.512
X-75.63 Y-99.241
X-75.221 Y-97.963
X-74.835 Y-96.677
X-74.473 Y-95.385
X-74.131 Y-94.087
X-73.812 Y-92.784
X-73.513 Y-91.475
X-73.234 Y-90.162
X-72.975 Y-88.846
X-72.735 Y-87.525
X-72.515 Y-86.201
X-72.313 Y-84.874
X-72.131 Y-83.544
X-71.967 Y-82.212
X-71.822 Y-80.878
X-71.695 Y-79.542
X-71.586 Y-78.204
X-71.495 Y-76.865
X-71.423 Y-75.525
X-71.369 Y-74.184
X-71.332 Y-72.842
X-71.314 Y-71.5
Y-70.158
X-71.331 Y-68.816
X-71.367 Y-67.474
X-71.42 Y-66.133
X-71.492 Y-64.793
X-71.581 Y-63.454
X-71.688 Y-62.116
X-71.814 Y-60.78
X-71.957 Y-59.445
X-72.117 Y-58.113
X-72.296 Y-56.782
X-72.491 Y-55.454
X-72.705 Y-54.129
X-72.936 Y-52.807
X-73.184 Y-51.488
X-73.449 Y-50.173
X-73.732 Y-48.86
X-74.031 Y-47.552
X-74.348 Y-46.248
X-74.682 Y-44.948
X-75.033 Y-43.653
X-75.401 Y-42.362
X-75.785 Y-41.076
X-76.187 Y-39.795
X-76.605 Y-38.52
X-77.041 Y-37.251
X-77.494 Y-35.987
X-77.965 Y-34.73
X-78.456 Y-33.481
X-78.967 Y-32.24
X-79.503 Y-31.01
X-80.067 Y-29.792
X-80.669 Y-28.592
X-81.212 Y-27.623
X-81.632 Y-26.979
X-81.999 Y-26.49
X-82.085 Y-26.414
X-82.19 Y-26.366
X-82.303 Y-26.35
X-86.56
G3 X-87.042 Y-26.464 I0.044 J-1.269
G1 X-87.171 Y-26.523 Z16.008
X-87.299 Y-26.581 Z16.032
X-87.424 Y-26.638 Z16.071
X-87.543 Y-26.692 Z16.126
X-87.657 Y-26.744 Z16.195
X-87.763 Y-26.792 Z16.277
X-87.859 Y-26.836 Z16.372
X-87.946 Y-26.875 Z16.478
X-88.021 Y-26.91 Z16.594
X-88.083 Y-26.938 Z16.719
X-88.133 Y-26.961 Z16.851
X-88.169 Y-26.977 Z16.987
X-88.19 Y-26.987 Z17.128
X-88.198 Y-26.99 Z17.27
G0 Z27
X-92.858 Y-117.86
Z18.54
G1 Z17.27 F850
X-92.851 Y-117.864 Z17.128
X-92.83 Y-117.877 Z16.987
X-92.796 Y-117.897 Z16.851
X-92.749 Y-117.925 Z16.719
X-92.69 Y-117.96 Z16.594
X-92.619 Y-118.002 Z16.478
X-92.538 Y-118.051 Z16.372
X-92.447 Y-118.105 Z16.277
X-92.347 Y-118.164 Z16.195
X-92.24 Y-118.228 Z16.126
X-92.126 Y-118.295 Z16.071
X-92.009 Y-118.365 Z16.032
X-91.888 Y-118.437 Z16.008
X-91.766 Y-118.509 Z16
G3 X-91.287 Y-118.65 I0.514 J0.864
G1 X-87.308
X-86.746 Y-118.622
X-86.358 Y-118.576
X-85.925 Y-118.497
X-85.428 Y-118.37
X-84.921 Y-118.205
X-84.33 Y-117.967
X-83.727 Y-117.677
X-83.044 Y-117.291
X-82.315 Y-116.813
X-81.536 Y-116.223
X-80.683 Y-115.485
X-79.76 Y-114.572
X-78.871 Y-113.567
X-78.042 Y-112.511
X-77.268 Y-111.415
X-76.543 Y-110.285
X-75.863 Y-109.128
X-75.223 Y-107.948
X-74.621 Y-106.749
X-74.053 Y-105.533
X-73.518 Y-104.302
X-73.012 Y-103.059
X-72.535 Y-101.804
X-72.084 Y-100.54
X-71.659 Y-99.267
X-71.258 Y-97.986
X-70.983 Y-97.047
X-70.909 Y-96.742
X-70.865 Y-96.432
X-70.85 Y-96.119
Y-49.071
X-70.917 Y-47.73
X-71.012 Y-46.392
X-71.177 Y-45.06
X-71.397 Y-43.736
X-71.663 Y-42.42
X-71.966 Y-41.113
X-72.303 Y-39.813
X-72.668 Y-38.522
X-73.059 Y-37.238
X-73.475 Y-35.962
X-73.913 Y-34.693
X-74.376 Y-33.433
X-74.862 Y-32.182
X-75.376 Y-30.942
X-75.922 Y-29.716
X-76.51 Y-28.51
X-76.835 Y-27.923
X-77.112 Y-27.533
X-77.442 Y-27.188
X-77.82 Y-26.895
X-78.236 Y-26.661
X-78.682 Y-26.489
X-79.148 Y-26.385
X-79.624 Y-26.35
X-82.303
G3 X-83.407 Y-28.163 I0.044 J-1.269
G1 X-73.267 Y-49.57
G3 X-70.85 Y-49.071 I1.148 J0.544
G1 Y-36.88
X-70.917 Y-35.54
X-70.979 Y-34.871
X-71.141 Y-33.654
X-71.405 Y-32.338
X-71.751 Y-31.041
X-72.121 Y-29.916
X-72.464 Y-29.066
X-72.805 Y-28.361
X-73 Y-28.019
X-73.277 Y-27.607
X-73.613 Y-27.242
X-73.999 Y-26.931
X-74.429 Y-26.681
X-74.89 Y-26.498
X-75.374 Y-26.387
X-75.869 Y-26.35
X-79.624
G3 X-80.567 Y-28.418 I0.044 J-1.269
G1 X-73.106 Y-37.635
G3 X-70.85 Y-36.88 I0.987 J0.799
G1 Y-29.261
X-70.874 Y-28.784
X-70.908 Y-28.492
X-70.965 Y-28.183
X-71.096 Y-27.803
X-71.287 Y-27.45
X-71.534 Y-27.134
X-71.83 Y-26.862
X-72.166 Y-26.643
X-72.533 Y-26.482
X-72.923 Y-26.383
X-73.323 Y-26.35
G3 X-74.306 Y-28.365 I0.044 J-1.269
G1 X-73.147 Y-29.962
G3 X-70.964 Y-29.743 I1.028 J0.746
X-70.85 Y-29.261 I-1.156 J0.527
G1 Y-28.88
X-70.855 Y-28.118
X-70.86 Y-27.737
X-70.91 Y-27.356
X-70.933 Y-27.271
X-70.99 Y-27.123
X-71.071 Y-26.975
X-71.174 Y-26.834
X-71.314 Y-26.693
X-71.444 Y-26.594
X-71.569 Y-26.519
X-71.695 Y-26.461
X-71.885 Y-26.403
X-72.076 Y-26.376
X-72.457 Y-26.35
X-75.869
G3 X-76.351 Y-26.464 I0.044 J-1.269
G1 X-76.481 Y-26.523 Z16.008
X-76.608 Y-26.581 Z16.032
X-76.733 Y-26.638 Z16.071
X-76.853 Y-26.692 Z16.126
X-76.966 Y-26.744 Z16.195
X-77.072 Y-26.792 Z16.277
X-77.168 Y-26.836 Z16.372
X-77.255 Y-26.875 Z16.478
X-77.33 Y-26.91 Z16.594
X-77.392 Y-26.938 Z16.719
X-77.442 Y-26.961 Z16.851
X-77.478 Y-26.977 Z16.987
X-77.5 Y-26.987 Z17.128
X-77.507 Y-26.99 Z17.27
G0 Z27
X-88.878 Y-117.86
Z18.54
G1 Z17.27 F850
X-88.871 Y-117.864 Z17.128
X-88.851 Y-117.877 Z16.987
X-88.817 Y-117.897 Z16.851
X-88.77 Y-117.925 Z16.719
X-88.711 Y-117.96 Z16.594
X-88.64 Y-118.002 Z16.478
X-88.558 Y-118.051 Z16.372
X-88.467 Y-118.105 Z16.277
X-88.367 Y-118.164 Z16.195
X-88.26 Y-118.228 Z16.126
X-88.147 Y-118.295 Z16.071
X-88.029 Y-118.365 Z16.032
X-87.909 Y-118.437 Z16.008
X-87.787 Y-118.509 Z16
G3 X-87.308 Y-118.65 I0.514 J0.864
G1 X-83.119
X-82.647 Y-118.626
X-82.265 Y-118.582
X-81.832 Y-118.502
X-81.343 Y-118.377
X-80.837 Y-118.212
X-80.251 Y-117.977
X-79.653 Y-117.689
X-78.978 Y-117.307
X-78.255 Y-116.833
X-77.487 Y-116.252
X-76.646 Y-115.524
X-75.738 Y-114.626
X-74.849 Y-113.621
X-74.021 Y-112.564
X-73.249 Y-111.466
X-72.528 Y-110.335
X-71.851 Y-109.175
X-71.217 Y-107.993
X-71.194 Y-107.948
X-71.045 Y-107.598
X-70.937 Y-107.234
X-70.872 Y-106.86
X-70.85 Y-106.48
Y-96.119
G3 X-70.964 Y-95.636 I-1.269 J-0.044
X-73.248 Y-95.58 I-1.156 J-0.527
G1 X-84.203 Y-116.798
G3 X-83.601 Y-118.536 I1.128 J-0.583
X-83.119 Y-118.65 I0.527 J1.156
G1 X-78.93
X-78.572 Y-118.632
X-78.194 Y-118.588
X-77.762 Y-118.508
X-77.28 Y-118.385
X-76.774 Y-118.22
X-76.194 Y-117.988
X-75.599 Y-117.701
X-74.931 Y-117.324
X-74.214 Y-116.853
X-73.455 Y-116.279
X-72.625 Y-115.56
X-71.73 Y-114.674
X-71.679 Y-114.617
X-71.389 Y-114.237
X-71.157 Y-113.819
X-70.988 Y-113.373
X-70.885 Y-112.906
X-70.85 Y-112.43
Y-106.48
G3 X-70.964 Y-105.998 I-1.269 J-0.044
X-73.197 Y-105.853 I-1.156 J-0.527
G1 X-79.964 Y-116.709
G3 X-79.413 Y-118.536 I1.078 J-0.672
X-78.93 Y-118.65 I0.527 J1.156
G1 X-74.913
X-74.508 Y-118.63
X-74.135 Y-118.586
X-73.702 Y-118.506
X-73.229 Y-118.386
X-72.796 Y-118.244
X-72.382 Y-118.041
X-72.003 Y-117.78
X-71.668 Y-117.465
X-71.382 Y-117.103
X-71.153 Y-116.704
X-70.986 Y-116.275
X-70.884 Y-115.826
X-70.85 Y-115.366
G3 X-72.859 Y-114.378 I-1.269 J-0.044
G1 X-75.608 Y-116.348
G3 X-75.395 Y-118.536 I0.74 J-1.032
X-74.913 Y-118.65 I0.527 J1.156
G1 X-72.457
X-72.076 Y-118.624
X-71.885 Y-118.596
X-71.695 Y-118.539
X-71.569 Y-118.481
X-71.444 Y-118.406
X-71.314 Y-118.307
X-71.174 Y-118.166
X-71.071 Y-118.025
X-70.991 Y-117.877
X-70.933 Y-117.729
X-70.91 Y-117.644
X-70.86 Y-117.263
X-70.855 Y-116.882
X-70.85 Y-116.12
Y-112.43
X-70.864 Y-112.345 Z16.008
X-70.877 Y-112.263 Z16.03
X-70.889 Y-112.186 Z16.066
X-70.901 Y-112.117 Z16.115
X-70.922 Y-112.058 Z16.176
X-70.94 Y-112.011 Z16.248
X-70.953 Y-111.976 Z16.327
X-70.961 Y-111.955 Z16.411
X-70.964 Y-111.948 Z16.499
G0 Z27
X-178.308 Y-75.346
Z19.77
G1 Z18.5 F850
G3 X-167.67 Y-69.654 Z17.838 I5.319 J2.846 F283.3
X-178.308 Y-75.346 Z17.176 I-5.319 J-2.846
X-167.67 Y-69.654 Z16.515 I5.319 J2.846
X-178.308 Y-75.346 Z15.853 I-5.319 J-2.846
X-167.67 Y-69.654 Z15.191 I5.319 J2.846
X-178.308 Y-75.346 Z14.529 I-5.319 J-2.846
X-167.67 Y-69.654 Z13.867 I5.319 J2.846
X-178.308 Y-75.346 Z13.206 I-5.319 J-2.846
X-167.67 Y-69.654 Z12.544 I5.319 J2.846
X-178.308 Y-75.346 Z11.882 I-5.319 J-2.846
X-167.67 Y-69.654 Z11.22 I5.319 J2.846
X-178.308 Y-75.346 Z10.558 I-5.319 J-2.846
X-166.957 Y-72.5 Z10 I5.319 J2.846
X-179.022 I-6.033
X-167.233 Y-74.305 I6.033
X-166.957 Y-72.5 I-5.756 J1.805
G1 X-166.953 Y-72.164 F850
X-166.815 Y-70.829
X-166.778 Y-70.754
X-166.719 Y-70.616
X-166.668 Y-70.468
X-166.623 Y-70.301
X-166.585 Y-70.116
X-166.557 Y-69.911
X-166.542 Y-69.689
Y-69.449
X-166.559 Y-69.194
X-166.595 Y-68.923
X-166.652 Y-68.639
X-166.731 Y-68.344
X-166.836 Y-68.039
X-166.967 Y-67.728
X-167.125 Y-67.411
X-167.311 Y-67.093
X-167.526 Y-66.776
X-167.771 Y-66.463
X-168.044 Y-66.156
X-168.347 Y-65.859
X-168.678 Y-65.575
X-169.037 Y-65.307
X-169.422 Y-65.056
X-169.831 Y-64.827
X-170.264 Y-64.621
X-170.718 Y-64.442
X-171.19 Y-64.29
X-171.679 Y-64.168
X-172.182 Y-64.077
X-172.697 Y-64.019
X-173.22 Y-63.995
X-173.749 Y-64.006
X-174.281 Y-64.053
X-174.813 Y-64.135
X-175.342 Y-64.253
X-175.866 Y-64.408
X-176.382 Y-64.597
X-176.886 Y-64.822
X-177.377 Y-65.081
X-177.852 Y-65.373
X-178.308 Y-65.697
X-178.743 Y-66.052
X-179.154 Y-66.437
X-179.541 Y-66.848
X-179.9 Y-67.286
X-180.23 Y-67.747
X-180.529 Y-68.23
X-180.796 Y-68.733
X-181.029 Y-69.253
X-181.228 Y-69.788
X-181.39 Y-70.336
X-181.517 Y-70.894
X-181.606 Y-71.46
X-181.657 Y-72.03
X-181.671 Y-72.604
X-181.646 Y-73.177
X-181.584 Y-73.748
X-181.483 Y-74.314
X-181.346 Y-74.872
X-181.171 Y-75.42
X-180.961 Y-75.955
X-180.715 Y-76.475
X-180.435 Y-76.978
X-180.123 Y-77.462
X-179.779 Y-77.924
X-179.405 Y-78.362
X-179.003 Y-78.774
X-178.574 Y-79.159
X-178.12 Y-79.515
X-177.644 Y-79.84
X-177.148 Y-80.132
X-176.633 Y-80.391
X-176.102 Y-80.615
X-175.557 Y-80.804
X-175.001 Y-80.956
X-174.436 Y-81.071
X-173.865 Y-81.148
X-173.289 Y-81.187
X-172.713 Y-81.188
X-172.137 Y-81.151
X-171.565 Y-81.075
X-171 Y-80.962
X-170.443 Y-80.812
X-169.898 Y-80.625
X-169.366 Y-80.402
X-168.85 Y-80.144
X-168.352 Y-79.853
X-167.874 Y-79.529
X-167.42 Y-79.174
X-166.989 Y-78.79
X-166.585 Y-78.379
X-166.21 Y-77.941
X-165.864 Y-77.479
X-165.549 Y-76.996
X-165.152 Y-76.287
X-164.594 Y-75.115
X-164.237 Y-74.215
X-163.985 Y-73.431
X-163.802 Y-72.699
X-163.678 Y-72.011
X-163.604 Y-71.354
X-163.575 Y-70.715
X-163.588 Y-70.09
X-163.641 Y-69.477
X-163.734 Y-68.875
X-163.866 Y-68.286
X-164.036 Y-67.708
X-164.243 Y-67.142
X-164.489 Y-66.59
X-164.773 Y-66.053
X-165.093 Y-65.531
X-165.451 Y-65.028
X-165.844 Y-64.546
X-166.273 Y-64.086
X-166.737 Y-63.65
X-167.234 Y-63.242
X-167.763 Y-62.864
X-168.321 Y-62.518
X-168.908 Y-62.206
X-169.52 Y-61.932
X-170.154 Y-61.696
X-170.809 Y-61.501
X-171.48 Y-61.349
X-172.166 Y-61.241
X-172.864 Y-61.178
X-173.569 Y-61.161
X-174.28 Y-61.191
X-174.991 Y-61.269
X-175.701 Y-61.395
X-176.405 Y-61.568
X-177.1 Y-61.789
X-177.782 Y-62.057
X-178.449 Y-62.372
X-179.096 Y-62.732
X-179.721 Y-63.135
X-180.32 Y-63.581
X-180.89 Y-64.067
X-181.428 Y-64.592
X-181.931 Y-65.152
X-182.398 Y-65.746
X-182.825 Y-66.372
X-183.21 Y-67.025
X-183.552 Y-67.704
X-183.849 Y-68.406
X-184.098 Y-69.126
X-184.3 Y-69.863
X-184.452 Y-70.612
X-184.555 Y-71.371
X-184.607 Y-72.135
X-184.609 Y-72.902
X-184.559 Y-73.668
X-184.459 Y-74.43
X-184.308 Y-75.184
X-184.108 Y-75.926
X-183.858 Y-76.654
X-183.561 Y-77.364
X-183.217 Y-78.054
X-182.828 Y-78.719
X-182.396 Y-79.357
X-181.922 Y-79.965
X-181.409 Y-80.54
X-180.858 Y-81.081
X-180.273 Y-81.584
X-179.655 Y-82.047
X-179.009 Y-82.468
X-178.335 Y-82.845
X-177.638 Y-83.177
X-176.92 Y-83.462
X-176.185 Y-83.698
X-175.436 Y-83.886
X-174.676 Y-84.023
X-173.909 Y-84.11
X-173.137 Y-84.146
X-172.365 Y-84.13
X-171.595 Y-84.063
X-170.831 Y-83.945
X-170.077 Y-83.777
X-169.336 Y-83.559
X-168.611 Y-83.293
X-167.905 Y-82.979
X-167.221 Y-82.619
X-166.563 Y-82.214
X-165.933 Y-81.767
X-165.305 Y-81.255
X-164.676 Y-80.669
X-164.043 Y-79.995
X-163.427 Y-79.245
X-162.856 Y-78.447
X-162.34 Y-77.615
X-161.887 Y-76.763
X-161.498 Y-75.897
X-161.174 Y-75.025
X-160.913 Y-74.15
X-160.715 Y-73.277
X-160.578 Y-72.41
X-160.5 Y-71.549
X-160.479 Y-70.696
X-160.515 Y-69.851
X-160.606 Y-69.018
X-160.751 Y-68.196
X-160.95 Y-67.389
X-161.202 Y-66.598
X-161.505 Y-65.825
X-161.859 Y-65.073
X-162.263 Y-64.345
X-162.717 Y-63.643
X-163.217 Y-62.97
X-163.764 Y-62.329
X-164.355 Y-61.723
X-164.988 Y-61.153
X-165.662 Y-60.625
X-166.373 Y-60.139
X-167.119 Y-59.698
X-167.898 Y-59.306
X-168.706 Y-58.964
X-169.539 Y-58.675
X-170.396 Y-58.44
X-171.271 Y-58.262
X-172.162 Y-58.141
X-173.065 Y-58.079
X-173.975 Y-58.077
X-174.889 Y-58.136
X-175.802 Y-58.256
X-176.71 Y-58.437
X-177.608 Y-58.68
X-178.492 Y-58.982
X-179.357 Y-59.344
X-180.2 Y-59.765
X-181.017 Y-60.242
X-181.802 Y-60.774
X-182.553 Y-61.359
X-183.266 Y-61.994
X-183.937 Y-62.677
X-184.562 Y-63.405
X-185.139 Y-64.174
X-185.665 Y-64.981
X-186.138 Y-65.824
X-186.554 Y-66.697
X-186.911 Y-67.597
X-187.209 Y-68.521
X-187.445 Y-69.463
X-187.618 Y-70.42
X-187.728 Y-71.387
X-187.773 Y-72.361
X-187.754 Y-73.336
X-187.669 Y-74.309
X-187.521 Y-75.274
X-187.308 Y-76.229
X-187.033 Y-77.167
X-186.696 Y-78.086
X-186.298 Y-78.981
X-185.842 Y-79.847
X-185.329 Y-80.682
X-184.761 Y-81.482
X-184.142 Y-82.242
X-183.473 Y-82.96
X-182.758 Y-83.631
X-182 Y-84.255
X-181.202 Y-84.826
X-180.368 Y-85.344
X-179.501 Y-85.805
X-178.605 Y-86.208
X-177.685 Y-86.55
X-176.744 Y-86.831
X-175.786 Y-87.049
X-174.815 Y-87.202
X-173.837 Y-87.291
X-172.854 Y-87.315
X-171.873 Y-87.274
X-170.896 Y-87.168
X-169.928 Y-86.997
X-168.973 Y-86.762
X-168.036 Y-86.465
X-167.115 Y-86.103
X-166.207 Y-85.675
X-165.308 Y-85.176
X-164.421 Y-84.604
X-163.557 Y-83.962
X-162.725 Y-83.253
X-161.93 Y-82.479
X-161.18 Y-81.644
X-160.481 Y-80.756
X-159.841 Y-79.819
X-159.265 Y-78.844
X-158.758 Y-77.836
X-158.321 Y-76.805
X-157.956 Y-75.755
X-157.665 Y-74.693
X-157.446 Y-73.623
X-157.3 Y-72.548
X-157.227 Y-71.474
X-157.224 Y-70.404
X-157.292 Y-69.34
X-157.43 Y-68.287
X-157.637 Y-67.249
X-157.913 Y-66.228
X-158.254 Y-65.228
X-158.662 Y-64.253
X-159.133 Y-63.307
X-159.667 Y-62.392
X-160.262 Y-61.514
X-160.915 Y-60.674
X-161.625 Y-59.878
X-162.388 Y-59.128
X-163.202 Y-58.427
X-164.065 Y-57.78
X-164.972 Y-57.189
X-165.92 Y-56.657
X-166.905 Y-56.187
X-167.924 Y-55.782
X-168.973 Y-55.444
X-170.047 Y-55.174
X-171.141 Y-54.976
X-172.252 Y-54.85
X-173.373 Y-54.798
X-174.501 Y-54.82
X-175.63 Y-54.917
X-176.754 Y-55.09
X-177.87 Y-55.338
X-178.971 Y-55.661
X-180.052 Y-56.057
X-181.109 Y-56.527
X-182.135 Y-57.067
X-183.126 Y-57.675
X-184.078 Y-58.35
X-184.985 Y-59.089
X-185.844 Y-59.888
X-186.649 Y-60.745
X-187.397 Y-61.655
X-188.085 Y-62.614
X-188.709 Y-63.619
X-189.265 Y-64.664
X-189.752 Y-65.746
X-190.166 Y-66.859
X-190.507 Y-67.999
X-190.771 Y-69.16
X-190.958 Y-70.337
X-191.066 Y-71.526
X-191.096 Y-72.72
X-191.046 Y-73.914
X-190.917 Y-75.103
X-190.709 Y-76.282
X-190.423 Y-77.445
X-190.061 Y-78.587
X-189.623 Y-79.703
X-189.112 Y-80.788
X-188.531 Y-81.838
X-187.88 Y-82.846
X-187.164 Y-83.81
X-186.385 Y-84.724
X-185.547 Y-85.585
X-184.654 Y-86.389
X-183.709 Y-87.132
X-182.717 Y-87.811
X-181.682 Y-88.422
X-180.608 Y-88.964
X-179.501 Y-89.433
X-178.364 Y-89.828
X-177.204 Y-90.146
X-176.026 Y-90.387
X-174.833 Y-90.55
X-173.633 Y-90.633
X-172.43 Y-90.636
X-171.229 Y-90.559
X-170.034 Y-90.403
X-168.848 Y-90.167
X-167.671 Y-89.85
X-166.507 Y-89.452
X-165.357 Y-88.972
X-164.229 Y-88.41
X-163.126 Y-87.767
X-162.057 Y-87.043
X-161.026 Y-86.242
X-160.043 Y-85.366
X-159.113 Y-84.421
X-158.245 Y-83.411
X-157.443 Y-82.344
X-156.714 Y-81.226
X-156.061 Y-80.063
X-155.488 Y-78.862
X-154.998 Y-77.63
X-154.592 Y-76.374
X-154.272 Y-75.098
X-154.038 Y-73.809
X-153.89 Y-72.512
X-153.829 Y-71.214
X-153.854 Y-69.918
X-153.965 Y-68.629
X-154.161 Y-67.354
X-154.44 Y-66.096
X-154.802 Y-64.861
X-155.245 Y-63.653
X-155.767 Y-62.476
X-156.366 Y-61.336
X-157.04 Y-60.238
X-157.787 Y-59.185
X-158.603 Y-58.181
X-159.486 Y-57.232
X-160.433 Y-56.342
X-161.439 Y-55.514
X-162.502 Y-54.752
X-163.616 Y-54.06
X-164.777 Y-53.441
X-165.981 Y-52.899
X-167.223 Y-52.436
X-168.498 Y-52.055
X-169.8 Y-51.758
X-171.124 Y-51.548
X-172.46 Y-51.426
X-173.802 Y-51.392
X-175.143 Y-51.447
X-176.478 Y-51.589
X-177.8 Y-51.818
X-179.105 Y-52.133
X-180.386 Y-52.532
X-181.639 Y-53.013
X-182.859 Y-53.573
X-184.04 Y-54.211
X-185.177 Y-54.924
X-186.266 Y-55.708
X-187.303 Y-56.56
X-188.283 Y-57.477
X-189.203 Y-58.454
X-190.059 Y-59.488
X-190.847 Y-60.575
X-191.566 Y-61.708
X-192.211 Y-62.885
X-192.781 Y-64.1
X-193.273 Y-65.349
X-193.686 Y-66.626
X-194.019 Y-67.926
X-194.269 Y-69.245
X-194.436 Y-70.577
X-194.52 Y-71.916
Y-73.258
X-194.437 Y-74.598
X-194.27 Y-75.929
X-194.019 Y-77.248
X-193.686 Y-78.548
X-193.272 Y-79.825
X-192.779 Y-81.073
X-192.208 Y-82.288
X-191.563 Y-83.465
X-190.846 Y-84.599
X-190.06 Y-85.687
X-189.207 Y-86.724
X-188.292 Y-87.705
X-187.317 Y-88.628
X-186.288 Y-89.489
X-185.206 Y-90.284
X-184.078 Y-91.011
X-182.907 Y-91.666
X-181.697 Y-92.248
X-180.453 Y-92.752
X-179.181 Y-93.178
X-177.884 Y-93.523
X-176.567 Y-93.787
X-175.238 Y-93.968
X-173.899 Y-94.065
X-172.557 Y-94.079
X-171.217 Y-94.01
X-169.883 Y-93.859
X-168.561 Y-93.625
X-167.256 Y-93.312
X-165.973 Y-92.92
X-164.715 Y-92.451
X-163.488 Y-91.908
X-162.295 Y-91.291
X-161.142 Y-90.604
X-160.032 Y-89.851
X-158.967 Y-89.033
X-157.951 Y-88.156
X-156.987 Y-87.223
X-156.077 Y-86.236
X-155.226 Y-85.198
X-154.437 Y-84.112
X-153.712 Y-82.983
X-153.053 Y-81.814
X-152.461 Y-80.609
X-151.938 Y-79.373
X-151.486 Y-78.11
X-151.108 Y-76.822
X-150.806 Y-75.514
X-150.58 Y-74.191
X-150.433 Y-72.857
X-150.362 Y-71.517
X-150.37 Y-70.175
X-150.454 Y-68.835
X-150.616 Y-67.503
X-150.855 Y-66.182
X-151.172 Y-64.878
X-151.566 Y-63.595
X-152.035 Y-62.337
X-152.577 Y-61.109
X-153.189 Y-59.915
X-153.87 Y-58.758
X-154.617 Y-57.643
X-155.426 Y-56.572
X-156.297 Y-55.551
X-157.227 Y-54.584
X-158.213 Y-53.673
X-159.249 Y-52.82
X-160.334 Y-52.029
X-161.461 Y-51.301
X-162.628 Y-50.638
X-163.831 Y-50.043
X-165.067 Y-49.519
X-166.331 Y-49.068
X-167.619 Y-48.69
X-168.926 Y-48.386
X-170.248 Y-48.156
X-171.581 Y-47.999
X-172.921 Y-47.918
X-174.263 Y-47.914
X-175.603 Y-47.986
X-176.937 Y-48.133
X-178.261 Y-48.355
X-179.571 Y-48.649
X-180.862 Y-49.014
X-182.132 Y-49.449
X-183.375 Y-49.956
X-184.587 Y-50.532
X-185.766 Y-51.174
X-186.907 Y-51.879
X-188.009 Y-52.646
X-189.068 Y-53.471
X-190.08 Y-54.353
X-191.041 Y-55.29
X-191.949 Y-56.278
X-192.801 Y-57.315
X-193.596 Y-58.396
X-194.332 Y-59.519
X-195.006 Y-60.679
X-195.618 Y-61.874
X-196.163 Y-63.1
X-196.639 Y-64.355
X-197.047 Y-65.634
X-197.386 Y-66.932
X-197.655 Y-68.247
X-197.854 Y-69.575
X-197.982 Y-70.911
X-198.037 Y-72.252
X-198.018 Y-73.594
X-197.927 Y-74.933
X-197.764 Y-76.265
X-197.53 Y-77.587
X-197.226 Y-78.894
X-196.853 Y-80.183
X-196.41 Y-81.45
X-195.899 Y-82.691
X-195.321 Y-83.903
X-194.679 Y-85.081
X-193.976 Y-86.224
X-193.213 Y-87.328
X-192.392 Y-88.391
X-191.516 Y-89.407
X-190.586 Y-90.375
X-189.605 Y-91.29
X-188.576 Y-92.152
X-187.503 Y-92.959
X-186.389 Y-93.707
X-185.237 Y-94.396
X-184.05 Y-95.022
X-182.83 Y-95.582
X-181.582 Y-96.075
X-180.309 Y-96.5
X-179.015 Y-96.857
X-177.704 Y-97.145
X-176.38 Y-97.363
X-175.045 Y-97.51
X-173.705 Y-97.584
X-172.363 Y-97.585
X-171.023 Y-97.515
X-169.688 Y-97.375
X-168.362 Y-97.165
X-167.05 Y-96.886
X-165.753 Y-96.54
X-164.476 Y-96.125
X-163.224 Y-95.643
X-161.998 Y-95.096
X-160.802 Y-94.487
X-159.639 Y-93.817
X-158.511 Y-93.09
X-157.421 Y-92.307
X-156.371 Y-91.471
X-155.366 Y-90.581
X-154.407 Y-89.642
X-153.497 Y-88.655
X-152.638 Y-87.625
X-151.83 Y-86.552
X-151.077 Y-85.442
X-150.379 Y-84.296
X-149.739 Y-83.116
X-149.159 Y-81.905
X-148.642 Y-80.667
X-148.187 Y-79.404
X-147.796 Y-78.12
X-147.469 Y-76.818
X-147.207 Y-75.502
X-147.011 Y-74.174
X-146.884 Y-72.838
X-146.824 Y-71.497
X-146.832 Y-70.155
X-146.908 Y-68.815
X-147.051 Y-67.481
X-147.26 Y-66.155
X-147.536 Y-64.841
X-147.879 Y-63.544
X-148.288 Y-62.266
X-148.762 Y-61.01
X-149.3 Y-59.78
X-149.898 Y-58.579
X-150.555 Y-57.408
X-151.27 Y-56.272
X-152.041 Y-55.174
X-152.868 Y-54.117
X-153.749 Y-53.104
X-154.679 Y-52.137
X-155.657 Y-51.218
X-156.68 Y-50.348
X-157.744 Y-49.531
X-158.847 Y-48.766
X-159.988 Y-48.059
X-161.163 Y-47.41
X-162.369 Y-46.822
X-163.604 Y-46.295
X-164.863 Y-45.83
X-166.143 Y-45.427
X-167.441 Y-45.086
X-168.754 Y-44.81
X-170.08 Y-44.599
X-171.414 Y-44.456
X-172.754 Y-44.378
X-174.096 Y-44.367
X-175.437 Y-44.421
X-176.774 Y-44.54
X-178.104 Y-44.722
X-179.423 Y-44.968
X-180.729 Y-45.279
X-182.018 Y-45.654
X-183.287 Y-46.092
X-184.533 Y-46.591
X-185.753 Y-47.148
X-186.946 Y-47.763
X-188.109 Y-48.434
X-189.238 Y-49.16
X-190.33 Y-49.94
X-191.383 Y-50.772
X-192.395 Y-51.654
X-193.363 Y-52.584
X-194.286 Y-53.558
X-195.162 Y-54.575
X-195.99 Y-55.631
X-196.767 Y-56.725
X-197.49 Y-57.856
X-198.158 Y-59.021
X-198.769 Y-60.215
X-199.323 Y-61.438
X-199.819 Y-62.685
X-200.256 Y-63.954
X-200.635 Y-65.242
X-200.952 Y-66.546
X-201.206 Y-67.864
X-201.397 Y-69.192
X-201.525 Y-70.528
X-201.59 Y-71.869
X-201.591 Y-73.211
X-201.531 Y-74.552
X-201.408 Y-75.888
X-201.222 Y-77.217
X-200.974 Y-78.536
X-200.662 Y-79.842
X-200.289 Y-81.131
X-199.855 Y-82.401
X-199.363 Y-83.65
X-198.813 Y-84.874
X-198.207 Y-86.072
X-197.546 Y-87.24
X-196.83 Y-88.375
X-196.061 Y-89.475
X-195.24 Y-90.537
X-194.371 Y-91.56
X-193.455 Y-92.541
X-192.495 Y-93.478
X-191.492 Y-94.371
X-190.449 Y-95.215
X-189.367 Y-96.01
X-188.249 Y-96.751
X-187.097 Y-97.44
X-185.913 Y-98.073
X-184.701 Y-98.65
X-183.464 Y-99.171
X-182.204 Y-99.633
X-180.924 Y-100.037
X-179.627 Y-100.379
X-178.314 Y-100.659
X-176.99 Y-100.877
X-175.656 Y-101.032
X-174.318 Y-101.125
X-172.976 Y-101.157
X-171.634 Y-101.126
X-170.295 Y-101.034
X-168.962 Y-100.879
X-167.637 Y-100.662
X-166.324 Y-100.384
X-165.026 Y-100.045
X-163.744 Y-99.647
X-162.482 Y-99.191
X-161.241 Y-98.679
X-160.025 Y-98.111
X-158.835 Y-97.489
X-157.676 Y-96.813
X-156.548 Y-96.086
X-155.454 Y-95.308
X-154.396 Y-94.483
X-153.375 Y-93.611
X-152.394 Y-92.695
X-151.454 Y-91.737
X-150.557 Y-90.739
X-149.706 Y-89.701
X-148.901 Y-88.627
X-148.145 Y-87.518
X-147.439 Y-86.377
X-146.784 Y-85.205
X-146.181 Y-84.006
X-145.63 Y-82.782
X-145.134 Y-81.535
X-144.693 Y-80.267
X-144.31 Y-78.981
X-143.984 Y-77.679
X-143.717 Y-76.364
X-143.508 Y-75.038
X-143.358 Y-73.704
X-143.266 Y-72.365
X-143.234 Y-71.024
X-143.26 Y-69.682
X-143.348 Y-68.342
X-143.495 Y-67.008
X-143.702 Y-65.682
X-143.969 Y-64.367
X-144.293 Y-63.065
X-144.675 Y-61.778
X-145.114 Y-60.509
X-145.607 Y-59.261
X-146.157 Y-58.037
X-146.761 Y-56.838
X-147.418 Y-55.668
X-148.127 Y-54.528
X-148.886 Y-53.422
X-149.694 Y-52.349
X-150.548 Y-51.314
X-151.446 Y-50.317
X-152.389 Y-49.361
X-153.373 Y-48.448
X-154.396 Y-47.581
X-155.458 Y-46.759
X-156.554 Y-45.985
X-157.684 Y-45.261
X-158.844 Y-44.586
X-160.033 Y-43.963
X-161.248 Y-43.392
X-162.487 Y-42.876
X-163.747 Y-42.415
X-165.027 Y-42.01
X-166.323 Y-41.662
X-167.633 Y-41.37
X-168.955 Y-41.136
X-170.285 Y-40.959
X-171.622 Y-40.839
X-172.963 Y-40.777
X-174.305 Y-40.775
X-175.646 Y-40.83
X-176.983 Y-40.944
X-178.314 Y-41.115
X-179.637 Y-41.343
X-180.949 Y-41.628
X-182.247 Y-41.969
X-183.529 Y-42.364
X-184.794 Y-42.814
X-186.038 Y-43.319
X-187.258 Y-43.876
X-188.455 Y-44.485
X-189.623 Y-45.144
X-190.763 Y-45.853
X-191.872 Y-46.609
X-192.948 Y-47.412
X-193.989 Y-48.259
X-194.993 Y-49.149
X-195.958 Y-50.082
X-196.883 Y-51.055
X-197.765 Y-52.066
X-198.604 Y-53.114
X-199.399 Y-54.196
X-200.147 Y-55.31
X-200.848 Y-56.455
X-201.5 Y-57.627
X-202.102 Y-58.827
X-202.653 Y-60.051
X-203.152 Y-61.297
X-203.598 Y-62.563
X-203.991 Y-63.846
X-204.33 Y-65.145
X-204.614 Y-66.457
X-204.844 Y-67.779
X-205.018 Y-69.11
X-205.136 Y-70.447
X-205.197 Y-71.787
X-205.202 Y-73.13
X-205.151 Y-74.471
X-205.045 Y-75.809
X-204.882 Y-77.141
X-204.664 Y-78.465
X-204.392 Y-79.779
X-204.064 Y-81.081
X-203.682 Y-82.368
X-203.246 Y-83.637
X-202.758 Y-84.887
X-202.217 Y-86.116
X-201.627 Y-87.321
X-200.986 Y-88.5
X-200.298 Y-89.652
X-199.562 Y-90.775
X-198.78 Y-91.866
X-197.953 Y-92.923
X-197.082 Y-93.944
X-196.169 Y-94.928
X-195.217 Y-95.874
X-194.226 Y-96.779
X-193.198 Y-97.642
X-192.136 Y-98.462
X-191.04 Y-99.238
X-189.913 Y-99.967
X-188.757 Y-100.648
X-187.572 Y-101.279
X-186.363 Y-101.861
X-185.13 Y-102.392
X-183.877 Y-102.871
X-182.604 Y-103.298
X-181.315 Y-103.672
X-180.012 Y-103.993
X-178.696 Y-104.259
X-177.371 Y-104.468
X-176.038 Y-104.623
X-174.699 Y-104.722
X-173.358 Y-104.765
X-172.015 Y-104.754
X-170.675 Y-104.687
X-169.338 Y-104.565
X-168.008 Y-104.389
X-166.686 Y-104.159
X-165.374 Y-103.873
X-164.076 Y-103.533
X-162.792 Y-103.141
X-161.526 Y-102.697
X-160.278 Y-102.202
X-159.051 Y-101.657
X-157.848 Y-101.064
X-156.668 Y-100.423
X-155.516 Y-99.735
X-154.392 Y-99.001
X-153.3 Y-98.221
X-152.239 Y-97.399
X-151.211 Y-96.536
X-150.219 Y-95.632
X-149.263 Y-94.69
X-148.344 Y-93.711
X-147.465 Y-92.697
X-146.627 Y-91.649
X-145.831 Y-90.569
X-145.078 Y-89.457
X-144.371 Y-88.317
X-143.709 Y-87.149
X-143.093 Y-85.956
X-142.525 Y-84.741
X-142.005 Y-83.503
X-141.534 Y-82.247
X-141.112 Y-80.972
X-140.741 Y-79.682
X-140.423 Y-78.379
X-140.157 Y-77.063
X-139.943 Y-75.738
X-139.781 Y-74.406
X-139.672 Y-73.068
X-139.616 Y-71.727
X-139.613 Y-70.385
X-139.662 Y-69.044
X-139.765 Y-67.705
X-139.922 Y-66.373
X-140.133 Y-65.047
X-140.396 Y-63.731
X-140.711 Y-62.426
X-141.078 Y-61.135
X-141.495 Y-59.86
X-141.962 Y-58.601
X-142.479 Y-57.363
X-143.045 Y-56.145
X-143.658 Y-54.952
X-144.32 Y-53.784
X-145.028 Y-52.644
X-145.781 Y-51.533
X-146.577 Y-50.452
X-147.415 Y-49.404
X-148.294 Y-48.389
X-149.211 Y-47.41
X-150.167 Y-46.468
X-151.16 Y-45.564
X-152.188 Y-44.701
X-153.25 Y-43.88
X-154.343 Y-43.102
X-155.466 Y-42.367
X-156.617 Y-41.677
X-157.794 Y-41.032
X-158.996 Y-40.434
X-160.22 Y-39.883
X-161.464 Y-39.38
X-162.728 Y-38.928
X-164.008 Y-38.525
X-165.303 Y-38.174
X-166.611 Y-37.873
X-167.93 Y-37.623
X-169.257 Y-37.425
X-170.591 Y-37.278
X-171.93 Y-37.182
X-173.272 Y-37.138
X-174.614 Y-37.147
X-175.955 Y-37.208
X-177.292 Y-37.321
X-178.624 Y-37.487
X-179.948 Y-37.703
X-181.264 Y-37.97
X-182.568 Y-38.287
X-183.859 Y-38.654
X-185.135 Y-39.069
X-186.395 Y-39.533
X-187.635 Y-40.046
X-188.855 Y-40.606
X-190.052 Y-41.213
X-191.225 Y-41.866
X-192.372 Y-42.562
X-193.492 Y-43.302
X-194.583 Y-44.083
X-195.644 Y-44.905
X-196.673 Y-45.767
X-197.669 Y-46.667
X-198.629 Y-47.605
X-199.552 Y-48.579
X-200.438 Y-49.587
X-201.285 Y-50.628
X-202.092 Y-51.701
X-202.858 Y-52.803
X-203.582 Y-53.933
X-204.263 Y-55.089
X-204.901 Y-56.27
X-205.493 Y-57.475
X-206.039 Y-58.701
X-206.537 Y-59.947
X-206.988 Y-61.211
X-207.392 Y-62.491
X-207.747 Y-63.786
X-208.054 Y-65.092
