%
(1001)
(z0 mdf bottom machine -5-5)
(T1  D=12.7 CR=0 - ZMIN=7 - flat end mill)
G90 G94
G17
G21

(Face4)
M9
T1 M6
S6000 M3
G54
M9
G0 X-45.786 Y-130.677
Z37
Z27
G1 Z22.27 F850
G18 G3 X-47.056 Z21 I-1.27
G1 X-53.5
X-236.5
G17 G2 Y-119.125 J5.776
G1 X-225.136
G3 Y-107.572 J5.776
G1 X-228.5
X-236.5
G2 Y-96.02 J5.776
G1 X-228.5
G3 Y-84.467 J5.776
G1 X-236.5
G2 Y-72.915 J5.776
G1 X-228.5
G3 Y-61.363 J5.776
G1 X-236.5
G2 Y-49.81 J5.776
G1 X-228.5
G3 Y-38.258 J5.776
G1 X-236.5
G2 Y-26.706 J5.776
G1 X-225.967
G0 Z27
X-69.978 Y-119.125
G1 Z22.27 F850
G18 G2 X-68.708 Z21 I1.27
G1 X-64.864
X-53.5
G17 G3 Y-107.572 J5.776
G1 X-61.5
G2 Y-96.02 J5.776
G1 X-53.5
G3 Y-84.467 J5.776
G1 X-61.5
G2 Y-72.915 J5.776
G1 X-53.5
G3 Y-61.363 J5.776
G1 X-61.5
G2 Y-49.81 J5.776
G1 X-53.5
G3 Y-38.258 J5.776
G1 X-61.5
X-64.033
G2 Y-26.706 J5.776
G1 X-53.5
G3 Y-15.153 J5.776
G1 X-236.5
G0 Z27
X-244.214 Y-130.677
G1 Z21.27 F850
G18 G2 X-242.944 Z20 I1.27
G1 X-236.5
X-53.5
G17 G3 Y-119.125 J5.776
G1 X-64.864
G2 Y-107.572 J5.776
G1 X-61.5
X-53.5
G3 Y-96.02 J5.776
G1 X-61.5
G2 Y-84.467 J5.776
G1 X-53.5
G3 Y-72.915 J5.776
G1 X-61.5
G2 Y-61.363 J5.776
G1 X-53.5
G3 Y-49.81 J5.776
G1 X-61.5
G2 Y-38.258 J5.776
G1 X-53.5
G3 Y-26.706 J5.776
G1 X-64.033
G0 Z27
X-220.022 Y-119.125
G1 Z21.27 F850
G18 G3 X-221.292 Z20 I-1.27
G1 X-225.136
X-236.5
G17 G2 Y-107.572 J5.776
G1 X-228.5
G3 Y-96.02 J5.776
G1 X-236.5
G2 Y-84.467 J5.776
G1 X-228.5
G3 Y-72.915 J5.776
G1 X-236.5
G2 Y-61.363 J5.776
G1 X-228.5
G3 Y-49.81 J5.776
G1 X-236.5
G2 Y-38.258 J5.776
G1 X-228.5
X-225.967
G3 Y-26.706 J5.776
G1 X-236.5
G2 Y-15.153 J5.776
G1 X-53.5
G0 Z37

(lid pocket)
M9
X-178.308 Y-75.346
Z37
Z27
Z25.77
G1 Z24.5 F850
G3 X-167.67 Y-69.654 Z23.838 I5.319 J2.846 F283.3
X-178.308 Y-75.346 Z23.176 I-5.319 J-2.846
X-167.67 Y-69.654 Z22.515 I5.319 J2.846
X-178.308 Y-75.346 Z21.853 I-5.319 J-2.846
X-167.67 Y-69.654 Z21.191 I5.319 J2.846
X-178.308 Y-75.346 Z20.529 I-5.319 J-2.846
X-167.67 Y-69.654 Z19.867 I5.319 J2.846
X-178.308 Y-75.346 Z19.206 I-5.319 J-2.846
X-167.67 Y-69.654 Z18.544 I5.319 J2.846
X-178.308 Y-75.346 Z17.882 I-5.319 J-2.846
X-167.67 Y-69.654 Z17.22 I5.319 J2.846
X-178.308 Y-75.346 Z16.558 I-5.319 J-2.846
X-166.957 Y-72.5 Z16 I5.319 J2.846
X-179.022 I-6.033
X-167.233 Y-74.305 I6.033
X-166.957 Y-72.5 I-5.756 J1.805
G1 X-166.953 Y-72.164 F850
X-166.815 Y-70.829
X-166.778 Y-70.754
X-166.719 Y-70.616
X-166.668 Y-70.468
X-166.623 Y-70.301
X-166.585 Y-70.116
X-166.557 Y-69.911
X-166.542 Y-69.689
Y-69.449
X-166.559 Y-69.194
X-166.595 Y-68.923
X-166.652 Y-68.639
X-166.731 Y-68.344
X-166.836 Y-68.039
X-166.967 Y-67.728
X-167.125 Y-67.411
X-167.311 Y-67.093
X-167.526 Y-66.776
X-167.771 Y-66.463
X-168.044 Y-66.156
X-168.347 Y-65.859
X-168.678 Y-65.575
X-169.037 Y-65.307
X-169.422 Y-65.056
X-169.831 Y-64.827
X-170.264 Y-64.621
X-170.718 Y-64.442
X-171.19 Y-64.29
X-171.679 Y-64.168
X-172.182 Y-64.077
X-172.697 Y-64.019
X-173.22 Y-63.995
X-173.749 Y-64.006
X-174.281 Y-64.053
X-174.813 Y-64.135
X-175.342 Y-64.253
X-175.866 Y-64.408
X-176.382 Y-64.597
X-176.886 Y-64.822
X-177.377 Y-65.081
X-177.852 Y-65.373
X-178.308 Y-65.697
X-178.743 Y-66.052
X-179.154 Y-66.437
X-179.541 Y-66.848
X-179.9 Y-67.286
X-180.23 Y-67.747
X-180.529 Y-68.23
X-180.796 Y-68.733
X-181.029 Y-69.253
X-181.228 Y-69.788
X-181.39 Y-70.336
X-181.517 Y-70.894
X-181.606 Y-71.46
X-181.657 Y-72.03
X-181.671 Y-72.604
X-181.646 Y-73.177
X-181.584 Y-73.748
X-181.483 Y-74.314
X-181.346 Y-74.872
X-181.171 Y-75.42
X-180.961 Y-75.955
X-180.715 Y-76.475
X-180.435 Y-76.978
X-180.123 Y-77.462
X-179.779 Y-77.924
X-179.405 Y-78.362
X-179.003 Y-78.774
X-178.574 Y-79.159
X-178.12 Y-79.515
X-177.644 Y-79.84
X-177.148 Y-80.132
X-176.633 Y-80.391
X-176.102 Y-80.615
X-175.557 Y-80.804
X-175.001 Y-80.956
X-174.436 Y-81.071
X-173.865 Y-81.148
X-173.289 Y-81.187
X-172.713 Y-81.188
X-172.137 Y-81.151
X-171.565 Y-81.075
X-171 Y-80.962
X-170.443 Y-80.812
X-169.898 Y-80.625
X-169.366 Y-80.402
X-168.85 Y-80.144
X-168.352 Y-79.853
X-167.874 Y-79.529
X-167.42 Y-79.174
X-166.989 Y-78.79
X-166.585 Y-78.379
X-166.21 Y-77.941
X-165.864 Y-77.479
X-165.549 Y-76.996
X-165.152 Y-76.287
X-164.594 Y-75.115
X-164.237 Y-74.215
X-163.985 Y-73.431
X-163.802 Y-72.699
X-163.678 Y-72.011
X-163.604 Y-71.354
X-163.575 Y-70.715
X-163.588 Y-70.09
X-163.641 Y-69.477
X-163.734 Y-68.875
X-163.866 Y-68.286
X-164.036 Y-67.708
X-164.243 Y-67.142
X-164.489 Y-66.59
X-164.773 Y-66.053
X-165.093 Y-65.531
X-165.451 Y-65.028
X-165.844 Y-64.546
X-166.273 Y-64.086
X-166.737 Y-63.65
X-167.234 Y-63.242
X-167.763 Y-62.864
X-168.321 Y-62.518
X-168.908 Y-62.206
X-169.52 Y-61.932
X-170.154 Y-61.696
X-170.809 Y-61.501
X-171.48 Y-61.349
X-172.166 Y-61.241
X-172.864 Y-61.178
X-173.569 Y-61.161
X-174.28 Y-61.191
X-174.991 Y-61.269
X-175.701 Y-61.395
X-176.405 Y-61.568
X-177.1 Y-61.789
X-177.782 Y-62.057
X-178.449 Y-62.372
X-179.096 Y-62.732
X-179.721 Y-63.135
X-180.32 Y-63.581
X-180.89 Y-64.067
X-181.428 Y-64.592
X-181.931 Y-65.152
X-182.398 Y-65.746
X-182.825 Y-66.372
X-183.21 Y-67.025
X-183.552 Y-67.704
X-183.849 Y-68.406
X-184.098 Y-69.126
X-184.3 Y-69.863
X-184.452 Y-70.612
X-184.555 Y-71.371
X-184.607 Y-72.135
X-184.609 Y-72.902
X-184.559 Y-73.668
X-184.459 Y-74.43
X-184.308 Y-75.184
X-184.108 Y-75.926
X-183.858 Y-76.654
X-183.561 Y-77.364
X-183.217 Y-78.054
X-182.828 Y-78.719
X-182.396 Y-79.357
X-181.922 Y-79.965
X-181.409 Y-80.54
X-180.858 Y-81.081
X-180.273 Y-81.584
X-179.655 Y-82.047
X-179.009 Y-82.468
X-178.335 Y-82.845
X-177.638 Y-83.177
X-176.92 Y-83.462
X-176.185 Y-83.698
X-175.436 Y-83.886
X-174.676 Y-84.023
X-173.909 Y-84.11
X-173.137 Y-84.146
X-172.365 Y-84.13
X-171.595 Y-84.063
X-170.831 Y-83.945
X-170.077 Y-83.777
X-169.336 Y-83.559
X-168.611 Y-83.293
X-167.905 Y-82.979
X-167.221 Y-82.619
X-166.563 Y-82.214
X-165.933 Y-81.767
X-165.305 Y-81.255
X-164.676 Y-80.669
X-164.043 Y-79.995
X-163.427 Y-79.245
X-162.856 Y-78.447
X-162.34 Y-77.615
X-161.887 Y-76.763
X-161.498 Y-75.897
X-161.174 Y-75.025
X-160.913 Y-74.15
X-160.715 Y-73.277
X-160.578 Y-72.41
X-160.5 Y-71.549
X-160.479 Y-70.696
X-160.515 Y-69.851
X-160.606 Y-69.018
X-160.751 Y-68.196
X-160.95 Y-67.389
X-161.202 Y-66.598
X-161.505 Y-65.825
X-161.859 Y-65.073
X-162.263 Y-64.345
X-162.717 Y-63.643
X-163.217 Y-62.97
X-163.764 Y-62.329
X-164.355 Y-61.723
X-164.988 Y-61.153
X-165.662 Y-60.625
X-166.373 Y-60.139
X-167.119 Y-59.698
X-167.898 Y-59.306
X-168.706 Y-58.964
X-169.539 Y-58.675
X-170.396 Y-58.44
X-171.271 Y-58.262
X-172.162 Y-58.141
X-173.065 Y-58.079
X-173.975 Y-58.077
X-174.889 Y-58.136
X-175.802 Y-58.256
X-176.71 Y-58.437
X-177.608 Y-58.68
X-178.492 Y-58.982
X-179.357 Y-59.344
X-180.2 Y-59.765
X-181.017 Y-60.242
X-181.802 Y-60.774
X-182.553 Y-61.359
X-183.266 Y-61.994
X-183.937 Y-62.677
X-184.562 Y-63.405
X-185.139 Y-64.174
X-185.665 Y-64.981
X-186.138 Y-65.824
X-186.554 Y-66.697
X-186.911 Y-67.597
X-187.209 Y-68.521
X-187.445 Y-69.463
X-187.618 Y-70.42
X-187.728 Y-71.387
X-187.773 Y-72.361
X-187.754 Y-73.336
X-187.669 Y-74.309
X-187.521 Y-75.274
X-187.308 Y-76.229
X-187.033 Y-77.167
X-186.696 Y-78.086
X-186.298 Y-78.981
X-185.842 Y-79.847
X-185.329 Y-80.682
X-184.761 Y-81.482
X-184.142 Y-82.242
X-183.473 Y-82.96
X-182.758 Y-83.631
X-182 Y-84.255
X-181.202 Y-84.826
X-180.368 Y-85.344
X-179.501 Y-85.805
X-178.605 Y-86.208
X-177.685 Y-86.55
X-176.744 Y-86.831
X-175.786 Y-87.049
X-174.815 Y-87.202
X-173.837 Y-87.291
X-172.854 Y-87.315
X-171.873 Y-87.274
X-170.896 Y-87.168
X-169.928 Y-86.997
X-168.973 Y-86.762
X-168.036 Y-86.465
X-167.115 Y-86.103
X-166.207 Y-85.675
X-165.308 Y-85.176
X-164.421 Y-84.604
X-163.557 Y-83.962
X-162.725 Y-83.253
X-161.93 Y-82.479
X-161.18 Y-81.644
X-160.481 Y-80.756
X-159.841 Y-79.819
X-159.265 Y-78.844
X-158.758 Y-77.836
X-158.321 Y-76.805
X-157.956 Y-75.755
X-157.665 Y-74.693
X-157.446 Y-73.623
X-157.3 Y-72.548
X-157.227 Y-71.474
X-157.224 Y-70.404
X-157.292 Y-69.34
X-157.43 Y-68.287
X-157.637 Y-67.249
X-157.913 Y-66.228
X-158.254 Y-65.228
X-158.662 Y-64.253
X-159.133 Y-63.307
X-159.667 Y-62.392
X-160.262 Y-61.514
X-160.915 Y-60.674
X-161.625 Y-59.878
X-162.388 Y-59.128
X-163.202 Y-58.427
X-164.065 Y-57.78
X-164.972 Y-57.189
X-165.92 Y-56.657
X-166.905 Y-56.187
X-167.924 Y-55.782
X-168.973 Y-55.444
X-170.047 Y-55.174
X-171.141 Y-54.976
X-172.252 Y-54.85
X-173.373 Y-54.798
X-174.501 Y-54.82
X-175.63 Y-54.917
X-176.754 Y-55.09
X-177.87 Y-55.338
X-178.971 Y-55.661
X-180.052 Y-56.057
X-181.109 Y-56.527
X-182.135 Y-57.067
X-183.126 Y-57.675
X-184.078 Y-58.35
X-184.985 Y-59.089
X-185.844 Y-59.888
X-186.649 Y-60.745
X-187.397 Y-61.655
X-188.085 Y-62.614
X-188.709 Y-63.619
X-189.265 Y-64.664
X-189.752 Y-65.746
X-190.166 Y-66.859
X-190.507 Y-67.999
X-190.771 Y-69.16
X-190.958 Y-70.337
X-191.066 Y-71.526
X-191.096 Y-72.72
X-191.046 Y-73.914
X-190.917 Y-75.103
X-190.709 Y-76.282
X-190.423 Y-77.445
X-190.061 Y-78.587
X-189.623 Y-79.703
X-189.112 Y-80.788
X-188.531 Y-81.838
X-187.88 Y-82.846
X-187.164 Y-83.81
X-186.385 Y-84.724
X-185.547 Y-85.585
X-184.654 Y-86.389
X-183.709 Y-87.132
X-182.717 Y-87.811
X-181.682 Y-88.422
X-180.608 Y-88.964
X-179.501 Y-89.433
X-178.364 Y-89.828
X-177.204 Y-90.146
X-176.026 Y-90.387
X-174.833 Y-90.55
X-173.633 Y-90.633
X-172.43 Y-90.636
X-171.229 Y-90.559
X-170.034 Y-90.403
X-168.848 Y-90.167
X-167.671 Y-89.85
X-166.507 Y-89.452
X-165.357 Y-88.972
X-164.229 Y-88.41
X-163.126 Y-87.767
X-162.057 Y-87.043
X-161.026 Y-86.242
X-160.043 Y-85.366
X-159.113 Y-84.421
X-158.245 Y-83.411
X-157.443 Y-82.344
X-156.714 Y-81.226
X-156.061 Y-80.063
X-155.488 Y-78.862
X-154.998 Y-77.63
X-154.592 Y-76.374
X-154.272 Y-75.098
X-154.038 Y-73.809
X-153.89 Y-72.512
X-153.829 Y-71.214
X-153.854 Y-69.918
X-153.965 Y-68.629
X-154.161 Y-67.354
X-154.44 Y-66.096
X-154.802 Y-64.861
X-155.245 Y-63.653
X-155.767 Y-62.476
X-156.366 Y-61.336
X-157.04 Y-60.238
X-157.787 Y-59.185
X-158.603 Y-58.181
X-159.486 Y-57.232
X-160.433 Y-56.342
X-161.439 Y-55.514
X-162.502 Y-54.752
X-163.616 Y-54.06
X-164.777 Y-53.441
X-165.981 Y-52.899
X-167.223 Y-52.436
X-168.498 Y-52.055
X-169.8 Y-51.758
X-171.124 Y-51.548
X-172.46 Y-51.426
X-173.802 Y-51.392
X-175.143 Y-51.447
X-176.478 Y-51.589
X-177.8 Y-51.818
X-179.105 Y-52.133
X-180.386 Y-52.532
X-181.639 Y-53.013
X-182.859 Y-53.573
X-184.04 Y-54.211
X-185.177 Y-54.924
X-186.266 Y-55.708
X-187.303 Y-56.56
X-188.283 Y-57.477
X-189.203 Y-58.454
X-190.059 Y-59.488
X-190.847 Y-60.575
X-191.566 Y-61.708
X-192.211 Y-62.885
X-192.781 Y-64.1
X-193.273 Y-65.349
X-193.686 Y-66.626
X-194.019 Y-67.926
X-194.269 Y-69.245
X-194.436 Y-70.577
X-194.52 Y-71.916
Y-73.258
X-194.437 Y-74.598
X-194.27 Y-75.929
X-194.019 Y-77.248
X-193.686 Y-78.548
X-193.272 Y-79.825
X-192.779 Y-81.073
X-192.208 Y-82.288
X-191.563 Y-83.465
X-190.846 Y-84.599
X-190.06 Y-85.687
X-189.207 Y-86.724
X-188.292 Y-87.705
X-187.317 Y-88.628
X-186.288 Y-89.489
X-185.206 Y-90.284
X-184.078 Y-91.011
X-182.907 Y-91.666
X-181.697 Y-92.248
X-180.453 Y-92.752
X-179.181 Y-93.178
X-177.884 Y-93.523
X-176.567 Y-93.787
X-175.238 Y-93.968
X-173.899 Y-94.065
X-172.557 Y-94.079
X-171.217 Y-94.01
X-169.883 Y-93.859
X-168.561 Y-93.625
X-167.256 Y-93.312
X-165.973 Y-92.92
X-164.715 Y-92.451
X-163.488 Y-91.908
X-162.295 Y-91.291
X-161.142 Y-90.604
X-160.032 Y-89.851
X-158.967 Y-89.033
X-157.951 Y-88.156
X-156.987 Y-87.223
X-156.077 Y-86.236
X-155.226 Y-85.198
X-154.437 Y-84.112
X-153.712 Y-82.983
X-153.053 Y-81.814
X-152.461 Y-80.609
X-151.938 Y-79.373
X-151.486 Y-78.11
X-151.108 Y-76.822
X-150.806 Y-75.514
X-150.58 Y-74.191
X-150.433 Y-72.857
X-150.362 Y-71.517
X-150.37 Y-70.175
X-150.454 Y-68.835
X-150.616 Y-67.503
X-150.855 Y-66.182
X-151.172 Y-64.878
X-151.566 Y-63.595
X-152.035 Y-62.337
X-152.577 Y-61.109
X-153.189 Y-59.915
X-153.87 Y-58.758
X-154.617 Y-57.643
X-155.426 Y-56.572
X-156.297 Y-55.551
X-157.227 Y-54.584
X-158.213 Y-53.673
X-159.249 Y-52.82
X-160.334 Y-52.029
X-161.461 Y-51.301
X-162.628 Y-50.638
X-163.831 Y-50.043
X-165.067 Y-49.519
X-166.331 Y-49.068
X-167.619 Y-48.69
X-168.926 Y-48.386
X-170.248 Y-48.156
X-171.581 Y-47.999
X-172.921 Y-47.918
X-174.263 Y-47.914
X-175.603 Y-47.986
X-176.937 Y-48.133
X-178.261 Y-48.355
X-179.571 Y-48.649
X-180.862 Y-49.014
X-182.132 Y-49.449
X-183.375 Y-49.956
X-184.587 Y-50.532
X-185.766 Y-51.174
X-186.907 Y-51.879
X-188.009 Y-52.646
X-189.068 Y-53.471
X-190.08 Y-54.353
X-191.041 Y-55.29
X-191.949 Y-56.278
X-192.801 Y-57.315
X-193.596 Y-58.396
X-194.332 Y-59.519
X-195.006 Y-60.679
X-195.618 Y-61.874
X-196.163 Y-63.1
X-196.639 Y-64.355
X-197.047 Y-65.634
X-197.386 Y-66.932
X-197.655 Y-68.247
X-197.854 Y-69.575
X-197.982 Y-70.911
X-198.037 Y-72.252
X-198.018 Y-73.594
X-197.927 Y-74.933
X-197.764 Y-76.265
X-197.53 Y-77.587
X-197.226 Y-78.894
X-196.853 Y-80.183
X-196.41 Y-81.45
X-195.899 Y-82.691
X-195.321 Y-83.903
X-194.679 Y-85.081
X-193.976 Y-86.224
X-193.213 Y-87.328
X-192.392 Y-88.391
X-191.516 Y-89.407
X-190.586 Y-90.375
X-189.605 Y-91.29
X-188.576 Y-92.152
X-187.503 Y-92.959
X-186.389 Y-93.707
X-185.237 Y-94.396
X-184.05 Y-95.022
X-182.83 Y-95.582
X-181.582 Y-96.075
X-180.309 Y-96.5
X-179.015 Y-96.857
X-177.704 Y-97.145
X-176.38 Y-97.363
X-175.045 Y-97.51
X-173.705 Y-97.584
X-172.363 Y-97.585
X-171.023 Y-97.515
X-169.688 Y-97.375
X-168.362 Y-97.165
X-167.05 Y-96.886
X-165.753 Y-96.54
X-164.476 Y-96.125
X-163.224 Y-95.643
X-161.998 Y-95.096
X-160.802 Y-94.487
X-159.639 Y-93.817
X-158.511 Y-93.09
X-157.421 Y-92.307
X-156.371 Y-91.471
X-155.366 Y-90.581
X-154.407 Y-89.642
X-153.497 Y-88.655
X-152.638 Y-87.625
X-151.83 Y-86.552
X-151.077 Y-85.442
X-150.379 Y-84.296
X-149.739 Y-83.116
X-149.159 Y-81.905
X-148.642 Y-80.667
X-148.187 Y-79.404
X-147.796 Y-78.12
X-147.469 Y-76.818
X-147.207 Y-75.502
X-147.011 Y-74.174
X-146.884 Y-72.838
X-146.824 Y-71.497
X-146.832 Y-70.155
X-146.908 Y-68.815
X-147.051 Y-67.481
X-147.26 Y-66.155
X-147.536 Y-64.841
X-147.879 Y-63.544
X-148.288 Y-62.266
X-148.762 Y-61.01
X-149.3 Y-59.78
X-149.898 Y-58.579
X-150.555 Y-57.408
X-151.27 Y-56.272
X-152.041 Y-55.174
X-152.868 Y-54.117
X-153.749 Y-53.104
X-154.679 Y-52.137
X-155.657 Y-51.218
X-156.68 Y-50.348
X-157.744 Y-49.531
X-158.847 Y-48.766
X-159.988 Y-48.059
X-161.163 Y-47.41
X-162.369 Y-46.822
X-163.604 Y-46.295
X-164.863 Y-45.83
X-166.143 Y-45.427
X-167.441 Y-45.086
X-168.754 Y-44.81
X-170.08 Y-44.599
X-171.414 Y-44.456
X-172.754 Y-44.378
X-174.096 Y-44.367
X-175.437 Y-44.421
X-176.774 Y-44.54
X-178.104 Y-44.722
X-179.423 Y-44.968
X-180.729 Y-45.279
X-182.018 Y-45.654
X-183.287 Y-46.092
X-184.533 Y-46.591
X-185.753 Y-47.148
X-186.946 Y-47.763
X-188.109 Y-48.434
X-189.238 Y-49.16
X-190.33 Y-49.94
X-191.383 Y-50.772
X-192.395 Y-51.654
X-193.363 Y-52.584
X-194.286 Y-53.558
X-195.162 Y-54.575
X-195.99 Y-55.631
X-196.767 Y-56.725
X-197.49 Y-57.856
X-198.158 Y-59.021
X-198.769 Y-60.215
X-199.323 Y-61.438
X-199.819 Y-62.685
X-200.256 Y-63.954
X-200.635 Y-65.242
X-200.952 Y-66.546
X-201.206 Y-67.864
X-201.397 Y-69.192
X-201.525 Y-70.528
X-201.59 Y-71.869
X-201.591 Y-73.211
X-201.531 Y-74.552
X-201.408 Y-75.888
X-201.222 Y-77.217
X-200.974 Y-78.536
X-200.662 Y-79.842
X-200.289 Y-81.131
X-199.855 Y-82.401
X-199.363 Y-83.65
X-198.813 Y-84.874
X-198.207 Y-86.072
X-197.546 Y-87.24
X-196.83 Y-88.375
X-196.061 Y-89.475
X-195.24 Y-90.537
X-194.371 Y-91.56
X-193.455 Y-92.541
X-192.495 Y-93.478
X-191.492 Y-94.371
X-190.449 Y-95.215
X-189.367 Y-96.01
X-188.249 Y-96.751
X-187.097 Y-97.44
X-185.913 Y-98.073
X-184.701 Y-98.65
X-183.464 Y-99.171
X-182.204 Y-99.633
X-180.924 Y-100.037
X-179.627 Y-100.379
X-178.314 Y-100.659
X-176.99 Y-100.877
X-175.656 Y-101.032
X-174.318 Y-101.125
X-172.976 Y-101.157
X-171.634 Y-101.126
X-170.295 Y-101.034
X-168.962 Y-100.879
X-167.637 Y-100.662
X-166.324 Y-100.384
X-165.026 Y-100.045
X-163.744 Y-99.647
X-162.482 Y-99.191
X-161.241 Y-98.679
X-160.025 Y-98.111
X-158.835 Y-97.489
X-157.676 Y-96.813
X-156.548 Y-96.086
X-155.454 Y-95.308
X-154.396 Y-94.483
X-153.375 Y-93.611
X-152.394 Y-92.695
X-151.454 Y-91.737
X-150.557 Y-90.739
X-149.706 Y-89.701
X-148.901 Y-88.627
X-148.145 Y-87.518
X-147.439 Y-86.377
X-146.784 Y-85.205
X-146.181 Y-84.006
X-145.63 Y-82.782
X-145.134 Y-81.535
X-144.693 Y-80.267
X-144.31 Y-78.981
X-143.984 Y-77.679
X-143.717 Y-76.364
X-143.508 Y-75.038
X-143.358 Y-73.704
X-143.266 Y-72.365
X-143.234 Y-71.024
X-143.26 Y-69.682
X-143.348 Y-68.342
X-143.495 Y-67.008
X-143.702 Y-65.682
X-143.969 Y-64.367
X-144.293 Y-63.065
X-144.675 Y-61.778
X-145.114 Y-60.509
X-145.607 Y-59.261
X-146.157 Y-58.037
X-146.761 Y-56.838
X-147.418 Y-55.668
X-148.127 Y-54.528
X-148.886 Y-53.422
X-149.694 Y-52.349
X-150.548 Y-51.314
X-151.446 Y-50.317
X-152.389 Y-49.361
X-153.373 Y-48.448
X-154.396 Y-47.581
X-155.458 Y-46.759
X-156.554 Y-45.985
X-157.684 Y-45.261
X-158.844 Y-44.586
X-160.033 Y-43.963
X-161.248 Y-43.392
X-162.487 Y-42.876
X-163.747 Y-42.415
X-165.027 Y-42.01
X-166.323 Y-41.662
X-167.633 Y-41.37
X-168.955 Y-41.136
X-170.285 Y-40.959
X-171.622 Y-40.839
X-172.963 Y-40.777
X-174.305 Y-40.775
X-175.646 Y-40.83
X-176.983 Y-40.944
X-178.314 Y-41.115
X-179.637 Y-41.343
X-180.949 Y-41.628
X-182.247 Y-41.969
X-183.529 Y-42.364
X-184.794 Y-42.814
X-186.038 Y-43.319
X-187.258 Y-43.876
X-188.455 Y-44.485
X-189.623 Y-45.144
X-190.763 Y-45.853
X-191.872 Y-46.609
X-192.948 Y-47.412
X-193.989 Y-48.259
X-194.993 Y-49.149
X-195.958 Y-50.082
X-196.883 Y-51.055
X-197.765 Y-52.066
X-198.604 Y-53.114
X-199.399 Y-54.196
X-200.147 Y-55.31
X-200.848 Y-56.455
X-201.5 Y-57.627
X-202.102 Y-58.827
X-202.653 Y-60.051
X-203.152 Y-61.297
X-203.598 Y-62.563
X-203.991 Y-63.846
X-204.33 Y-65.145
X-204.614 Y-66.457
X-204.844 Y-67.779
X-205.018 Y-69.11
X-205.136 Y-70.447
X-205.197 Y-71.787
X-205.202 Y-73.13
X-205.151 Y-74.471
X-205.045 Y-75.809
X-204.882 Y-77.141
X-204.664 Y-78.465
X-204.392 Y-79.779
X-204.064 Y-81.081
X-203.682 Y-82.368
X-203.246 Y-83.637
X-202.758 Y-84.887
X-202.217 Y-86.116
X-201.627 Y-87.321
X-200.986 Y-88.5
X-200.298 Y-89.652
X-199.562 Y-90.775
X-198.78 Y-91.866
X-197.953 Y-92.923
X-197.082 Y-93.944
X-196.169 Y-94.928
X-195.217 Y-95.874
X-194.226 Y-96.779
X-193.198 Y-97.642
X-192.136 Y-98.462
X-191.04 Y-99.238
X-189.913 Y-99.967
X-188.757 Y-100.648
X-187.572 Y-101.279
X-186.363 Y-101.861
X-185.13 Y-102.392
X-183.877 Y-102.871
X-182.604 Y-103.298
X-181.315 Y-103.672
X-180.012 Y-103.993
X-178.696 Y-104.259
X-177.371 Y-104.468
X-176.038 Y-104.623
X-174.699 Y-104.722
X-173.358 Y-104.765
X-172.015 Y-104.754
X-170.675 Y-104.687
X-169.338 Y-104.565
X-168.008 Y-104.389
X-166.686 Y-104.159
X-165.374 Y-103.873
X-164.076 Y-103.533
X-162.792 Y-103.141
X-161.526 Y-102.697
X-160.278 Y-102.202
X-159.051 Y-101.657
X-157.848 Y-101.064
X-156.668 Y-100.423
X-155.516 Y-99.735
X-154.392 Y-99.001
X-153.3 Y-98.221
X-152.239 Y-97.399
X-151.211 Y-96.536
X-150.219 Y-95.632
X-149.263 Y-94.69
X-148.344 Y-93.711
X-147.465 Y-92.697
X-146.627 Y-91.649
X-145.831 Y-90.569
X-145.078 Y-89.457
X-144.371 Y-88.317
X-143.709 Y-87.149
X-143.093 Y-85.956
X-142.525 Y-84.741
X-142.005 Y-83.503
X-141.534 Y-82.247
X-141.112 Y-80.972
X-140.741 Y-79.682
X-140.423 Y-78.379
X-140.157 Y-77.063
X-139.943 Y-75.738
X-139.781 Y-74.406
X-139.672 Y-73.068
X-139.616 Y-71.727
X-139.613 Y-70.385
X-139.662 Y-69.044
X-139.765 Y-67.705
X-139.922 Y-66.373
X-140.133 Y-65.047
X-140.396 Y-63.731
X-140.711 Y-62.426
X-141.078 Y-61.135
X-141.495 Y-59.86
X-141.962 Y-58.601
X-142.479 Y-57.363
X-143.045 Y-56.145
X-143.658 Y-54.952
X-144.32 Y-53.784
X-145.028 Y-52.644
X-145.781 Y-51.533
X-146.577 Y-50.452
X-147.415 Y-49.404
X-148.294 Y-48.389
X-149.211 Y-47.41
X-150.167 Y-46.468
X-151.16 Y-45.564
X-152.188 Y-44.701
X-153.25 Y-43.88
X-154.343 Y-43.102
X-155.466 Y-42.367
X-156.617 Y-41.677
X-157.794 Y-41.032
X-158.996 Y-40.434
X-160.22 Y-39.883
X-161.464 Y-39.38
X-162.728 Y-38.928
X-164.008 Y-38.525
X-165.303 Y-38.174
X-166.611 Y-37.873
X-167.93 Y-37.623
X-169.257 Y-37.425
X-170.591 Y-37.278
X-171.93 Y-37.182
X-173.272 Y-37.138
X-174.614 Y-37.147
X-175.955 Y-37.208
X-177.292 Y-37.321
X-178.624 Y-37.487
X-179.948 Y-37.703
X-181.264 Y-37.97
X-182.568 Y-38.287
X-183.859 Y-38.654
X-185.135 Y-39.069
X-186.395 Y-39.533
X-187.635 Y-40.046
X-188.855 Y-40.606
X-190.052 Y-41.213
X-191.225 Y-41.866
X-192.372 Y-42.562
X-193.492 Y-43.302
X-194.583 Y-44.083
X-195.644 Y-44.905
X-196.673 Y-45.767
X-197.669 Y-46.667
X-198.629 Y-47.605
X-199.552 Y-48.579
X-200.438 Y-49.587
X-201.285 Y-50.628
X-202.092 Y-51.701
X-202.858 Y-52.803
X-203.582 Y-53.933
X-204.263 Y-55.089
X-204.901 Y-56.27
X-205.493 Y-57.475
X-206.039 Y-58.701
X-206.537 Y-59.947
X-206.988 Y-61.211
X-207.392 Y-62.491
X-207.747 Y-63.786
X-208.054 Y-65.092
X-208.311 Y-66.409
X-208.519 Y-67.735
X-208.678 Y-69.068
X-208.786 Y-70.406
X-208.843 Y-71.747
X-208.849 Y-73.089
X-208.804 Y-74.43
X-208.709 Y-75.769
X-208.564 Y-77.103
X-208.37 Y-78.431
X-208.126 Y-79.751
X-207.833 Y-81.061
X-207.492 Y-82.359
X-207.101 Y-83.643
X-206.662 Y-84.911
X-206.175 Y-86.162
X-205.642 Y-87.394
X-205.063 Y-88.605
X-204.44 Y-89.793
X-203.772 Y-90.958
X-203.062 Y-92.097
X-202.31 Y-93.208
X-201.517 Y-94.291
X-200.684 Y-95.343
X-199.811 Y-96.363
X-198.901 Y-97.349
X-197.954 Y-98.3
X-196.972 Y-99.216
X-195.958 Y-100.094
X-194.911 Y-100.934
X-193.834 Y-101.735
X-192.728 Y-102.495
X-191.594 Y-103.213
X-190.433 Y-103.888
X-189.248 Y-104.518
X-188.04 Y-105.103
X-186.811 Y-105.643
X-185.563 Y-106.136
X-184.298 Y-106.583
X-183.016 Y-106.982
X-181.721 Y-107.334
X-180.414 Y-107.637
X-179.096 Y-107.891
X-177.769 Y-108.095
X-176.436 Y-108.249
X-175.098 Y-108.353
X-173.757 Y-108.407
X-172.414 Y-108.411
X-171.073 Y-108.366
X-169.734 Y-108.272
X-168.4 Y-108.128
X-167.072 Y-107.935
X-165.751 Y-107.694
X-164.441 Y-107.403
X-163.143 Y-107.063
X-161.857 Y-106.676
X-160.587 Y-106.243
X-159.334 Y-105.763
X-158.098 Y-105.238
X-156.883 Y-104.669
X-155.689 Y-104.057
X-154.517 Y-103.401
X-153.37 Y-102.704
X-152.25 Y-101.965
X-151.157 Y-101.186
X-150.093 Y-100.368
X-149.059 Y-99.512
X-148.057 Y-98.62
X-147.087 Y-97.692
X-146.15 Y-96.731
X-145.248 Y-95.737
X-144.382 Y-94.712
X-143.553 Y-93.656
X-142.763 Y-92.571
X-142.012 Y-91.459
X-141.302 Y-90.32
X-140.633 Y-89.156
X-140.006 Y-87.97
X-139.421 Y-86.761
X-138.88 Y-85.534
X-138.382 Y-84.287
X-137.928 Y-83.024
X-137.52 Y-81.745
X-137.158 Y-80.453
X-136.843 Y-79.148
X-136.575 Y-77.833
X-136.355 Y-76.509
X-136.182 Y-75.178
X-136.056 Y-73.842
X-135.978 Y-72.502
X-135.948 Y-71.16
X-135.965 Y-69.818
X-136.03 Y-68.478
X-136.144 Y-67.14
X-136.306 Y-65.808
X-136.516 Y-64.482
X-136.774 Y-63.165
X-137.079 Y-61.858
X-137.43 Y-60.563
X-137.827 Y-59.281
X-138.27 Y-58.014
X-138.757 Y-56.763
X-139.289 Y-55.531
X-139.865 Y-54.319
X-140.485 Y-53.128
X-141.147 Y-51.961
X-141.851 Y-50.818
X-142.596 Y-49.702
X-143.38 Y-48.612
X-144.202 Y-47.551
X-145.062 Y-46.52
X-145.957 Y-45.521
X-146.887 Y-44.553
X-147.852 Y-43.62
X-148.849 Y-42.722
X-149.879 Y-41.861
X-150.938 Y-41.037
X-152.027 Y-40.252
X-153.143 Y-39.506
X-154.284 Y-38.8
X-155.449 Y-38.134
X-156.638 Y-37.51
X-157.847 Y-36.928
X-159.076 Y-36.389
X-160.324 Y-35.895
X-161.589 Y-35.446
X-162.869 Y-35.042
X-164.162 Y-34.684
X-165.468 Y-34.371
X-166.783 Y-34.105
X-168.107 Y-33.885
X-169.438 Y-33.711
X-170.774 Y-33.584
X-172.114 Y-33.503
X-173.456 Y-33.469
X-174.798 Y-33.484
X-176.138 Y-33.545
X-177.476 Y-33.654
X-178.809 Y-33.81
X-180.136 Y-34.012
X-181.455 Y-34.26
X-182.765 Y-34.553
X-184.064 Y-34.892
X-185.35 Y-35.275
X-186.622 Y-35.702
X-187.879 Y-36.173
X-189.118 Y-36.689
X-190.338 Y-37.248
X-191.538 Y-37.849
X-192.717 Y-38.491
X-193.873 Y-39.173
X-195.005 Y-39.895
X-196.111 Y-40.654
X-197.191 Y-41.452
X-198.243 Y-42.285
X-199.265 Y-43.155
X-200.257 Y-44.059
X-201.216 Y-44.998
X-202.142 Y-45.969
X-203.034 Y-46.972
X-203.891 Y-48.005
X-204.713 Y-49.066
X-205.498 Y-50.155
X-206.245 Y-51.27
X-206.955 Y-52.409
X-207.625 Y-53.572
X-208.255 Y-54.757
X-208.843 Y-55.963
X-209.389 Y-57.19
X-209.892 Y-58.434
X-210.353 Y-59.694
X-210.771 Y-60.97
X-211.145 Y-62.259
X-211.475 Y-63.56
X-211.761 Y-64.871
X-212.003 Y-66.191
X-212.2 Y-67.519
X-212.351 Y-68.852
X-212.455 Y-70.19
X-212.514 Y-71.531
X-212.526 Y-72.873
X-212.493 Y-74.215
X-212.414 Y-75.555
X-212.29 Y-76.891
X-212.121 Y-78.223
X-211.908 Y-79.548
X-211.649 Y-80.865
X-211.346 Y-82.173
X-210.999 Y-83.469
X-210.606 Y-84.752
X-210.17 Y-86.022
X-209.691 Y-87.275
X-209.169 Y-88.512
X-208.606 Y-89.73
X-208.002 Y-90.929
X-207.358 Y-92.106
X-206.675 Y-93.262
X-205.953 Y-94.393
X-205.194 Y-95.5
X-204.397 Y-96.58
X-203.563 Y-97.631
X-202.693 Y-98.654
X-201.789 Y-99.646
X-200.852 Y-100.607
X-199.884 Y-101.536
X-198.884 Y-102.432
X-197.855 Y-103.293
X-196.798 Y-104.12
X-195.713 Y-104.911
X-194.602 Y-105.664
X-193.466 Y-106.378
X-192.306 Y-107.053
X-191.124 Y-107.688
X-189.92 Y-108.282
X-188.697 Y-108.836
X-187.457 Y-109.347
X-186.199 Y-109.817
X-184.927 Y-110.244
X-183.641 Y-110.628
X-182.343 Y-110.969
X-181.034 Y-111.265
X-179.715 Y-111.516
X-178.389 Y-111.722
X-177.056 Y-111.882
X-175.719 Y-111.997
X-174.379 Y-112.067
X-173.037 Y-112.093
X-171.695 Y-112.073
X-170.354 Y-112.009
X-169.017 Y-111.9
X-167.683 Y-111.747
X-166.356 Y-111.548
X-165.036 Y-111.304
X-163.725 Y-111.016
X-162.425 Y-110.684
X-161.136 Y-110.308
X-159.861 Y-109.89
X-158.6 Y-109.431
X-157.355 Y-108.93
X-156.127 Y-108.388
X-154.917 Y-107.807
X-153.727 Y-107.186
X-152.558 Y-106.526
X-151.413 Y-105.827
X-150.291 Y-105.09
X-149.194 Y-104.317
X-148.123 Y-103.508
X-147.079 Y-102.665
X-146.062 Y-101.788
X-145.075 Y-100.879
X-144.118 Y-99.938
X-143.191 Y-98.967
X-142.297 Y-97.966
X-141.435 Y-96.937
X-140.609 Y-95.88
X-139.817 Y-94.796
X-139.062 Y-93.687
X-138.343 Y-92.553
X-137.661 Y-91.397
X-137.016 Y-90.22
X-136.41 Y-89.022
X-135.843 Y-87.806
X-135.315 Y-86.572
X-134.828 Y-85.321
X-134.381 Y-84.056
X-133.976 Y-82.776
X-133.614 Y-81.484
X-133.294 Y-80.18
X-133.017 Y-78.867
X-132.783 Y-77.545
X-132.592 Y-76.217
X-132.443 Y-74.883
X-132.338 Y-73.545
X-132.276 Y-72.204
X-132.257 Y-70.862
X-132.282 Y-69.52
X-132.352 Y-68.18
X-132.466 Y-66.843
X-132.624 Y-65.51
X-132.825 Y-64.183
X-133.07 Y-62.863
X-133.358 Y-61.552
X-133.687 Y-60.251
X-134.059 Y-58.962
X-134.472 Y-57.685
X-134.927 Y-56.422
X-135.422 Y-55.174
X-135.958 Y-53.944
X-136.535 Y-52.732
X-137.151 Y-51.54
X-137.806 Y-50.368
X-138.5 Y-49.219
X-139.23 Y-48.093
X-139.996 Y-46.991
X-140.797 Y-45.914
X-141.633 Y-44.864
X-142.502 Y-43.841
X-143.404 Y-42.847
X-144.338 Y-41.884
X-145.303 Y-40.951
X-146.299 Y-40.051
X-147.324 Y-39.184
X-148.376 Y-38.351
X-149.455 Y-37.552
X-150.558 Y-36.789
X-151.686 Y-36.061
X-152.837 Y-35.37
X-154.009 Y-34.716
X-155.201 Y-34.1
X-156.413 Y-33.523
X-157.643 Y-32.987
X-158.89 Y-32.491
X-160.153 Y-32.035
X-161.43 Y-31.621
X-162.719 Y-31.248
X-164.02 Y-30.917
X-165.33 Y-30.627
X-166.649 Y-30.379
X-167.975 Y-30.173
X-169.307 Y-30.009
X-170.644 Y-29.888
X-171.984 Y-29.81
X-173.326 Y-29.776
X-174.668 Y-29.785
X-176.009 Y-29.838
X-177.348 Y-29.933
X-178.683 Y-30.071
X-180.013 Y-30.251
X-181.336 Y-30.473
X-182.653 Y-30.736
X-183.96 Y-31.041
X-185.257 Y-31.386
X-186.542 Y-31.773
X-187.814 Y-32.201
X-189.071 Y-32.67
X-190.313 Y-33.179
X-191.538 Y-33.727
X-192.746 Y-34.314
X-193.934 Y-34.938
X-195.102 Y-35.599
X-196.249 Y-36.296
X-197.373 Y-37.029
X-198.474 Y-37.797
X-199.551 Y-38.598
X-200.601 Y-39.434
X-201.624 Y-40.303
X-202.619 Y-41.204
X-203.584 Y-42.136
X-204.52 Y-43.098
X-205.426 Y-44.089
X-206.3 Y-45.107
X-207.142 Y-46.152
X-207.951 Y-47.223
X-208.727 Y-48.318
X-209.468 Y-49.437
X-210.174 Y-50.579
X-210.843 Y-51.742
X-211.475 Y-52.926
X-212.069 Y-54.13
X-212.625 Y-55.351
X-213.143 Y-56.59
X-213.622 Y-57.843
X-214.062 Y-59.111
X-214.462 Y-60.392
X-214.823 Y-61.685
X-215.144 Y-62.988
X-215.424 Y-64.301
X-215.662 Y-65.622
X-215.859 Y-66.949
X-216.014 Y-68.283
X-216.127 Y-69.62
X-216.198 Y-70.96
X-216.227 Y-72.302
X-216.214 Y-73.644
X-216.161 Y-74.985
X-216.065 Y-76.324
X-215.929 Y-77.659
X-215.752 Y-78.99
X-215.533 Y-80.314
X-215.273 Y-81.631
X-214.971 Y-82.938
X-214.629 Y-84.236
X-214.245 Y-85.522
X-213.822 Y-86.796
X-213.36 Y-88.056
X-212.859 Y-89.301
X-212.32 Y-90.53
X-211.743 Y-91.742
X-211.13 Y-92.936
X-210.48 Y-94.11
X-209.793 Y-95.264
X-209.071 Y-96.395
X-208.313 Y-97.503
X-207.521 Y-98.586
X-206.696 Y-99.645
X-205.838 Y-100.677
X-204.949 Y-101.682
X-204.029 Y-102.659
X-203.079 Y-103.608
X-202.101 Y-104.527
X-201.095 Y-105.416
X-200.063 Y-106.273
X-199.004 Y-107.097
X-197.919 Y-107.888
X-196.81 Y-108.644
X-195.678 Y-109.365
X-194.524 Y-110.051
X-193.35 Y-110.7
X-192.156 Y-111.313
X-190.943 Y-111.889
X-189.714 Y-112.427
X-188.468 Y-112.927
X-187.208 Y-113.389
X-185.934 Y-113.812
X-184.648 Y-114.194
X-183.35 Y-114.536
X-182.042 Y-114.837
X-180.725 Y-115.097
X-179.401 Y-115.316
X-178.071 Y-115.494
X-176.736 Y-115.631
X-175.397 Y-115.728
X-174.056 Y-115.783
X-172.714 Y-115.797
X-171.372 Y-115.771
X-170.031 Y-115.703
X-168.694 Y-115.593
X-167.36 Y-115.442
X-166.032 Y-115.249
X-164.71 Y-115.016
X-163.396 Y-114.742
X-162.091 Y-114.428
X-160.797 Y-114.074
X-159.513 Y-113.682
X-158.242 Y-113.251
X-156.985 Y-112.782
X-155.742 Y-112.276
X-154.515 Y-111.731
X-153.305 Y-111.15
X-152.114 Y-110.531
X-150.942 Y-109.877
X-149.791 Y-109.187
X-148.661 Y-108.463
X-147.553 Y-107.705
X-146.469 Y-106.914
X-145.408 Y-106.092
X-144.373 Y-105.238
X-143.363 Y-104.354
X-142.38 Y-103.44
X-141.424 Y-102.497
X-140.498 Y-101.526
X-139.602 Y-100.527
X-138.736 Y-99.502
X-137.901 Y-98.451
X-137.098 Y-97.375
X-136.328 Y-96.276
X-135.591 Y-95.154
X-134.887 Y-94.012
X-134.217 Y-92.849
X-133.582 Y-91.666
X-132.981 Y-90.466
X-132.417 Y-89.248
X-131.89 Y-88.014
X-131.4 Y-86.764
X-130.949 Y-85.5
X-130.535 Y-84.223
X-130.16 Y-82.935
X-129.823 Y-81.635
X-129.526 Y-80.327
X-129.267 Y-79.01
X-129.047 Y-77.686
X-128.867 Y-76.356
X-128.725 Y-75.021
X-128.624 Y-73.683
X-128.563 Y-72.342
X-128.542 Y-71
X-128.563 Y-69.658
X-128.624 Y-68.317
X-128.725 Y-66.979
X-128.866 Y-65.644
X-129.046 Y-64.314
X-129.267 Y-62.99
X-129.526 Y-61.673
X-129.824 Y-60.365
X-130.161 Y-59.066
X-130.537 Y-57.777
X-130.951 Y-56.5
X-131.404 Y-55.237
X-131.895 Y-53.988
X-132.423 Y-52.754
X-132.988 Y-51.537
X-133.59 Y-50.337
X-134.227 Y-49.156
X-134.899 Y-47.994
X-135.605 Y-46.852
X-136.344 Y-45.732
X-137.117 Y-44.635
X-137.921 Y-43.56
X-138.758 Y-42.511
X-139.626 Y-41.487
X-140.524 Y-40.49
X-141.452 Y-39.521
X-142.409 Y-38.579
X-143.394 Y-37.667
X-144.405 Y-36.785
X-145.442 Y-35.933
X-146.504 Y-35.112
X-147.589 Y-34.322
X-148.697 Y-33.565
X-149.827 Y-32.841
X-150.979 Y-32.151
X-152.15 Y-31.496
X-153.341 Y-30.876
X-154.549 Y-30.293
X-155.775 Y-29.745
X-157.016 Y-29.234
X-158.272 Y-28.761
X-159.541 Y-28.324
X-160.822 Y-27.925
X-162.115 Y-27.564
X-163.417 Y-27.24
X-164.729 Y-26.955
X-166.048 Y-26.708
X-167.374 Y-26.501
X-168.706 Y-26.334
X-170.042 Y-26.206
X-171.381 Y-26.118
X-172.722 Y-26.069
X-174.065 Y-26.06
X-175.406 Y-26.09
X-176.747 Y-26.16
X-178.085 Y-26.268
X-179.419 Y-26.415
X-180.748 Y-26.6
X-182.071 Y-26.824
X-183.387 Y-27.087
X-184.695 Y-27.389
X-185.993 Y-27.729
X-187.281 Y-28.108
X-188.557 Y-28.524
X-189.821 Y-28.977
X-191.07 Y-29.466
X-192.305 Y-29.992
X-193.525 Y-30.553
X-194.727 Y-31.149
X-195.912 Y-31.779
X-197.079 Y-32.443
X-198.225 Y-33.141
X-199.351 Y-33.872
X-200.454 Y-34.636
X-201.535 Y-35.431
X-202.592 Y-36.258
X-203.625 Y-37.116
X-204.632 Y-38.002
X-205.614 Y-38.918
X-206.569 Y-39.861
X-207.496 Y-40.832
X-208.395 Y-41.828
X-209.265 Y-42.85
X-210.106 Y-43.896
X-210.916 Y-44.966
X-211.694 Y-46.06
X-212.44 Y-47.175
X-213.154 Y-48.312
X-213.834 Y-49.469
X-214.481 Y-50.645
X-215.094 Y-51.839
X-215.672 Y-53.05
X-216.215 Y-54.278
X-216.723 Y-55.52
X-217.196 Y-56.776
X-217.633 Y-58.045
X-218.033 Y-59.326
X-218.395 Y-60.619
X-218.72 Y-61.921
X-219.008 Y-63.232
X-219.257 Y-64.551
X-219.468 Y-65.876
X-219.622 Y-67.063
X-219.638 Y-67.204
X-219.647 Y-67.346
X-219.65 Y-67.488
Y-74.595
X-219.583 Y-75.936
X-219.528 Y-77.277
X-219.419 Y-78.615
X-219.262 Y-79.947
X-219.058 Y-81.274
X-218.81 Y-82.593
X-218.519 Y-83.903
X-218.187 Y-85.204
X-217.815 Y-86.493
X-217.404 Y-87.771
X-216.955 Y-89.036
X-216.469 Y-90.287
X-215.947 Y-91.523
X-215.39 Y-92.744
X-214.797 Y-93.949
X-214.17 Y-95.135
X-213.509 Y-96.303
X-212.815 Y-97.452
X-212.088 Y-98.58
X-211.329 Y-99.687
X-210.538 Y-100.771
X-209.716 Y-101.832
X-208.864 Y-102.869
X-207.982 Y-103.881
X-207.073 Y-104.868
X-206.135 Y-105.829
X-205.171 Y-106.762
X-204.18 Y-107.668
X-203.164 Y-108.545
X-202.124 Y-109.393
X-201.06 Y-110.211
X-199.972 Y-110.997
X-198.863 Y-111.753
X-197.732 Y-112.475
X-196.581 Y-113.165
X-195.41 Y-113.822
X-194.221 Y-114.445
X-193.015 Y-115.034
X-191.793 Y-115.589
X-190.556 Y-116.109
X-189.304 Y-116.594
X-188.039 Y-117.042
X-186.762 Y-117.455
X-185.474 Y-117.83
X-184.175 Y-118.169
X-182.867 Y-118.47
X-181.551 Y-118.734
X-180.228 Y-118.959
X-179.106 Y-119.118
X-178.953 Y-119.136
X-178.799 Y-119.146
X-178.644 Y-119.15
X-170.704
X-169.364 Y-119.083
X-168.023 Y-119.036
X-166.684 Y-118.933
X-165.351 Y-118.779
X-164.024 Y-118.576
X-162.705 Y-118.328
X-161.395 Y-118.037
X-160.095 Y-117.706
X-158.805 Y-117.334
X-157.527 Y-116.924
X-156.261 Y-116.477
X-155.009 Y-115.993
X-153.772 Y-115.474
X-152.55 Y-114.919
X-151.344 Y-114.329
X-150.155 Y-113.706
X-148.985 Y-113.05
X-147.833 Y-112.361
X-146.701 Y-111.639
X-145.59 Y-110.886
X-144.501 Y-110.102
X-143.433 Y-109.289
X-142.389 Y-108.446
X-141.368 Y-107.575
X-140.371 Y-106.676
X-139.4 Y-105.749
X-138.455 Y-104.797
X-137.536 Y-103.818
X-136.645 Y-102.814
X-135.782 Y-101.787
X-134.947 Y-100.735
X-134.143 Y-99.661
X-133.368 Y-98.565
X-132.624 Y-97.448
X-131.911 Y-96.311
X-131.229 Y-95.155
X-130.579 Y-93.981
X-129.962 Y-92.789
X-129.378 Y-91.581
X-128.827 Y-90.357
X-128.31 Y-89.118
X-127.827 Y-87.866
X-127.379 Y-86.601
X-126.966 Y-85.324
X-126.589 Y-84.035
X-126.248 Y-82.737
X-125.942 Y-81.43
X-125.673 Y-80.116
X-125.44 Y-78.794
X-125.243 Y-77.466
X-125.083 Y-76.134
X-124.959 Y-74.797
X-124.873 Y-73.458
X-124.823 Y-72.117
X-124.81 Y-70.775
X-124.835 Y-69.433
X-124.896 Y-68.092
X-124.995 Y-66.753
X-125.132 Y-65.418
X-125.305 Y-64.087
X-125.514 Y-62.762
X-125.76 Y-61.442
X-126.043 Y-60.13
X-126.361 Y-58.826
X-126.715 Y-57.532
X-127.105 Y-56.247
X-127.53 Y-54.974
X-127.99 Y-53.713
X-128.484 Y-52.466
X-129.013 Y-51.232
X-129.577 Y-50.014
X-130.174 Y-48.812
X-130.804 Y-47.627
X-131.467 Y-46.46
X-132.161 Y-45.311
X-132.887 Y-44.182
X-133.643 Y-43.073
X-134.43 Y-41.986
X-135.246 Y-40.921
X-136.092 Y-39.878
X-136.965 Y-38.859
X-137.867 Y-37.865
X-138.796 Y-36.896
X-139.751 Y-35.954
X-140.732 Y-35.038
X-141.739 Y-34.15
X-142.769 Y-33.289
X-143.822 Y-32.458
X-144.898 Y-31.655
X-145.995 Y-30.882
X-147.113 Y-30.139
X-148.251 Y-29.427
X-149.408 Y-28.747
X-150.583 Y-28.099
X-151.775 Y-27.483
X-152.984 Y-26.9
X-154.209 Y-26.351
X-154.808 Y-26.103
X-155.218 Y-25.963
X-155.642 Y-25.878
X-156.074 Y-25.85
X-187.46
X-188.8 Y-25.917
X-189.468 Y-25.988
X-190.609 Y-26.16
X-191.92 Y-26.447
X-193.21 Y-26.819
X-194.477 Y-27.261
X-195.721 Y-27.764
X-196.944 Y-28.319
X-198.143 Y-28.92
X-199.321 Y-29.564
X-200.476 Y-30.248
X-201.609 Y-30.968
X-202.719 Y-31.722
X-203.806 Y-32.509
X-204.87 Y-33.328
X-205.909 Y-34.177
X-206.924 Y-35.055
X-207.915 Y-35.96
X-208.88 Y-36.893
X-209.82 Y-37.851
X-210.733 Y-38.835
X-211.619 Y-39.842
X-212.479 Y-40.874
X-213.31 Y-41.928
X-214.112 Y-43.003
X-214.886 Y-44.1
X-215.629 Y-45.217
X-216.343 Y-46.354
X-217.025 Y-47.51
X-217.677 Y-48.683
X-218.296 Y-49.874
X-218.884 Y-51.081
X-219.354 Y-52.115
X-219.517 Y-52.555
X-219.617 Y-53.013
X-219.65 Y-53.481
Y-67.488
G3 X-217.372 Y-68.216 I1.269 J0.044
G1 X-186.496 Y-27.891
G3 X-187.46 Y-25.85 I-1.008 J0.772
G1 X-195.838
X-196.664 Y-25.891
X-197.409 Y-25.978
X-198.251 Y-26.134
X-199.229 Y-26.383
X-200.355 Y-26.75
X-201.6 Y-27.25
X-202.811 Y-27.829
X-203.989 Y-28.473
X-205.135 Y-29.171
X-206.251 Y-29.917
X-207.338 Y-30.704
X-208.398 Y-31.528
X-209.43 Y-32.386
X-210.435 Y-33.275
X-211.414 Y-34.194
X-212.366 Y-35.14
X-213.291 Y-36.112
X-214.19 Y-37.109
X-215.062 Y-38.129
X-215.908 Y-39.171
X-216.726 Y-40.235
X-217.517 Y-41.319
X-218.28 Y-42.423
X-219.015 Y-43.546
X-219.156 Y-43.774
X-219.369 Y-44.179
X-219.524 Y-44.608
X-219.618 Y-45.056
X-219.65 Y-45.511
Y-53.481
G3 X-219.536 Y-53.963 I1.269 J0.044
X-217.415 Y-54.262 I1.156 J0.527
G1 X-194.917 Y-27.944
G3 X-195.838 Y-25.85 I-0.965 J0.825
G1 X-202.311
X-203.05 Y-25.887
X-203.674 Y-25.96
X-204.355 Y-26.086
X-205.147 Y-26.287
X-206.054 Y-26.583
X-207.064 Y-26.989
X-208.218 Y-27.544
X-209.387 Y-28.204
X-210.514 Y-28.933
X-211.604 Y-29.716
X-212.657 Y-30.547
X-213.678 Y-31.419
X-214.666 Y-32.327
X-215.624 Y-33.267
X-216.553 Y-34.236
X-217.453 Y-35.232
X-218.325 Y-36.252
X-218.915 Y-36.981
X-219.173 Y-37.348
X-219.379 Y-37.747
X-219.529 Y-38.17
X-219.619 Y-38.609
X-219.65 Y-39.057
Y-45.511
G3 X-219.536 Y-45.994 I1.269 J0.044
X-217.424 Y-46.302 I1.156 J0.527
G1 X-201.399 Y-27.955
G3 X-202.311 Y-25.85 I-0.957 J0.835
G1 X-208.023
X-208.727 Y-25.885
X-209.284 Y-25.95
X-209.883 Y-26.061
X-210.58 Y-26.238
X-211.356 Y-26.492
X-212.221 Y-26.839
X-213.204 Y-27.312
X-214.311 Y-27.938
X-215.433 Y-28.674
X-216.51 Y-29.476
X-217.544 Y-30.332
X-218.539 Y-31.232
X-218.674 Y-31.365
X-218.961 Y-31.691
X-219.203 Y-32.051
X-219.396 Y-32.439
X-219.536 Y-32.85
X-219.621 Y-33.276
X-219.65 Y-33.709
Y-39.057
G3 X-219.536 Y-39.539 I1.269 J0.044
X-217.421 Y-39.845 I1.156 J0.527
G1 X-207.108 Y-27.951
G3 X-208.023 Y-25.85 I-0.96 J0.832
G1 X-213.355
X-213.966 Y-25.881
X-214.471 Y-25.94
X-215.03 Y-26.043
X-215.663 Y-26.204
X-216.372 Y-26.435
X-217.104 Y-26.729
X-217.769 Y-27.049
X-217.987 Y-27.173
X-218.397 Y-27.447
X-218.762 Y-27.78
X-219.072 Y-28.164
X-219.32 Y-28.591
X-219.502 Y-29.05
X-219.613 Y-29.531
X-219.65 Y-30.023
G3 X-219.536 Y-30.505 I1.269 J0.044
X-217.749 Y-31.08 I1.156 J0.527
G1 X-212.767 Y-28.221
G3 X-213.355 Y-25.85 I-0.632 J1.101
G1 X-217.659
X-217.911 Y-25.863
X-218.26 Y-25.936
X-218.591 Y-26.072
X-218.891 Y-26.265
X-219.152 Y-26.509
X-219.364 Y-26.796
X-219.521 Y-27.117
X-219.618 Y-27.461
X-219.65 Y-27.817
G3 X-219.09 Y-29.115 I1.942 J0.068
X-216.284 Y-26.502 I1.365 J1.348
X-217.659 Y-25.85 I-1.442 J-1.266
G1 X-217.924
X-218.305 Y-25.864
X-218.495 Y-25.883
X-218.686 Y-25.922
X-218.876 Y-25.993
X-219.067 Y-26.103
X-219.203 Y-26.213
X-219.343 Y-26.362
X-219.447 Y-26.512
X-219.493 Y-26.594
X-219.569 Y-26.785
X-219.613 Y-26.975
X-219.645 Y-27.356
X-219.65 Y-27.737
Y-33.709
G3 X-219.536 Y-34.191 I1.269 J0.044
G1 X-219.477 Y-34.32 Z16.008
X-219.419 Y-34.448 Z16.032
X-219.362 Y-34.573 Z16.071
X-219.308 Y-34.692 Z16.126
X-219.256 Y-34.806 Z16.195
X-219.208 Y-34.911 Z16.277
X-219.164 Y-35.008 Z16.372
X-219.125 Y-35.094 Z16.478
X-219.09 Y-35.169 Z16.594
X-219.062 Y-35.232 Z16.719
X-219.039 Y-35.282 Z16.851
X-219.023 Y-35.318 Z16.987
X-219.013 Y-35.339 Z17.128
X-219.01 Y-35.347 Z17.27
G0 Z27
X-172.274 Y-118.36
Z18.54
G1 Z17.27 F850
X-172.268 Y-118.364 Z17.128
X-172.247 Y-118.377 Z16.987
X-172.213 Y-118.397 Z16.851
X-172.166 Y-118.425 Z16.719
X-172.107 Y-118.46 Z16.594
X-172.036 Y-118.502 Z16.478
X-171.955 Y-118.551 Z16.372
X-171.863 Y-118.605 Z16.277
X-171.764 Y-118.664 Z16.195
X-171.657 Y-118.728 Z16.126
X-171.543 Y-118.795 Z16.071
X-171.426 Y-118.865 Z16.032
X-171.305 Y-118.937 Z16.008
X-171.183 Y-119.009 Z16
G3 X-170.704 Y-119.15 I0.514 J0.864
G1 X-157.376
X-156.136 Y-119.088
X-155.144 Y-118.972
X-153.979 Y-118.757
X-152.678 Y-118.426
X-151.401 Y-118.013
X-150.148 Y-117.533
X-148.918 Y-116.995
X-147.712 Y-116.406
X-146.528 Y-115.773
X-145.368 Y-115.099
X-144.229 Y-114.388
X-143.113 Y-113.643
X-142.02 Y-112.864
X-140.949 Y-112.055
X-139.901 Y-111.217
X-138.877 Y-110.35
X-137.876 Y-109.455
X-136.9 Y-108.534
X-135.948 Y-107.587
X-135.022 Y-106.616
X-134.122 Y-105.621
X-133.248 Y-104.602
X-132.4 Y-103.561
X-131.58 Y-102.499
X-130.787 Y-101.416
X-130.023 Y-100.313
X-129.286 Y-99.191
X-128.579 Y-98.05
X-127.9 Y-96.892
X-127.252 Y-95.717
X-126.634 Y-94.526
X-126.047 Y-93.319
X-125.491 Y-92.097
X-124.967 Y-90.862
X-124.474 Y-89.613
X-124.014 Y-88.352
X-123.587 Y-87.08
X-123.192 Y-85.797
X-122.829 Y-84.505
X-122.5 Y-83.204
X-122.204 Y-81.895
X-121.942 Y-80.578
X-121.713 Y-79.256
X-121.518 Y-77.928
X-121.357 Y-76.596
X-121.23 Y-75.259
X-121.138 Y-73.92
X-121.081 Y-72.58
X-121.058 Y-71.238
X-121.069 Y-69.895
X-121.115 Y-68.554
X-121.196 Y-67.214
X-121.31 Y-65.877
X-121.459 Y-64.543
X-121.642 Y-63.214
X-121.858 Y-61.889
X-122.108 Y-60.57
X-122.392 Y-59.258
X-122.709 Y-57.954
X-123.06 Y-56.659
X-123.445 Y-55.373
X-123.862 Y-54.097
X-124.312 Y-52.833
X-124.795 Y-51.581
X-125.309 Y-50.341
X-125.856 Y-49.115
X-126.433 Y-47.903
X-127.041 Y-46.707
X-127.68 Y-45.526
X-128.348 Y-44.362
X-129.045 Y-43.216
X-129.772 Y-42.087
X-130.528 Y-40.978
X-131.312 Y-39.889
X-132.124 Y-38.82
X-132.963 Y-37.772
X-133.828 Y-36.747
X-134.72 Y-35.744
X-135.637 Y-34.764
X-136.579 Y-33.808
X-137.545 Y-32.876
X-138.535 Y-31.969
X-139.547 Y-31.088
X-140.581 Y-30.232
X-141.637 Y-29.403
X-142.713 Y-28.602
X-143.81 Y-27.828
X-144.926 Y-27.082
X-146.06 Y-26.366
X-146.145 Y-26.316
X-146.54 Y-26.115
X-146.958 Y-25.969
X-147.392 Y-25.88
X-147.835 Y-25.85
X-156.074
G3 X-156.557 Y-25.964 I0.044 J-1.269
G1 X-156.686 Y-26.023 Z16.008
X-156.814 Y-26.081 Z16.032
X-156.938 Y-26.138 Z16.071
X-157.058 Y-26.192 Z16.126
X-157.171 Y-26.244 Z16.195
X-157.277 Y-26.292 Z16.277
X-157.374 Y-26.336 Z16.372
X-157.46 Y-26.375 Z16.478
X-157.535 Y-26.41 Z16.594
X-157.598 Y-26.438 Z16.719
X-157.647 Y-26.461 Z16.851
X-157.683 Y-26.477 Z16.987
X-157.705 Y-26.487 Z17.128
X-157.712 Y-26.49 Z17.27
G0 Z27
X-218.86 Y-73.025
Z18.54
G1 Z17.27 F850
X-218.864 Y-73.032 Z17.128
X-218.877 Y-73.053 Z16.987
X-218.897 Y-73.086 Z16.851
X-218.925 Y-73.133 Z16.719
X-218.96 Y-73.192 Z16.594
X-219.002 Y-73.263 Z16.478
X-219.051 Y-73.345 Z16.372
X-219.105 Y-73.436 Z16.277
X-219.164 Y-73.536 Z16.195
X-219.228 Y-73.643 Z16.126
X-219.295 Y-73.756 Z16.071
X-219.365 Y-73.874 Z16.032
X-219.437 Y-73.995 Z16.008
X-219.509 Y-74.117 Z16
G3 X-219.65 Y-74.595 I0.864 J-0.514
G1 Y-87.929
X-219.592 Y-89.085
X-219.476 Y-90.077
X-219.262 Y-91.238
X-218.931 Y-92.538
X-218.518 Y-93.815
X-218.036 Y-95.068
X-217.497 Y-96.297
X-216.906 Y-97.502
X-216.27 Y-98.684
X-215.593 Y-99.843
X-214.878 Y-100.979
X-214.127 Y-102.091
X-213.343 Y-103.181
X-212.528 Y-104.247
X-211.682 Y-105.289
X-210.807 Y-106.307
X-209.904 Y-107.3
X-208.974 Y-108.268
X-208.018 Y-109.21
X-207.037 Y-110.125
X-206.032 Y-111.015
X-205.003 Y-111.877
X-203.952 Y-112.711
X-202.878 Y-113.517
X-201.784 Y-114.294
X-200.67 Y-115.042
X-199.536 Y-115.76
X-198.383 Y-116.448
X-197.213 Y-117.104
X-196.025 Y-117.73
X-194.822 Y-118.324
X-193.684 Y-118.847
X-193.24 Y-119.014
X-192.777 Y-119.116
X-192.304 Y-119.15
X-178.644
G3 X-177.924 Y-116.866 I-0.044 J1.269
G1 X-217.617 Y-86.959
G3 X-219.536 Y-87.447 I-0.764 J-1.014
X-219.65 Y-87.929 I1.156 J-0.527
G1 Y-95.548
X-219.596 Y-96.625
X-219.512 Y-97.341
X-219.358 Y-98.175
X-219.121 Y-99.109
X-218.768 Y-100.188
X-218.269 Y-101.432
X-217.687 Y-102.642
X-217.039 Y-103.817
X-216.335 Y-104.96
X-215.582 Y-106.071
X-214.788 Y-107.153
X-213.956 Y-108.206
X-213.09 Y-109.232
X-212.193 Y-110.23
X-211.267 Y-111.202
X-210.314 Y-112.147
X-209.335 Y-113.065
X-208.333 Y-113.957
X-207.307 Y-114.822
X-206.258 Y-115.66
X-205.189 Y-116.471
X-204.099 Y-117.254
X-202.989 Y-118.009
X-202.036 Y-118.624
X-201.622 Y-118.851
X-201.18 Y-119.016
X-200.719 Y-119.116
X-200.248 Y-119.15
X-192.304
G3 X-191.821 Y-119.036 I-0.044 J1.269
X-191.522 Y-116.916 I-0.527 J1.156
G1 X-217.555 Y-94.628
G3 X-219.65 Y-95.548 I-0.826 J-0.965
G1 Y-102.025
X-219.607 Y-102.885
X-219.535 Y-103.5
X-219.412 Y-104.168
X-219.213 Y-104.947
X-218.924 Y-105.834
X-218.528 Y-106.819
X-217.986 Y-107.947
X-217.325 Y-109.116
X-216.596 Y-110.242
X-215.809 Y-111.33
X-214.975 Y-112.381
X-214.099 Y-113.399
X-213.188 Y-114.384
X-212.244 Y-115.338
X-211.271 Y-116.263
X-210.272 Y-117.158
X-209.248 Y-118.026
X-208.75 Y-118.425
X-208.384 Y-118.679
X-207.988 Y-118.882
X-207.567 Y-119.03
X-207.13 Y-119.12
X-206.686 Y-119.15
X-200.248
G3 X-199.766 Y-119.036 I-0.044 J1.269
X-199.457 Y-116.925 I-0.527 J1.156
G1 X-217.545 Y-101.113
G3 X-219.536 Y-101.542 I-0.836 J-0.956
X-219.65 Y-102.025 I1.156 J-0.527
G1 Y-107.739
X-219.612 Y-108.495
X-219.548 Y-109.045
X-219.438 Y-109.639
X-219.263 Y-110.327
X-219.012 Y-111.095
X-218.67 Y-111.948
X-218.203 Y-112.918
X-217.586 Y-114.011
X-216.849 Y-115.133
X-216.046 Y-116.208
X-215.189 Y-117.241
X-214.436 Y-118.069
X-214.106 Y-118.386
X-213.734 Y-118.654
X-213.329 Y-118.868
X-212.899 Y-119.024
X-212.451 Y-119.118
X-211.994 Y-119.15
X-206.686
G3 X-205.898 Y-116.921 I-0.044 J1.269
G1 X-217.549 Y-106.824
G3 X-219.536 Y-107.257 I-0.832 J-0.96
X-219.65 Y-107.739 I1.156 J-0.527
G1 Y-113.072
X-219.619 Y-113.696
X-219.56 Y-114.196
X-219.457 Y-114.753
X-219.298 Y-115.38
X-219.069 Y-116.081
X-218.792 Y-116.771
X-218.504 Y-117.37
X-218.445 Y-117.474
X-218.168 Y-117.888
X-217.832 Y-118.255
X-217.445 Y-118.567
X-217.016 Y-118.818
X-216.553 Y-119.001
X-216.068 Y-119.113
X-215.572 Y-119.15
G3 X-215.09 Y-119.036 I-0.044 J1.269
X-214.518 Y-117.243 I-0.527 J1.156
G1 X-217.282 Y-112.479
G3 X-219.536 Y-112.59 I-1.098 J-0.637
X-219.65 Y-113.072 I1.156 J-0.527
G1 Y-117.263
X-219.633 Y-117.532
X-219.561 Y-117.858
X-219.431 Y-118.166
X-219.248 Y-118.446
X-219.017 Y-118.688
X-218.748 Y-118.885
X-218.447 Y-119.031
X-218.124 Y-119.12
X-217.792 Y-119.15
G3 X-217.302 Y-119.066 I-0.064 J1.845
X-216.561 Y-118.62 I-0.554 J1.761
X-219.109 Y-116.032 I-1.274 J1.294
X-219.565 Y-116.773 I1.274 J-1.294
X-219.65 Y-117.263 I1.73 J-0.553
G1 X-219.645 Y-117.644
X-219.613 Y-118.025
X-219.569 Y-118.215
X-219.493 Y-118.406
X-219.447 Y-118.488
X-219.343 Y-118.638
X-219.203 Y-118.787
X-219.067 Y-118.897
X-218.876 Y-119.007
X-218.686 Y-119.078
X-218.495 Y-119.117
X-218.305 Y-119.136
X-217.924 Y-119.15
X-211.994
X-211.982 Y-119.149
G2 X-211.504 Y-119.057 I27.297 J-140.429
X-199.639 Y-117.304 I26.819 J-140.521
X-199.506 Y-117.297 I0.133 J-1.263
G1 X-169.864
G2 X-169.731 Y-117.304 J-1.27
X-157.866 Y-119.057 I-14.954 J-142.274
X-157.388 Y-119.149 I-26.819 J-140.521
G1 X-157.376 Y-119.15
X-149.379
X-148.603 Y-119.111
X-147.88 Y-119.027
X-147.036 Y-118.871
X-146.088 Y-118.629
X-144.991 Y-118.271
X-143.746 Y-117.771
X-142.536 Y-117.191
X-141.359 Y-116.546
X-140.214 Y-115.845
X-139.099 Y-115.098
X-138.013 Y-114.309
X-136.955 Y-113.484
X-135.924 Y-112.625
X-134.919 Y-111.735
X-133.94 Y-110.817
X-132.987 Y-109.872
X-132.059 Y-108.902
X-131.157 Y-107.908
X-130.281 Y-106.891
X-129.431 Y-105.852
X-128.607 Y-104.793
X-127.809 Y-103.713
X-127.039 Y-102.615
X-126.295 Y-101.497
X-125.579 Y-100.362
X-124.89 Y-99.21
X-124.229 Y-98.042
X-123.597 Y-96.858
X-122.993 Y-95.66
X-122.418 Y-94.447
X-121.873 Y-93.22
X-121.357 Y-91.982
X-120.87 Y-90.731
X-120.413 Y-89.469
X-119.987 Y-88.196
X-119.591 Y-86.914
X-119.226 Y-85.622
X-118.892 Y-84.322
X-118.59 Y-83.014
X-118.318 Y-81.7
X-118.078 Y-80.379
X-117.87 Y-79.054
X-117.694 Y-77.723
X-117.549 Y-76.389
X-117.436 Y-75.051
X-117.356 Y-73.712
X-117.307 Y-72.37
X-117.29 Y-71.028
X-117.306 Y-69.686
X-117.353 Y-68.345
X-117.432 Y-67.005
X-117.544 Y-65.668
X-117.687 Y-64.333
X-117.863 Y-63.002
X-118.07 Y-61.676
X-118.309 Y-60.356
X-118.58 Y-59.041
X-118.882 Y-57.733
X-119.215 Y-56.433
X-119.579 Y-55.141
X-119.974 Y-53.859
X-120.399 Y-52.586
X-120.855 Y-51.323
X-121.341 Y-50.072
X-121.856 Y-48.833
X-122.401 Y-47.606
X-122.975 Y-46.393
X-123.579 Y-45.194
X-124.211 Y-44.01
X-124.871 Y-42.842
X-125.558 Y-41.689
X-126.273 Y-40.553
X-127.016 Y-39.435
X-127.784 Y-38.335
X-128.579 Y-37.253
X-129.399 Y-36.191
X-130.245 Y-35.148
X-131.115 Y-34.126
X-132.009 Y-33.125
X-132.926 Y-32.146
X-133.867 Y-31.189
X-134.831 Y-30.254
X-135.816 Y-29.344
X-136.823 Y-28.456
X-137.851 Y-27.593
X-138.9 Y-26.755
X-139.203 Y-26.524
X-139.561 Y-26.287
X-139.946 Y-26.098
X-140.353 Y-25.961
X-140.774 Y-25.878
X-141.202 Y-25.85
X-147.835
G3 X-148.317 Y-25.964 I0.044 J-1.269
G1 X-148.446 Y-26.023 Z16.008
X-148.574 Y-26.081 Z16.032
X-148.699 Y-26.138 Z16.071
X-148.818 Y-26.192 Z16.126
X-148.932 Y-26.244 Z16.195
X-149.037 Y-26.292 Z16.277
X-149.134 Y-26.336 Z16.372
X-149.22 Y-26.375 Z16.478
X-149.295 Y-26.41 Z16.594
X-149.358 Y-26.438 Z16.719
X-149.408 Y-26.461 Z16.851
X-149.444 Y-26.477 Z16.987
X-149.465 Y-26.487 Z17.128
X-149.473 Y-26.49 Z17.27
G0 Z27
X-150.949 Y-118.36
Z18.54
G1 Z17.27 F850
X-150.943 Y-118.364 Z17.128
X-150.922 Y-118.377 Z16.987
X-150.888 Y-118.397 Z16.851
X-150.841 Y-118.425 Z16.719
X-150.782 Y-118.46 Z16.594
X-150.711 Y-118.502 Z16.478
X-150.63 Y-118.551 Z16.372
X-150.538 Y-118.605 Z16.277
X-150.439 Y-118.664 Z16.195
X-150.331 Y-118.728 Z16.126
X-150.218 Y-118.795 Z16.071
X-150.101 Y-118.865 Z16.032
X-149.98 Y-118.937 Z16.008
X-149.858 Y-119.009 Z16
G3 X-149.379 Y-119.15 I0.514 J0.864
G1 X-142.906
X-142.285 Y-119.119
X-141.664 Y-119.046
X-140.987 Y-118.921
X-140.198 Y-118.721
X-139.296 Y-118.426
X-138.29 Y-118.022
X-137.138 Y-117.468
X-135.969 Y-116.807
X-134.842 Y-116.079
X-133.752 Y-115.296
X-132.697 Y-114.466
X-131.676 Y-113.595
X-130.686 Y-112.689
X-129.726 Y-111.751
X-128.794 Y-110.785
X-127.891 Y-109.792
X-127.014 Y-108.776
X-126.165 Y-107.737
X-125.342 Y-106.676
X-124.546 Y-105.596
X-123.776 Y-104.497
X-123.032 Y-103.379
X-122.315 Y-102.245
X-121.624 Y-101.094
X-120.96 Y-99.928
X-120.323 Y-98.746
X-119.714 Y-97.55
X-119.132 Y-96.341
X-118.577 Y-95.119
X-118.051 Y-93.884
X-117.552 Y-92.638
X-117.081 Y-91.381
X-116.639 Y-90.114
X-116.225 Y-88.838
X-115.839 Y-87.552
X-115.483 Y-86.258
X-115.156 Y-84.956
X-114.858 Y-83.648
X-114.589 Y-82.333
X-114.349 Y-81.012
X-114.139 Y-79.686
X-113.96 Y-78.356
X-113.81 Y-77.023
X-113.691 Y-75.686
X-113.601 Y-74.347
X-113.541 Y-73.006
X-113.512 Y-71.664
Y-70.322
X-113.543 Y-68.98
X-113.603 Y-67.639
X-113.693 Y-66.3
X-113.814 Y-64.963
X-113.964 Y-63.63
X-114.144 Y-62.3
X-114.353 Y-60.974
X-114.592 Y-59.653
X-114.861 Y-58.338
X-115.16 Y-57.03
X-115.488 Y-55.728
X-115.845 Y-54.434
X-116.231 Y-53.149
X-116.646 Y-51.873
X-117.089 Y-50.606
X-117.56 Y-49.349
X-118.06 Y-48.103
X-118.587 Y-46.869
X-119.142 Y-45.647
X-119.724 Y-44.438
X-120.333 Y-43.241
X-120.968 Y-42.059
X-121.63 Y-40.891
X-122.317 Y-39.739
X-123.031 Y-38.602
X-123.769 Y-37.481
X-124.533 Y-36.378
X-125.322 Y-35.292
X-126.135 Y-34.224
X-126.971 Y-33.174
X-127.831 Y-32.143
X-128.713 Y-31.132
X-129.618 Y-30.141
X-130.544 Y-29.17
X-131.493 Y-28.22
X-132.462 Y-27.291
X-133.088 Y-26.717
X-133.472 Y-26.414
X-133.897 Y-26.171
X-134.353 Y-25.994
X-134.83 Y-25.886
X-135.318 Y-25.85
X-141.202
G3 X-141.684 Y-25.964 I0.044 J-1.269
G1 X-141.814 Y-26.023 Z16.008
X-141.941 Y-26.081 Z16.032
X-142.066 Y-26.138 Z16.071
X-142.186 Y-26.192 Z16.126
X-142.299 Y-26.244 Z16.195
X-142.405 Y-26.292 Z16.277
X-142.501 Y-26.336 Z16.372
X-142.588 Y-26.375 Z16.478
X-142.663 Y-26.41 Z16.594
X-142.725 Y-26.438 Z16.719
X-142.775 Y-26.461 Z16.851
X-142.811 Y-26.477 Z16.987
X-142.833 Y-26.487 Z17.128
X-142.84 Y-26.49 Z17.27
G0 Z27
X-144.476 Y-118.36
Z18.54
G1 Z17.27 F850
X-144.469 Y-118.364 Z17.128
X-144.448 Y-118.377 Z16.987
X-144.414 Y-118.397 Z16.851
X-144.368 Y-118.425 Z16.719
X-144.308 Y-118.46 Z16.594
X-144.238 Y-118.502 Z16.478
X-144.156 Y-118.551 Z16.372
X-144.065 Y-118.605 Z16.277
X-143.965 Y-118.664 Z16.195
X-143.858 Y-118.728 Z16.126
X-143.745 Y-118.795 Z16.071
X-143.627 Y-118.865 Z16.032
X-143.506 Y-118.937 Z16.008
X-143.384 Y-119.009 Z16
G3 X-142.906 Y-119.15 I0.514 J0.864
G1 X-137.193
X-136.62 Y-119.121
X-136.064 Y-119.056
X-135.464 Y-118.945
X-134.767 Y-118.768
X-133.987 Y-118.513
X-133.12 Y-118.165
X-132.132 Y-117.69
X-131.017 Y-117.06
X-129.895 Y-116.323
X-128.818 Y-115.522
X-127.783 Y-114.668
X-126.786 Y-113.769
X-125.824 Y-112.833
X-124.896 Y-111.863
X-124 Y-110.864
X-123.133 Y-109.839
X-122.296 Y-108.79
X-121.486 Y-107.72
X-120.704 Y-106.629
X-119.95 Y-105.519
X-119.222 Y-104.392
X-118.52 Y-103.247
X-117.845 Y-102.087
X-117.197 Y-100.912
X-116.575 Y-99.723
X-115.979 Y-98.52
X-115.409 Y-97.305
X-114.866 Y-96.078
X-114.349 Y-94.839
X-113.858 Y-93.59
X-113.395 Y-92.33
X-112.958 Y-91.061
X-112.548 Y-89.783
X-112.165 Y-88.497
X-111.809 Y-87.203
X-111.48 Y-85.902
X-111.179 Y-84.594
X-110.906 Y-83.279
X-110.662 Y-81.96
X-110.445 Y-80.635
X-110.256 Y-79.306
X-110.096 Y-77.974
X-109.963 Y-76.638
X-109.859 Y-75.3
X-109.783 Y-73.96
X-109.735 Y-72.619
X-109.715 Y-71.277
X-109.723 Y-69.935
X-109.76 Y-68.593
X-109.825 Y-67.253
X-109.917 Y-65.914
X-110.038 Y-64.577
X-110.187 Y-63.243
X-110.364 Y-61.913
X-110.569 Y-60.586
X-110.803 Y-59.265
X-111.065 Y-57.948
X-111.354 Y-56.638
X-111.671 Y-55.333
X-112.015 Y-54.036
X-112.387 Y-52.747
X-112.786 Y-51.465
X-113.211 Y-50.192
X-113.663 Y-48.928
X-114.142 Y-47.674
X-114.647 Y-46.431
X-115.177 Y-45.198
X-115.734 Y-43.977
X-116.316 Y-42.767
X-116.923 Y-41.57
X-117.556 Y-40.387
X-118.213 Y-39.217
X-118.896 Y-38.061
X-119.602 Y-36.92
X-120.333 Y-35.794
X-121.087 Y-34.684
X-121.865 Y-33.59
X-122.665 Y-32.512
X-123.488 Y-31.452
X-124.333 Y-30.409
X-125.199 Y-29.384
X-126.087 Y-28.378
X-126.996 Y-27.39
X-127.52 Y-26.85
X-127.847 Y-26.556
X-128.21 Y-26.308
X-128.602 Y-26.11
X-129.017 Y-25.967
X-129.448 Y-25.879
X-129.887 Y-25.85
X-135.318
G3 X-135.8 Y-25.964 I0.044 J-1.269
G1 X-135.93 Y-26.023 Z16.008
X-136.057 Y-26.081 Z16.032
X-136.182 Y-26.138 Z16.071
X-136.302 Y-26.192 Z16.126
X-136.415 Y-26.244 Z16.195
X-136.521 Y-26.292 Z16.277
X-136.617 Y-26.336 Z16.372
X-136.704 Y-26.375 Z16.478
X-136.779 Y-26.41 Z16.594
X-136.841 Y-26.438 Z16.719
X-136.891 Y-26.461 Z16.851
X-136.927 Y-26.477 Z16.987
X-136.949 Y-26.487 Z17.128
X-136.956 Y-26.49 Z17.27
G0 Z27
X-138.764 Y-118.36
Z18.54
G1 Z17.27 F850
X-138.757 Y-118.364 Z17.128
X-138.736 Y-118.377 Z16.987
X-138.702 Y-118.397 Z16.851
X-138.656 Y-118.425 Z16.719
X-138.596 Y-118.46 Z16.594
X-138.525 Y-118.502 Z16.478
X-138.444 Y-118.551 Z16.372
X-138.353 Y-118.605 Z16.277
X-138.253 Y-118.664 Z16.195
X-138.146 Y-118.728 Z16.126
X-138.033 Y-118.795 Z16.071
X-137.915 Y-118.865 Z16.032
X-137.794 Y-118.937 Z16.008
X-137.672 Y-119.009 Z16
G3 X-137.193 Y-119.15 I0.514 J0.864
G1 X-131.862
X-131.372 Y-119.125
X-130.866 Y-119.066
X-130.304 Y-118.963
X-129.669 Y-118.801
X-128.956 Y-118.568
X-128.174 Y-118.254
X-127.285 Y-117.827
X-126.289 Y-117.264
X-125.178 Y-116.534
X-124.108 Y-115.725
X-123.084 Y-114.856
X-122.104 Y-113.939
X-121.164 Y-112.982
X-120.261 Y-111.989
X-119.391 Y-110.966
X-118.555 Y-109.917
X-117.749 Y-108.844
X-116.973 Y-107.749
X-116.225 Y-106.634
X-115.505 Y-105.501
X-114.813 Y-104.352
X-114.147 Y-103.186
X-113.507 Y-102.006
X-112.893 Y-100.813
X-112.305 Y-99.607
X-111.742 Y-98.388
X-111.205 Y-97.158
X-110.693 Y-95.917
X-110.207 Y-94.667
X-109.746 Y-93.406
X-109.31 Y-92.136
X-108.901 Y-90.858
X-108.516 Y-89.572
X-108.158 Y-88.279
X-107.827 Y-86.978
X-107.521 Y-85.671
X-107.242 Y-84.359
X-106.99 Y-83.04
X-106.764 Y-81.717
X-106.564 Y-80.39
X-106.391 Y-79.059
X-106.244 Y-77.725
X-106.124 Y-76.388
X-106.031 Y-75.049
X-105.964 Y-73.709
X-105.923 Y-72.367
X-105.909 Y-71.025
X-105.922 Y-69.683
X-105.961 Y-68.342
X-106.026 Y-67.001
X-106.118 Y-65.662
X-106.237 Y-64.325
X-106.383 Y-62.991
X-106.556 Y-61.66
X-106.755 Y-60.333
X-106.98 Y-59.01
X-107.233 Y-57.691
X-107.511 Y-56.378
X-107.815 Y-55.071
X-108.146 Y-53.77
X-108.502 Y-52.476
X-108.883 Y-51.19
X-109.29 Y-49.911
X-109.723 Y-48.64
X-110.18 Y-47.378
X-110.662 Y-46.126
X-111.169 Y-44.883
X-111.7 Y-43.65
X-112.255 Y-42.428
X-112.835 Y-41.218
X-113.439 Y-40.019
X-114.067 Y-38.833
X-114.719 Y-37.66
X-115.394 Y-36.5
X-116.092 Y-35.354
X-116.813 Y-34.222
X-117.556 Y-33.104
X-118.322 Y-32.001
X-119.108 Y-30.914
X-119.917 Y-29.842
X-120.746 Y-28.787
X-121.596 Y-27.749
X-122.259 Y-26.986
X-122.592 Y-26.654
X-122.969 Y-26.372
X-123.382 Y-26.147
X-123.822 Y-25.983
X-124.282 Y-25.883
X-124.75 Y-25.85
X-129.887
G3 X-130.369 Y-25.964 I0.044 J-1.269
G1 X-130.498 Y-26.023 Z16.008
X-130.626 Y-26.081 Z16.032
X-130.751 Y-26.138 Z16.071
X-130.87 Y-26.192 Z16.126
X-130.984 Y-26.244 Z16.195
X-131.089 Y-26.292 Z16.277
X-131.186 Y-26.336 Z16.372
X-131.272 Y-26.375 Z16.478
X-131.347 Y-26.41 Z16.594
X-131.41 Y-26.438 Z16.719
X-131.46 Y-26.461 Z16.851
X-131.496 Y-26.477 Z16.987
X-131.517 Y-26.487 Z17.128
X-131.525 Y-26.49 Z17.27
G0 Z27
X-133.432 Y-118.36
Z18.54
G1 Z17.27 F850
X-133.425 Y-118.364 Z17.128
X-133.405 Y-118.377 Z16.987
X-133.371 Y-118.397 Z16.851
X-133.324 Y-118.425 Z16.719
X-133.265 Y-118.46 Z16.594
X-133.194 Y-118.502 Z16.478
X-133.113 Y-118.551 Z16.372
X-133.021 Y-118.605 Z16.277
X-132.922 Y-118.664 Z16.195
X-132.814 Y-118.728 Z16.126
X-132.701 Y-118.795 Z16.071
X-132.584 Y-118.865 Z16.032
X-132.463 Y-118.937 Z16.008
X-132.341 Y-119.009 Z16
G3 X-131.862 Y-119.15 I0.514 J0.864
G1 X-126.912
X-126.388 Y-119.124
X-125.923 Y-119.069
X-125.384 Y-118.97
X-124.795 Y-118.82
X-124.124 Y-118.601
X-123.402 Y-118.311
X-122.58 Y-117.916
X-121.662 Y-117.397
X-120.652 Y-116.734
X-119.581 Y-115.924
X-118.564 Y-115.049
X-117.594 Y-114.121
X-116.669 Y-113.148
X-115.784 Y-112.139
X-114.937 Y-111.099
X-114.124 Y-110.031
X-113.343 Y-108.939
X-112.594 Y-107.825
X-111.874 Y-106.692
X-111.183 Y-105.542
X-110.518 Y-104.376
X-109.881 Y-103.195
X-109.269 Y-102
X-108.683 Y-100.792
X-108.123 Y-99.573
X-107.587 Y-98.342
X-107.077 Y-97.101
X-106.591 Y-95.85
X-106.129 Y-94.59
X-105.692 Y-93.321
X-105.28 Y-92.043
X-104.893 Y-90.758
X-104.531 Y-89.466
X-104.194 Y-88.167
X-103.881 Y-86.861
X-103.595 Y-85.55
X-103.333 Y-84.234
X-103.096 Y-82.913
X-102.884 Y-81.588
X-102.698 Y-80.258
X-102.536 Y-78.926
X-102.399 Y-77.591
X-102.288 Y-76.253
X-102.202 Y-74.914
X-102.141 Y-73.573
X-102.104 Y-72.231
X-102.093 Y-70.889
X-102.108 Y-69.547
X-102.147 Y-68.206
X-102.211 Y-66.865
X-102.301 Y-65.526
X-102.416 Y-64.189
X-102.557 Y-62.854
X-102.723 Y-61.522
X-102.915 Y-60.194
X-103.131 Y-58.869
X-103.372 Y-57.549
X-103.639 Y-56.233
X-103.929 Y-54.923
X-104.245 Y-53.619
X-104.585 Y-52.32
X-104.949 Y-51.028
X-105.337 Y-49.744
X-105.749 Y-48.466
X-106.185 Y-47.197
X-106.645 Y-45.936
X-107.128 Y-44.684
X-107.634 Y-43.441
X-108.164 Y-42.208
X-108.717 Y-40.985
X-109.294 Y-39.773
X-109.893 Y-38.572
X-110.515 Y-37.382
X-111.159 Y-36.205
X-111.826 Y-35.04
X-112.514 Y-33.888
X-113.224 Y-32.749
X-113.956 Y-31.623
X-114.708 Y-30.512
X-115.481 Y-29.415
X-116.275 Y-28.333
X-117.097 Y-27.272
X-117.342 Y-26.99
X-117.675 Y-26.657
X-118.052 Y-26.374
X-118.465 Y-26.148
X-118.907 Y-25.984
X-119.367 Y-25.884
X-119.837 Y-25.85
X-124.75
G3 X-125.233 Y-25.964 I0.044 J-1.269
G1 X-125.362 Y-26.023 Z16.008
X-125.49 Y-26.081 Z16.032
X-125.614 Y-26.138 Z16.071
X-125.734 Y-26.192 Z16.126
X-125.848 Y-26.244 Z16.195
X-125.953 Y-26.292 Z16.277
X-126.05 Y-26.336 Z16.372
X-126.136 Y-26.375 Z16.478
X-126.211 Y-26.41 Z16.594
X-126.274 Y-26.438 Z16.719
X-126.324 Y-26.461 Z16.851
X-126.359 Y-26.477 Z16.987
X-126.381 Y-26.487 Z17.128
X-126.388 Y-26.49 Z17.27
G0 Z27
X-128.482 Y-118.36
Z18.54
G1 Z17.27 F850
X-128.475 Y-118.364 Z17.128
X-128.455 Y-118.377 Z16.987
X-128.421 Y-118.397 Z16.851
X-128.374 Y-118.425 Z16.719
X-128.315 Y-118.46 Z16.594
X-128.244 Y-118.502 Z16.478
X-128.162 Y-118.551 Z16.372
X-128.071 Y-118.605 Z16.277
X-127.971 Y-118.664 Z16.195
X-127.864 Y-118.728 Z16.126
X-127.751 Y-118.795 Z16.071
X-127.633 Y-118.865 Z16.032
X-127.512 Y-118.937 Z16.008
X-127.39 Y-119.009 Z16
G3 X-126.912 Y-119.15 I0.514 J0.864
G1 X-121.961
X-121.624 Y-119.133
X-121.182 Y-119.081
X-120.655 Y-118.984
X-120.104 Y-118.844
X-119.459 Y-118.633
X-118.781 Y-118.361
X-118.008 Y-117.989
X-117.149 Y-117.503
X-116.218 Y-116.892
X-115.179 Y-116.107
X-114.165 Y-115.228
X-113.203 Y-114.293
X-112.288 Y-113.31
X-111.417 Y-112.289
X-110.586 Y-111.235
X-109.792 Y-110.153
X-109.032 Y-109.047
X-108.304 Y-107.919
X-107.607 Y-106.772
X-106.938 Y-105.609
X-106.297 Y-104.429
X-105.683 Y-103.236
X-105.095 Y-102.029
X-104.533 Y-100.811
X-103.996 Y-99.581
X-103.483 Y-98.34
X-102.995 Y-97.09
X-102.53 Y-95.831
X-102.09 Y-94.563
X-101.674 Y-93.287
X-101.282 Y-92.003
X-100.914 Y-90.713
X-100.571 Y-89.415
X-100.251 Y-88.112
X-99.955 Y-86.802
X-99.684 Y-85.488
X-99.436 Y-84.169
X-99.212 Y-82.846
X-99.012 Y-81.518
X-98.835 Y-80.188
X-98.683 Y-78.854
X-98.554 Y-77.519
X-98.45 Y-76.18
X-98.369 Y-74.841
X-98.311 Y-73.5
X-98.278 Y-72.158
X-98.269 Y-70.816
X-98.283 Y-69.474
X-98.321 Y-68.132
X-98.384 Y-66.792
X-98.471 Y-65.452
X-98.582 Y-64.115
X-98.717 Y-62.779
X-98.876 Y-61.447
X-99.059 Y-60.117
X-99.266 Y-58.791
X-99.496 Y-57.469
X-99.75 Y-56.151
X-100.028 Y-54.838
X-100.329 Y-53.53
X-100.653 Y-52.227
X-101 Y-50.931
X-101.371 Y-49.641
X-101.764 Y-48.357
X-102.179 Y-47.081
X-102.618 Y-45.813
X-103.078 Y-44.552
X-103.561 Y-43.3
X-104.067 Y-42.057
X-104.594 Y-40.823
X-105.144 Y-39.598
X-105.716 Y-38.384
X-106.31 Y-37.18
X-106.925 Y-35.988
X-107.562 Y-34.806
X-108.22 Y-33.636
X-108.898 Y-32.478
X-109.597 Y-31.332
X-110.317 Y-30.199
X-111.058 Y-29.08
X-111.823 Y-27.977
X-112.565 Y-26.999
X-112.577 Y-26.985
X-112.91 Y-26.653
X-113.287 Y-26.372
X-113.699 Y-26.147
X-114.14 Y-25.983
X-114.599 Y-25.883
X-115.068 Y-25.85
X-119.837
G3 X-120.319 Y-25.964 I0.044 J-1.269
G1 X-120.449 Y-26.023 Z16.008
X-120.576 Y-26.081 Z16.032
X-120.701 Y-26.138 Z16.071
X-120.821 Y-26.192 Z16.126
X-120.934 Y-26.244 Z16.195
X-121.04 Y-26.292 Z16.277
X-121.136 Y-26.336 Z16.372
X-121.223 Y-26.375 Z16.478
X-121.298 Y-26.41 Z16.594
X-121.36 Y-26.438 Z16.719
X-121.41 Y-26.461 Z16.851
X-121.446 Y-26.477 Z16.987
X-121.468 Y-26.487 Z17.128
X-121.475 Y-26.49 Z17.27
G0 Z27
X-123.531 Y-118.36
Z18.54
G1 Z17.27 F850
X-123.525 Y-118.364 Z17.128
X-123.504 Y-118.377 Z16.987
X-123.47 Y-118.397 Z16.851
X-123.423 Y-118.425 Z16.719
X-123.364 Y-118.46 Z16.594
X-123.293 Y-118.502 Z16.478
X-123.212 Y-118.551 Z16.372
X-123.12 Y-118.605 Z16.277
X-123.021 Y-118.664 Z16.195
X-122.913 Y-118.728 Z16.126
X-122.8 Y-118.795 Z16.071
X-122.683 Y-118.865 Z16.032
X-122.562 Y-118.937 Z16.008
X-122.44 Y-119.009 Z16
G3 X-121.961 Y-119.15 I0.514 J0.864
G1 X-117.392
X-117.007 Y-119.131
X-116.57 Y-119.08
X-116.063 Y-118.986
X-115.534 Y-118.851
X-114.917 Y-118.65
X-114.267 Y-118.389
X-113.533 Y-118.036
X-112.717 Y-117.574
X-111.841 Y-116.999
X-110.867 Y-116.263
X-109.853 Y-115.385
X-108.895 Y-114.445
X-107.988 Y-113.455
X-107.127 Y-112.425
X-106.309 Y-111.362
X-105.529 Y-110.269
X-104.786 Y-109.152
X-104.075 Y-108.013
X-103.396 Y-106.855
X-102.747 Y-105.681
X-102.126 Y-104.491
X-101.532 Y-103.287
X-100.964 Y-102.071
X-100.422 Y-100.843
X-99.905 Y-99.605
X-99.412 Y-98.357
X-98.943 Y-97.099
X-98.498 Y-95.833
X-98.076 Y-94.558
X-97.678 Y-93.277
X-97.304 Y-91.988
X-96.953 Y-90.692
X-96.625 Y-89.391
X-96.321 Y-88.084
X-96.039 Y-86.771
X-95.78 Y-85.454
X-95.544 Y-84.133
X-95.331 Y-82.808
X-95.141 Y-81.48
X-94.973 Y-80.148
X-94.828 Y-78.814
X-94.706 Y-77.477
X-94.606 Y-76.139
X-94.53 Y-74.799
X-94.476 Y-73.458
X-94.444 Y-72.116
X-94.436 Y-70.774
X-94.45 Y-69.432
X-94.487 Y-68.09
X-94.547 Y-66.749
X-94.631 Y-65.41
X-94.737 Y-64.072
X-94.866 Y-62.736
X-95.019 Y-61.402
X-95.194 Y-60.071
X-95.391 Y-58.744
X-95.611 Y-57.42
X-95.854 Y-56.1
X-96.119 Y-54.784
X-96.406 Y-53.473
X-96.716 Y-52.167
X-97.047 Y-50.867
X-97.401 Y-49.572
X-97.776 Y-48.283
X-98.173 Y-47.001
X-98.591 Y-45.726
X-99.031 Y-44.458
X-99.492 Y-43.197
X-99.975 Y-41.945
X-100.479 Y-40.701
X-101.004 Y-39.466
X-101.55 Y-38.24
X-102.118 Y-37.024
X-102.706 Y-35.817
X-103.315 Y-34.621
X-103.944 Y-33.435
X-104.593 Y-32.261
X-105.262 Y-31.097
X-105.952 Y-29.946
X-106.665 Y-28.809
X-107.411 Y-27.693
X-107.817 Y-27.157
X-108.102 Y-26.828
X-108.427 Y-26.54
X-108.787 Y-26.298
X-109.176 Y-26.104
X-109.588 Y-25.964
X-110.014 Y-25.879
X-110.447 Y-25.85
X-115.068
G3 X-115.55 Y-25.964 I0.044 J-1.269
G1 X-115.68 Y-26.023 Z16.008
X-115.807 Y-26.081 Z16.032
X-115.932 Y-26.138 Z16.071
X-116.052 Y-26.192 Z16.126
X-116.165 Y-26.244 Z16.195
X-116.271 Y-26.292 Z16.277
X-116.367 Y-26.336 Z16.372
X-116.454 Y-26.375 Z16.478
X-116.529 Y-26.41 Z16.594
X-116.591 Y-26.438 Z16.719
X-116.641 Y-26.461 Z16.851
X-116.677 Y-26.477 Z16.987
X-116.699 Y-26.487 Z17.128
X-116.706 Y-26.49 Z17.27
G0 Z27
X-118.962 Y-118.36
Z18.54
G1 Z17.27 F850
X-118.955 Y-118.364 Z17.128
X-118.934 Y-118.377 Z16.987
X-118.9 Y-118.397 Z16.851
X-118.854 Y-118.425 Z16.719
X-118.794 Y-118.46 Z16.594
X-118.724 Y-118.502 Z16.478
X-118.642 Y-118.551 Z16.372
X-118.551 Y-118.605 Z16.277
X-118.451 Y-118.664 Z16.195
X-118.344 Y-118.728 Z16.126
X-118.231 Y-118.795 Z16.071
X-118.113 Y-118.865 Z16.032
X-117.992 Y-118.937 Z16.008
X-117.87 Y-119.009 Z16
G3 X-117.392 Y-119.15 I0.514 J0.864
G1 X-112.822
X-112.52 Y-119.135
X-112.083 Y-119.084
X-111.6 Y-118.995
X-111.078 Y-118.862
X-110.486 Y-118.669
X-109.851 Y-118.414
X-109.148 Y-118.076
X-108.363 Y-117.631
X-107.526 Y-117.082
X-106.6 Y-116.382
X-105.586 Y-115.504
X-104.631 Y-114.56
X-103.731 Y-113.565
X-102.879 Y-112.528
X-102.071 Y-111.456
X-101.305 Y-110.354
X-100.575 Y-109.228
X-99.88 Y-108.08
X-99.217 Y-106.912
X-98.585 Y-105.729
X-97.981 Y-104.53
X-97.405 Y-103.318
X-96.855 Y-102.093
X-96.331 Y-100.858
X-95.831 Y-99.612
X-95.356 Y-98.357
X-94.905 Y-97.093
X-94.477 Y-95.821
X-94.073 Y-94.541
X-93.691 Y-93.254
X-93.332 Y-91.961
X-92.996 Y-90.661
X-92.683 Y-89.356
X-92.391 Y-88.046
X-92.122 Y-86.731
X-91.875 Y-85.412
X-91.65 Y-84.089
X-91.447 Y-82.762
X-91.265 Y-81.433
X-91.105 Y-80.1
X-90.967 Y-78.765
X-90.851 Y-77.428
X-90.757 Y-76.089
X-90.684 Y-74.749
X-90.633 Y-73.408
X-90.603 Y-72.066
X-90.596 Y-70.724
X-90.61 Y-69.382
X-90.647 Y-68.04
X-90.705 Y-66.699
X-90.785 Y-65.359
X-90.887 Y-64.021
X-91.011 Y-62.685
X-91.157 Y-61.35
X-91.325 Y-60.019
X-91.514 Y-58.69
X-91.725 Y-57.365
X-91.957 Y-56.043
X-92.211 Y-54.725
X-92.486 Y-53.411
X-92.782 Y-52.102
X-93.099 Y-50.798
X-93.437 Y-49.499
X-93.796 Y-48.206
X-94.176 Y-46.918
X-94.576 Y-45.637
X-94.997 Y-44.363
X-95.439 Y-43.095
X-95.901 Y-41.835
X-96.383 Y-40.583
X-96.886 Y-39.338
X-97.409 Y-38.102
X-97.952 Y-36.875
X-98.515 Y-35.657
X-99.098 Y-34.448
X-99.701 Y-33.249
X-100.324 Y-32.06
X-100.966 Y-30.881
X-101.631 Y-29.715
X-102.323 Y-28.565
X-103.013 Y-27.517
X-103.593 Y-26.752
X-103.915 Y-26.44
X-104.284 Y-26.188
X-104.691 Y-26.002
X-105.124 Y-25.888
X-105.57 Y-25.85
X-110.447
G3 X-110.929 Y-25.964 I0.044 J-1.269
G1 X-111.059 Y-26.023 Z16.008
X-111.186 Y-26.081 Z16.032
X-111.311 Y-26.138 Z16.071
X-111.431 Y-26.192 Z16.126
X-111.544 Y-26.244 Z16.195
X-111.65 Y-26.292 Z16.277
X-111.747 Y-26.336 Z16.372
X-111.833 Y-26.375 Z16.478
X-111.908 Y-26.41 Z16.594
X-111.971 Y-26.438 Z16.719
X-112.02 Y-26.461 Z16.851
X-112.056 Y-26.477 Z16.987
X-112.078 Y-26.487 Z17.128
X-112.085 Y-26.49 Z17.27
G0 Z27
X-114.392 Y-118.36
Z18.54
G1 Z17.27 F850
X-114.385 Y-118.364 Z17.128
X-114.365 Y-118.377 Z16.987
X-114.331 Y-118.397 Z16.851
X-114.284 Y-118.425 Z16.719
X-114.225 Y-118.46 Z16.594
X-114.154 Y-118.502 Z16.478
X-114.072 Y-118.551 Z16.372
X-113.981 Y-118.605 Z16.277
X-113.881 Y-118.664 Z16.195
X-113.774 Y-118.728 Z16.126
X-113.661 Y-118.795 Z16.071
X-113.543 Y-118.865 Z16.032
X-113.423 Y-118.937 Z16.008
X-113.3 Y-119.009 Z16
G3 X-112.822 Y-119.15 I0.514 J0.864
G1 X-108.633
X-108.102 Y-119.123
X-107.665 Y-119.072
X-107.207 Y-118.988
X-106.69 Y-118.856
X-106.121 Y-118.67
X-105.498 Y-118.42
X-104.821 Y-118.095
X-104.061 Y-117.665
X-103.256 Y-117.136
X-102.367 Y-116.465
X-101.389 Y-115.617
X-100.435 Y-114.674
X-99.538 Y-113.675
X-98.692 Y-112.633
X-97.892 Y-111.555
X-97.135 Y-110.447
X-96.417 Y-109.313
X-95.734 Y-108.158
X-95.084 Y-106.983
X-94.466 Y-105.792
X-93.877 Y-104.586
X-93.316 Y-103.367
X-92.781 Y-102.136
X-92.272 Y-100.894
X-91.788 Y-99.642
X-91.328 Y-98.381
X-90.892 Y-97.112
X-90.479 Y-95.835
X-90.089 Y-94.551
X-89.722 Y-93.26
X-89.377 Y-91.963
X-89.053 Y-90.66
X-88.752 Y-89.352
X-88.472 Y-88.04
X-88.214 Y-86.723
X-87.976 Y-85.402
X-87.76 Y-84.077
X-87.565 Y-82.749
X-87.391 Y-81.418
X-87.238 Y-80.085
X-87.105 Y-78.749
X-86.994 Y-77.412
X-86.903 Y-76.073
X-86.834 Y-74.732
X-86.785 Y-73.391
X-86.757 Y-72.049
X-86.75 Y-70.707
X-86.763 Y-69.365
X-86.798 Y-68.023
X-86.854 Y-66.682
X-86.93 Y-65.342
X-87.028 Y-64.004
X-87.147 Y-62.667
X-87.287 Y-61.332
X-87.447 Y-59.999
X-87.628 Y-58.67
X-87.83 Y-57.343
X-88.053 Y-56.019
X-88.295 Y-54.699
X-88.559 Y-53.383
X-88.842 Y-52.071
X-89.146 Y-50.764
X-89.469 Y-49.461
X-89.813 Y-48.164
X-90.177 Y-46.872
X-90.56 Y-45.586
X-90.963 Y-44.305
X-91.386 Y-43.032
X-91.829 Y-41.765
X-92.291 Y-40.504
X-92.772 Y-39.252
X-93.273 Y-38.007
X-93.794 Y-36.769
X-94.333 Y-35.541
X-94.892 Y-34.32
X-95.471 Y-33.109
X-96.068 Y-31.907
X-96.687 Y-30.716
X-97.331 Y-29.539
X-98.007 Y-28.379
X-98.654 Y-27.373
X-99.197 Y-26.641
X-99.473 Y-26.368
X-99.792 Y-26.146
X-100.144 Y-25.983
X-100.519 Y-25.884
X-100.906 Y-25.85
X-105.57
G3 X-106.052 Y-25.964 I0.044 J-1.269
G1 X-106.182 Y-26.023 Z16.008
X-106.309 Y-26.081 Z16.032
X-106.434 Y-26.138 Z16.071
X-106.554 Y-26.192 Z16.126
X-106.667 Y-26.244 Z16.195
X-106.773 Y-26.292 Z16.277
X-106.869 Y-26.336 Z16.372
X-106.956 Y-26.375 Z16.478
X-107.031 Y-26.41 Z16.594
X-107.094 Y-26.438 Z16.719
X-107.143 Y-26.461 Z16.851
X-107.179 Y-26.477 Z16.987
X-107.201 Y-26.487 Z17.128
X-107.208 Y-26.49 Z17.27
G0 Z27
X-110.203 Y-118.36
Z18.54
G1 Z17.27 F850
X-110.196 Y-118.364 Z17.128
X-110.176 Y-118.377 Z16.987
X-110.142 Y-118.397 Z16.851
X-110.095 Y-118.425 Z16.719
X-110.036 Y-118.46 Z16.594
X-109.965 Y-118.502 Z16.478
X-109.883 Y-118.551 Z16.372
X-109.792 Y-118.605 Z16.277
X-109.692 Y-118.664 Z16.195
X-109.585 Y-118.728 Z16.126
X-109.472 Y-118.795 Z16.071
X-109.355 Y-118.865 Z16.032
X-109.234 Y-118.937 Z16.008
X-109.112 Y-119.009 Z16
G3 X-108.633 Y-119.15 I0.514 J0.864
G1 X-104.063
X-103.789 Y-119.136
X-103.354 Y-119.085
X-102.911 Y-119.004
X-102.395 Y-118.872
X-101.843 Y-118.692
X-101.227 Y-118.445
X-100.569 Y-118.128
X-99.827 Y-117.709
X-99.044 Y-117.194
X-98.183 Y-116.544
X-97.238 Y-115.725
X-96.284 Y-114.781
X-95.389 Y-113.781
X-94.548 Y-112.735
X-93.755 Y-111.653
X-93.005 Y-110.539
X-92.296 Y-109.4
X-91.624 Y-108.238
X-90.985 Y-107.058
X-90.379 Y-105.86
X-89.802 Y-104.648
X-89.254 Y-103.423
X-88.732 Y-102.187
X-88.237 Y-100.939
X-87.766 Y-99.682
X-87.32 Y-98.417
X-86.897 Y-97.143
X-86.497 Y-95.862
X-86.12 Y-94.574
X-85.764 Y-93.279
X-85.431 Y-91.979
X-85.119 Y-90.674
X-84.828 Y-89.364
X-84.558 Y-88.049
X-84.309 Y-86.73
X-84.08 Y-85.408
X-83.872 Y-84.082
X-83.684 Y-82.753
X-83.516 Y-81.421
X-83.368 Y-80.087
X-83.241 Y-78.751
X-83.133 Y-77.413
X-83.046 Y-76.074
X-82.979 Y-74.733
X-82.932 Y-73.392
X-82.904 Y-72.05
X-82.897 Y-70.708
X-82.91 Y-69.366
X-82.943 Y-68.024
X-82.996 Y-66.683
X-83.07 Y-65.343
X-83.163 Y-64.004
X-83.277 Y-62.667
X-83.41 Y-61.331
X-83.564 Y-59.998
X-83.737 Y-58.667
X-83.931 Y-57.339
X-84.144 Y-56.014
X-84.376 Y-54.692
X-84.628 Y-53.374
X-84.9 Y-52.059
X-85.191 Y-50.749
X-85.501 Y-49.443
X-85.83 Y-48.142
X-86.179 Y-46.846
X-86.546 Y-45.555
X-86.933 Y-44.27
X-87.338 Y-42.99
X-87.763 Y-41.717
X-88.206 Y-40.45
X-88.668 Y-39.19
X-89.148 Y-37.937
X-89.647 Y-36.691
X-90.165 Y-35.453
X-90.702 Y-34.222
X-91.258 Y-33.001
X-91.833 Y-31.788
X-92.431 Y-30.587
X-93.056 Y-29.399
X-93.717 Y-28.231
X-94.311 Y-27.286
X-94.821 Y-26.585
X-95.073 Y-26.332
X-95.365 Y-26.126
X-95.689 Y-25.974
X-96.035 Y-25.881
X-96.391 Y-25.85
X-100.906
G3 X-101.388 Y-25.964 I0.044 J-1.269
G1 X-101.517 Y-26.023 Z16.008
X-101.645 Y-26.081 Z16.032
X-101.77 Y-26.138 Z16.071
X-101.889 Y-26.192 Z16.126
X-102.003 Y-26.244 Z16.195
X-102.109 Y-26.292 Z16.277
X-102.205 Y-26.336 Z16.372
X-102.292 Y-26.375 Z16.478
X-102.367 Y-26.41 Z16.594
X-102.429 Y-26.438 Z16.719
X-102.479 Y-26.461 Z16.851
X-102.515 Y-26.477 Z16.987
X-102.536 Y-26.487 Z17.128
X-102.544 Y-26.49 Z17.27
G0 Z27
X-105.634 Y-118.36
Z18.54
G1 Z17.27 F850
X-105.627 Y-118.364 Z17.128
X-105.606 Y-118.377 Z16.987
X-105.572 Y-118.397 Z16.851
X-105.525 Y-118.425 Z16.719
X-105.466 Y-118.46 Z16.594
X-105.395 Y-118.502 Z16.478
X-105.314 Y-118.551 Z16.372
X-105.223 Y-118.605 Z16.277
X-105.123 Y-118.664 Z16.195
X-105.016 Y-118.728 Z16.126
X-104.902 Y-118.795 Z16.071
X-104.785 Y-118.865 Z16.032
X-104.664 Y-118.937 Z16.008
X-104.542 Y-119.009 Z16
G3 X-104.063 Y-119.15 I0.514 J0.864
G1 X-99.875
X-99.508 Y-119.132
X-99.084 Y-119.082
X-98.649 Y-119.002
X-98.134 Y-118.871
X-97.601 Y-118.697
X-96.989 Y-118.451
X-96.351 Y-118.144
X-95.627 Y-117.735
X-94.86 Y-117.231
X-94.024 Y-116.599
X-93.107 Y-115.805
X-92.153 Y-114.861
X-91.261 Y-113.859
X-90.423 Y-112.81
X-89.636 Y-111.723
X-88.894 Y-110.605
X-88.193 Y-109.46
X-87.53 Y-108.293
X-86.901 Y-107.107
X-86.306 Y-105.905
X-85.74 Y-104.687
X-85.204 Y-103.457
X-84.694 Y-102.216
X-84.211 Y-100.963
X-83.752 Y-99.702
X-83.318 Y-98.432
X-82.907 Y-97.154
X-82.519 Y-95.87
X-82.153 Y-94.578
X-81.809 Y-93.281
X-81.486 Y-91.978
X-81.184 Y-90.671
X-80.903 Y-89.358
X-80.642 Y-88.042
X-80.401 Y-86.721
X-80.18 Y-85.397
X-79.979 Y-84.07
X-79.798 Y-82.741
X-79.636 Y-81.408
X-79.494 Y-80.074
X-79.371 Y-78.737
X-79.267 Y-77.399
X-79.183 Y-76.059
X-79.118 Y-74.719
X-79.073 Y-73.377
X-79.047 Y-72.036
X-79.04 Y-70.693
X-79.052 Y-69.351
X-79.084 Y-68.01
X-79.135 Y-66.668
X-79.205 Y-65.328
X-79.294 Y-63.989
X-79.403 Y-62.651
X-79.532 Y-61.315
X-79.679 Y-59.981
X-79.846 Y-58.649
X-80.031 Y-57.32
X-80.236 Y-55.994
X-80.459 Y-54.67
X-80.701 Y-53.35
X-80.962 Y-52.033
X-81.241 Y-50.721
X-81.539 Y-49.412
X-81.856 Y-48.108
X-82.19 Y-46.808
X-82.544 Y-45.513
X-82.915 Y-44.223
X-83.305 Y-42.939
X-83.712 Y-41.66
X-84.138 Y-40.388
X-84.582 Y-39.121
X-85.044 Y-37.861
X-85.524 Y-36.607
X-86.022 Y-35.361
X-86.539 Y-34.122
X-87.074 Y-32.892
X-87.63 Y-31.67
X-88.21 Y-30.46
X-88.819 Y-29.263
X-89.466 Y-28.088
X-90.01 Y-27.213
X-90.492 Y-26.541
X-90.727 Y-26.303
X-91 Y-26.11
X-91.302 Y-25.967
X-91.625 Y-25.879
X-91.958 Y-25.85
X-96.391
G3 X-96.873 Y-25.964 I0.044 J-1.269
G1 X-97.002 Y-26.023 Z16.008
X-97.13 Y-26.081 Z16.032
X-97.255 Y-26.138 Z16.071
X-97.375 Y-26.192 Z16.126
X-97.488 Y-26.244 Z16.195
X-97.594 Y-26.292 Z16.277
X-97.69 Y-26.336 Z16.372
X-97.777 Y-26.375 Z16.478
X-97.852 Y-26.41 Z16.594
X-97.914 Y-26.438 Z16.719
X-97.964 Y-26.461 Z16.851
X-98 Y-26.477 Z16.987
X-98.021 Y-26.487 Z17.128
X-98.029 Y-26.49 Z17.27
G0 Z27
X-101.445 Y-118.36
Z18.54
G1 Z17.27 F850
X-101.438 Y-118.364 Z17.128
X-101.417 Y-118.377 Z16.987
X-101.383 Y-118.397 Z16.851
X-101.337 Y-118.425 Z16.719
X-101.277 Y-118.46 Z16.594
X-101.207 Y-118.502 Z16.478
X-101.125 Y-118.551 Z16.372
X-101.034 Y-118.605 Z16.277
X-100.934 Y-118.664 Z16.195
X-100.827 Y-118.728 Z16.126
X-100.714 Y-118.795 Z16.071
X-100.596 Y-118.865 Z16.032
X-100.475 Y-118.937 Z16.008
X-100.353 Y-119.009 Z16
G3 X-99.875 Y-119.15 I0.514 J0.864
G1 X-95.686
X-95.283 Y-119.13
X-94.87 Y-119.082
X-94.438 Y-119.002
X-93.925 Y-118.871
X-93.404 Y-118.701
X-92.798 Y-118.458
X-92.174 Y-118.158
X-91.464 Y-117.756
X-90.711 Y-117.262
X-89.895 Y-116.645
X-89.001 Y-115.871
X-88.047 Y-114.927
X-87.156 Y-113.923
X-86.322 Y-112.871
X-85.54 Y-111.781
X-84.804 Y-110.658
X-84.111 Y-109.509
X-83.456 Y-108.338
X-82.836 Y-107.147
X-82.25 Y-105.939
X-81.695 Y-104.718
X-81.169 Y-103.483
X-80.67 Y-102.237
X-80.197 Y-100.981
X-79.75 Y-99.715
X-79.326 Y-98.442
X-78.926 Y-97.161
X-78.548 Y-95.873
X-78.193 Y-94.579
X-77.858 Y-93.279
X-77.545 Y-91.974
X-77.252 Y-90.664
X-76.98 Y-89.35
X-76.727 Y-88.031
X-76.494 Y-86.71
X-76.28 Y-85.385
X-76.086 Y-84.057
X-75.91 Y-82.726
X-75.754 Y-81.393
X-75.616 Y-80.058
X-75.498 Y-78.721
X-75.398 Y-77.383
X-75.316 Y-76.043
X-75.254 Y-74.702
X-75.21 Y-73.361
X-75.184 Y-72.019
X-75.177 Y-70.677
X-75.189 Y-69.335
X-75.219 Y-67.993
X-75.268 Y-66.652
X-75.336 Y-65.311
X-75.422 Y-63.972
X-75.526 Y-62.634
X-75.65 Y-61.297
X-75.791 Y-59.963
X-75.951 Y-58.63
X-76.13 Y-57.3
X-76.326 Y-55.972
X-76.541 Y-54.647
X-76.774 Y-53.325
X-77.025 Y-52.007
X-77.294 Y-50.692
X-77.58 Y-49.381
X-77.885 Y-48.074
X-78.207 Y-46.771
X-78.547 Y-45.472
X-78.904 Y-44.179
X-79.279 Y-42.89
X-79.672 Y-41.606
X-80.082 Y-40.328
X-80.509 Y-39.056
X-80.954 Y-37.79
X-81.416 Y-36.53
X-81.896 Y-35.276
X-82.394 Y-34.03
X-82.912 Y-32.792
X-83.451 Y-31.563
X-84.014 Y-30.344
X-84.609 Y-29.141
X-85.245 Y-27.96
X-85.752 Y-27.14
X-86.209 Y-26.499
X-86.428 Y-26.275
X-86.683 Y-26.094
X-86.966 Y-25.96
X-87.268 Y-25.878
X-87.579 Y-25.85
X-91.958
G3 X-92.441 Y-25.964 I0.044 J-1.269
G1 X-92.57 Y-26.023 Z16.008
X-92.698 Y-26.081 Z16.032
X-92.822 Y-26.138 Z16.071
X-92.942 Y-26.192 Z16.126
X-93.056 Y-26.244 Z16.195
X-93.161 Y-26.292 Z16.277
X-93.258 Y-26.336 Z16.372
X-93.344 Y-26.375 Z16.478
X-93.419 Y-26.41 Z16.594
X-93.482 Y-26.438 Z16.719
X-93.532 Y-26.461 Z16.851
X-93.567 Y-26.477 Z16.987
X-93.589 Y-26.487 Z17.128
X-93.596 Y-26.49 Z17.27
G0 Z27
X-97.256 Y-118.36
Z18.54
G1 Z17.27 F850
X-97.249 Y-118.364 Z17.128
X-97.228 Y-118.377 Z16.987
X-97.195 Y-118.397 Z16.851
X-97.148 Y-118.425 Z16.719
X-97.089 Y-118.46 Z16.594
X-97.018 Y-118.502 Z16.478
X-96.936 Y-118.551 Z16.372
X-96.845 Y-118.605 Z16.277
X-96.745 Y-118.664 Z16.195
X-96.638 Y-118.728 Z16.126
X-96.525 Y-118.795 Z16.071
X-96.407 Y-118.865 Z16.032
X-96.286 Y-118.937 Z16.008
X-96.164 Y-119.009 Z16
G3 X-95.686 Y-119.15 I0.514 J0.864
G1 X-91.497
X-91.101 Y-119.13
X-90.699 Y-119.083
X-90.267 Y-119.003
X-89.759 Y-118.874
X-89.246 Y-118.707
X-88.645 Y-118.466
X-88.032 Y-118.171
X-87.334 Y-117.776
X-86.592 Y-117.289
X-85.793 Y-116.685
X-84.917 Y-115.926
X-83.968 Y-114.987
X-83.078 Y-113.982
X-82.248 Y-112.928
X-81.469 Y-111.834
X-80.739 Y-110.708
X-80.051 Y-109.556
X-79.404 Y-108.38
X-78.792 Y-107.185
X-78.214 Y-105.974
X-77.668 Y-104.748
X-77.15 Y-103.51
X-76.661 Y-102.26
X-76.198 Y-101
X-75.76 Y-99.732
X-75.346 Y-98.455
X-74.955 Y-97.171
X-74.587 Y-95.88
X-74.24 Y-94.584
X-73.915 Y-93.282
X-73.61 Y-91.975
X-73.325 Y-90.663
X-73.06 Y-89.347
X-72.814 Y-88.028
X-72.588 Y-86.705
X-72.38 Y-85.379
X-72.192 Y-84.05
X-72.022 Y-82.719
X-71.87 Y-81.385
X-71.737 Y-80.05
X-71.622 Y-78.712
X-71.525 Y-77.374
X-71.446 Y-76.034
X-71.385 Y-74.693
X-71.342 Y-73.352
X-71.317 Y-72.01
X-71.31 Y-70.668
X-71.321 Y-69.325
X-71.35 Y-67.984
X-71.397 Y-66.642
X-71.462 Y-65.302
X-71.544 Y-63.962
X-71.645 Y-62.624
X-71.763 Y-61.287
X-71.9 Y-59.952
X-72.054 Y-58.618
X-72.225 Y-57.287
X-72.415 Y-55.958
X-72.621 Y-54.632
X-72.845 Y-53.309
X-73.087 Y-51.989
X-73.346 Y-50.672
X-73.622 Y-49.358
X-73.915 Y-48.049
X-74.226 Y-46.743
X-74.553 Y-45.441
X-74.897 Y-44.144
X-75.259 Y-42.851
X-75.637 Y-41.564
X-76.032 Y-40.281
X-76.444 Y-39.004
X-76.873 Y-37.732
X-77.319 Y-36.466
X-77.782 Y-35.206
X-78.264 Y-33.954
X-78.765 Y-32.709
X-79.288 Y-31.473
X-79.837 Y-30.248
X-80.42 Y-29.039
X-81.048 Y-27.852
X-81.528 Y-27.071
X-81.963 Y-26.458
X-82.168 Y-26.249
X-82.406 Y-26.078
X-82.67 Y-25.953
X-82.953 Y-25.876
X-83.244 Y-25.85
X-87.579
G3 X-88.062 Y-25.964 I0.044 J-1.269
G1 X-88.191 Y-26.023 Z16.008
X-88.319 Y-26.081 Z16.032
X-88.443 Y-26.138 Z16.071
X-88.563 Y-26.192 Z16.126
X-88.676 Y-26.244 Z16.195
X-88.782 Y-26.292 Z16.277
X-88.879 Y-26.336 Z16.372
X-88.965 Y-26.375 Z16.478
X-89.04 Y-26.41 Z16.594
X-89.103 Y-26.438 Z16.719
X-89.152 Y-26.461 Z16.851
X-89.188 Y-26.477 Z16.987
X-89.21 Y-26.487 Z17.128
X-89.217 Y-26.49 Z17.27
G0 Z27
X-93.067 Y-118.36
Z18.54
G1 Z17.27 F850
X-93.06 Y-118.364 Z17.128
X-93.04 Y-118.377 Z16.987
X-93.006 Y-118.397 Z16.851
X-92.959 Y-118.425 Z16.719
X-92.9 Y-118.46 Z16.594
X-92.829 Y-118.502 Z16.478
X-92.747 Y-118.551 Z16.372
X-92.656 Y-118.605 Z16.277
X-92.556 Y-118.664 Z16.195
X-92.449 Y-118.728 Z16.126
X-92.336 Y-118.795 Z16.071
X-92.218 Y-118.865 Z16.032
X-92.098 Y-118.937 Z16.008
X-91.975 Y-119.009 Z16
G3 X-91.497 Y-119.15 I0.514 J0.864
G1 X-87.308
X-86.956 Y-119.132
X-86.563 Y-119.086
X-86.13 Y-119.006
X-85.628 Y-118.879
X-85.12 Y-118.713
X-84.526 Y-118.474
X-83.92 Y-118.183
X-83.232 Y-117.794
X-82.5 Y-117.313
X-81.714 Y-116.719
X-80.854 Y-115.974
X-79.923 Y-115.054
X-79.034 Y-114.048
X-78.205 Y-112.993
X-77.429 Y-111.898
X-76.702 Y-110.77
X-76.02 Y-109.614
X-75.377 Y-108.435
X-74.772 Y-107.237
X-74.201 Y-106.023
X-73.662 Y-104.794
X-73.152 Y-103.552
X-72.671 Y-102.299
X-72.215 Y-101.037
X-71.785 Y-99.765
X-71.38 Y-98.486
X-70.997 Y-97.2
X-70.637 Y-95.907
X-70.457 Y-95.218
X-70.398 Y-94.944
X-70.362 Y-94.665
X-70.35 Y-94.385
Y-51.357
X-70.484 Y-48.676
X-70.621 Y-47.34
X-70.812 Y-46.012
X-71.049 Y-44.691
X-71.324 Y-43.377
X-71.631 Y-42.071
X-71.967 Y-40.771
X-72.329 Y-39.479
X-72.714 Y-38.193
X-73.122 Y-36.914
X-73.55 Y-35.643
X-74 Y-34.378
X-74.472 Y-33.122
X-74.967 Y-31.874
X-75.489 Y-30.637
X-76.042 Y-29.415
X-76.641 Y-28.213
X-77.143 Y-27.331
X-77.426 Y-26.962
X-77.758 Y-26.636
X-78.132 Y-26.361
X-78.541 Y-26.141
X-78.977 Y-25.98
X-79.432 Y-25.883
X-79.895 Y-25.85
X-83.244
G3 X-84.345 Y-27.668 I0.044 J-1.269
G1 X-72.765 Y-51.861
G3 X-70.35 Y-51.357 I1.146 J0.548
G1 Y-38.023
X-70.417 Y-36.683
X-70.482 Y-36.015
X-70.66 Y-34.684
X-70.926 Y-33.369
X-71.263 Y-32.07
X-71.664 Y-30.789
X-72.124 Y-29.528
X-72.54 Y-28.571
X-72.939 Y-27.8
X-73.154 Y-27.445
X-73.433 Y-27.05
X-73.768 Y-26.7
X-74.15 Y-26.403
X-74.572 Y-26.165
X-75.024 Y-25.991
X-75.496 Y-25.885
X-75.979 Y-25.85
X-79.895
G3 X-80.863 Y-27.886 I0.044 J-1.269
G1 X-72.631 Y-38.746
G3 X-70.35 Y-38.023 I1.012 J0.767
G1 Y-29.261
X-70.367 Y-28.929
X-70.411 Y-28.545
X-70.484 Y-28.153
X-70.577 Y-27.789
X-70.586 Y-27.76
X-70.753 Y-27.359
X-70.98 Y-26.989
X-71.262 Y-26.659
X-71.592 Y-26.378
X-71.963 Y-26.151
X-72.364 Y-25.985
X-72.786 Y-25.884
X-73.218 Y-25.85
G3 X-74.194 Y-27.875 I0.044 J-1.269
G1 X-72.639 Y-29.973
G3 X-70.464 Y-29.743 I1.02 J0.756
X-70.35 Y-29.261 I-1.156 J0.527
G1 Y-27.737
X-70.355 Y-27.356
X-70.387 Y-26.975
X-70.431 Y-26.785
X-70.507 Y-26.594
X-70.553 Y-26.511
X-70.657 Y-26.362
X-70.797 Y-26.213
X-70.933 Y-26.103
X-71.124 Y-25.993
X-71.314 Y-25.922
X-71.505 Y-25.883
X-71.695 Y-25.864
X-72.076 Y-25.85
X-75.979
G3 X-76.461 Y-25.964 I0.044 J-1.269
G1 X-76.59 Y-26.023 Z16.008
X-76.718 Y-26.081 Z16.032
X-76.843 Y-26.138 Z16.071
X-76.962 Y-26.192 Z16.126
X-77.076 Y-26.244 Z16.195
X-77.182 Y-26.292 Z16.277
X-77.278 Y-26.336 Z16.372
X-77.365 Y-26.375 Z16.478
X-77.44 Y-26.41 Z16.594
X-77.502 Y-26.438 Z16.719
X-77.552 Y-26.461 Z16.851
X-77.588 Y-26.477 Z16.987
X-77.609 Y-26.487 Z17.128
X-77.617 Y-26.49 Z17.27
G0 Z27
X-88.878 Y-118.36
Z18.54
G1 Z17.27 F850
X-88.871 Y-118.364 Z17.128
X-88.851 Y-118.377 Z16.987
X-88.817 Y-118.397 Z16.851
X-88.77 Y-118.425 Z16.719
X-88.711 Y-118.46 Z16.594
X-88.64 Y-118.502 Z16.478
X-88.558 Y-118.551 Z16.372
X-88.467 Y-118.605 Z16.277
X-88.367 Y-118.664 Z16.195
X-88.26 Y-118.728 Z16.126
X-88.147 Y-118.795 Z16.071
X-88.029 Y-118.865 Z16.032
X-87.909 Y-118.937 Z16.008
X-87.787 Y-119.009 Z16
G3 X-87.308 Y-119.15 I0.514 J0.864
G1 X-83.119
X-82.841 Y-119.136
X-82.455 Y-119.091
X-82.023 Y-119.011
X-81.529 Y-118.885
X-81.023 Y-118.72
X-80.434 Y-118.484
X-79.834 Y-118.195
X-79.155 Y-117.811
X-78.429 Y-117.335
X-77.656 Y-116.75
X-76.809 Y-116.017
X-75.894 Y-115.111
X-75.004 Y-114.106
X-74.176 Y-113.05
X-73.403 Y-111.953
X-72.68 Y-110.822
X-72.001 Y-109.664
X-71.364 Y-108.483
X-70.764 Y-107.282
X-70.657 Y-107.05
X-70.488 Y-106.604
X-70.385 Y-106.137
X-70.35 Y-105.661
Y-94.385
G3 X-72.76 Y-93.872 I-1.269 J-0.044
G1 X-84.216 Y-117.323
G3 X-83.601 Y-119.036 I1.141 J-0.557
X-83.119 Y-119.15 I0.527 J1.156
G1 X-79.311
X-78.731 Y-119.121
X-78.353 Y-119.077
X-77.921 Y-118.997
X-77.439 Y-118.874
X-76.933 Y-118.709
X-76.353 Y-118.476
X-75.756 Y-118.189
X-75.087 Y-117.811
X-74.367 Y-117.338
X-73.606 Y-116.763
X-72.772 Y-116.041
X-71.871 Y-115.15
X-71.179 Y-114.367
X-70.889 Y-113.987
X-70.657 Y-113.569
X-70.488 Y-113.123
X-70.385 Y-112.656
X-70.35 Y-112.18
Y-105.661
G3 X-72.695 Y-105.03 I-1.269 J-0.044
G1 X-80.342 Y-117.205
G3 X-79.793 Y-119.036 I1.075 J-0.676
X-79.311 Y-119.15 I0.527 J1.156
G1 X-75.122
X-74.674 Y-119.128
X-74.299 Y-119.084
X-73.866 Y-119.004
X-73.39 Y-118.882
X-72.884 Y-118.717
X-72.346 Y-118.501
X-71.82 Y-118.248
X-71.457 Y-118.006
X-71.135 Y-117.711
X-70.861 Y-117.372
X-70.641 Y-116.995
X-70.481 Y-116.589
X-70.383 Y-116.164
X-70.35 Y-115.729
G3 X-70.464 Y-115.247 I-1.269 J-0.044
X-72.28 Y-114.689 I-1.156 J-0.527
G1 X-75.739 Y-116.796
G3 X-75.605 Y-119.036 I0.661 J-1.085
X-75.122 Y-119.15 I0.527 J1.156
G1 X-72.076
X-71.695 Y-119.136
X-71.505 Y-119.117
X-71.314 Y-119.078
X-71.124 Y-119.007
X-70.933 Y-118.897
X-70.797 Y-118.787
X-70.657 Y-118.638
X-70.553 Y-118.488
X-70.507 Y-118.406
X-70.431 Y-118.215
X-70.387 Y-118.025
X-70.355 Y-117.644
X-70.35 Y-117.263
Y-112.18
X-70.364 Y-112.095 Z16.008
X-70.377 Y-112.013 Z16.03
X-70.389 Y-111.936 Z16.066
X-70.401 Y-111.867 Z16.115
X-70.422 Y-111.808 Z16.176
X-70.44 Y-111.761 Z16.248
X-70.453 Y-111.726 Z16.327
X-70.461 Y-111.705 Z16.411
X-70.464 Y-111.698 Z16.499
G0 Z27
X-178.308 Y-75.346
Z19.77
G1 Z18.5 F850
G3 X-167.67 Y-69.654 Z17.838 I5.319 J2.846 F283.3
X-178.308 Y-75.346 Z17.176 I-5.319 J-2.846
X-167.67 Y-69.654 Z16.515 I5.319 J2.846
X-178.308 Y-75.346 Z15.853 I-5.319 J-2.846
X-167.67 Y-69.654 Z15.191 I5.319 J2.846
X-178.308 Y-75.346 Z14.529 I-5.319 J-2.846
X-167.67 Y-69.654 Z13.867 I5.319 J2.846
X-178.308 Y-75.346 Z13.206 I-5.319 J-2.846
X-167.67 Y-69.654 Z12.544 I5.319 J2.846
X-178.308 Y-75.346 Z11.882 I-5.319 J-2.846
X-167.67 Y-69.654 Z11.22 I5.319 J2.846
X-178.308 Y-75.346 Z10.558 I-5.319 J-2.846
X-166.957 Y-72.5 Z10 I5.319 J2.846
X-179.022 I-6.033
X-167.233 Y-74.305 I6.033
X-166.957 Y-72.5 I-5.756 J1.805
G1 X-166.953 Y-72.164 F850
X-166.815 Y-70.829
X-166.778 Y-70.754
X-166.719 Y-70.616
X-166.668 Y-70.468
X-166.623 Y-70.301
X-166.585 Y-70.116
X-166.557 Y-69.911
X-166.542 Y-69.689
Y-69.449
X-166.559 Y-69.194
X-166.595 Y-68.923
X-166.652 Y-68.639
X-166.731 Y-68.344
X-166.836 Y-68.039
X-166.967 Y-67.728
X-167.125 Y-67.411
X-167.311 Y-67.093
X-167.526 Y-66.776
X-167.771 Y-66.463
X-168.044 Y-66.156
X-168.347 Y-65.859
X-168.678 Y-65.575
X-169.037 Y-65.307
X-169.422 Y-65.056
X-169.831 Y-64.827
X-170.264 Y-64.621
X-170.718 Y-64.442
X-171.19 Y-64.29
X-171.679 Y-64.168
X-172.182 Y-64.077
X-172.697 Y-64.019
X-173.22 Y-63.995
X-173.749 Y-64.006
X-174.281 Y-64.053
X-174.813 Y-64.135
X-175.342 Y-64.253
X-175.866 Y-64.408
X-176.382 Y-64.597
X-176.886 Y-64.822
X-177.377 Y-65.081
X-177.852 Y-65.373
X-178.308 Y-65.697
X-178.743 Y-66.052
X-179.154 Y-66.437
X-179.541 Y-66.848
X-179.9 Y-67.286
X-180.23 Y-67.747
X-180.529 Y-68.23
X-180.796 Y-68.733
X-181.029 Y-69.253
X-181.228 Y-69.788
X-181.39 Y-70.336
X-181.517 Y-70.894
X-181.606 Y-71.46
X-181.657 Y-72.03
X-181.671 Y-72.604
X-181.646 Y-73.177
X-181.584 Y-73.748
X-181.483 Y-74.314
X-181.346 Y-74.872
X-181.171 Y-75.42
X-180.961 Y-75.955
X-180.715 Y-76.475
X-180.435 Y-76.978
X-180.123 Y-77.462
X-179.779 Y-77.924
X-179.405 Y-78.362
X-179.003 Y-78.774
X-178.574 Y-79.159
X-178.12 Y-79.515
X-177.644 Y-79.84
X-177.148 Y-80.132
X-176.633 Y-80.391
X-176.102 Y-80.615
X-175.557 Y-80.804
X-175.001 Y-80.956
X-174.436 Y-81.071
X-173.865 Y-81.148
X-173.289 Y-81.187
X-172.713 Y-81.188
X-172.137 Y-81.151
X-171.565 Y-81.075
X-171 Y-80.962
X-170.443 Y-80.812
X-169.898 Y-80.625
X-169.366 Y-80.402
X-168.85 Y-80.144
X-168.352 Y-79.853
X-167.874 Y-79.529
X-167.42 Y-79.174
X-166.989 Y-78.79
X-166.585 Y-78.379
X-166.21 Y-77.941
X-165.864 Y-77.479
X-165.549 Y-76.996
X-165.152 Y-76.287
X-164.594 Y-75.115
X-164.237 Y-74.215
X-163.985 Y-73.431
X-163.802 Y-72.699
X-163.678 Y-72.011
X-163.604 Y-71.354
X-163.575 Y-70.715
X-163.588 Y-70.09
X-163.641 Y-69.477
X-163.734 Y-68.875
X-163.866 Y-68.286
X-164.036 Y-67.708
X-164.243 Y-67.142
X-164.489 Y-66.59
X-164.773 Y-66.053
X-165.093 Y-65.531
X-165.451 Y-65.028
X-165.844 Y-64.546
X-166.273 Y-64.086
X-166.737 Y-63.65
X-167.234 Y-63.242
X-167.763 Y-62.864
X-168.321 Y-62.518
X-168.908 Y-62.206
X-169.52 Y-61.932
X-170.154 Y-61.696
X-170.809 Y-61.501
X-171.48 Y-61.349
X-172.166 Y-61.241
X-172.864 Y-61.178
X-173.569 Y-61.161
X-174.28 Y-61.191
X-174.991 Y-61.269
X-175.701 Y-61.395
X-176.405 Y-61.568
X-177.1 Y-61.789
X-177.782 Y-62.057
X-178.449 Y-62.372
X-179.096 Y-62.732
X-179.721 Y-63.135
X-180.32 Y-63.581
X-180.89 Y-64.067
X-181.428 Y-64.592
X-181.931 Y-65.152
X-182.398 Y-65.746
X-182.825 Y-66.372
X-183.21 Y-67.025
X-183.552 Y-67.704
X-183.849 Y-68.406
X-184.098 Y-69.126
X-184.3 Y-69.863
X-184.452 Y-70.612
X-184.555 Y-71.371
X-184.607 Y-72.135
X-184.609 Y-72.902
X-184.559 Y-73.668
X-184.459 Y-74.43
X-184.308 Y-75.184
X-184.108 Y-75.926
X-183.858 Y-76.654
X-183.561 Y-77.364
X-183.217 Y-78.054
X-182.828 Y-78.719
X-182.396 Y-79.357
X-181.922 Y-79.965
X-181.409 Y-80.54
X-180.858 Y-81.081
X-180.273 Y-81.584
X-179.655 Y-82.047
X-179.009 Y-82.468
X-178.335 Y-82.845
X-177.638 Y-83.177
X-176.92 Y-83.462
X-176.185 Y-83.698
X-175.436 Y-83.886
X-174.676 Y-84.023
X-173.909 Y-84.11
X-173.137 Y-84.146
X-172.365 Y-84.13
X-171.595 Y-84.063
X-170.831 Y-83.945
X-170.077 Y-83.777
X-169.336 Y-83.559
X-168.611 Y-83.293
X-167.905 Y-82.979
X-167.221 Y-82.619
X-166.563 Y-82.214
X-165.933 Y-81.767
X-165.305 Y-81.255
X-164.676 Y-80.669
X-164.043 Y-79.995
X-163.427 Y-79.245
X-162.856 Y-78.447
X-162.34 Y-77.615
X-161.887 Y-76.763
X-161.498 Y-75.897
X-161.174 Y-75.025
X-160.913 Y-74.15
X-160.715 Y-73.277
X-160.578 Y-72.41
X-160.5 Y-71.549
X-160.479 Y-70.696
X-160.515 Y-69.851
X-160.606 Y-69.018
X-160.751 Y-68.196
X-160.95 Y-67.389
X-161.202 Y-66.598
X-161.505 Y-65.825
X-161.859 Y-65.073
X-162.263 Y-64.345
X-162.717 Y-63.643
X-163.217 Y-62.97
X-163.764 Y-62.329
X-164.355 Y-61.723
X-164.988 Y-61.153
X-165.662 Y-60.625
X-166.373 Y-60.139
X-167.119 Y-59.698
X-167.898 Y-59.306
X-168.706 Y-58.964
X-169.539 Y-58.675
X-170.396 Y-58.44
X-171.271 Y-58.262
X-172.162 Y-58.141
X-173.065 Y-58.079
X-173.975 Y-58.077
X-174.889 Y-58.136
X-175.802 Y-58.256
X-176.71 Y-58.437
X-177.608 Y-58.68
X-178.492 Y-58.982
X-179.357 Y-59.344
X-180.2 Y-59.765
X-181.017 Y-60.242
X-181.802 Y-60.774
X-182.553 Y-61.359
X-183.266 Y-61.994
X-183.937 Y-62.677
X-184.562 Y-63.405
X-185.139 Y-64.174
X-185.665 Y-64.981
X-186.138 Y-65.824
X-186.554 Y-66.697
X-186.911 Y-67.597
X-187.209 Y-68.521
X-187.445 Y-69.463
X-187.618 Y-70.42
X-187.728 Y-71.387
X-187.773 Y-72.361
X-187.754 Y-73.336
X-187.669 Y-74.309
X-187.521 Y-75.274
X-187.308 Y-76.229
X-187.033 Y-77.167
X-186.696 Y-78.086
X-186.298 Y-78.981
X-185.842 Y-79.847
X-185.329 Y-80.682
X-184.761 Y-81.482
X-184.142 Y-82.242
X-183.473 Y-82.96
X-182.758 Y-83.631
X-182 Y-84.255
X-181.202 Y-84.826
X-180.368 Y-85.344
X-179.501 Y-85.805
X-178.605 Y-86.208
X-177.685 Y-86.55
X-176.744 Y-86.831
X-175.786 Y-87.049
X-174.815 Y-87.202
X-173.837 Y-87.291
X-172.854 Y-87.315
X-171.873 Y-87.274
X-170.896 Y-87.168
X-169.928 Y-86.997
X-168.973 Y-86.762
X-168.036 Y-86.465
X-167.115 Y-86.103
X-166.207 Y-85.675
X-165.308 Y-85.176
X-164.421 Y-84.604
X-163.557 Y-83.962
X-162.725 Y-83.253
X-161.93 Y-82.479
X-161.18 Y-81.644
X-160.481 Y-80.756
X-159.841 Y-79.819
X-159.265 Y-78.844
X-158.758 Y-77.836
X-158.321 Y-76.805
X-157.956 Y-75.755
X-157.665 Y-74.693
X-157.446 Y-73.623
X-157.3 Y-72.548
X-157.227 Y-71.474
X-157.224 Y-70.404
X-157.292 Y-69.34
X-157.43 Y-68.287
X-157.637 Y-67.249
X-157.913 Y-66.228
X-158.254 Y-65.228
X-158.662 Y-64.253
X-159.133 Y-63.307
X-159.667 Y-62.392
X-160.262 Y-61.514
X-160.915 Y-60.674
X-161.625 Y-59.878
X-162.388 Y-59.128
X-163.202 Y-58.427
X-164.065 Y-57.78
X-164.972 Y-57.189
X-165.92 Y-56.657
X-166.905 Y-56.187
X-167.924 Y-55.782
X-168.973 Y-55.444
X-170.047 Y-55.174
X-171.141 Y-54.976
X-172.252 Y-54.85
X-173.373 Y-54.798
X-174.501 Y-54.82
X-175.63 Y-54.917
X-176.754 Y-55.09
X-177.87 Y-55.338
X-178.971 Y-55.661
X-180.052 Y-56.057
X-181.109 Y-56.527
X-182.135 Y-57.067
X-183.126 Y-57.675
X-184.078 Y-58.35
X-184.985 Y-59.089
X-185.844 Y-59.888
X-186.649 Y-60.745
X-187.397 Y-61.655
X-188.085 Y-62.614
X-188.709 Y-63.619
X-189.265 Y-64.664
X-189.752 Y-65.746
X-190.166 Y-66.859
X-190.507 Y-67.999
X-190.771 Y-69.16
X-190.958 Y-70.337
X-191.066 Y-71.526
X-191.096 Y-72.72
X-191.046 Y-73.914
X-190.917 Y-75.103
X-190.709 Y-76.282
X-190.423 Y-77.445
X-190.061 Y-78.587
X-189.623 Y-79.703
X-189.112 Y-80.788
X-188.531 Y-81.838
X-187.88 Y-82.846
X-187.164 Y-83.81
X-186.385 Y-84.724
X-185.547 Y-85.585
X-184.654 Y-86.389
X-183.709 Y-87.132
X-182.717 Y-87.811
X-181.682 Y-88.422
X-180.608 Y-88.964
X-179.501 Y-89.433
X-178.364 Y-89.828
X-177.204 Y-90.146
X-176.026 Y-90.387
X-174.833 Y-90.55
X-173.633 Y-90.633
X-172.43 Y-90.636
X-171.229 Y-90.559
X-170.034 Y-90.403
X-168.848 Y-90.167
X-167.671 Y-89.85
X-166.507 Y-89.452
X-165.357 Y-88.972
X-164.229 Y-88.41
X-163.126 Y-87.767
X-162.057 Y-87.043
X-161.026 Y-86.242
X-160.043 Y-85.366
X-159.113 Y-84.421
X-158.245 Y-83.411
X-157.443 Y-82.344
X-156.714 Y-81.226
X-156.061 Y-80.063
X-155.488 Y-78.862
X-154.998 Y-77.63
X-154.592 Y-76.374
X-154.272 Y-75.098
X-154.038 Y-73.809
X-153.89 Y-72.512
X-153.829 Y-71.214
X-153.854 Y-69.918
X-153.965 Y-68.629
X-154.161 Y-67.354
X-154.44 Y-66.096
X-154.802 Y-64.861
X-155.245 Y-63.653
X-155.767 Y-62.476
X-156.366 Y-61.336
X-157.04 Y-60.238
X-157.787 Y-59.185
X-158.603 Y-58.181
X-159.486 Y-57.232
X-160.433 Y-56.342
X-161.439 Y-55.514
X-162.502 Y-54.752
X-163.616 Y-54.06
X-164.777 Y-53.441
X-165.981 Y-52.899
X-167.223 Y-52.436
X-168.498 Y-52.055
X-169.8 Y-51.758
X-171.124 Y-51.548
X-172.46 Y-51.426
X-173.802 Y-51.392
X-175.143 Y-51.447
X-176.478 Y-51.589
X-177.8 Y-51.818
X-179.105 Y-52.133
X-180.386 Y-52.532
X-181.639 Y-53.013
X-182.859 Y-53.573
X-184.04 Y-54.211
X-185.177 Y-54.924
X-186.266 Y-55.708
X-187.303 Y-56.56
X-188.283 Y-57.477
X-189.203 Y-58.454
X-190.059 Y-59.488
X-190.847 Y-60.575
X-191.566 Y-61.708
X-192.211 Y-62.885
X-192.781 Y-64.1
X-193.273 Y-65.349
X-193.686 Y-66.626
X-194.019 Y-67.926
X-194.269 Y-69.245
X-194.436 Y-70.577
X-194.52 Y-71.916
Y-73.258
X-194.437 Y-74.598
X-194.27 Y-75.929
X-194.019 Y-77.248
X-193.686 Y-78.548
X-193.272 Y-79.825
X-192.779 Y-81.073
X-192.208 Y-82.288
X-191.563 Y-83.465
X-190.846 Y-84.599
X-190.06 Y-85.687
X-189.207 Y-86.724
X-188.292 Y-87.705
X-187.317 Y-88.628
X-186.288 Y-89.489
X-185.206 Y-90.284
X-184.078 Y-91.011
X-182.907 Y-91.666
X-181.697 Y-92.248
X-180.453 Y-92.752
X-179.181 Y-93.178
X-177.884 Y-93.523
X-176.567 Y-93.787
X-175.238 Y-93.968
X-173.899 Y-94.065
X-172.557 Y-94.079
X-171.217 Y-94.01
X-169.883 Y-93.859
X-168.561 Y-93.625
X-167.256 Y-93.312
X-165.973 Y-92.92
X-164.715 Y-92.451
X-163.488 Y-91.908
X-162.295 Y-91.291
X-161.142 Y-90.604
X-160.032 Y-89.851
X-158.967 Y-89.033
X-157.951 Y-88.156
X-156.987 Y-87.223
X-156.077 Y-86.236
X-155.226 Y-85.198
X-154.437 Y-84.112
X-153.712 Y-82.983
X-153.053 Y-81.814
X-152.461 Y-80.609
X-151.938 Y-79.373
X-151.486 Y-78.11
X-151.108 Y-76.822
X-150.806 Y-75.514
X-150.58 Y-74.191
X-150.433 Y-72.857
X-150.362 Y-71.517
X-150.37 Y-70.175
X-150.454 Y-68.835
X-150.616 Y-67.503
X-150.855 Y-66.182
X-151.172 Y-64.878
X-151.566 Y-63.595
X-152.035 Y-62.337
X-152.577 Y-61.109
X-153.189 Y-59.915
X-153.87 Y-58.758
X-154.617 Y-57.643
X-155.426 Y-56.572
X-156.297 Y-55.551
X-157.227 Y-54.584
X-158.213 Y-53.673
X-159.249 Y-52.82
X-160.334 Y-52.029
X-161.461 Y-51.301
X-162.628 Y-50.638
X-163.831 Y-50.043
X-165.067 Y-49.519
X-166.331 Y-49.068
X-167.619 Y-48.69
X-168.926 Y-48.386
X-170.248 Y-48.156
X-171.581 Y-47.999
X-172.921 Y-47.918
X-174.263 Y-47.914
X-175.603 Y-47.986
X-176.937 Y-48.133
X-178.261 Y-48.355
X-179.571 Y-48.649
X-180.862 Y-49.014
X-182.132 Y-49.449
X-183.375 Y-49.956
X-184.587 Y-50.532
X-185.766 Y-51.174
X-186.907 Y-51.879
X-188.009 Y-52.646
X-189.068 Y-53.471
X-190.08 Y-54.353
X-191.041 Y-55.29
X-191.949 Y-56.278
X-192.801 Y-57.315
X-193.596 Y-58.396
X-194.332 Y-59.519
X-195.006 Y-60.679
X-195.618 Y-61.874
X-196.163 Y-63.1
X-196.639 Y-64.355
X-197.047 Y-65.634
X-197.386 Y-66.932
X-197.655 Y-68.247
X-197.854 Y-69.575
X-197.982 Y-70.911
X-198.037 Y-72.252
X-198.018 Y-73.594
X-197.927 Y-74.933
X-197.764 Y-76.265
X-197.53 Y-77.587
X-197.226 Y-78.894
X-196.853 Y-80.183
X-196.41 Y-81.45
X-195.899 Y-82.691
X-195.321 Y-83.903
X-194.679 Y-85.081
X-193.976 Y-86.224
X-193.213 Y-87.328
X-192.392 Y-88.391
X-191.516 Y-89.407
X-190.586 Y-90.375
X-189.605 Y-91.29
X-188.576 Y-92.152
X-187.503 Y-92.959
X-186.389 Y-93.707
X-185.237 Y-94.396
X-184.05 Y-95.022
X-182.83 Y-95.582
X-181.582 Y-96.075
X-180.309 Y-96.5
X-179.015 Y-96.857
X-177.704 Y-97.145
X-176.38 Y-97.363
X-175.045 Y-97.51
X-173.705 Y-97.584
X-172.363 Y-97.585
X-171.023 Y-97.515
X-169.688 Y-97.375
X-168.362 Y-97.165
X-167.05 Y-96.886
X-165.753 Y-96.54
X-164.476 Y-96.125
X-163.224 Y-95.643
X-161.998 Y-95.096
X-160.802 Y-94.487
X-159.639 Y-93.817
X-158.511 Y-93.09
X-157.421 Y-92.307
X-156.371 Y-91.471
X-155.366 Y-90.581
X-154.407 Y-89.642
X-153.497 Y-88.655
X-152.638 Y-87.625
X-151.83 Y-86.552
X-151.077 Y-85.442
X-150.379 Y-84.296
X-149.739 Y-83.116
X-149.159 Y-81.905
X-148.642 Y-80.667
X-148.187 Y-79.404
X-147.796 Y-78.12
X-147.469 Y-76.818
X-147.207 Y-75.502
X-147.011 Y-74.174
X-146.884 Y-72.838
X-146.824 Y-71.497
X-146.832 Y-70.155
X-146.908 Y-68.815
X-147.051 Y-67.481
X-147.26 Y-66.155
X-147.536 Y-64.841
X-147.879 Y-63.544
X-148.288 Y-62.266
X-148.762 Y-61.01
X-149.3 Y-59.78
X-149.898 Y-58.579
X-150.555 Y-57.408
X-151.27 Y-56.272
X-152.041 Y-55.174
X-152.868 Y-54.117
X-153.749 Y-53.104
X-154.679 Y-52.137
X-155.657 Y-51.218
X-156.68 Y-50.348
X-157.744 Y-49.531
X-158.847 Y-48.766
X-159.988 Y-48.059
X-161.163 Y-47.41
X-162.369 Y-46.822
X-163.604 Y-46.295
X-164.863 Y-45.83
X-166.143 Y-45.427
X-167.441 Y-45.086
X-168.754 Y-44.81
X-170.08 Y-44.599
X-171.414 Y-44.456
X-172.754 Y-44.378
X-174.096 Y-44.367
X-175.437 Y-44.421
X-176.774 Y-44.54
X-178.104 Y-44.722
X-179.423 Y-44.968
X-180.729 Y-45.279
X-182.018 Y-45.654
X-183.287 Y-46.092
X-184.533 Y-46.591
X-185.753 Y-47.148
X-186.946 Y-47.763
X-188.109 Y-48.434
X-189.238 Y-49.16
X-190.33 Y-49.94
X-191.383 Y-50.772
X-192.395 Y-51.654
X-193.363 Y-52.584
X-194.286 Y-53.558
X-195.162 Y-54.575
X-195.99 Y-55.631
X-196.767 Y-56.725
X-197.49 Y-57.856
X-198.158 Y-59.021
X-198.769 Y-60.215
X-199.323 Y-61.438
X-199.819 Y-62.685
X-200.256 Y-63.954
X-200.635 Y-65.242
X-200.952 Y-66.546
X-201.206 Y-67.864
X-201.397 Y-69.192
X-201.525 Y-70.528
X-201.59 Y-71.869
X-201.591 Y-73.211
X-201.531 Y-74.552
X-201.408 Y-75.888
X-201.222 Y-77.217
X-200.974 Y-78.536
X-200.662 Y-79.842
X-200.289 Y-81.131
X-199.855 Y-82.401
X-199.363 Y-83.65
X-198.813 Y-84.874
X-198.207 Y-86.072
X-197.546 Y-87.24
X-196.83 Y-88.375
X-196.061 Y-89.475
X-195.24 Y-90.537
X-194.371 Y-91.56
X-193.455 Y-92.541
X-192.495 Y-93.478
X-191.492 Y-94.371
X-190.449 Y-95.215
X-189.367 Y-96.01
X-188.249 Y-96.751
X-187.097 Y-97.44
X-185.913 Y-98.073
X-184.701 Y-98.65
X-183.464 Y-99.171
X-182.204 Y-99.633
X-180.924 Y-100.037
X-179.627 Y-100.379
X-178.314 Y-100.659
X-176.99 Y-100.877
X-175.656 Y-101.032
X-174.318 Y-101.125
X-172.976 Y-101.157
X-171.634 Y-101.126
X-170.295 Y-101.034
X-168.962 Y-100.879
X-167.637 Y-100.662
X-166.324 Y-100.384
X-165.026 Y-100.045
X-163.744 Y-99.647
X-162.482 Y-99.191
X-161.241 Y-98.679
X-160.025 Y-98.111
X-158.835 Y-97.489
X-157.676 Y-96.813
X-156.548 Y-96.086
X-155.454 Y-95.308
X-154.396 Y-94.483
X-153.375 Y-93.611
X-152.394 Y-92.695
X-151.454 Y-91.737
X-150.557 Y-90.739
X-149.706 Y-89.701
X-148.901 Y-88.627
X-148.145 Y-87.518
X-147.439 Y-86.377
X-146.784 Y-85.205
X-146.181 Y-84.006
X-145.63 Y-82.782
X-145.134 Y-81.535
X-144.693 Y-80.267
X-144.31 Y-78.981
X-143.984 Y-77.679
X-143.717 Y-76.364
X-143.508 Y-75.038
X-143.358 Y-73.704
X-143.266 Y-72.365
X-143.234 Y-71.024
X-143.26 Y-69.682
X-143.348 Y-68.342
X-143.495 Y-67.008
X-143.702 Y-65.682
X-143.969 Y-64.367
X-144.293 Y-63.065
X-144.675 Y-61.778
X-145.114 Y-60.509
X-145.607 Y-59.261
X-146.157 Y-58.037
X-146.761 Y-56.838
X-147.418 Y-55.668
X-148.127 Y-54.528
X-148.886 Y-53.422
X-149.694 Y-52.349
X-150.548 Y-51.314
X-151.446 Y-50.317
X-152.389 Y-49.361
X-153.373 Y-48.448
X-154.396 Y-47.581
X-155.458 Y-46.759
X-156.554 Y-45.985
X-157.684 Y-45.261
X-158.844 Y-44.586
X-160.033 Y-43.963
X-161.248 Y-43.392
X-162.487 Y-42.876
X-163.747 Y-42.415
X-165.027 Y-42.01
X-166.323 Y-41.662
X-167.633 Y-41.37
X-168.955 Y-41.136
X-170.285 Y-40.959
X-171.622 Y-40.839
X-172.963 Y-40.777
X-174.305 Y-40.775
X-175.646 Y-40.83
X-176.983 Y-40.944
X-178.314 Y-41.115
X-179.637 Y-41.343
X-180.949 Y-41.628
X-182.247 Y-41.969
X-183.529 Y-42.364
X-184.794 Y-42.814
X-186.038 Y-43.319
X-187.258 Y-43.876
X-188.455 Y-44.485
X-189.623 Y-45.144
X-190.763 Y-45.853
X-191.872 Y-46.609
X-192.948 Y-47.412
X-193.989 Y-48.259
X-194.993 Y-49.149
X-195.958 Y-50.082
X-196.883 Y-51.055
X-197.765 Y-52.066
X-198.604 Y-53.114
X-199.399 Y-54.196
X-200.147 Y-55.31
X-200.848 Y-56.455
X-201.5 Y-57.627
X-202.102 Y-58.827
X-202.653 Y-60.051
X-203.152 Y-61.297
X-203.598 Y-62.563
X-203.991 Y-63.846
X-204.33 Y-65.145
X-204.614 Y-66.457
X-204.844 Y-67.779
X-205.018 Y-69.11
X-205.136 Y-70.447
X-205.197 Y-71.787
X-205.202 Y-73.13
X-205.151 Y-74.471
X-205.045 Y-75.809
X-204.882 Y-77.141
X-204.664 Y-78.465
X-204.392 Y-79.779
X-204.064 Y-81.081
X-203.682 Y-82.368
X-203.246 Y-83.637
X-202.758 Y-84.887
X-202.217 Y-86.116
X-201.627 Y-87.321
X-200.986 Y-88.5
X-200.298 Y-89.652
X-199.562 Y-90.775
X-198.78 Y-91.866
X-197.953 Y-92.923
X-197.082 Y-93.944
X-196.169 Y-94.928
X-195.217 Y-95.874
X-194.226 Y-96.779
X-193.198 Y-97.642
X-192.136 Y-98.462
