%
(1001)
(RoadSign_threequarters_chamfer z0 stock top)
(T7  D=16 CR=0 TAPER=45deg - ZMIN=-8 - chamfer mill)
G90 G94
G17
G21

(2D Contour3)
M9
T7 M6
S6000 M3
G54
M9
G0 X80.743 Y335.05
Z15
Z5
G1 Z4.1 F850
G19 G2 Y333.45 Z2.5 J-1.6 F283.3
G1 Y331.85 F850
G17 G3 X82.343 Y330.25 I1.6
G1 X405 Z1.306 F283.3
G2 X405.25 Y330 Z1.305 J-0.25
G1 Y30 Z0.195
G2 X405 Y29.75 Z0.194 I-0.25
G1 X30 Z-1.194
G2 X29.75 Y30 Z-1.195 J0.25
G1 Y330 Z-2.305
G2 X30 Y330.25 Z-2.306 I0.25
G1 X405 Z-3.694
G2 X405.25 Y330 Z-3.695 J-0.25
G1 Y30 Z-4.805
G2 X405 Y29.75 Z-4.806 I-0.25
G1 X30 Z-6.194
G2 X29.75 Y30 Z-6.195 J0.25
G1 Y330 Z-7.305
G2 X30 Y330.25 Z-7.306 I0.25
G1 X217.5 Z-8
X405 F850
G2 X405.25 Y330 J-0.25
G1 Y30
G2 X405 Y29.75 I-0.25
G1 X30
G2 X29.75 Y30 J0.25
G1 Y330
G2 X30 Y330.25 I0.25
G1 X217.5
G3 X219.1 Y331.85 J1.6
G1 Y333.45
G19 G3 Y335.05 Z-6.4 K1.6
G0 Z15
G17
M9
M30
%
