%
(1001)
(RoadSign_halfsize_chamfer. Z0 stockl top)
(T7  D=16 CR=0 TAPER=45deg - ZMIN=-11 - chamfer mill)
G90 G94
G17
G21

(2D Contour3)
M9
T7 M6
S6000 M3
G54
M9
G0 X285.05 Y86.521
Z15
Z5
G1 Z4.1 F850
G18 G3 X283.45 Z2.5 I-1.6 F283.3
G1 X281.85 F850
G17 G3 X280.25 Y84.921 J-1.6
G1 Y30 Z2.195 F283.3
G2 X280 Y29.75 Z2.193 I-0.25
G1 X30 Z0.807
G2 X29.75 Y30 Z0.805 J0.25
G1 Y230 Z-0.305
G2 X30 Y230.25 Z-0.307 I0.25
G1 X280 Z-1.693
G2 X280.25 Y230 Z-1.695 J-0.25
G1 Y30 Z-2.805
G2 X280 Y29.75 Z-2.807 I-0.25
G1 X30 Z-4.193
G2 X29.75 Y30 Z-4.195 J0.25
G1 Y230 Z-5.305
G2 X30 Y230.25 Z-5.307 I0.25
G1 X280 Z-6.693
G2 X280.25 Y230 Z-6.695 J-0.25
G1 Y30 Z-7.805
G2 X280 Y29.75 Z-7.807 I-0.25
G1 X30 Z-9.193
G2 X29.75 Y30 Z-9.195 J0.25
G1 Y230 Z-10.305
G2 X30 Y230.25 Z-10.307 I0.25
G1 X155 Z-11
X280 F850
G2 X280.25 Y230 J-0.25
G1 Y30
G2 X280 Y29.75 I-0.25
G1 X30
G2 X29.75 Y30 J0.25
G1 Y230
G2 X30 Y230.25 I0.25
G1 X155
G3 X156.6 Y231.85 J1.6
G1 Y233.45
G19 G3 Y235.05 Z-9.4 K1.6
G0 Z15
G17
M9
M30
%
