%
(1001)
(RoadSign_threequarters_cutout z0 model bottom)
(T1  D=6.3 CR=0 - ZMIN=0 - flat end mill)
G90 G94
G17
G21

(2D Contour2)
M9
T1 M6
S6000 M3
G54
M9
G0 X73.689 Y335.04
Z33
Z23
G1 Z21.5 F750
Z21.13 F250
G19 G2 Y334.41 Z20.5 J-0.63
G1 Y333.78 F750
G17 G3 X74.319 Y333.15 I0.63
G1 X217.5 Z15.5 F250
X405 F750
G2 X408.15 Y330 J-3.15
G1 Y30
G2 X405 Y26.85 I-3.15
G1 X30
G2 X26.85 Y30 J3.15
G1 Y330
G2 X30 Y333.15 I3.15
G1 X217.5
X388.724 Z13 F250
X405 F750
G2 X408.15 Y330 J-3.15
G1 Y30
G2 X405 Y26.85 I-3.15
G1 X30
G2 X26.85 Y30 J3.15
G1 Y330
G2 X30 Y333.15 I3.15
G1 X388.724
X405 Z12.762 F250
G2 X408.15 Y330 Z12.69 J-3.15
G1 Y180 Z10.5
Y30 F750
G2 X405 Y26.85 I-3.15
G1 X30
G2 X26.85 Y30 J3.15
G1 Y330
G2 X30 Y333.15 I3.15
G1 X405
G2 X408.15 Y330 J-3.15
G1 Y180
Y30 Z8.31 F250
G2 X405 Y26.85 Z8.238 I-3.15
G1 X388.724 Z8
X30 F750
G2 X26.85 Y30 J3.15
G1 Y330
G2 X30 Y333.15 I3.15
G1 X405
G2 X408.15 Y330 J-3.15
G1 Y30
G2 X405 Y26.85 I-3.15
G1 X388.724
X217.5 Z5.5 F250
X30 F750
G2 X26.85 Y30 J3.15
G1 Y330
G2 X30 Y333.15 I3.15
G1 X405
G2 X408.15 Y330 J-3.15
G1 Y30
G2 X405 Y26.85 I-3.15
G1 X217.5
X46.276 Z3 F250
X30 F750
G2 X26.85 Y30 J3.15
G1 Y330
G2 X30 Y333.15 I3.15
G1 X405
G2 X408.15 Y330 J-3.15
G1 Y30
G2 X405 Y26.85 I-3.15
G1 X46.276
X30 Z2.762 F250
G2 X26.85 Y30 Z2.69 J3.15
G1 Y111.51 Z1.5
Y136.85 F750
Z2
Y148.15
Z1.5 F250
Y211.85 F750
Z2
Y223.15
Z1.5 F250
Y286.85 F750
Z2
Y298.15
Z1.5 F250
Y330 F750
G2 X30 Y333.15 I3.15
G1 X61.85
Z2
X73.15
Z1.5 F250
X136.85 F750
Z2
X148.15
Z1.5 F250
X211.85 F750
Z2
X223.15
Z1.5 F250
X286.85 F750
Z2
X298.15
Z1.5 F250
X361.85 F750
Z2
X373.15
Z1.5 F250
X405 F750
G2 X408.15 Y330 J-3.15
G1 Y298.15
Z2
Y286.85
Z1.5 F250
Y223.15 F750
Z2
Y211.85
Z1.5 F250
Y148.15 F750
Z2
Y136.85
Z1.5 F250
Y73.15 F750
Z2
Y61.85
Z1.5 F250
Y30 F750
G2 X405 Y26.85 I-3.15
G1 X373.15
Z2
X361.85
Z1.5 F250
X298.15 F750
Z2
X286.85
Z1.5 F250
X223.15 F750
Z2
X211.85
Z1.5 F250
X148.15 F750
Z2
X136.85
Z1.5 F250
X73.15 F750
Z2
X61.85
Z1.5 F250
X30 F750
G2 X26.85 Y30 J3.15
G1 Y61.85
Z2
Y73.15
Z1.5 F250
Y111.51 F750
Y136.85 Z2 F250
Z1.13
Y211.85 Z0.035
Z2
Y214.245
Y223.15 F750
Z0 F250
Y286.85 F750
Z2
Y298.15
Z0 F250
Y330 F750
G2 X30 Y333.15 I3.15
G1 X61.85
Z2
X73.15
Z0 F250
X136.85 F750
Z2
X148.15
Z0 F250
X211.85 F750
Z2
X223.15
Z0 F250
X286.85 F750
Z2
X298.15
Z0 F250
X361.85 F750
Z2
X373.15
Z0 F250
X405 F750
G2 X408.15 Y330 J-3.15
G1 Y298.15
Z2
Y286.85
Z0 F250
Y223.15 F750
Z2
Y211.85
Z0 F250
Y148.15 F750
Z2
Y136.85
Z0 F250
Y73.15 F750
Z2
Y61.85
Z0 F250
Y30 F750
G2 X405 Y26.85 I-3.15
G1 X373.15
Z2
X361.85
Z0 F250
X298.15 F750
Z2
X286.85
Z0 F250
X223.15 F750
Z2
X211.85
Z0 F250
X148.15 F750
Z2
X136.85
Z0 F250
X73.15 F750
Z2
X61.85
Z0 F250
X30 F750
G2 X26.85 Y30 J3.15
G1 Y61.85
Z2
Y73.15
Z0 F250
Y136.85 F750
Z2
Y148.15
Z0 F250
Y211.85 F750
Z2
Y214.245
G3 X26.22 Y214.875 I-0.63
G1 X24.96
G0 Z33
M9
M30
%
