%
(1001)
(RoadSign_halfsize_facing)
(T1  D=22 CR=0 - ZMIN=18.5 - flat end mill)
G90 G94
G17
G21

(Face3)
M9
T1 M6
(22mm Facing Bit)
S5000 M3
G54
M9
G0 X287.3 Y46.89
Z35
Z25
G1 Z21.7 F850
G18 G3 X285.1 Z19.5 I-2.2
G1 X274
X36
G17 G2 Y67.572 J10.341
G1 X274
G3 Y88.253 J10.341
G1 X36
G2 Y108.934 J10.341
G1 X274
G3 Y129.616 J10.341
G1 X36
G2 Y150.297 J10.341
G1 X274
G3 Y170.978 J10.341
G1 X36
G2 Y191.66 J10.341
G1 X274
G3 Y212.341 J10.341
G1 X36
G18 G3 X33.8 Z21.7 K2.2
G0 Z25
X22.7 Y46.89
G1 Z20.7 F850
G2 X24.9 Z18.5 I2.2
G1 X36
X274
G17 G3 Y67.572 J10.341
G1 X36
G2 Y88.253 J10.341
G1 X274
G3 Y108.934 J10.341
G1 X36
G2 Y129.616 J10.341
G1 X274
G3 Y150.297 J10.341
G1 X36
G2 Y170.978 J10.341
G1 X274
G3 Y191.66 J10.341
G1 X36
G2 Y212.341 J10.341
G1 X274
G18 G2 X276.2 Z20.7 K2.2
G0 Z35
G17
M9
M30
%
