%
(1001)
(RoadSign_threequarters_engrave z0 stock top)
(T7  D=16 CR=0 TAPER=45deg - ZMIN=-4.315 - chamfer mill)
G90 G94
G17
G21

(Engrave1)
M9
T7 M6
S6000 M3
G54
M8
G0 X47.975 Y295.228
Z15
Z4
G1 Z-1.002 F850
X48.667 Y295.864 Z-1.695
X47.979 Y296.577 Z-1.007
X48.667 Y295.864 Z-1.695
X49.661 Y295.812 Z-1.712
X50.433 Y295.731 Z-1.768
X51.372 Y295.528 Z-1.946
X51.861 Y295.367 Z-2.096
X52.325 Y295.119 Z-2.337
X53.359 Y294.348 Z-3.095
X54.593 Y293.333 Z-4.112
X55.907 Y294.598 Z-2.859
X56.411 Y294.973 Z-2.49
X56.909 Y295.243 Z-2.228
X57.413 Y295.414 Z-2.066
X58.164 Y295.516 Z-1.978
X59.678 Y295.64 Z-1.886
X61.027 Y295.676 Z-1.884
X62.518 Y295.616 Z-1.972
X63.432 Y295.503 Z-2.089
X64.388 Y295.293 Z-2.287
X65.364 Y294.985 Z-2.551
X66.483 Y294.522 Z-2.877
X67.241 Y294.032 Z-3.197
X68.032 Y293.456 Z-3.555
X68.307 Y293.198 Z-3.668
X68.709 Y292.769 Z-3.836
X69.128 Y292.095 Z-3.978
X69.273 Y291.73 Z-4.009
X69.442 Y291.181 Z-4.042
X69.568 Y290.158 Z-4.013
X69.535 Y288.809 Z-3.894
X69.435 Y287.93 Z-3.81
X69.275 Y287.235 Z-3.698
X69.031 Y286.55 Z-3.538
X68.607 Y285.642 Z-3.314
X68.155 Y284.897 Z-3.135
X67.386 Y284.004 Z-2.866
X66.515 Y283.166 Z-2.601
X65.997 Y282.801 Z-2.479
X65.257 Y282.405 Z-2.311
X64.316 Y282.029 Z-2.101
X63.51 Y281.815 Z-1.975
X62.755 Y281.691 Z-1.909
X62.569 Y281.668 Z-1.899
X61.535 Y281.649 Z-1.804
X60.833 Y281.713 Z-1.758
X60.709 Y281.731 Z-1.753
X59.946 Y282.281 Z-1.33
X59.561 Y282.328 Z-1.015
X59.946 Y282.281 Z-1.33
X59.83 Y282.639 Z-1.001
X59.946 Y282.281 Z-1.33
X60.709 Y281.731 Z-1.753
X60.199 Y281.067 Z-1.002
X60.709 Y281.731 Z-1.753
X60.833 Y281.713 Z-1.758
X61.535 Y281.649 Z-1.804
X62.569 Y281.668 Z-1.899
X62.755 Y281.691 Z-1.909
X63.51 Y281.815 Z-1.975
X64.316 Y282.029 Z-2.101
X65.257 Y282.405 Z-2.311
X65.997 Y282.801 Z-2.479
X66.515 Y283.166 Z-2.601
X67.386 Y284.004 Z-2.866
X68.155 Y284.897 Z-3.135
X68.607 Y285.642 Z-3.314
X69.031 Y286.55 Z-3.538
X69.275 Y287.235 Z-3.698
X69.435 Y287.93 Z-3.81
X69.535 Y288.809 Z-3.894
X69.568 Y290.158 Z-4.013
X69.442 Y291.181 Z-4.042
X69.273 Y291.73 Z-4.009
X69.128 Y292.095 Z-3.978
X68.709 Y292.769 Z-3.836
X68.307 Y293.198 Z-3.668
X68.032 Y293.456 Z-3.555
X67.241 Y294.032 Z-3.197
X66.483 Y294.522 Z-2.877
X65.364 Y294.985 Z-2.551
X64.388 Y295.293 Z-2.287
X63.432 Y295.503 Z-2.089
X62.518 Y295.616 Z-1.972
X61.027 Y295.676 Z-1.884
X59.678 Y295.64 Z-1.886
X58.164 Y295.516 Z-1.978
X57.413 Y295.414 Z-2.066
X56.909 Y295.243 Z-2.228
X56.411 Y294.973 Z-2.49
X55.907 Y294.598 Z-2.859
X54.593 Y293.333 Z-4.112
X54.627 Y291.735 Z-4.031
X54.636 Y286.15 Z-3.906
X54.644 Y281.049 Z-3.892
X54.665 Y273.541 Z-4.006
X54.659 Y271.127 Z-4.055
X54.643 Y269.567 Z-4.164
X53.047 Y268.173 Z-2.793
X52.249 Y267.659 Z-2.295
X51.716 Y267.413 Z-2.058
X51.327 Y267.281 Z-1.934
X50.705 Y267.166 Z-1.833
X49.337 Y267.019 Z-1.716
X48.663 Y266.978 Z-1.69
X47.985 Y267.614 Z-1.013
X48.663 Y266.978 Z-1.69
X47.975 Y266.275 Z-1.003
X48.663 Y266.978 Z-1.69
X49.337 Y267.019 Z-1.716
X50.705 Y267.166 Z-1.833
X51.327 Y267.281 Z-1.934
X51.716 Y267.413 Z-2.058
X52.249 Y267.659 Z-2.295
X53.047 Y268.173 Z-2.793
X54.643 Y269.567 Z-4.164
X56.053 Y268.331 Z-2.914
X56.874 Y267.772 Z-2.363
X57.422 Y267.499 Z-2.096
X57.965 Y267.309 Z-1.915
X58.517 Y267.212 Z-1.826
X60.34 Y267.036 Z-1.699
X61.385 Y266.978 Z-1.677
X62.06 Y267.62 Z-1.003
X61.385 Y266.978 Z-1.677
X62.055 Y266.283 Z-1.007
G0 Z5
X123.105 Y124.971
Z4
G1 Z-1.429 F850
X123.953 Y125.3 Z-1.388
X124.712 Y125.47 Z-1.373
X125.757 Y125.567 Z-1.381
X126.888 Y125.512 Z-1.447
X127.655 Y125.381 Z-1.514
X128.528 Y125.128 Z-1.649
X129.349 Y124.785 Z-1.784
X130.057 Y124.331 Z-1.925
X130.81 Y123.711 Z-2.059
X131.463 Y123.032 Z-2.221
X131.791 Y122.59 Z-2.301
X132.386 Y121.569 Z-2.429
X132.78 Y120.654 Z-2.532
X133 Y119.906 Z-2.548
X133.172 Y118.974 Z-2.528
X133.288 Y117.789 Z-2.51
X133.243 Y116.223 Z-2.402
X133.105 Y115.026 Z-2.307
X132.94 Y114.268 Z-2.209
X132.678 Y113.508 Z-2.074
X132.327 Y112.766 Z-1.931
X131.794 Y111.884 Z-1.778
X131.226 Y111.106 Z-1.64
X130.625 Y110.499 Z-1.492
X129.699 Y109.797 Z-1.39
X128.997 Y109.4 Z-1.34
X128.326 Y109.152 Z-1.326
X127.596 Y108.991 Z-1.332
X126.569 Y108.867 Z-1.353
X125.238 Y108.932 Z-1.497
X124.314 Y109.108 Z-1.582
X123.505 Y109.364 Z-1.708
X122.797 Y109.71 Z-1.856
X122.289 Y110.056 Z-1.966
X121.601 Y110.661 Z-2.106
X120.809 Y111.509 Z-2.272
X120.608 Y111.797 Z-2.333
X120.206 Y112.504 Z-2.408
X119.714 Y113.479 Z-2.497
X119.397 Y114.306 Z-2.537
X119.174 Y115.226 Z-2.534
X119.013 Y116.477 Z-2.511
X118.953 Y117.681 Z-2.48
X119.015 Y119.009 Z-2.394
X119.171 Y119.884 Z-2.3
X119.475 Y120.923 Z-2.164
X119.766 Y121.604 Z-2.065
X120.335 Y122.649 Z-1.883
X120.71 Y123.155 Z-1.787
X121.25 Y123.739 Z-1.653
X121.867 Y124.26 Z-1.558
X122.39 Y124.599 Z-1.492
X123.105 Y124.971 Z-1.429
G0 Z5
X245.678 Y158.892
Z4
G1 Z-2.539 F850
X245.986 Y158.019 Z-2.508
X246.407 Y157.146 Z-2.434
X247.062 Y156.007 Z-2.303
X247.504 Y155.491 Z-2.191
X248.289 Y154.719 Z-2.037
X248.98 Y154.19 Z-1.892
X249.65 Y153.828 Z-1.747
X250.437 Y153.545 Z-1.611
X251.305 Y153.356 Z-1.517
X252.043 Y153.27 Z-1.454
X253.048 Y153.254 Z-1.345
X254.302 Y153.441 Z-1.327
X254.874 Y153.597 Z-1.328
X255.577 Y153.899 Z-1.353
X256.269 Y154.335 Z-1.412
X257.163 Y155.045 Z-1.517
X257.729 Y155.674 Z-1.69
X258.425 Y156.72 Z-1.854
X258.932 Y157.681 Z-2.034
X259.247 Y158.527 Z-2.191
X259.451 Y159.428 Z-2.309
X259.567 Y160.379 Z-2.389
X259.623 Y161.619 Z-2.472
X259.593 Y162.645 Z-2.514
X259.433 Y163.861 Z-2.541
X259.212 Y164.763 Z-2.543
X258.978 Y165.401 Z-2.501
X258.566 Y166.249 Z-2.391
X257.907 Y167.295 Z-2.252
X257.152 Y168.091 Z-2.059
X256.52 Y168.622 Z-1.945
X255.809 Y169.098 Z-1.812
X255.256 Y169.362 Z-1.713
X254.296 Y169.687 Z-1.556
X253.509 Y169.854 Z-1.465
X252.63 Y169.942 Z-1.417
X251.661 Y169.919 Z-1.376
X250.781 Y169.803 Z-1.375
X250.116 Y169.622 Z-1.395
X249.221 Y169.247 Z-1.441
X248.688 Y168.954 Z-1.498
X248.101 Y168.558 Z-1.569
X247.492 Y168.021 Z-1.676
X246.963 Y167.425 Z-1.811
X246.534 Y166.787 Z-1.931
X245.951 Y165.654 Z-2.121
X245.755 Y165.118 Z-2.185
X245.466 Y164.05 Z-2.328
X245.337 Y163.214 Z-2.405
X245.298 Y162.344 Z-2.463
X245.331 Y161.162 Z-2.506
X245.479 Y159.824 Z-2.531
X245.678 Y158.892 Z-2.539
G0 Z5
X249.029 Y212.729
Z4
G1 Z-1.59 F850
X249.777 Y212.713 Z-1.539
X251.034 Y212.758 Z-1.47
X252.516 Y212.929 Z-1.441
X253.544 Y213.15 Z-1.444
X254.429 Y213.443 Z-1.469
X255.253 Y213.799 Z-1.486
X256.146 Y214.285 Z-1.499
X257.072 Y214.939 Z-1.55
X257.997 Y215.706 Z-1.626
X258.76 Y216.466 Z-1.758
X259.157 Y216.939 Z-1.835
X260.017 Y218.219 Z-1.974
X260.834 Y219.783 Z-2.216
X261.29 Y220.897 Z-2.354
X261.601 Y222.016 Z-2.458
X261.798 Y223.192 Z-2.538
X261.958 Y224.981 Z-2.624
X261.97 Y226.482 Z-2.701
X261.819 Y228.063 Z-2.708
X261.576 Y229.376 Z-2.727
X261.306 Y230.302
X261.045 Y230.969 Z-2.698
X260.565 Y231.962 Z-2.6
X260.168 Y232.639 Z-2.528
X259.201 Y234.025 Z-2.417
X258.329 Y234.867 Z-2.235
X257.462 Y235.573 Z-2.122
X256.579 Y236.175 Z-2.036
X255.714 Y236.679 Z-1.935
X254.856 Y237.027 Z-1.864
X253.846 Y237.352 Z-1.758
X252.592 Y237.634 Z-1.638
X251.525 Y237.773 Z-1.581
X250.264 Y237.856 Z-1.551
X248.785 Y237.809 Z-1.499
X247.4 Y237.668 Z-1.491
X246.346 Y237.463 Z-1.513
X245.329 Y237.15 Z-1.556
X244.28 Y236.714 Z-1.583
X243.778 Y236.445 Z-1.599
X242.67 Y235.714 Z-1.665
X241.753 Y234.983 Z-1.753
X240.898 Y234.159 Z-1.916
X240.679 Y233.874 Z-1.942
X239.909 Y232.767 Z-2.04
X239.13 Y231.332 Z-2.233
X238.697 Y230.302 Z-2.342
X238.434 Y229.388 Z-2.414
X238.245 Y228.337 Z-2.478
X238.099 Y226.859 Z-2.54
X238.063 Y225.258 Z-2.639
X238.207 Y223.456 Z-2.664
X238.394 Y222.309 Z-2.686
X238.646 Y221.348 Z-2.685
X239.1 Y220.064 Z-2.654
X239.677 Y218.727 Z-2.591
X240.526 Y217.334 Z-2.511
X241.135 Y216.526 Z-2.433
X241.837 Y215.794 Z-2.329
X242.544 Y215.182 Z-2.243
X243.24 Y214.661 Z-2.17
X244.53 Y213.9 Z-1.979
X245.703 Y213.404 Z-1.879
X246.715 Y213.086 Z-1.764
X247.812 Y212.862 Z-1.657
X249.029 Y212.729 Z-1.59
G0 Z5
X75.33 Y267.628
Z4
G1 Z-1.001 F850
X76.018 Y266.99 Z-1.689
X75.335 Y266.282 Z-1.007
X76.018 Y266.99 Z-1.689
X76.678 Y267.037 Z-1.714
X78.249 Y267.214 Z-1.843
X78.677 Y267.311 Z-1.931
X79.236 Y267.524 Z-2.132
X79.833 Y267.851 Z-2.45
X80.475 Y268.315 Z-2.907
X81.981 Y269.614 Z-4.196
X83.535 Y268.27 Z-2.864
X84.233 Y267.797 Z-2.398
X84.898 Y267.469 Z-2.08
X85.497 Y267.272 Z-1.895
X85.929 Y267.189 Z-1.822
X87.336 Y267.024 Z-1.697
X88.128 Y266.974 Z-1.675
X88.801 Y267.62 Z-1.002
X88.128 Y266.974 Z-1.675
X88.798 Y266.28 Z-1.005
X88.128 Y266.974 Z-1.675
X87.336 Y267.024 Z-1.697
X85.929 Y267.189 Z-1.822
X85.497 Y267.272 Z-1.895
X84.898 Y267.469 Z-2.08
X84.233 Y267.797 Z-2.398
X83.535 Y268.27 Z-2.864
X81.981 Y269.614 Z-4.196
X81.98 Y269.817 Z-4.174
X81.935 Y274.032 Z-3.985
X81.903 Y278.714 Z-3.889
X81.963 Y288.972 Z-4.031
X81.958 Y291.489 Z-4.092
X81.89 Y293.253 Z-4.199
X80.179 Y294.691 Z-2.761
X79.446 Y295.161 Z-2.303
X78.89 Y295.416 Z-2.06
X78.466 Y295.556 Z-1.93
X77.59 Y295.7 Z-1.81
X76.403 Y295.832 Z-1.715
X76.027 Y295.861 Z-1.698
X75.342 Y296.57 Z-1.014
X76.027 Y295.861 Z-1.698
X75.331 Y295.227 Z-1.003
X76.027 Y295.861 Z-1.698
X76.403 Y295.832 Z-1.715
X77.59 Y295.7 Z-1.81
X78.466 Y295.556 Z-1.93
X78.89 Y295.416 Z-2.06
X79.446 Y295.161 Z-2.303
X80.179 Y294.691 Z-2.761
X81.89 Y293.253 Z-4.199
X82.949 Y294.304 Z-3.163
X83.521 Y294.803 Z-2.672
X84.096 Y295.169 Z-2.314
X84.672 Y295.4 Z-2.091
X85.587 Y295.514 Z-1.989
X87.915 Y295.594 Z-1.942
X89.212 Y295.577 Z-1.978
X90.442 Y295.501 Z-2.071
X91.512 Y295.35 Z-2.237
X92.598 Y295.096 Z-2.495
X93.982 Y294.658 Z-2.878
X94.552 Y294.391 Z-3.078
X95.582 Y293.743 Z-3.496
X96.079 Y293.385 Z-3.71
X96.559 Y292.9 Z-3.887
X96.989 Y292.221 Z-4.002
X97.102 Y291.955 Z-4.02
X97.304 Y291.368 Z-4.054
X97.448 Y290.376 Z-4.016
X97.431 Y289.151 Z-3.892
X97.342 Y288.58 Z-3.795
X97.049 Y287.629 Z-3.578
X97.002 Y287.493 Z-3.546
X96.428 Y286.4 Z-3.154
X95.932 Y285.645 Z-2.885
X95.348 Y284.964 Z-2.625
X94.63 Y284.305 Z-2.367
X93.607 Y283.526 Z-2.071
X93.061 Y283.106 Z-1.97
X92.78 Y282.832 Z-2.02
X92.525 Y282.495 Z-2.142
X92.292 Y282.083 Z-2.349
X92.074 Y281.561 Z-2.675
X91.86 Y280.864 Z-3.183
X91.606 Y279.972 Z-3.888
X90.375 Y280.401 Z-3.095
X89.071 Y280.953 Z-2.311
X87.983 Y281.494 Z-1.698
X87.46 Y281.801 Z-1.431
X86.971 Y281.768 Z-1.004
X87.46 Y281.801 Z-1.431
X87.184 Y282.254 Z-1.013
X87.46 Y281.801 Z-1.431
X87.983 Y281.494 Z-1.698
X89.071 Y280.953 Z-2.311
X90.375 Y280.401 Z-3.095
X91.606 Y279.972 Z-3.888
X94.08 Y276.227 Z-3.897
X98.65 Y269.286 Z-3.965
X97.061 Y266.283 Z-1.012
X98.65 Y269.286 Z-3.965
X101.34 Y267.938 Z-2.564
X102.339 Y267.522 Z-2.138
X103.197 Y267.226 Z-1.835
X103.961 Y267.09 Z-1.694
X104.52 Y267.035 Z-1.631
X105.139 Y267.615 Z-1.012
X104.52 Y267.035 Z-1.631
X105.14 Y266.426 Z-1.011
G0 Z5
X107.832 Y267.613
Z4
G1 Z-1.006 F850
X108.502 Y266.961 Z-1.676
X107.834 Y266.279 Z-1.008
X108.502 Y266.961 Z-1.676
X109.743 Y267.035 Z-1.724
X111.042 Y267.209 Z-1.871
X111.802 Y267.383 Z-2.029
X112.254 Y267.598 Z-2.235
X113.068 Y268.098 Z-2.718
X113.856 Y268.686 Z-3.29
X114.785 Y269.513 Z-4.097
X116.368 Y268.204 Z-2.796
X116.849 Y267.861 Z-2.46
X117.582 Y267.481 Z-2.095
X118.134 Y267.288 Z-1.916
X118.727 Y267.162 Z-1.809
X120.483 Y267.007 Z-1.703
X121.03 Y266.978 Z-1.688
X121.707 Y267.615 Z-1.011
X121.03 Y266.978 Z-1.688
X121.71 Y266.28 Z-1.008
X121.03 Y266.978 Z-1.688
X120.483 Y267.007 Z-1.703
X118.727 Y267.162 Z-1.809
X118.134 Y267.288 Z-1.916
X117.582 Y267.481 Z-2.095
X116.849 Y267.861 Z-2.46
X116.368 Y268.204 Z-2.796
X114.785 Y269.513 Z-4.097
X114.768 Y269.973 Z-4.056
X114.77 Y273.619 Z-3.937
X114.775 Y279.561 Z-3.883
X114.745 Y287.473 Z-3.91
X114.767 Y291.198 Z-3.971
X114.768 Y293.372 Z-4.068
X113.608 Y294.43 Z-3.019
X113.171 Y294.762 Z-2.691
X112.475 Y295.188 Z-2.274
X112.002 Y295.405 Z-2.065
X111.302 Y295.622 Z-1.861
X109.985 Y295.78 Z-1.736
X108.506 Y295.882 Z-1.68
X107.84 Y295.248 Z-1.014
X108.506 Y295.882 Z-1.68
X107.835 Y296.575 Z-1.009
X108.506 Y295.882 Z-1.68
X109.985 Y295.78 Z-1.736
X111.302 Y295.622 Z-1.861
X112.002 Y295.405 Z-2.065
X112.475 Y295.188 Z-2.274
X113.171 Y294.762 Z-2.691
X113.608 Y294.43 Z-3.019
X114.768 Y293.372 Z-4.068
X115.759 Y294.242 Z-3.203
X116.556 Y294.824 Z-2.627
X117.323 Y295.263 Z-2.196
X117.632 Y295.415 Z-2.048
X117.945 Y295.531 Z-1.937
X118.722 Y295.67 Z-1.814
X119.988 Y295.819 Z-1.702
X121.045 Y295.885 Z-1.673
X121.717 Y295.238 Z-1.001
X121.045 Y295.885 Z-1.673
X121.715 Y296.58 Z-1.003
G0 Z5
X113.094 Y128.241
Z4
G1 Z-1.014 F850
X113.456 Y128.62 Z-1.393
X113.819 Y128.238 Z-1.011
X113.456 Y128.62 Z-1.393
X113.489 Y130.413 Z-1.506
X113.542 Y131.412 Z-1.615
X113.471 Y131.944 Z-1.801
X113.286 Y132.472 Z-2.112
X114.692 Y133.311 Z-1.008
X113.286 Y132.472 Z-2.112
X111.67 Y133.099 Z-1.858
X110.362 Y133.511 Z-1.733
X109.038 Y133.832 Z-1.644
X107.644 Y134.048 Z-1.572
X106.377 Y134.145 Z-1.548
X105.488 Y134.153 Z-1.527
X103.259 Y133.981 Z-1.553
X102.081 Y133.787 Z-1.572
X100.961 Y133.484 Z-1.599
X99.85 Y133.05 Z-1.668
X98.591 Y132.425 Z-1.806
X98.139 Y132.159 Z-1.853
X96.754 Y131.195 Z-1.953
X96.003 Y130.457 Z-2.096
X95.337 Y129.691 Z-2.184
X94.563 Y128.613 Z-2.267
X93.946 Y127.557 Z-2.361
X93.47 Y126.383 Z-2.446
X93.11 Y125.178 Z-2.558
X92.936 Y124.283 Z-2.617
X92.794 Y122.985 Z-2.653
X92.746 Y121.833 Z-2.686
X92.778 Y121.097 Z-2.697
X92.94 Y119.505 Z-2.708
X93.131 Y118.545 Z-2.71
X93.419 Y117.617 Z-2.693
X93.939 Y116.361 Z-2.658
X94.351 Y115.515 Z-2.623
X94.794 Y114.813 Z-2.57
X95.611 Y113.706 Z-2.506
X96.221 Y113.02 Z-2.439
X96.977 Y112.33 Z-2.345
X97.87 Y111.658 Z-2.257
X98.787 Y111.072 Z-2.179
X100.122 Y110.39 Z-2.04
X101.387 Y109.884 Z-1.952
X102.567 Y109.529 Z-1.854
X103.59 Y109.33 Z-1.783
X104.958 Y109.181 Z-1.728
X106.487 Y109.122 Z-1.683
X108.238 Y109.24 Z-1.646
X109.527 Y109.438 Z-1.599
X110.856 Y109.735 Z-1.548
X111.922 Y110.045 Z-1.515
X113.122 Y110.509 Z-1.495
X113.873 Y110.87 Z-1.513
X114.273 Y110.493 Z-1.002
X113.873 Y110.87 Z-1.513
X114.765 Y111.927 Z-1.1
X114.879 Y111.949 Z-1.005
X114.765 Y111.927 Z-1.1
X114.774 Y112.045 Z-1.008
G0 Z5
X114.631 Y172.622
Z4
G1 Z-1.014 F850
X114.993 Y173.001 Z-1.393
X115.357 Y172.619 Z-1.011
X114.993 Y173.001 Z-1.393
X115.026 Y174.79 Z-1.506
X115.08 Y175.789 Z-1.614
X115.01 Y176.32 Z-1.798
X114.824 Y176.852 Z-2.112
X116.23 Y177.691 Z-1.008
X114.824 Y176.852 Z-2.112
X113.501 Y177.373 Z-1.897
X112.225 Y177.798 Z-1.759
X111.045 Y178.117 Z-1.667
X109.673 Y178.366 Z-1.595
X108.434 Y178.494 Z-1.552
X107.437 Y178.536 Z-1.538
X105.924 Y178.468 Z-1.541
X104.419 Y178.31 Z-1.558
X103.297 Y178.094 Z-1.578
X102.164 Y177.747 Z-1.615
X101.073 Y177.285 Z-1.696
X100.004 Y176.739 Z-1.822
X98.511 Y175.743 Z-1.934
X97.936 Y175.239 Z-2.023
X97.207 Y174.471 Z-2.145
X96.413 Y173.455 Z-2.232
X95.795 Y172.506 Z-2.31
X95.495 Y171.964 Z-2.36
X95.03 Y170.827 Z-2.44
X94.659 Y169.608 Z-2.554
X94.495 Y168.796 Z-2.61
X94.331 Y167.365 Z-2.653
X94.285 Y166.51 Z-2.67
X94.332 Y165.243 Z-2.698
X94.468 Y163.949 Z-2.707
X94.668 Y162.925 Z-2.71
X95.027 Y161.808 Z-2.687
X95.599 Y160.476 Z-2.651
X95.87 Y159.928 Z-2.626
X96.491 Y158.965 Z-2.56
X97.273 Y157.935 Z-2.494
X97.925 Y157.235 Z-2.417
X98.662 Y156.591 Z-2.327
X99.826 Y155.754 Z-2.227
X100.871 Y155.157 Z-2.114
X101.892 Y154.671 Z-2.026
X103.161 Y154.182 Z-1.933
X104.103 Y153.91 Z-1.855
X105.127 Y153.71 Z-1.783
X106.689 Y153.547 Z-1.723
X107.845 Y153.497 Z-1.684
X109.365 Y153.579 Z-1.66
X110.802 Y153.771 Z-1.608
X112.288 Y154.089 Z-1.553
X113.282 Y154.366 Z-1.518
X114.442 Y154.796 Z-1.497
X115.411 Y155.251 Z-1.512
X115.811 Y154.874 Z-1.002
X115.411 Y155.251 Z-1.512
X116.265 Y156.263 Z-1.116
X116.302 Y156.308 Z-1.1
X116.312 Y156.426 Z-1.008
X116.302 Y156.308 Z-1.1
X116.419 Y156.331 Z-1.003
G0 Z5
X114.716 Y212.514
Z4
G1 Z-1.005 F850
X115.032 Y212.846 Z-1.321
X114.724 Y213.145 Z-1.013
X115.032 Y212.846 Z-1.321
X115.851 Y212.887 Z-1.323
X116.67 Y212.996 Z-1.402
X117.146 Y213.105 Z-1.5
X117.821 Y213.393 Z-1.778
X118.562 Y213.8 Z-2.179
X119.101 Y213.456 Z-1.832
X119.597 Y213.224 Z-1.604
X120.196 Y213.084 Z-1.469
X120.849 Y212.999 Z-1.398
X122.458 Y212.872 Z-1.341
X122.798 Y212.512 Z-1.001
X122.458 Y212.872 Z-1.341
X122.795 Y213.172 Z-1.004
X122.458 Y212.872 Z-1.341
X120.849 Y212.999 Z-1.398
X120.196 Y213.084 Z-1.469
X119.597 Y213.224 Z-1.604
X119.101 Y213.456 Z-1.832
X118.562 Y213.8 Z-2.179
X118.659 Y214.426 Z-1.992
X118.753 Y214.768 Z-1.927
X119.4 Y216.51 Z-1.757
X120.058 Y218.037 Z-1.708
X121.736 Y221.769 Z-1.718
X122.033 Y222.093 Z-1.859
X122.073 Y222.512 Z-1.727
X122.192 Y222.896 Z-1.68
X126.998 Y234.036 Z-1.583
X127.173 Y234.285 Z-1.646
X127.403 Y234.518 Z-1.766
X127.677 Y234.725 Z-1.939
X128.014 Y234.917 Z-2.175
X128.571 Y235.151 Z-2.602
X128.536 Y237.576 Z-1.677
X128.078 Y238.245 Z-1.008
X128.536 Y237.576 Z-1.677
X128.977 Y238.247 Z-1.006
X128.536 Y237.576 Z-1.677
X128.571 Y235.151 Z-2.602
X128.925 Y234.69 Z-2.459
X129.191 Y234.192 Z-2.411
X133.857 Y223.199 Z-2.466
X133.988 Y222.835 Z-2.49
X134.079 Y222.454 Z-2.557
X133.465 Y222.173 Z-1.995
X132.96 Y221.942 Z-1.657
X132.617 Y221.825 Z-1.54
X132.274 Y221.786 Z-1.5
X123.05
X122.709 Y221.824 Z-1.539
X122.368 Y221.94 Z-1.655
X122.033 Y222.093 Z-1.859
X122.368 Y221.94 Z-1.655
X122.709 Y221.824 Z-1.539
X123.05 Y221.786 Z-1.5
X132.274
X132.617 Y221.825 Z-1.54
X132.96 Y221.942 Z-1.657
X133.465 Y222.173 Z-1.995
X134.079 Y222.454 Z-2.557
X134.324 Y222.09 Z-2.475
X136.619 Y216.611 Z-2.53
X136.872 Y215.998 Z-2.537
X137.235 Y215.01 Z-2.595
X137.458 Y214.313 Z-2.692
X138.831 Y213.505 Z-1.892
X139.531 Y213.2 Z-1.599
X140.125 Y213.022 Z-1.438
X141.021 Y212.897 Z-1.347
X141.606 Y212.851 Z-1.327
X141.929 Y213.158 Z-1.004
X141.606 Y212.851 Z-1.327
X141.933 Y212.508 Z-1
X141.606 Y212.851 Z-1.327
X141.021 Y212.897 Z-1.347
X140.125 Y213.022 Z-1.438
X139.531 Y213.2 Z-1.599
X138.831 Y213.505 Z-1.892
X137.458 Y214.313 Z-2.692
X136.893 Y213.791 Z-2.175
X136.334 Y213.397 Z-1.787
X135.839 Y213.159 Z-1.557
X135.414 Y213.037 Z-1.443
X134.643 Y212.938 Z-1.362
X132.86 Y212.85 Z-1.333
X132.527 Y213.164 Z-1
X132.86 Y212.85 Z-1.333
X132.532 Y212.51 Z-1.005
G0 Z5
X118.566 Y178.669
Z4
G1 Z-1 F850
X118.895 Y178.375 Z-1.329
X118.576 Y178.056 Z-1.01
X118.895 Y178.375 Z-1.329
X120.048 Y178.445 Z-1.399
X120.68 Y178.457 Z-1.482
X121.341 Y178.39 Z-1.669
X121.954 Y178.258 Z-1.932
X122.824 Y177.874 Z-2.533
X124.122 Y179.599 Z-1.325
X124.363 Y179.927 Z-1.102
X124.454 Y179.972 Z-1.013
X124.363 Y179.927 Z-1.102
X124.375 Y180.025 Z-1.015
X124.363 Y179.927 Z-1.102
X124.122 Y179.599 Z-1.325
X122.824 Y177.874 Z-2.533
X122.894 Y177.186 Z-2.43
Y176.405 Z-2.397
X122.872 Y172.44 Z-2.314
X122.866 Y170.398 Z-2.297
X122.865 Y156.655 Z-2.35
X122.866 Y154.792 Z-2.51
X123.614 Y154.174 Z-1.884
X124.115 Y153.918 Z-1.634
X124.727 Y153.704 Z-1.428
X125.226 Y153.611 Z-1.346
X126.014 Y153.553 Z-1.316
X126.874 Y153.486 Z-1.292
X127.162 Y153.746 Z-1.004
X126.874 Y153.486 Z-1.292
X127.157 Y153.186 Z-1.009
X126.874 Y153.486 Z-1.292
X126.014 Y153.553 Z-1.316
X125.226 Y153.611 Z-1.346
X124.727 Y153.704 Z-1.428
X124.115 Y153.918 Z-1.634
X123.614 Y154.174 Z-1.884
X122.866 Y154.792 Z-2.51
X122.261 Y154.262 Z-1.987
X121.739 Y153.957 Z-1.69
X121.056 Y153.689 Z-1.436
X120.536 Y153.582 Z-1.343
X119.837 Y153.532 Z-1.314
X118.858 Y153.474 Z-1.292
X118.568 Y153.742 Z-1.002
X118.858 Y153.474 Z-1.292
X118.573 Y153.178 Z-1.007
G0 Z5
X124.09 Y296.575
Z4
G1 Z-1.009 F850
X124.775 Y295.867 Z-1.694
X124.094 Y295.239 Z-1.013
X124.775 Y295.867 Z-1.694
X125.392 Y295.817 Z-1.725
X126.514 Y295.67 Z-1.839
X127.302 Y295.517 Z-1.971
X127.941 Y295.258 Z-2.218
X128.834 Y294.816 Z-2.646
X131.298 Y293.261 Z-4.179
X131.774 Y293.789 Z-3.652
X132.553 Y294.496 Z-2.951
X133.183 Y294.96 Z-2.493
X133.746 Y295.275 Z-2.185
X134.36 Y295.512 Z-1.96
X134.925 Y295.648 Z-1.835
X136.566 Y295.828 Z-1.704
X137.281 Y295.875 Z-1.682
X137.958 Y295.238 Z-1.005
X137.281 Y295.875 Z-1.682
X137.951 Y296.57 Z-1.012
X137.281 Y295.875 Z-1.682
X136.566 Y295.828 Z-1.704
X134.925 Y295.648 Z-1.835
X134.36 Y295.512 Z-1.96
X133.746 Y295.275 Z-2.185
X133.183 Y294.96 Z-2.493
X132.553 Y294.496 Z-2.951
X131.774 Y293.789 Z-3.652
X131.298 Y293.261 Z-4.179
X131.64 Y292.288 Z-4.091
X132.374 Y290.345 Z-3.975
X133.317 Y288.059 Z-3.938
X134.41 Y285.437 Z-3.93
X139.847 Y272.3 Z-3.888
X140.234 Y271.525 Z-3.948
X140.732 Y270.796 Z-4.126
X140.796 Y267.895 Z-3.069
X139.421 Y265.832 Z-1.006
X140.796 Y267.895 Z-3.069
X142.274 Y265.828 Z-1.002
X140.796 Y267.895 Z-3.069
X140.732 Y270.796 Z-4.126
X141.072 Y270.899 Z-3.848
X142.041 Y271.278 Z-3.088
X142.46 Y271.495 Z-2.783
X143.133 Y271.965 Z-2.341
X143.402 Y272.224 Z-2.193
X143.634 Y272.507 Z-2.09
X143.818 Y272.801 Z-2.036
X148.961 Y285.252 Z-2.101
X149.937 Y287.59 Z-2.102
X150.864 Y289.955 Z-2.158
X151.51 Y291.77 Z-2.271
X152.108 Y293.442 Z-2.46
X152.268 Y293.942 Z-2.56
X152.405 Y294.644 Z-2.799
X153.696 Y295.363 Z-2.104
X154.124 Y295.521 Z-1.955
X155.017 Y295.7 Z-1.803
X155.927 Y295.824 Z-1.712
X156.342 Y295.861 Z-1.692
X157.024 Y295.235 Z-1.01
X156.342 Y295.861 Z-1.692
X157.025 Y296.573 Z-1.009
X156.342 Y295.861 Z-1.692
X155.927 Y295.824 Z-1.712
X155.017 Y295.7 Z-1.803
X154.124 Y295.521 Z-1.955
X153.696 Y295.363 Z-2.104
X152.405 Y294.644 Z-2.799
X151.835 Y295.043 Z-2.401
X151.243 Y295.355 Z-2.099
X150.661 Y295.563 Z-1.903
X150.207 Y295.663 Z-1.813
X148.484 Y295.836 Z-1.692
X147.7 Y295.881 Z-1.675
X147.027 Y295.237 Z-1.002
X147.7 Y295.881 Z-1.675
X147.031 Y296.577 Z-1.006
G0 Z5
X129.519 Y153.746
Z4
G1 Z-1.003 F850
X129.81 Y153.484 Z-1.294
X129.526 Y153.186 Z-1.01
X129.81 Y153.484 Z-1.294
X131.058 Y153.573 Z-1.328
X131.661 Y153.633 Z-1.369
X132.229 Y153.767 Z-1.491
X132.705 Y153.944 Z-1.662
X133.002 Y154.129 Z-1.844
X133.892 Y154.805 Z-2.518
X134.487 Y154.358 Z-2.076
X135.13 Y153.987 Z-1.713
X135.545 Y153.819 Z-1.553
X136.327 Y153.643 Z-1.396
X137.062 Y153.564 Z-1.342
X137.941 Y153.489 Z-1.303
X138.24 Y153.178 Z-1.004
X137.941 Y153.489 Z-1.303
X138.239 Y153.75 Z-1.005
X137.941 Y153.489 Z-1.303
X137.062 Y153.564 Z-1.342
X136.327 Y153.643 Z-1.396
X135.545 Y153.819 Z-1.553
X135.13 Y153.987 Z-1.713
X134.487 Y154.358 Z-2.076
X133.892 Y154.805 Z-2.518
Y155.36 Z-2.442
X133.857 Y157.93 Z-2.329
X133.887 Y162.816 Z-2.314
Y166.943 Z-2.398
X133.861 Y167.648 Z-2.442
X133.779 Y168.261 Z-2.543
X135.154 Y170.081 Z-1.277
X135.222 Y170.171 Z-1.217
X135.443 Y170.282 Z-1.006
X135.222 Y170.171 Z-1.217
X135.245 Y170.412 Z-1.001
X135.222 Y170.171 Z-1.217
X135.154 Y170.081 Z-1.277
X133.779 Y168.261 Z-2.543
X133.031 Y168.554 Z-2.05
X132.501 Y168.708 Z-1.774
X131.842 Y168.781 Z-1.564
X131.196 Y168.785 Z-1.435
X130.182 Y168.705 Z-1.346
X129.836 Y168.679 Z-1.32
X129.523 Y168.95 Z-1.007
X129.836 Y168.679 Z-1.32
X129.526 Y168.369 Z-1.01
G0 Z5
X133.254 Y176.954
Z4
G1 Z-2.225 F850
X133.797 Y176.732 Z-2.798
Y176.751 Z-2.786
X133.798 Y176.76 Z-2.78
Y176.766 Z-2.775
X133.577 Y177.293 Z-2.219
X133.798 Y176.766 Z-2.775
X133.805 Y176.79 Z-2.752
X133.798 Y176.766 Z-2.775
Y176.76 Z-2.78
X133.797 Y176.751 Z-2.786
Y176.732 Z-2.798
X134.341 Y176.954 Z-2.225
X133.797 Y176.732 Z-2.798
Y176.715 Z-2.8
Y176.712
Y176.709
Y176.708 Z-2.799
X134.233 Y176.527 Z-2.341
X133.797 Y176.708 Z-2.799
Y176.706 Z-2.798
X133.798 Y176.702 Z-2.795
X133.8 Y176.697 Z-2.79
X133.801 Y176.693 Z-2.787
X134.046 Y176.106 Z-2.166
X133.801 Y176.693 Z-2.787
X133.8 Y176.697 Z-2.79
X133.798 Y176.702 Z-2.795
X133.55 Y176.1 Z-2.16
G0 Z5
X137.502 Y109.361
Z4
G1 Z-1.002 F850
X137.792 Y109.094 Z-1.292
X137.506 Y108.797 Z-1.006
X137.792 Y109.094 Z-1.292
X138.866 Y109.156 Z-1.316
X139.539 Y109.211 Z-1.351
X140.035 Y109.322 Z-1.448
X140.684 Y109.582 Z-1.696
X141.195 Y109.882 Z-1.987
X141.8 Y110.412 Z-2.51
X142.541 Y109.797 Z-1.889
X143.043 Y109.541 Z-1.636
X143.661 Y109.324 Z-1.428
X144.16 Y109.23 Z-1.346
X144.945 Y109.173 Z-1.316
X145.808 Y109.105 Z-1.292
X146.091 Y108.805 Z-1.009
X145.808 Y109.105 Z-1.292
X146.096 Y109.365 Z-1.004
X145.808 Y109.105 Z-1.292
X144.945 Y109.173 Z-1.316
X144.16 Y109.23 Z-1.346
X143.661 Y109.324 Z-1.428
X143.043 Y109.541 Z-1.636
X142.541 Y109.797 Z-1.889
X141.8 Y110.412 Z-2.51
X141.799 Y112.274 Z-2.351
X141.8 Y126.018 Z-2.297
X141.806 Y128.06 Z-2.314
X141.827 Y132.009 Z-2.397
X141.828 Y132.809 Z-2.43
X141.758 Y133.494 Z-2.533
X143.057 Y135.219 Z-1.324
X143.296 Y135.546 Z-1.103
X143.308 Y135.645 Z-1.015
X143.296 Y135.546 Z-1.103
X143.387 Y135.59 Z-1.013
X143.296 Y135.546 Z-1.103
X143.057 Y135.219 Z-1.324
X141.758 Y133.494 Z-2.533
X140.913 Y133.869 Z-1.947
X140.471 Y133.98 Z-1.739
X139.681 Y134.074 Z-1.496
X139.036 Y134.068 Z-1.403
X137.829 Y133.994 Z-1.329
X137.504 Y134.286 Z-1.004
X137.829 Y133.994 Z-1.329
X137.51 Y133.675 Z-1.01
G0 Z5
X139.924 Y153.176
Z4
G1 Z-1.008 F850
X140.191 Y153.449 Z-1.275
X139.926 Y153.714 Z-1.01
X140.191 Y153.449 Z-1.275
X140.961 Y153.456 Z-1.266
X141.672 Y153.477 Z-1.27
X142.208 Y153.554 Z-1.336
X142.831 Y153.744 Z-1.512
X143.54 Y154.07 Z-1.822
X144.456 Y154.828 Z-2.56
X144.986 Y154.381 Z-2.101
X145.655 Y153.952 Z-1.665
X146.453 Y153.662 Z-1.388
X147.02 Y153.537 Z-1.274
X147.635 Y153.484 Z-1.239
X149.253 Y153.454 Z-1.27
X149.509 Y153.187 Z-1.014
X149.253 Y153.454 Z-1.27
X149.513 Y153.714 Z-1.01
X149.253 Y153.454 Z-1.27
X147.635 Y153.484 Z-1.239
X147.02 Y153.537 Z-1.274
X146.453 Y153.662 Z-1.388
X145.655 Y153.952 Z-1.665
X144.986 Y154.381 Z-2.101
X144.456 Y154.828 Z-2.56
X144.466 Y156.609 Z-2.349
X144.471 Y158.357 Z-2.279
X144.473 Y160.325 Z-2.297
Y167.843 Z-2.351
Y168.311 Z-2.53
X145.308 Z-1.881
X145.66 Z-1.7
X146.231 Y168.316 Z-1.626
X149.103 Y168.366 Z-1.645
X149.924 Y168.38 Z-1.678
X150.727 Y169.107 Z-1.006
X149.924 Y168.38 Z-1.678
X150.491 Y167.693 Z-1.006
X149.924 Y168.38 Z-1.678
X149.103 Y168.366 Z-1.645
X146.231 Y168.316 Z-1.626
X145.66 Y168.311 Z-1.7
X145.308 Z-1.881
X144.473 Z-2.53
X144.421 Y168.402 Z-2.533
X143.885 Z-2.115
X143.163 Y168.386 Z-1.734
X142.663 Y168.272 Z-1.604
X140.74 Y167.748 Z-1.202
X140.546 Y167.869 Z-1.008
X140.74 Y167.748 Z-1.202
X140.542 Y167.538 Z-1.004
X140.74 Y167.748 Z-1.202
X142.663 Y168.272 Z-1.604
X143.163 Y168.386 Z-1.734
X143.885 Y168.402 Z-2.115
X144.421 Z-2.533
X144.445 Y168.821 Z-2.367
X144.473 Y169.373 Z-2.297
X144.499 Y172.847 Z-2.259
X144.606 Y173.666 Z-2.175
X144.678 Y174.044 Z-2.128
X144.762 Y174.315 Z-2.069
X145.101 Y175.235 Z-1.869
X145.621 Y176.253 Z-1.613
X146.077 Y177.026 Z-1.412
X146.668 Y177.663 Z-1.391
X147.131 Y178.058 Z-1.425
X147.671 Y178.394 Z-1.525
X148.422 Y178.722 Z-1.724
X148.97 Y178.912 Z-1.89
X149.201 Y178.95 Z-1.949
X149.666 Y178.99 Z-2.045
X150.358 Y178.931 Z-2.131
X151.145 Y179.604 Z-1.365
X151.526 Y179.889 Z-1
X151.145 Y179.604 Z-1.365
X150.358 Y178.931 Z-2.131
X150.866 Y178.181 Z-1.623
X151.355 Y177.325 Z-1.166
X151.381 Y177.277 Z-1.143
X151.364 Y177.126 Z-1.012
X151.381 Y177.277 Z-1.143
X151.513 Y177.196 Z-1.016
G0 Z5
X148.414 Y134.289
Z4
G1 Z-1.001 F850
X148.742 Y133.994 Z-1.329
X148.423 Y133.675 Z-1.01
X148.742 Y133.994 Z-1.329
X149.949 Y134.068 Z-1.403
X150.594 Y134.074 Z-1.496
X151.384 Y133.98 Z-1.739
X151.826 Y133.869 Z-1.947
X152.671 Y133.494 Z-2.533
X153.971 Y135.22 Z-1.323
X154.209 Y135.546 Z-1.103
X154.221 Y135.645 Z-1.015
X154.209 Y135.546 Z-1.103
X154.3 Y135.59 Z-1.013
X154.209 Y135.546 Z-1.103
X153.971 Y135.22 Z-1.323
X152.671 Y133.494 Z-2.533
X152.741 Y132.809 Z-2.43
X152.74 Y132.009 Z-2.397
X152.719 Y128.06 Z-2.314
X152.713 Y126.018 Z-2.297
X152.712 Y112.274 Z-2.351
X152.713 Y110.412 Z-2.51
X153.454 Y109.797 Z-1.889
X153.935 Y109.549 Z-1.644
X154.574 Y109.324 Z-1.428
X155.073 Y109.23 Z-1.346
X155.858 Y109.173 Z-1.316
X156.721 Y109.105 Z-1.292
X157.004 Y108.805 Z-1.009
X156.721 Y109.105 Z-1.292
X157.009 Y109.365 Z-1.004
X156.721 Y109.105 Z-1.292
X155.858 Y109.173 Z-1.316
X155.073 Y109.23 Z-1.346
X154.574 Y109.324 Z-1.428
X153.935 Y109.549 Z-1.644
X153.454 Y109.797 Z-1.889
X152.713 Y110.412 Z-2.51
X152.108 Y109.882 Z-1.987
X151.597 Y109.582 Z-1.695
X150.948 Y109.322 Z-1.448
X150.452 Y109.211 Z-1.351
X149.779 Y109.156 Z-1.316
X148.705 Y109.094 Z-1.292
X148.415 Y109.361 Z-1.002
X148.705 Y109.094 Z-1.292
X148.42 Y108.798 Z-1.007
G0 Z5
X148.64 Y88.891
Z4
G1 Z-1.002 F850
X148.954 Y88.565 Z-1.316
X148.648 Y88.26 Z-1.01
X148.954 Y88.565 Z-1.316
X150.135 Y88.547 Z-1.293
X150.882 Y88.5 Z-1.317
X151.491 Y88.386 Z-1.417
X152.306 Y88.117 Z-1.673
X152.825 Y87.87 Z-1.914
X153.804 Y87.084 Z-2.693
X154.641 Y87.733 Z-2.046
X155.178 Y88.049 Z-1.734
X155.724 Y88.287 Z-1.503
X156.199 Y88.399 Z-1.399
X157.104 Y88.517 Z-1.305
X158.077 Y88.556 Z-1.301
X158.554 Y88.564 Z-1.314
X158.862 Y88.886 Z-1.006
X158.554 Y88.564 Z-1.314
X158.858 Y88.26 Z-1.01
X158.554 Y88.564 Z-1.314
X158.077 Y88.556 Z-1.301
X157.104 Y88.517 Z-1.305
X156.199 Y88.399 Z-1.399
X155.724 Y88.287 Z-1.503
X155.178 Y88.049 Z-1.734
X154.641 Y87.733 Z-2.046
X153.804 Y87.084 Z-2.693
X153.854 Y85.709 Z-2.546
X153.873 Y83.981 Z-2.464
X153.863 Y81.883 Z-2.471
X153.889 Y77.32 Z-2.498
X153.968 Y76.894 Z-2.577
X153.889 Y76.469 Z-2.498
X153.863 Y70.926 Z-2.471
X153.896 Y68.842 Z-2.482
Y66.962 Z-2.561
X153.85 Y65.202 Z-2.733
X154.197 Y64.893 Z-2.421
X154.723 Y64.495 Z-2.021
X155.214 Y64.218 Z-1.748
X155.696 Y64.019 Z-1.554
X156.258 Y63.867 Z-1.411
X156.933 Y63.754 Z-1.315
X158.555 Y63.688 Z-1.313
X158.867 Y63.36 Z-1.001
X158.555 Y63.688 Z-1.313
X158.858 Y63.991 Z-1.01
X158.555 Y63.688 Z-1.313
X156.933 Y63.754 Z-1.315
X156.258 Y63.867 Z-1.411
X155.696 Y64.019 Z-1.554
X155.214 Y64.218 Z-1.748
X154.723 Y64.495 Z-2.021
X154.197 Y64.893 Z-2.421
X153.85 Y65.202 Z-2.733
X153.229 Y64.668 Z-2.205
X152.717 Y64.306 Z-1.849
X152.166 Y64.077 Z-1.629
X151.431 Y63.852 Z-1.419
X150.774 Y63.737 Z-1.319
X148.956 Y63.683 Z-1.318
X148.648 Y63.991 Z-1.01
X148.956 Y63.683 Z-1.318
X148.642 Y63.359 Z-1.004
X148.956 Y63.683 Z-1.318
X150.774 Y63.737 Z-1.319
X151.431 Y63.852 Z-1.419
X152.166 Y64.077 Z-1.629
X152.717 Y64.306 Z-1.849
X153.229 Y64.668 Z-2.205
X153.85 Y65.202 Z-2.733
X153.896 Y66.962 Z-2.561
Y68.842 Z-2.482
X153.863 Y70.926 Z-2.471
X153.889 Y76.469 Z-2.498
X153.968 Y76.894 Z-2.577
X154.843 Z-1.879
X155.21 Z-1.68
X155.558 Z-1.602
X161.108 Y76.895 Z-1.483
X167.072 Y76.896 Z-1.492
X170.851 Y76.894 Z-1.602
X171.197 Z-1.682
X171.562 Z-1.881
X172.434 Z-2.576
X172.513 Y77.32 Z-2.497
X172.539 Y81.298 Z-2.471
X172.525 Y83.5 Z-2.485
X172.48 Y86.293 Z-2.601
X172.472 Y87.098 Z-2.678
X173.146 Y87.629 Z-2.151
X173.784 Y88.019 Z-1.767
X174.266 Y88.252 Z-1.539
X174.794 Y88.391 Z-1.409
X175.53 Y88.507 Z-1.31
X176.312 Y88.547 Z-1.293
X177.448 Y88.565 Z-1.316
X177.762 Y88.891 Z-1.002
X177.448 Y88.565 Z-1.316
X177.754 Y88.26 Z-1.01
X177.448 Y88.565 Z-1.316
X176.312 Y88.547 Z-1.293
X175.53 Y88.507 Z-1.31
X174.794 Y88.391 Z-1.409
X174.266 Y88.252 Z-1.539
X173.784 Y88.019 Z-1.767
X173.146 Y87.629 Z-2.151
X172.472 Y87.098 Z-2.678
X171.699 Y87.693 Z-2.087
X171.087 Y88.045 Z-1.74
X170.592 Y88.269 Z-1.523
X169.904 Y88.431 Z-1.374
X169.259 Y88.518 Z-1.303
X168.37 Y88.55 Z-1.301
X167.629 Y88.565 Z-1.315
X167.32 Y88.886 Z-1.006
X167.629 Y88.565 Z-1.315
X167.324 Y88.26 Z-1.01
X167.629 Y88.565 Z-1.315
X168.37 Y88.55 Z-1.301
X169.259 Y88.518 Z-1.303
X169.904 Y88.431 Z-1.374
X170.592 Y88.269 Z-1.523
X171.087 Y88.045 Z-1.74
X171.699 Y87.693 Z-2.087
X172.472 Y87.098 Z-2.678
X172.48 Y86.293 Z-2.601
X172.525 Y83.5 Z-2.485
X172.539 Y81.298 Z-2.471
X172.513 Y77.32 Z-2.497
X172.434 Y76.894 Z-2.576
X172.513 Y76.469 Z-2.497
X172.539 Y76.043 Z-2.471
X172.512 Y67.669 Z-2.513
X172.531 Y65.861 Z-2.652
X172.538 Y65.204 Z-2.73
X171.772 Y64.606 Z-2.136
X171.163 Y64.239 Z-1.774
X170.634 Y63.986 Z-1.528
X169.982 Y63.83 Z-1.383
X169.251 Y63.73 Z-1.302
X168.397 Y63.7 Z-1.3
X167.629 Y63.686 Z-1.315
X167.32 Y63.364 Z-1.006
X167.629 Y63.686 Z-1.315
X167.324 Y63.991 Z-1.01
X167.629 Y63.686 Z-1.315
X168.397 Y63.7 Z-1.3
X169.251 Y63.73 Z-1.302
X169.982 Y63.83 Z-1.383
X170.634 Y63.986 Z-1.528
X171.163 Y64.239 Z-1.774
X171.772 Y64.606 Z-2.136
X172.538 Y65.204 Z-2.73
X173.457 Y64.437 Z-1.966
X173.944 Y64.18 Z-1.712
X174.854 Y63.868 Z-1.413
X175.461 Y63.754 Z-1.31
X176.199 Y63.708 Z-1.287
X177.45 Y63.687 Z-1.314
X177.754 Y63.991 Z-1.01
X177.45 Y63.687 Z-1.314
X177.763 Y63.36 Z-1.001
G0 Z5
X152.791 Y167.284
Z4
G1 Z-1.003 F850
X152.986 Y167.493 Z-1.198
X152.795 Y167.623 Z-1.007
X152.986 Y167.493 Z-1.198
X153.209 Y167.544 Z-1.233
X155.193 Y167.993 Z-1.607
X155.626 Y168.082 Z-1.71
X156.384 Y168.1 Z-2.09
X156.95 Z-2.532
X156.997 Y168.183 Z-2.529
Y168.651 Z-2.351
Y169.062 Z-2.297
X157.002 Y169.794 Z-2.312
X157.03 Y173.644 Z-2.434
X158.265 Y175.485 Z-1.316
X158.326 Y175.579 Z-1.262
X158.352 Y175.883 Z-1.004
X158.326 Y175.579 Z-1.262
X158.582 Y175.694 Z-1.014
X158.326 Y175.579 Z-1.262
X158.265 Y175.485 Z-1.316
X157.03 Y173.644 Z-2.434
X155.563 Y174.573 Z-1.004
X157.03 Y173.644 Z-2.434
X157.002 Y169.794 Z-2.312
X156.997 Y169.062 Z-2.297
Y168.651 Z-2.351
Y168.183 Z-2.529
X157.847 Z-1.872
X158.205 Z-1.692
X158.544 Z-1.629
X159.765 Y168.186 Z-1.63
X162.637 Y168.23 Z-1.658
X163.363 Y168.916 Z-1.009
X162.637 Y168.23 Z-1.658
X163.225 Y167.561 Z-1.002
X162.637 Y168.23 Z-1.658
X159.765 Y168.186 Z-1.63
X158.544 Y168.183 Z-1.629
X158.205 Z-1.692
X157.847 Z-1.872
X156.997 Z-2.529
X156.95 Y168.1 Z-2.532
X156.973 Y167.677 Z-2.365
X156.993 Y167.304 Z-2.301
X156.997 Y160.181 Z-2.297
X156.986 Y158.251 Z-2.326
X157.056 Y156.376 Z-2.426
X157.153 Y155.755 Z-2.481
X157.377 Y155.114 Z-2.515
X157.658 Y154.741 Z-2.47
X157.901 Y154.524 Z-2.413
X158.521 Y154.132 Z-2.249
X159.054 Y153.938 Z-2.124
X159.458 Y153.833 Z-2.037
X160.095 Y153.764 Z-1.916
X160.839 Y153.806 Z-1.798
X161.08 Y153.845 Z-1.766
X161.521 Y153.186 Z-1.004
X161.08 Y153.845 Z-1.766
X161.798 Y154.248 Z-1.482
X162.441 Y154.712 Z-1.294
X162.851 Y155.061 Z-1.209
X163.113 Y155.06 Z-1.008
X162.851 Y155.061 Z-1.209
X162.882 Y155.344 Z-1.004
G0 Z5
X156.854 Y224.316
Z4
G1 Z-1.01 F850
X157.182 Y224.644 Z-1.338
X157.505 Y224.308 Z-1.002
X157.182 Y224.644 Z-1.338
X157.187 Y224.892 Z-1.343
X157.19 Y225.839 Z-1.392
X157.132 Y226.498 Z-1.506
X157.011 Y227.214 Z-1.707
X156.708 Y228.079 Z-2.131
X157.949 Y228.747 Z-1.014
X156.708 Y228.079 Z-2.131
X156.167 Y228.346 Z-2.045
X155.177 Y228.674 Z-1.931
X154.121 Y228.881 Z-1.811
X153.242 Y228.961 Z-1.722
X152.219 Y228.947 Z-1.637
X151.274 Y228.798 Z-1.538
X150.508 Y228.606 Z-1.453
X149.749 Y228.323 Z-1.388
X149.03 Y227.961 Z-1.392
X147.969 Y227.26 Z-1.475
X147.606 Y226.971 Z-1.526
X147.095 Y226.434 Z-1.674
X146.513 Y225.697 Z-1.832
X146.204 Y225.187 Z-1.916
X145.835 Y224.32 Z-2.038
X145.573 Y223.319 Z-2.163
X145.411 Y222.305 Z-2.272
X145.37 Y221.118 Z-2.354
X145.431 Y219.861 Z-2.412
X145.561 Y218.896 Z-2.454
X145.774 Y218.045 Z-2.48
X146.18 Y217.016 Z-2.5
X146.524 Y216.363 Z-2.503
X147.067 Y215.539 Z-2.468
X147.537 Y214.975 Z-2.382
X148.393 Y214.251 Z-2.275
X149.403 Y213.645 Z-2.095
X150.147 Y213.309 Z-1.983
X150.955 Y213.077 Z-1.873
X151.973 Y212.918 Z-1.777
X153.168 Y212.858 Z-1.683
X154.165 Y212.933 Z-1.61
X155.07 Y213.098 Z-1.554
X155.942 Y213.341 Z-1.505
X157.014 Y213.763 Z-1.437
X157.315 Y213.429 Z-1.004
X157.014 Y213.763 Z-1.437
X157.674 Y214.328 Z-1.186
X157.703 Y214.537 Z-1.01
X157.674 Y214.328 Z-1.186
X157.907 Y214.36 Z-1.007
G0 Z5
X160.152 Y266.291
Z4
G1 Z-1.009 F850
X160.887 Y267.072 Z-1.744
X160.157 Y267.764 Z-1.014
X160.887 Y267.072 Z-1.744
X161.447 Y267.121 Z-1.763
X162.464 Y267.264 Z-1.868
X163.102 Y267.392 Z-1.983
X163.745 Y267.659 Z-2.244
X164.745 Y268.175 Z-2.756
X165.208 Y267.873 Z-2.455
X165.738 Y267.608 Z-2.194
X166.364 Y267.39 Z-1.981
X166.888 Y267.292 Z-1.892
X168.428 Y267.128 Z-1.775
X169.094 Y267.078 Z-1.757
X169.845 Y266.286 Z-1.006
X169.094 Y267.078 Z-1.757
X169.848 Y267.779 Z-1.003
X169.094 Y267.078 Z-1.757
X168.428 Y267.128 Z-1.775
X166.888 Y267.292 Z-1.892
X166.364 Y267.39 Z-1.981
X165.738 Y267.608 Z-2.194
X165.208 Y267.873 Z-2.455
X164.745 Y268.175 Z-2.756
X164.846 Y268.885 Z-2.509
X164.987 Y269.512 Z-2.372
X165.24 Y270.308 Z-2.273
X165.98 Y272.29 Z-2.138
X167.015 Y274.864 Z-2.071
X167.576 Y276.196 Z-2.075
X167.778 Y276.506 Z-2.143
X168.023 Y276.793 Z-2.26
X168.311 Y277.059 Z-2.424
X168.841 Y276.862 Z-2.187
X169.287 Y276.763 Z-2.079
X169.988 Y276.734 Z-2.035
X173.568 Y276.707 Z-1.972
X177.55 Y276.721 Z-2.006
X179.334 Y276.755 Z-2.07
X179.843 Y276.862 Z-2.187
X180.099 Y276.952 Z-2.283
X180.619 Y277.162 Z-2.577
X181.158 Y277.379 Z-2.992
X182.362 Y277.865 Z-4.102
X182.727 Y277.279 Z-3.993
X184.721 Y272.512 Z-4.004
X185.311 Y270.995 Z-4.046
X185.803 Y269.587 Z-4.17
X185.318 Y269.043 Z-3.628
X184.585 Y268.367 Z-2.956
X183.891 Y267.854 Z-2.451
X183.343 Y267.557 Z-2.161
X182.735 Y267.332 Z-1.947
X182.3 Y267.232 Z-1.856
X181.023 Y267.108 Z-1.768
X180.011 Y267.051 Z-1.746
X179.267 Y267.771 Z-1.002
X180.011 Y267.051 Z-1.746
X179.27 Y266.281 Z-1.005
X180.011 Y267.051 Z-1.746
X181.023 Y267.108 Z-1.768
X182.3 Y267.232 Z-1.856
X182.735 Y267.332 Z-1.947
X183.343 Y267.557 Z-2.161
X183.891 Y267.854 Z-2.451
X184.585 Y268.367 Z-2.956
X185.318 Y269.043 Z-3.628
X185.803 Y269.587 Z-4.17
X187.675 Y268.44 Z-3.031
X189.086 Y267.631 Z-2.241
X189.656 Y267.426 Z-2.048
X190.809 Y267.191 Z-1.846
X191.679 Y267.086 Z-1.77
X191.998 Y267.062 Z-1.758
X192.748 Y267.771 Z-1.008
X191.998 Y267.062 Z-1.758
X192.753 Y266.278 Z-1.003
X191.998 Y267.062 Z-1.758
X191.679 Y267.086 Z-1.77
X190.809 Y267.191 Z-1.846
X189.656 Y267.426 Z-2.048
X189.086 Y267.631 Z-2.241
X187.675 Y268.44 Z-3.031
X185.803 Y269.587 Z-4.17
X185.311 Y270.995 Z-4.046
X184.721 Y272.512 Z-4.004
X182.727 Y277.279 Z-3.993
X182.362 Y277.865 Z-4.102
X182.196 Y278.578 Z-3.978
X181.955 Y279.26 Z-3.936
X177.229 Y290.551 Z-3.913
X176.827 Y291.347 Z-3.974
X176.318 Y292.086 Z-4.156
X176.304 Y294.667 Z-3.168
X174.852 Y296.83 Z-1.005
X176.304 Y294.667 Z-3.168
X177.74 Y296.829 Z-1.006
X176.304 Y294.667 Z-3.168
X176.318 Y292.086 Z-4.156
X175.513 Y291.82 Z-3.511
X174.816 Y291.51 Z-2.983
X174.227 Y291.155 Z-2.572
X173.747 Y290.757 Z-2.279
X173.376 Y290.313 Z-2.102
X173.113 Y289.826 Z-2.043
X168.485 Y278.522 Z-2.032
X168.336 Y278.015 Z-2.085
X168.286 Y277.47 Z-2.245
X168.311 Y277.059 Z-2.424
G0 Z5
X173.738 Y110.103
Z4
G1 Z-1.006 F850
X173.38 Y110.418 Z-1.453
X174.191 Y111.378 Z-1.037
X174.194 Y111.417 Z-1.006
X174.191 Y111.378 Z-1.037
X174.23 Y111.387 Z-1.004
X174.191 Y111.378 Z-1.037
X173.38 Y110.418 Z-1.453
X172.874 Y110.165 Z-1.465
X171.921 Y109.76 Z-1.492
X170.722 Y109.403 Z-1.539
X169.66 Y109.22 Z-1.603
X168.798 Y109.157 Z-1.67
X167.521 Y109.196 Z-1.78
X166.523 Y109.359 Z-1.861
X165.759 Y109.566 Z-1.967
X164.981 Y109.882 Z-2.096
X164.223 Y110.321 Z-2.198
X163.488 Y110.868 Z-2.255
X162.714 Y111.678 Z-2.415
X162.067 Y112.659 Z-2.461
X161.629 Y113.485 Z-2.508
X161.361 Y114.204 Z-2.531
X161.164 Y115.09 Z-2.529
X161.032 Y116.234 Z-2.516
X160.984 Y117.025 Z-2.505
X161.008 Y117.715 Z-2.492
X161.086 Y118.124 Z-2.539
X161.056 Y118.532 Z-2.466
X161.122 Y119.274 Z-2.401
X161.336 Y120.384 Z-2.259
X161.677 Y121.519 Z-2.112
X162.158 Y122.417 Z-1.936
X162.565 Y123.001 Z-1.813
X163.298 Y123.826 Z-1.57
X163.955 Y124.352 Z-1.457
X164.741 Y124.852 Z-1.355
X165.393 Y125.163 Z-1.326
X165.927 Y125.336 Z-1.333
X166.915 Y125.512 Z-1.358
X167.641 Y125.561 Z-1.391
X168.081 Y125.558 Z-1.426
X168.905 Y125.443 Z-1.481
X169.799 Y125.202 Z-1.6
X170.461 Y124.923 Z-1.7
X171.097 Y124.526 Z-1.791
X171.657 Y124.032 Z-1.901
X172.224 Y123.402 Z-2.063
X172.482 Y122.931 Z-2.135
X172.923 Y122.008 Z-2.272
X173.135 Y121.369 Z-2.347
X173.274 Y120.587 Z-2.395
X173.357 Y119.311 Z-2.434
X174.655 Y118.229 Z-1.129
X174.776 Y118.13 Z-1.005
X174.655 Y118.229 Z-1.129
X173.357 Y119.311 Z-2.434
X172.643 Y118.535 Z-1.748
X172.227 Y118.263 Z-1.499
X171.782 Y118.134 Z-1.393
X170.438 Y118.053 Z-1.37
X168.233 Y118.019 Z-1.373
X163.774 Y118.061 Z-1.417
X162.72 Y118.081 Z-1.437
X162.371 Y118.09 Z-1.529
X161.999 Y118.1 Z-1.759
X161.086 Y118.124 Z-2.539
G0 Z5
X173.498 Y224.316
Z4
G1 Z-1.01 F850
X173.826 Y224.644 Z-1.338
X174.139 Y224.319 Z-1.013
X173.826 Y224.644 Z-1.338
X173.831 Y224.895 Z-1.343
X173.837 Y225.759 Z-1.384
X173.778 Y226.488 Z-1.503
X173.655 Y227.214 Z-1.707
X173.352 Y228.079 Z-2.131
X174.593 Y228.747 Z-1.014
X173.352 Y228.079 Z-2.131
X172.811 Y228.347 Z-2.045
X171.821 Y228.674 Z-1.931
X170.768 Y228.88 Z-1.812
X169.886 Y228.961 Z-1.722
X168.863 Y228.947 Z-1.637
X167.932 Y228.801 Z-1.54
X167.175 Y228.613 Z-1.456
X166.395 Y228.323 Z-1.388
X165.674 Y227.961 Z-1.392
X164.613 Y227.259 Z-1.475
X164.253 Y226.974 Z-1.525
X163.675 Y226.358 Z-1.691
X163.121 Y225.643 Z-1.842
X162.763 Y225.016 Z-1.94
X162.411 Y224.121 Z-2.069
X162.183 Y223.148 Z-2.183
X162.042 Y222.171 Z-2.281
X162.016 Y220.942 Z-2.364
X162.075 Y219.861 Z-2.411
X162.205 Y218.896 Z-2.454
X162.418 Y218.049 Z-2.48
X162.822 Y217.022 Z-2.5
X163.168 Y216.363 Z-2.503
X163.712 Y215.539 Z-2.467
X164.185 Y214.971 Z-2.381
X165.038 Y214.251 Z-2.275
X166.046 Y213.646 Z-2.096
X166.791 Y213.309 Z-1.983
X167.599 Y213.077 Z-1.873
X168.619 Y212.917 Z-1.777
X169.812 Y212.858 Z-1.683
X170.809 Y212.933 Z-1.61
X171.715 Y213.099 Z-1.554
X172.586 Y213.341 Z-1.505
X173.658 Y213.763 Z-1.437
X173.959 Y213.429 Z-1.003
X173.658 Y213.763 Z-1.437
X174.318 Y214.328 Z-1.186
X174.348 Y214.537 Z-1.01
X174.318 Y214.328 Z-1.186
X174.551 Y214.36 Z-1.007
G0 Z5
X176.625 Y125.601
Z4
G1 Z-1.004 F850
X176.886 Y125.324 Z-1.265
X176.631 Y125.069 Z-1.01
X176.886 Y125.324 Z-1.265
X177.04 Y125.319 Z-1.26
X177.598 Y125.251 Z-1.298
X178.289 Y125.113 Z-1.407
X178.881 Y124.922 Z-1.584
X179.556 Y124.6 Z-1.895
X180.57 Y123.99 Z-2.516
X181.097 Y124.461 Z-2.053
X181.613 Y124.822 Z-1.703
X182.143 Y125.072 Z-1.464
X182.569 Y125.198 Z-1.349
X183.159 Y125.296 Z-1.267
X183.721 Y125.32 Z-1.261
X184.504 Y125.332 Z-1.273
X184.77 Y125.606 Z-1.007
X184.504 Y125.332 Z-1.273
X184.767 Y125.069 Z-1.01
X184.504 Y125.332 Z-1.273
X183.721 Y125.32 Z-1.261
X183.159 Y125.296 Z-1.267
X182.569 Y125.198 Z-1.349
X182.143 Y125.072 Z-1.464
X181.613 Y124.822 Z-1.703
X181.097 Y124.461 Z-2.053
X180.57 Y123.99 Z-2.516
X180.737 Y123.382 Z-2.429
X181.078 Y122.418 Z-2.363
X182.998 Y117.586 Z-2.283
X185.043 Y112.566 Z-2.301
X185.745 Y110.904 Z-2.34
X186.059 Y110.425 Z-2.457
X186.028 Y107.888 Z-1.506
X185.973 Y107.513 Z-1.407
X185.063 Y105.276 Z-1.346
X184.234 Y103.432 Z-1.347
X183.067 Y101.172 Z-1.443
X182.764 Y100.742 Z-1.495
X182.295 Y100.229 Z-1.562
X181.89 Y99.911 Z-1.613
X181.276 Y99.579 Z-1.708
X180.493 Y99.329 Z-1.811
X179.909 Y99.278 Z-1.897
X179.295 Y99.33 Z-2.002
X178.732 Y99.496 Z-2.094
X178.469 Y100.25 Z-1.625
X178.247 Y101.079 Z-1.173
X178.216 Y101.221 Z-1.102
X178.261 Y101.321 Z-1.002
X178.216 Y101.221 Z-1.102
X178.14 Y101.323 Z-1
X178.216 Y101.221 Z-1.102
X178.247 Y101.079 Z-1.173
X178.469 Y100.25 Z-1.625
X178.732 Y99.496 Z-2.094
X177.852 Y99.046 Z-1.381
X177.396 Y98.848 Z-1.002
X177.852 Y99.046 Z-1.381
X178.732 Y99.496 Z-2.094
X179.295 Y99.33 Z-2.002
X179.909 Y99.278 Z-1.897
X180.493 Y99.329 Z-1.811
X181.276 Y99.579 Z-1.708
X181.89 Y99.911 Z-1.613
X182.295 Y100.229 Z-1.562
X182.764 Y100.742 Z-1.495
X183.067 Y101.172 Z-1.443
X184.234 Y103.432 Z-1.347
X185.063 Y105.276 Z-1.346
X185.973 Y107.513 Z-1.407
X186.028 Y107.888 Z-1.506
X186.059 Y110.425 Z-2.457
X186.757 Y110.689 Z-1.916
X187.189 Y110.959 Z-1.622
X187.505 Y111.283 Z-1.456
X187.657 Y111.547 Z-1.419
X189.362 Y115.49 Z-1.403
X191.04 Y119.46 Z-1.48
X192.308 Y122.437 Z-1.617
X192.714 Y123.491 Z-1.732
X192.872 Y124.095 Z-1.868
X192.891 Y124.471 Z-2.023
X193.617 Y124.839 Z-1.661
X194.252 Y125.073 Z-1.439
X194.845 Y125.228 Z-1.306
X195.387 Y125.303 Z-1.261
X195.719 Y125.322 Z-1.263
X195.973 Y125.594 Z-1.009
X195.719 Y125.322 Z-1.263
X195.972 Y125.069 Z-1.01
X195.719 Y125.322 Z-1.263
X195.387 Y125.303 Z-1.261
X194.845 Y125.228 Z-1.306
X194.252 Y125.073 Z-1.439
X193.617 Y124.839 Z-1.661
X192.891 Y124.471 Z-2.023
X192.179 Y124.867 Z-1.636
X191.679 Y125.049 Z-1.464
X191.148 Y125.151 Z-1.376
X189.952 Y125.265 Z-1.314
X189.737 Y125.287 Z-1.304
X189.44 Y125.03 Z-1.007
X189.737 Y125.287 Z-1.304
X189.439 Y125.601 Z-1.006
G0 Z5
X191.763 Y213.819
Z4
G1 Z-1.009 F850
X191.406 Y214.132 Z-1.453
X192.217 Y215.092 Z-1.037
X192.256 Y215.101 Z-1.004
X192.217 Y215.092 Z-1.037
X192.22 Y215.131 Z-1.006
X192.217 Y215.092 Z-1.037
X191.406 Y214.132 Z-1.453
X190.445 Y213.675 Z-1.481
X189.529 Y213.337 Z-1.508
X188.492 Y213.062 Z-1.552
X187.33 Y212.894 Z-1.626
X186.683 Y212.87 Z-1.682
X185.503 Y212.915 Z-1.782
X184.496 Y213.085 Z-1.867
X183.726 Y213.301 Z-1.976
X182.95 Y213.624 Z-2.106
X182.248 Y214.036 Z-2.198
X181.515 Y214.582 Z-2.255
X180.789 Y215.339 Z-2.404
X180.622 Y215.561 Z-2.421
X179.968 Y216.587 Z-2.473
X179.57 Y217.394 Z-2.517
X179.321 Y218.163 Z-2.533
X179.147 Y219.092 Z-2.525
X179.024 Y220.424 Z-2.512
X179.014 Y221.214 Z-2.484
X179.112 Y221.839 Z-2.539
X179.082 Y222.245 Z-2.466
X179.146 Y222.984 Z-2.402
X179.316 Y223.908 Z-2.286
X179.639 Y225.048 Z-2.132
X179.838 Y225.512 Z-2.054
X180.336 Y226.365 Z-1.891
X180.778 Y226.943 Z-1.754
X181.504 Y227.705 Z-1.525
X182.482 Y228.398 Z-1.384
X183.114 Y228.746 Z-1.332
X183.786 Y229.003 Z-1.329
X184.621 Y229.184 Z-1.351
X185.564 Y229.273 Z-1.383
X186.448 Y229.235 Z-1.44
X187.191 Y229.099 Z-1.512
X188.029 Y228.846 Z-1.626
X188.664 Y228.542 Z-1.727
X189.253 Y228.14 Z-1.811
X189.775 Y227.65 Z-1.924
X190.295 Y227.037 Z-2.074
X190.9 Y225.841 Z-2.255
X191.161 Y225.081 Z-2.347
X191.283 Y224.431 Z-2.389
X191.367 Y223.506 Z-2.418
X191.383 Y223.025 Z-2.434
X192.684 Y221.943 Z-1.126
X192.805 Y221.842 Z-1.002
X192.684 Y221.943 Z-1.126
X191.383 Y223.025 Z-2.434
X190.664 Y222.244 Z-1.743
X190.254 Y221.978 Z-1.499
X189.809 Y221.848 Z-1.393
X188.401 Y221.765 Z-1.37
X186.256 Y221.733 Z-1.373
X181.279 Y221.785 Z-1.427
X180.745 Y221.795 Z-1.437
X180.396 Y221.804 Z-1.529
X180.024 Y221.814 Z-1.759
X179.112 Y221.839 Z-2.539
G0 Z5
X174.371 Y169.942
Z4
G1 Z-1.417 F850
X175.273 Y169.851 Z-1.467
X176.161 Y169.653 Z-1.575
X177 Y169.361 Z-1.714
X177.55 Y169.098 Z-1.812
X178.26 Y168.622 Z-1.945
X178.974 Y168.013 Z-2.075
X179.672 Y167.267 Z-2.259
X180.383 Y166.113 Z-2.407
X180.794 Y165.215 Z-2.519
X181.032 Y164.492 Z-2.548
X181.25 Y163.39 Z-2.529
X181.35 Y162.443 Z-2.512
X181.357 Y161.327 Z-2.453
X181.278 Y160.075 Z-2.368
X181.147 Y159.177 Z-2.281
X180.958 Y158.433 Z-2.174
X180.67 Y157.675 Z-2.033
X180.166 Y156.72 Z-1.854
X179.47 Y155.674 Z-1.69
X178.904 Y155.046 Z-1.517
X178.01 Y154.336 Z-1.412
X177.318 Y153.899 Z-1.353
X176.615 Y153.597 Z-1.328
X176.043 Y153.441 Z-1.327
X174.789 Y153.254 Z-1.345
X173.784 Y153.27 Z-1.454
X173.045 Y153.356 Z-1.517
X172.177 Y153.546 Z-1.611
X171.388 Y153.829 Z-1.747
X170.722 Y154.189 Z-1.891
X170.029 Y154.719 Z-2.037
X169.244 Y155.491 Z-2.192
X168.802 Y156.008 Z-2.304
X168.148 Y157.146 Z-2.435
X167.727 Y158.019 Z-2.508
X167.419 Y158.892 Z-2.539
X167.22 Y159.823 Z-2.531
X167.071 Y161.162 Z-2.507
X167.038 Y162.338 Z-2.463
X167.078 Y163.218 Z-2.405
X167.206 Y164.05 Z-2.328
X167.495 Y165.118 Z-2.186
X167.696 Y165.662 Z-2.119
X168.275 Y166.789 Z-1.931
X168.709 Y167.431 Z-1.81
X169.233 Y168.022 Z-1.676
X169.842 Y168.558 Z-1.57
X170.429 Y168.954 Z-1.498
X170.962 Y169.247 Z-1.441
X171.771 Y169.592 Z-1.398
X172.52 Y169.802 Z-1.375
X173.402 Y169.919 Z-1.376
X174.371 Y169.942 Z-1.417
G0 Z5
X181.646 Y78.163
Z4
G1 Z-1.011 F850
X182.297 Y77.791 Z-1.656
X182.02 Y76.304 Z-1.379
X182.25 Y75.857 Z-1.007
X182.02 Y76.304 Z-1.379
X181.649 Y76.024 Z-1.013
X182.02 Y76.304 Z-1.379
X182.297 Y77.791 Z-1.656
X182.592 Y78.13 Z-1.508
X183.07 Y78.577 Z-1.355
X183.555 Y78.854 Z-1.354
X184.476 Y79.289 Z-1.409
X185.363 Y79.582 Z-1.496
X185.99 Y79.723 Z-1.572
X186.871 Y79.811 Z-1.67
X187.914 Y79.785 Z-1.768
X188.737 Y79.652 Z-1.857
X189.424 Y79.453 Z-1.971
X190.012 Y79.187 Z-2.074
X190.97 Y78.571 Z-2.211
X191.231 Y78.344 Z-2.253
X191.711 Y77.745 Z-2.351
X191.957 Y77.337 Z-2.372
X192.281 Y76.489 Z-2.342
X192.417 Y75.662 Z-2.276
X192.518 Y74.516 Z-2.258
X192.539 Y73.727 Z-2.279
X192.508 Y73.452 Z-2.321
X191.722 Z-1.626
X191.413 Z-1.41
X191.125 Z-1.298
X189.846 Y73.229 Z-1.301
X187.951 Y72.823 Z-1.35
X186.411 Y72.401 Z-1.427
X184.588 Y71.764 Z-1.565
X183.985 Y71.519 Z-1.633
X183.493 Y71.2 Z-1.746
X182.897 Y70.719 Z-1.875
X182.484 Y70.246 Z-1.968
X182.117 Y69.636 Z-2.081
X181.83 Y68.863 Z-2.202
X181.679 Y68.201 Z-2.286
X181.631 Y67.477 Z-2.339
X181.661 Y66.849 Z-2.384
X181.784 Y66.19 Z-2.427
X181.948 Y65.767 Z-2.438
X182.375 Y65.125 Z-2.4
X182.942 Y64.615 Z-2.27
X183.494 Y64.293 Z-2.174
X184.133 Y64.053 Z-2.031
X184.747 Y63.915 Z-1.928
X185.439 Y63.856 Z-1.853
X185.933 Y63.879 Z-1.785
X186.427 Y64.003 Z-1.687
X187.2 Y64.313 Z-1.481
X187.928 Y64.682 Z-1.333
X188.867 Y65.261 Z-1.223
X189.6 Y65.805 Z-1.212
X190.501 Y66.547 Z-1.256
X190.843 Y66.844 Z-1.31
X191.121 Y66.989 Z-1.428
X191.458 Y67.085 Z-1.628
X192.063 Y67.139 Z-2.068
X192.488 Z-2.421
X192.553 Y67.48 Z-2.344
X192.583 Y67.975 Z-2.3
X192.508 Y73.452 Z-2.321
X192.583 Y67.975 Z-2.3
X192.553 Y67.48 Z-2.344
X192.488 Y67.139 Z-2.421
X192.604 Y66.533 Z-2.336
X192.694 Y64.842 Z-2.393
X191.298 Y63.376 Z-1.012
X192.694 Y64.842 Z-2.393
X193.176 Y64.443 Z-1.98
X193.775 Y64.101 Z-1.625
X194.251 Y63.895 Z-1.431
X194.687 Y63.79 Z-1.338
X196.105 Y63.72 Z-1.336
X196.431 Y64.046 Z-1.01
X196.105 Y63.72 Z-1.336
X196.43 Y63.375 Z-1.011
G0 Z5
X185.153 Y153.714
Z4
G1 Z-1.01 F850
X185.412 Y153.455 Z-1.269
X185.156 Y153.188 Z-1.013
X185.412 Y153.455 Z-1.269
X186.617 Y153.481 Z-1.243
X187.202 Y153.533 Z-1.276
X187.713 Y153.653 Z-1.383
X188.422 Y153.94 Z-1.659
X188.933 Y154.233 Z-1.947
X189.515 Y154.739 Z-2.451
X190.155 Y154.242 Z-1.961
X190.77 Y153.868 Z-1.596
X191.266 Y153.695 Z-1.433
X192.005 Y153.53 Z-1.286
X192.649 Y153.477 Z-1.254
X193.729 Y153.453 Z-1.271
X193.994 Y153.179 Z-1.006
X193.729 Y153.453 Z-1.271
X193.99 Y153.714 Z-1.01
X193.729 Y153.453 Z-1.271
X192.649 Y153.477 Z-1.254
X192.005 Y153.53 Z-1.286
X191.266 Y153.695 Z-1.433
X190.77 Y153.868 Z-1.596
X190.155 Y154.242 Z-1.961
X189.515 Y154.739 Z-2.451
X189.513 Y154.828 Z-2.441
X189.575 Y157.701 Z-2.315
X189.576 Y161.435 Z-2.293
X189.577 Y163.633 Z-2.306
X189.646 Y165.482 Z-2.4
X189.7 Y166.054 Z-2.467
X189.562 Y166.538 Z-2.344
X189.499 Y167.076 Z-2.297
X189.463 Y167.788 Z-2.342
X189.362 Y168.398 Z-2.452
X190.409 Y169.869 Z-1.43
X190.706 Y170.296 Z-1.143
X190.718 Y170.314 Z-1.131
X190.742 Y170.346 Z-1.106
X190.77 Y170.38 Z-1.075
X190.827 Y170.427 Z-1.008
X190.77 Y170.38 Z-1.075
X190.742 Y170.346 Z-1.106
X190.718 Y170.314 Z-1.131
X190.706 Y170.296 Z-1.143
X190.409 Y169.869 Z-1.43
X189.362 Y168.398 Z-2.452
X188.637 Y168.663 Z-1.986
X188.221 Y168.765 Z-1.775
X187.628 Y168.81 Z-1.586
X186.949 Y168.809 Z-1.443
X186.041 Y168.734 Z-1.356
X185.458 Y168.693 Z-1.315
X185.158 Y168.957 Z-1.015
X185.458 Y168.693 Z-1.315
X185.153 Y168.388 Z-1.01
X185.458 Y168.693 Z-1.315
X186.041 Y168.734 Z-1.356
X186.949 Y168.809 Z-1.443
X187.628 Y168.81 Z-1.586
X188.221 Y168.765 Z-1.775
X188.637 Y168.663 Z-1.986
X189.362 Y168.398 Z-2.452
X189.463 Y167.788 Z-2.342
X189.499 Y167.076 Z-2.297
X189.562 Y166.538 Z-2.344
X189.7 Y166.054 Z-2.467
X190.397 Y166.195 Z-1.88
X190.886 Y166.375 Z-1.513
X191.248 Y166.601 Z-1.308
X191.51 Y166.868 Z-1.248
X192.03 Y167.365 Z-1.22
X192.811 Y167.996 Z-1.266
X193.795 Y168.657 Z-1.424
X194.545 Y169.054 Z-1.615
X195.121 Y169.251 Z-1.738
X195.198 Y169.271 Z-1.751
X195.902 Y169.386 Z-1.826
X196.721 Y169.42 Z-1.916
X197.374 Y169.379 Z-1.984
X198.173 Y169.223 Z-2.087
X198.91 Y168.987 Z-2.184
X199.654 Y168.598 Z-2.283
X200.237 Y168.187 Z-2.36
X200.674 Y167.764 Z-2.425
X201.165 Y167.027 Z-2.46
X201.411 Y166.343 Z-2.431
X201.619 Y165.433 Z-2.413
X201.731 Y164.418 Z-2.363
X201.762 Y163.162 Z-2.331
X201.712 Y158.494 Z-2.321
X201.673 Y155.822 Z-2.39
X201.714 Y154.766 Z-2.495
X200.11 Y153.184 Z-1.006
X201.714 Y154.766 Z-2.495
X202.674 Y154.04 Z-1.752
X203.273 Y153.771 Z-1.487
X203.84 Y153.589 Z-1.316
X204.378 Y153.508 Z-1.25
X205.233 Y153.472 Z-1.252
X205.673 Y153.459 Z-1.265
X205.928 Y153.714 Z-1.01
X205.673 Y153.459 Z-1.265
X205.927 Y153.189 Z-1.011
G0 Z5
X194.509 Y296.539
Z4
G1 Z-1.014 F850
X194.58 Y296.506 Z-1.083
X194.557 Y296.582 Z-1.007
X194.58 Y296.506 Z-1.083
X196.041 Y295.077 Z-2.449
X195.917 Y294.806 Z-2.31
X195.862 Y294.668 Z-2.248
X195.696 Y294.163 Z-2.057
X195.602 Y293.687 Z-1.942
X195.542 Y292.762 Z-1.852
X195.437 Y290.394 Z-1.728
X194.714 Y289.673 Z-1.007
X195.437 Y290.394 Z-1.728
X196.11 Y289.67 Z-1.004
X195.437 Y290.394 Z-1.728
X195.542 Y292.762 Z-1.852
X195.602 Y293.687 Z-1.942
X195.696 Y294.163 Z-2.057
X195.862 Y294.668 Z-2.248
X195.917 Y294.806 Z-2.31
X196.041 Y295.077 Z-2.449
X196.56 Y295.179 Z-2.327
X197.666 Y295.266 Z-2.195
X199.883 Y295.301 Z-2.084
X202.874 Y295.306 Z-2.008
X205.028 Y295.266 Z-2.02
X205.689 Y295.17 Z-2.11
X206.252 Y295.01 Z-2.265
X206.811 Y294.732 Z-2.54
X207.374 Y294.33 Z-2.937
X208.463 Y293.3 Z-3.967
X209.316 Y294.082 Z-3.191
X209.791 Y294.473 Z-2.805
X210.399 Y294.867 Z-2.415
X211.289 Y295.197 Z-2.095
X211.819 Y295.286 Z-2.011
X212.3 Y295.303 Z-2
X212.835 Y295.307 Z-2.003
X215.842 Y295.319 Z-2.049
X218.345 Y295.275 Z-2.167
X219.568 Y295.236 Z-2.247
X220.217 Y295.164 Z-2.341
X220.851 Y295.013 Z-2.515
X221.12 Y294.288 Z-2.169
X221.191 Y293.969 Z-2.067
X221.251 Y293.061 Z-1.926
X221.297 Y291.52 Z-1.771
X221.301 Y290.369 Z-1.703
X220.626 Y289.667 Z-1.001
X221.301 Y290.369 Z-1.703
X221.957 Y289.679 Z-1.013
X221.301 Y290.369 Z-1.703
X221.297 Y291.52 Z-1.771
X221.251 Y293.061 Z-1.926
X221.191 Y293.969 Z-2.067
X221.12 Y294.288 Z-2.169
X220.851 Y295.013 Z-2.515
X222.324 Y296.374 Z-1.21
X222.424 Y296.574 Z-1.014
X222.324 Y296.374 Z-1.21
X222.535 Y296.426 Z-1.006
X222.324 Y296.374 Z-1.21
X220.851 Y295.013 Z-2.515
X220.217 Y295.164 Z-2.341
X219.568 Y295.236 Z-2.247
X218.345 Y295.275 Z-2.167
X215.842 Y295.319 Z-2.049
X212.835 Y295.307 Z-2.003
X212.3 Y295.303 Z-2
X211.819 Y295.286 Z-2.011
X211.289 Y295.197 Z-2.095
X210.399 Y294.867 Z-2.415
X209.791 Y294.473 Z-2.805
X209.316 Y294.082 Z-3.191
X208.463 Y293.3 Z-3.967
X208.472 Y292.09 Z-3.954
X208.429 Y281.368 Z-3.902
X208.378 Y275.112 Z-3.921
X208.36 Y271.818 Z-3.993
X208.333 Y269.524 Z-4.105
X207.24 Y268.567 Z-3.152
X206.506 Y268.036 Z-2.625
X205.785 Y267.624 Z-2.22
X205.544 Y267.507 Z-2.106
X204.789 Y267.261 Z-1.873
X204.153 Y267.141 Z-1.768
X203.133 Y267.046 Z-1.702
X201.968 Y266.971 Z-1.67
X201.311 Y267.607 Z-1.013
X201.968 Y266.971 Z-1.67
X201.298 Y266.276 Z-1
X201.968 Y266.971 Z-1.67
X203.133 Y267.046 Z-1.702
X204.153 Y267.141 Z-1.768
X204.789 Y267.261 Z-1.873
X205.544 Y267.507 Z-2.106
X205.785 Y267.624 Z-2.22
X206.506 Y268.036 Z-2.625
X207.24 Y268.567 Z-3.152
X208.333 Y269.524 Z-4.105
X209.34 Y268.649 Z-3.232
X210.16 Y268.055 Z-2.644
X211.015 Y267.557 Z-2.153
X211.391 Y267.383 Z-1.984
X211.964 Y267.243 Z-1.854
X213.692 Y267.058 Z-1.716
X214.725 Y266.988 Z-1.684
X215.403 Y267.622 Z-1.006
X214.725 Y266.988 Z-1.684
X215.408 Y266.277 Z-1.001
G0 Z5
X195.761 Y212.996
Z4
G1 Z-1.014 F850
X195.887 Y213.01 Z-1.134
X196.818 Y213.618 Z-1.946
X196.504 Y214.472 Z-1.557
X196.411 Y215.199 Z-1.405
X196.377 Y215.93 Z-1.327
X196.391 Y216.979 Z-1.309
X196.388 Y217.286 Z-1.312
X196.69 Y217.588 Z-1.01
X196.388 Y217.286 Z-1.312
X196.078 Y217.59 Z-1.008
X196.388 Y217.286 Z-1.312
X196.391 Y216.979 Z-1.309
X196.377 Y215.93 Z-1.327
X196.411 Y215.199 Z-1.405
X196.504 Y214.472 Z-1.557
X196.818 Y213.618 Z-1.946
X197.414 Y213.348 Z-1.811
X198.416 Y213.01 Z-1.662
X199.653 Y212.727 Z-1.52
X200.603 Y212.592 Z-1.443
X201.881 Y212.554 Z-1.376
X202.961 Y212.654 Z-1.362
X203.719 Y212.818 Z-1.364
X204.323 Y213.048 Z-1.382
X205.266 Y213.573 Z-1.423
X205.974 Y214.122 Z-1.513
X206.392 Y214.55 Z-1.576
X206.812 Y215.14 Z-1.676
X207.136 Y215.793 Z-1.817
X207.342 Y216.478 Z-1.923
X207.41 Y217.28 Z-2.036
X207.379 Y217.991 Z-2.164
X207.368 Y218.046 Z-2.172
X207.202 Y218.642 Z-2.276
X206.854 Y219.304 Z-2.371
X206.608 Y219.626 Z-2.398
X206.155 Y219.979 Z-2.418
X205.131 Y220.456 Z-2.32
X204.298 Y220.722 Z-2.277
X203.117 Y220.984 Z-2.257
X200.953 Y221.446 Z-2.26
X199.718 Y221.832 Z-2.292
X198.657 Y222.251 Z-2.345
X198.042 Y222.618 Z-2.34
X197.671 Y223.016 Z-2.336
X197.595 Y223.108 Z-2.333
X197.266 Y223.691 Z-2.262
X197.113 Y224.212 Z-2.179
X197.07 Y224.441 Z-2.149
X197.046 Y225.231 Z-2.038
X197.12 Y225.942 Z-1.958
X197.299 Y226.532 Z-1.865
X197.608 Y227.145 Z-1.74
X198.014 Y227.709 Z-1.663
X198.226 Y227.907 Z-1.615
X198.948 Y228.468 Z-1.502
X199.69 Y228.864 Z-1.454
X200.368 Y229.101 Z-1.41
X201.165 Y229.238 Z-1.39
X202.1 Y229.291 Z-1.396
X203.087 Y229.231 Z-1.434
X203.911 Y229.089 Z-1.51
X204.897 Y228.812 Z-1.64
X205.738 Y228.46 Z-1.774
X206.327 Y228.126 Z-1.915
X207.301 Y228.753 Z-1.002
X206.327 Y228.126 Z-1.915
X206.602 Y227.247 Z-1.573
X206.721 Y226.34 Z-1.402
X206.766 Y225.515 Z-1.324
X206.768 Y225.317 Z-1.315
X206.469 Y225.012 Z-1.01
X206.768 Y225.317 Z-1.315
X207.064 Y225.011 Z-1.009
G0 Z5
X198.371 Y63.928
Z4
G1 Z-1.002 F850
X198.659 Y63.663 Z-1.29
X198.375 Y63.365 Z-1.006
X198.659 Y63.663 Z-1.29
X199.903 Y63.74 Z-1.316
X200.573 Y63.79 Z-1.345
X201.158 Y63.904 Z-1.447
X201.719 Y64.087 Z-1.621
X202.185 Y64.372 Z-1.902
X203.005 Y64.981 Z-2.506
X203.66 Y64.462 Z-1.992
X204.209 Y64.141 Z-1.676
X204.716 Y63.93 Z-1.471
X205.506 Y63.775 Z-1.331
X206.308 Y63.683 Z-1.262
X207.38 Y63.646 Z-1.263
X207.725 Y63.639 Z-1.27
X207.981 Y63.372 Z-1.014
X207.725 Y63.639 Z-1.27
X207.985 Y63.9 Z-1.01
X207.725 Y63.639 Z-1.27
X207.38 Y63.646 Z-1.263
X206.308 Y63.683 Z-1.262
X205.506 Y63.775 Z-1.331
X204.716 Y63.93 Z-1.471
X204.209 Y64.141 Z-1.676
X203.66 Y64.462 Z-1.992
X203.005 Y64.981 Z-2.506
X203.015 Y65.245 Z-2.467
X202.994 Y67.413 Z-2.327
X203.01 Y70.587 Z-2.265
X203.048 Y72.675 Z-2.291
X203.168 Y74.809 Z-2.406
X203.22 Y75.434 Z-2.482
X203.064 Y75.848 Z-2.355
X202.953 Y76.316 Z-2.288
X202.86 Y77.492 Z-2.361
X202.758 Y78.547 Z-2.485
X203.677 Y79.822 Z-1.592
X204.193 Y80.582 Z-1.063
X204.232 Y80.63 Z-1.011
X204.193 Y80.582 Z-1.063
X203.677 Y79.822 Z-1.592
X202.758 Y78.547 Z-2.485
X202.161 Y78.78 Z-2.101
X201.445 Y78.951 Z-1.762
X200.83 Y79.041 Z-1.55
X200.231 Y79.044 Z-1.433
X199.264 Y78.971 Z-1.352
X198.683 Y78.932 Z-1.314
X198.383 Y79.197 Z-1.014
X198.683 Y78.932 Z-1.314
X198.379 Y78.628 Z-1.01
X198.683 Y78.932 Z-1.314
X199.264 Y78.971 Z-1.352
X200.231 Y79.044 Z-1.433
X200.83 Y79.041 Z-1.55
X201.445 Y78.951 Z-1.762
X202.161 Y78.78 Z-2.101
X202.758 Y78.547 Z-2.485
X202.86 Y77.492 Z-2.361
X202.953 Y76.316 Z-2.288
X203.064 Y75.848 Z-2.355
X203.22 Y75.434 Z-2.482
X203.946 Y75.662 Z-1.86
X204.395 Y75.882 Z-1.519
X204.723 Y76.133 Z-1.331
X204.973 Y76.424 Z-1.276
X205.534 Y77.039 Z-1.26
X205.994 Y77.486 Z-1.319
X206.654 Y78.046 Z-1.49
X207.276 Y78.455 Z-1.715
X207.955 Y78.79 Z-1.964
X208.572 Y78.984 Z-2.185
X208.721 Y79.022 Z-2.24
X209.347 Y79.073 Z-2.425
X209.686 Y79.035 Z-2.505
X210.35 Y79.61 Z-1.923
X210.991 Y80.052 Z-1.35
X211.196 Y80.184 Z-1.163
X211.229 Y80.201 Z-1.131
X211.334 Y80.272 Z-1.01
X211.229 Y80.201 Z-1.131
X211.196 Y80.184 Z-1.163
X210.991 Y80.052 Z-1.35
X210.35 Y79.61 Z-1.923
X209.686 Y79.035 Z-2.505
X210.122 Y78.237 Z-1.99
X210.472 Y77.386 Z-1.586
X210.697 Y76.664 Z-1.336
X210.763 Y76.392 Z-1.264
X210.601 Y76.133 Z-1.005
X210.763 Y76.392 Z-1.264
X211.019 Y76.131 Z-1.002
G0 Z5
X217.881 Y109.347
Z4
G1 Z-1.752 F850
X217.757 Y109.372 Z-1.765
X216.746 Y109.69 Z-1.879
X215.573 Y110.186 Z-1.979
X214.487 Y110.819 Z-2.138
X213.808 Y111.291 Z-2.222
X212.99 Y111.978 Z-2.314
X212.281 Y112.694 Z-2.417
X211.647 Y113.506 Z-2.502
X210.735 Y114.986 Z-2.59
X210.358 Y115.806 Z-2.637
X209.792 Y117.314 Z-2.679
X209.503 Y118.31 Z-2.688
X209.302 Y119.351 Z-2.673
X209.134 Y121.05 Z-2.643
X209.119 Y122.373 Z-2.587
X209.18 Y123.627 Z-2.524
X209.288 Y124.622 Z-2.478
X209.475 Y125.666 Z-2.415
X209.74 Y126.587 Z-2.342
X210.174 Y127.62 Z-2.233
X210.952 Y129.053 Z-2.04
X211.723 Y130.16 Z-1.942
X211.939 Y130.443 Z-1.917
X212.794 Y131.267 Z-1.754
X213.715 Y132.001 Z-1.665
X214.821 Y132.731 Z-1.599
X215.394 Y133.033 Z-1.583
X216.375 Y133.437 Z-1.556
X217.389 Y133.749 Z-1.513
X218.443 Y133.954 Z-1.49
X219.828 Y134.094 Z-1.499
X221.307 Y134.142 Z-1.551
X222.762 Y134.039 Z-1.589
X223.871 Y133.877 Z-1.657
X224.888 Y133.637 Z-1.759
X225.895 Y133.314 Z-1.864
X226.757 Y132.965 Z-1.935
X227.622 Y132.461 Z-2.036
X228.505 Y131.859 Z-2.122
X229.372 Y131.153 Z-2.235
X230.244 Y130.311 Z-2.417
X231.211 Y128.925 Z-2.528
X231.609 Y128.246 Z-2.601
X232.088 Y127.255 Z-2.697
X232.347 Y126.591 Z-2.727
X232.619 Y125.662
X232.861 Y124.348 Z-2.708
X233.013 Y122.761 Z-2.702
X233.001 Y121.267 Z-2.624
X232.872 Y119.739 Z-2.552
X232.703 Y118.597 Z-2.48
X232.45 Y117.544 Z-2.392
X232.086 Y116.543 Z-2.278
X231.493 Y115.299 Z-2.104
X230.967 Y114.352 Z-1.952
X230.064 Y113.036 Z-1.818
X229.218 Y112.158 Z-1.65
X228.487 Y111.516 Z-1.574
X227.277 Y110.629 Z-1.505
X226.505 Y110.185 Z-1.488
X225.47 Y109.727 Z-1.469
X224.584 Y109.435 Z-1.444
X223.559 Y109.214 Z-1.441
X222.077 Y109.043 Z-1.471
X220.82 Y108.999 Z-1.539
X220.072 Y109.015 Z-1.59
X218.855 Y109.148 Z-1.657
X217.881 Y109.347 Z-1.752
G0 Z5
X211.653 Y212.995
Z4
G1 Z-1.012 F850
X211.779 Y213.009 Z-1.132
X212.711 Y213.619 Z-1.947
X212.397 Y214.472 Z-1.557
X212.305 Y215.199 Z-1.405
X212.27 Y215.93 Z-1.327
X212.282 Y217.286 Z-1.312
X212.584 Y217.588 Z-1.01
X212.282 Y217.286 Z-1.312
X211.972 Y217.59 Z-1.008
X212.282 Y217.286 Z-1.312
X212.27 Y215.93 Z-1.327
X212.305 Y215.199 Z-1.405
X212.397 Y214.472 Z-1.557
X212.711 Y213.619 Z-1.947
X213.328 Y213.34 Z-1.807
X214.348 Y213 Z-1.657
X215.548 Y212.727 Z-1.52
X216.497 Y212.592 Z-1.442
X217.775 Y212.554 Z-1.376
X218.854 Y212.654 Z-1.362
X219.612 Y212.818 Z-1.364
X220.353 Y213.112 Z-1.388
X221.259 Y213.636 Z-1.426
X221.939 Y214.184 Z-1.526
X222.412 Y214.709 Z-1.598
X222.786 Y215.279 Z-1.705
X223.047 Y215.838 Z-1.825
X223.236 Y216.479 Z-1.923
X223.302 Y217.211 Z-2.026
X223.274 Y217.985 Z-2.163
X223.262 Y218.046 Z-2.171
X223.098 Y218.636 Z-2.275
X222.748 Y219.304 Z-2.371
X222.501 Y219.626 Z-2.398
X222.048 Y219.98 Z-2.417
X221.328 Y220.331 Z-2.343
X220.502 Y220.635 Z-2.289
X219.352 Y220.915 Z-2.26
X217.306 Y221.332 Z-2.255
X216.058 Y221.677 Z-2.277
X214.548 Y222.252 Z-2.345
X214.409 Y222.323 Z-2.342
X214.002 Y222.565 Z-2.338
X213.487 Y223.11 Z-2.333
X213.157 Y223.699 Z-2.261
X213.006 Y224.212 Z-2.179
X212.964 Y224.445 Z-2.149
X212.953 Y224.574 Z-2.126
X212.951 Y225.489 Z-2.007
X213.041 Y226.062 Z-1.944
X213.217 Y226.593 Z-1.852
X213.506 Y227.153 Z-1.739
X213.87 Y227.665 Z-1.667
X214.556 Y228.267 Z-1.535
X215.19 Y228.668 Z-1.482
X215.821 Y228.962 Z-1.437
X216.398 Y229.133 Z-1.404
X217.269 Y229.257 Z-1.389
X217.993 Y229.291 Z-1.396
X218.963 Y229.233 Z-1.433
X219.802 Y229.09 Z-1.51
X220.622 Y228.87 Z-1.614
X221.503 Y228.522 Z-1.751
X222.22 Y228.126 Z-1.915
X223.195 Y228.753 Z-1.002
X222.22 Y228.126 Z-1.915
X222.497 Y227.242 Z-1.571
X222.616 Y226.333 Z-1.401
X222.66 Y225.469 Z-1.322
X222.661 Y225.317 Z-1.315
X222.953 Y225.015 Z-1.013
X222.661 Y225.317 Z-1.315
X222.363 Y225.011 Z-1.009
G0 Z5
X222.736 Y80.127
Z4
G1 Z-1.417 F850
X223.636 Y80.036 Z-1.467
X224.525 Y79.839 Z-1.575
X225.493 Y79.494 Z-1.734
X226.071 Y79.187 Z-1.845
X226.764 Y78.7 Z-1.969
X227.447 Y78.094 Z-2.099
X228.079 Y77.402 Z-2.274
X228.748 Y76.298 Z-2.407
X229.158 Y75.4 Z-2.519
X229.382 Y74.728 Z-2.548
X229.578 Y73.812 Z-2.535
X229.714 Y72.637 Z-2.511
X229.722 Y71.521 Z-2.453
X229.642 Y70.261 Z-2.368
X229.51 Y69.363 Z-2.281
X229.323 Y68.618 Z-2.174
X229.034 Y67.861 Z-2.033
X228.53 Y66.906 Z-1.854
X227.834 Y65.861 Z-1.69
X227.267 Y65.231 Z-1.517
X226.374 Y64.521 Z-1.412
X225.704 Y64.097 Z-1.354
X225.137 Y63.838 Z-1.33
X224.416 Y63.628 Z-1.327
X223.153 Y63.44 Z-1.344
X222.283 Y63.45 Z-1.437
X221.409 Y63.542 Z-1.517
X220.544 Y63.731 Z-1.611
X219.751 Y64.015 Z-1.747
X219.085 Y64.375 Z-1.892
X218.394 Y64.905 Z-2.037
X217.609 Y65.676 Z-2.191
X217.166 Y66.193 Z-2.304
X216.653 Y67.07 Z-2.408
X216.161 Y68.046 Z-2.497
X215.876 Y68.773 Z-2.534
X215.626 Y69.762 Z-2.535
X215.584 Y70.009 Z-2.531
X215.435 Y71.348 Z-2.507
X215.403 Y72.53 Z-2.463
X215.442 Y73.403 Z-2.405
X215.57 Y74.236 Z-2.328
X215.86 Y75.304 Z-2.186
X216.06 Y75.847 Z-2.119
X216.639 Y76.973 Z-1.931
X216.997 Y77.519 Z-1.829
X217.581 Y78.191 Z-1.68
X218.203 Y78.741 Z-1.57
X218.793 Y79.14 Z-1.498
X219.326 Y79.433 Z-1.441
X220.221 Y79.808 Z-1.394
X220.886 Y79.988 Z-1.375
X221.766 Y80.105 Z-1.376
X222.736 Y80.127 Z-1.417
G0 Z5
X225.518 Y295.238
Z4
G1 Z-1.006 F850
X226.196 Y295.874 Z-1.684
X225.526 Y296.569 Z-1.014
X226.196 Y295.874 Z-1.684
X227.375 Y295.776 Z-1.74
X228.622 Y295.587 Z-1.89
X229.321 Y295.423 Z-2.035
X229.658 Y295.276 Z-2.174
X230.528 Y294.759 Z-2.673
X231.295 Y294.199 Z-3.221
X232.242 Y293.366 Z-4.042
X233.424 Y294.47 Z-2.925
X233.985 Y294.886 Z-2.518
X234.487 Y295.152 Z-2.26
X234.99 Y295.319 Z-2.101
X235.495 Y295.387 Z-2.042
X237.856 Y295.465 Z-2.002
X241.292 Y295.507 Z-2.016
X243.247 Y295.476 Z-2.079
X245.673 Y295.341 Z-2.252
X246.437 Y295.244 Z-2.339
X247.163 Y295.068 Z-2.493
X247.403 Y294.5 Z-2.176
X247.555 Y293.913 Z-1.949
X247.59 Y293.163 Z-1.832
X247.602 Y291.64 Z-1.693
X247.593 Y290.914 Z-1.654
X248.202 Y290.266 Z-1.006
X247.593 Y290.914 Z-1.654
X246.966 Y290.274 Z-1.014
X247.593 Y290.914 Z-1.654
X247.602 Y291.64 Z-1.693
X247.59 Y293.163 Z-1.832
X247.555 Y293.913 Z-1.949
X247.403 Y294.5 Z-2.176
X247.163 Y295.068 Z-2.493
X248.801 Y296.374 Z-1.079
X248.847 Y296.449 Z-1
X248.801 Y296.374 Z-1.079
X248.878 Y296.39 Z-1.006
X248.801 Y296.374 Z-1.079
X247.163 Y295.068 Z-2.493
X246.437 Y295.244 Z-2.339
X245.673 Y295.341 Z-2.252
X243.247 Y295.476 Z-2.079
X241.292 Y295.507 Z-2.016
X237.856 Y295.465 Z-2.002
X235.495 Y295.387 Z-2.042
X234.99 Y295.319 Z-2.101
X234.487 Y295.152 Z-2.26
X233.985 Y294.886 Z-2.518
X233.424 Y294.47 Z-2.925
X232.242 Y293.366 Z-4.042
X232.24 Y291.065 Z-3.953
X232.21 Y286.058 Z-3.832
X232.198 Y282.852 Z-3.819
X232.358 Y281.833 Z-3.975
X233.863 Y281.924 Z-2.685
X234.524 Y281.964 Z-2.252
X234.844 Y281.983 Z-2.111
X235.402 Y282.009 Z-2.015
X237.846 Y282.022 Z-1.888
X240.324 Y282.004 Z-1.872
X241.885 Y281.977 Z-1.935
X243.51 Y281.974 Z-2.119
X243.983 Y281.971 Z-2.261
X244.288 Y281.981 Z-2.401
X244.6 Y281.366 Z-2.099
X244.716 Y281.066 Z-1.99
X244.886 Y280.239 Z-1.838
X245.023 Y278.863 Z-1.732
X245.073 Y277.889 Z-1.703
X244.399 Y277.187 Z-1.001
X245.073 Y277.889 Z-1.703
X245.784 Y277.194 Z-1.008
X245.073 Y277.889 Z-1.703
X245.023 Y278.863 Z-1.732
X244.886 Y280.239 Z-1.838
X244.716 Y281.066 Z-1.99
X244.6 Y281.366 Z-2.099
X244.288 Y281.981 Z-2.401
X244.597 Y282.6 Z-2.1
X244.791 Y283.196 Z-1.915
X244.901 Y283.784 Z-1.817
X245.047 Y285.609 Z-1.717
X245.056 Y285.774 Z-1.712
X244.395 Y286.482 Z-1.004
X245.056 Y285.774 Z-1.712
X245.778 Y286.474 Z-1.012
X245.056 Y285.774 Z-1.712
X245.047 Y285.609 Z-1.717
X244.901 Y283.784 Z-1.817
X244.791 Y283.196 Z-1.915
X244.597 Y282.6 Z-2.1
X244.288 Y281.981 Z-2.401
X243.983 Y281.971 Z-2.261
X243.51 Y281.974 Z-2.119
X241.885 Y281.977 Z-1.935
X240.324 Y282.004 Z-1.872
X237.846 Y282.022 Z-1.888
X235.402 Y282.009 Z-2.015
X234.844 Y281.983 Z-2.111
X234.524 Y281.964 Z-2.252
X233.863 Y281.924 Z-2.685
X232.358 Y281.833 Z-3.975
X232.27 Y281.048 Z-3.886
X232.234 Y277.57 Z-3.864
X232.202 Y273.901 Z-3.925
X232.151 Y269.53 Z-4.126
X230.385 Y267.905 Z-2.527
X229.741 Y267.512 Z-2.148
X228.882 Y267.211 Z-1.869
X227.498 Y266.811 Z-1.514
X227.273 Y266.754 Z-1.465
X226.82 Y267.038 Z-1.012
X227.273 Y266.754 Z-1.465
X226.815 Y266.281 Z-1.007
X227.273 Y266.754 Z-1.465
X227.498 Y266.811 Z-1.514
X228.882 Y267.211 Z-1.869
X229.741 Y267.512 Z-2.148
X230.385 Y267.905 Z-2.527
X232.151 Y269.53 Z-4.126
X233.636 Y268.178 Z-2.762
X234.298 Y267.768 Z-2.349
X234.807 Y267.566 Z-2.149
X235.315 Y267.465 Z-2.05
X236.339 Y267.444 Z-2.035
X241.663 Y267.383 Z-2.067
X244.388 Y267.428 Z-2.156
X246.889 Y267.563 Z-2.265
X247.335 Y267.63 Z-2.312
X247.483 Y267.668 Z-2.342
X248.774 Y266.404 Z-1
X247.483 Y267.668 Z-2.342
X247.723 Y268.123 Z-2.123
X247.837 Y268.436 Z-2.026
X247.972 Y269.158 Z-1.933
X248.391 Y271.74 Z-1.738
X248.552 Y272.745 Z-1.689
X247.989 Y273.434 Z-1
X248.552 Y272.745 Z-1.689
X249.314 Y273.423 Z-1.011
G0 Z5
X233.947 Y88.855
Z4
G1 Z-1.001 F850
X234.275 Y88.56 Z-1.329
X233.956 Y88.241 Z-1.01
X234.275 Y88.56 Z-1.329
X235.547 Y88.637 Z-1.409
X236.141 Y88.639 Z-1.499
X236.914 Y88.546 Z-1.738
X237.361 Y88.435 Z-1.947
X238.205 Y88.06 Z-2.533
X239.504 Y89.785 Z-1.324
X239.743 Y90.112 Z-1.102
X239.755 Y90.211 Z-1.015
X239.743 Y90.112 Z-1.102
X239.834 Y90.157 Z-1.013
X239.743 Y90.112 Z-1.102
X239.504 Y89.785 Z-1.324
X238.205 Y88.06 Z-2.533
X238.275 Y87.374 Z-2.43
X238.274 Y86.59 Z-2.397
X238.252 Y82.222 Z-2.311
X238.247 Y80.584 Z-2.297
X238.246 Y66.828 Z-2.351
X238.247 Y64.978 Z-2.51
X238.992 Y64.362 Z-1.886
X239.487 Y64.108 Z-1.637
X240.107 Y63.89 Z-1.428
X240.607 Y63.797 Z-1.346
X241.393 Y63.739 Z-1.316
X242.255 Y63.671 Z-1.292
X242.538 Y63.372 Z-1.009
X242.255 Y63.671 Z-1.292
X242.543 Y63.931 Z-1.004
X242.255 Y63.671 Z-1.292
X241.393 Y63.739 Z-1.316
X240.607 Y63.797 Z-1.346
X240.107 Y63.89 Z-1.428
X239.487 Y64.108 Z-1.637
X238.992 Y64.362 Z-1.886
X238.247 Y64.978 Z-2.51
X237.641 Y64.448 Z-1.987
X237.136 Y64.151 Z-1.697
X236.488 Y63.89 Z-1.45
X235.994 Y63.779 Z-1.352
X235.366 Y63.725 Z-1.317
X234.238 Y63.66 Z-1.292
X233.948 Y63.927 Z-1.002
X234.238 Y63.66 Z-1.292
X233.953 Y63.364 Z-1.007
G0 Z5
X236.708 Y109.361
Z4
G1 Z-1.002 F850
X236.996 Y109.097 Z-1.29
X236.712 Y108.799 Z-1.006
X236.996 Y109.097 Z-1.29
X238.241 Y109.174 Z-1.316
X238.912 Y109.224 Z-1.345
X239.492 Y109.337 Z-1.446
X240.054 Y109.52 Z-1.62
X240.523 Y109.806 Z-1.902
X241.342 Y110.415 Z-2.506
X241.398 Y110.366 Z-2.458
X241.967 Y109.917 Z-2.012
X242.48 Y109.608 Z-1.708
X243.052 Y109.364 Z-1.471
X243.633 Y109.245 Z-1.363
X244.348 Y109.142 Z-1.277
X246.062 Y109.073 Z-1.27
X246.318 Y108.806 Z-1.014
X246.062 Y109.073 Z-1.27
X246.322 Y109.333 Z-1.01
X246.062 Y109.073 Z-1.27
X244.348 Y109.142 Z-1.277
X243.633 Y109.245 Z-1.363
X243.052 Y109.364 Z-1.471
X242.48 Y109.608 Z-1.708
X241.967 Y109.917 Z-2.012
X241.398 Y110.366 Z-2.458
X241.342 Y110.415 Z-2.506
X241.356 Y111.242 Z-2.412
X241.331 Y113.642 Z-2.3
X241.354 Y116.828 Z-2.266
X241.425 Y118.9 Z-2.319
X241.541 Y120.736 Z-2.459
X241.557 Y120.868 Z-2.482
X241.401 Y121.282 Z-2.355
X241.29 Y121.751 Z-2.288
X241.197 Y122.926 Z-2.361
X241.095 Y123.981 Z-2.485
X240.608 Y124.179 Z-2.162
X239.953 Y124.348 Z-1.836
X239.26 Y124.467 Z-1.576
X238.705 Y124.483 Z-1.453
X237.985 Y124.433 Z-1.381
X237.02 Y124.366 Z-1.314
X236.72 Y124.631 Z-1.014
X237.02 Y124.366 Z-1.314
X236.716 Y124.062 Z-1.01
X237.02 Y124.366 Z-1.314
X237.985 Y124.433 Z-1.381
X238.705 Y124.483 Z-1.453
X239.26 Y124.467 Z-1.576
X239.953 Y124.348 Z-1.836
X240.608 Y124.179 Z-2.162
X241.095 Y123.981 Z-2.485
X241.617 Y124.688 Z-1.977
X242.425 Y125.866 Z-1.19
X242.441 Y125.89 Z-1.172
X242.478 Y125.941 Z-1.13
X242.531 Y126.017 Z-1.061
X242.569 Y126.064 Z-1.011
X242.531 Y126.017 Z-1.061
X242.478 Y125.941 Z-1.13
X242.441 Y125.89 Z-1.172
X242.425 Y125.866 Z-1.19
X241.617 Y124.688 Z-1.977
X241.095 Y123.981 Z-2.485
X241.197 Y122.926 Z-2.361
X241.29 Y121.751 Z-2.288
X241.401 Y121.282 Z-2.355
X241.557 Y120.868 Z-2.482
X242.283 Y121.096 Z-1.86
X242.732 Y121.316 Z-1.519
X243.059 Y121.565 Z-1.332
X243.31 Y121.859 Z-1.276
X243.827 Y122.426 Z-1.259
X244.329 Y122.919 Z-1.319
X244.994 Y123.483 Z-1.492
X245.607 Y123.886 Z-1.713
X246.371 Y124.255 Z-1.991
X247.057 Y124.455 Z-2.24
X247.471 Y124.505 Z-2.365
X248.023 Y124.469 Z-2.505
X248.199 Y124.636 Z-2.351
X248.983 Y125.26 Z-1.661
X249.533 Y125.618 Z-1.162
X249.566 Y125.635 Z-1.132
X249.67 Y125.708 Z-1.012
X249.566 Y125.635 Z-1.132
X249.533 Y125.618 Z-1.162
X248.983 Y125.26 Z-1.661
X248.199 Y124.636 Z-2.351
X248.023 Y124.469 Z-2.505
X248.459 Y123.671 Z-1.99
X248.81 Y122.818 Z-1.586
X249.031 Y122.107 Z-1.339
X249.1 Y121.826 Z-1.264
X248.938 Y121.567 Z-1.005
X249.1 Y121.826 Z-1.264
X249.347 Y121.574 Z-1.012
G0 Z5
X239.436 Y172.622
Z4
G1 Z-1.014 F850
X239.798 Y173.001 Z-1.393
X240.162 Y172.62 Z-1.012
X239.798 Y173.001 Z-1.393
X239.831 Y174.793 Z-1.506
X239.884 Y175.793 Z-1.615
X239.813 Y176.325 Z-1.801
X239.629 Y176.852 Z-2.112
X241.035 Y177.691 Z-1.008
X239.629 Y176.852 Z-2.112
X238.306 Y177.373 Z-1.898
X237.03 Y177.798 Z-1.759
X235.85 Y178.117 Z-1.667
X234.478 Y178.366 Z-1.595
X233.239 Y178.494 Z-1.552
X232.241 Y178.536 Z-1.538
X230.729 Y178.468 Z-1.541
X229.224 Y178.31 Z-1.558
X228.102 Y178.094 Z-1.578
X226.969 Y177.747 Z-1.615
X225.878 Y177.285 Z-1.697
X224.687 Y176.673 Z-1.84
X223.316 Y175.743 Z-1.934
X222.742 Y175.24 Z-2.023
X222.012 Y174.471 Z-2.145
X221.219 Y173.457 Z-2.232
X220.6 Y172.505 Z-2.31
X220.302 Y171.967 Z-2.359
X219.834 Y170.827 Z-2.44
X219.464 Y169.61 Z-2.554
X219.299 Y168.797 Z-2.61
X219.136 Y167.362 Z-2.653
X219.089 Y166.51 Z-2.67
X219.136 Y165.243 Z-2.698
X219.266 Y163.993 Z-2.707
X219.453 Y163.007 Z-2.709
X219.761 Y161.998 Z-2.693
X220.403 Y160.476 Z-2.651
X220.674 Y159.929 Z-2.626
X221.294 Y158.966 Z-2.56
X222.078 Y157.934 Z-2.494
X222.727 Y157.237 Z-2.417
X223.464 Y156.593 Z-2.327
X224.631 Y155.754 Z-2.227
X225.675 Y155.158 Z-2.114
X226.699 Y154.67 Z-2.025
X227.968 Y154.181 Z-1.933
X229.053 Y153.876 Z-1.842
X230.167 Y153.676 Z-1.771
X231.83 Y153.525 Z-1.716
X232.711 Y153.499 Z-1.683
X234.223 Y153.584 Z-1.659
X235.606 Y153.771 Z-1.608
X237.092 Y154.089 Z-1.553
X238.085 Y154.365 Z-1.518
X239.246 Y154.795 Z-1.497
X240.216 Y155.251 Z-1.512
X240.616 Y154.874 Z-1.002
X240.216 Y155.251 Z-1.512
X241.107 Y156.308 Z-1.1
X241.116 Y156.426 Z-1.008
X241.107 Y156.308 Z-1.1
X241.221 Y156.33 Z-1.005
G0 Z5
X244.196 Y80.167
Z4
G1 Z-1.004 F850
X244.457 Y79.89 Z-1.265
X244.202 Y79.635 Z-1.01
X244.457 Y79.89 Z-1.265
X244.613 Y79.885 Z-1.26
X245.167 Y79.817 Z-1.298
X245.861 Y79.679 Z-1.407
X246.45 Y79.489 Z-1.583
X247.127 Y79.166 Z-1.895
X248.141 Y78.556 Z-2.516
X248.669 Y79.029 Z-2.052
X249.215 Y79.406 Z-1.686
X249.701 Y79.633 Z-1.469
X250.139 Y79.764 Z-1.35
X250.731 Y79.862 Z-1.267
X251.513 Y79.889 Z-1.264
X252.075 Y79.898 Z-1.273
X252.347 Y80.178 Z-1.001
X252.075 Y79.898 Z-1.273
X252.338 Y79.635 Z-1.01
X252.075 Y79.898 Z-1.273
X251.513 Y79.889 Z-1.264
X250.731 Y79.862 Z-1.267
X250.139 Y79.764 Z-1.35
X249.701 Y79.633 Z-1.469
X249.215 Y79.406 Z-1.686
X248.669 Y79.029 Z-2.052
X248.141 Y78.556 Z-2.516
X248.309 Y77.945 Z-2.429
X248.647 Y76.989 Z-2.363
X250.387 Y72.61 Z-2.287
X252.468 Y67.489 Z-2.297
X253.316 Y65.47 Z-2.34
X253.63 Y64.992 Z-2.457
X253.599 Y62.455 Z-1.506
X253.544 Y62.079 Z-1.407
X252.634 Y59.842 Z-1.346
X251.805 Y57.999 Z-1.347
X250.637 Y55.737 Z-1.443
X250.335 Y55.307 Z-1.494
X249.866 Y54.795 Z-1.562
X249.462 Y54.477 Z-1.613
X248.846 Y54.145 Z-1.708
X248.064 Y53.895 Z-1.811
X247.475 Y53.845 Z-1.898
X246.866 Y53.896 Z-2.002
X246.303 Y54.062 Z-2.094
X245.419 Y53.61 Z-1.378
X244.981 Y53.42 Z-1.013
X245.419 Y53.61 Z-1.378
X246.303 Y54.062 Z-2.094
X246.06 Y54.753 Z-1.662
X245.818 Y55.645 Z-1.173
X245.787 Y55.787 Z-1.102
X245.833 Y55.888 Z-1.001
X245.787 Y55.787 Z-1.102
X245.711 Y55.889 Z-1
X245.787 Y55.787 Z-1.102
X245.818 Y55.645 Z-1.173
X246.06 Y54.753 Z-1.662
X246.303 Y54.062 Z-2.094
X246.866 Y53.896 Z-2.002
X247.475 Y53.845 Z-1.898
X248.064 Y53.895 Z-1.811
X248.846 Y54.145 Z-1.708
X249.462 Y54.477 Z-1.613
X249.866 Y54.795 Z-1.562
X250.335 Y55.307 Z-1.494
X250.637 Y55.737 Z-1.443
X251.805 Y57.999 Z-1.347
X252.634 Y59.842 Z-1.346
X253.544 Y62.079 Z-1.407
X253.599 Y62.455 Z-1.506
X253.63 Y64.992 Z-2.457
X254.329 Y65.256 Z-1.915
X254.762 Y65.527 Z-1.621
X255.075 Y65.848 Z-1.457
X255.228 Y66.113 Z-1.42
X257.249 Y70.796 Z-1.407
X258.868 Y74.636 Z-1.502
X259.851 Y76.937 Z-1.613
X260.283 Y78.051 Z-1.731
X260.442 Y78.661 Z-1.868
X260.462 Y79.038 Z-2.023
X261.188 Y79.405 Z-1.661
X261.822 Y79.639 Z-1.44
X262.416 Y79.794 Z-1.307
X262.96 Y79.87 Z-1.26
X263.29 Y79.888 Z-1.263
X263.544 Y80.16 Z-1.009
X263.29 Y79.888 Z-1.263
X263.543 Y79.635 Z-1.01
X263.29 Y79.888 Z-1.263
X262.96 Y79.87 Z-1.26
X262.416 Y79.794 Z-1.307
X261.822 Y79.639 Z-1.44
X261.188 Y79.405 Z-1.661
X260.462 Y79.038 Z-2.023
X259.76 Y79.429 Z-1.64
X259.247 Y79.616 Z-1.463
X258.718 Y79.717 Z-1.376
X257.526 Y79.831 Z-1.314
X257.308 Y79.853 Z-1.304
X257.011 Y79.597 Z-1.007
X257.308 Y79.853 Z-1.304
X257.01 Y80.167 Z-1.006
G0 Z5
X263.753 Y167.284
Z4
G1 Z-1.003 F850
X263.948 Y167.493 Z-1.198
X263.757 Y167.623 Z-1.007
X263.948 Y167.493 Z-1.198
X265.919 Y167.939 Z-1.556
X266.726 Y168.096 Z-1.757
X266.869 Y168.1 Z-1.814
X267.346 Z-2.09
X267.912 Z-2.532
X267.959 Y168.183 Z-2.529
X268.809 Z-1.872
X269.167 Z-1.692
X269.506 Z-1.629
X270.727 Y168.186 Z-1.63
X273.599 Y168.23 Z-1.658
X274.184 Y167.565 Z-1.006
X273.599 Y168.23 Z-1.658
X274.325 Y168.916 Z-1.009
X273.599 Y168.23 Z-1.658
X270.727 Y168.186 Z-1.63
X269.506 Y168.183 Z-1.629
X269.167 Z-1.692
X268.809 Z-1.872
X267.959 Z-2.529
Y168.651 Z-2.351
X267.961 Y169.387 Z-2.303
X267.992 Y173.644 Z-2.434
X266.525 Y174.573 Z-1.004
X267.992 Y173.644 Z-2.434
X269.227 Y175.486 Z-1.316
X269.288 Y175.579 Z-1.262
X269.544 Y175.694 Z-1.014
X269.288 Y175.579 Z-1.262
X269.314 Y175.883 Z-1.004
X269.288 Y175.579 Z-1.262
X269.227 Y175.486 Z-1.316
X267.992 Y173.644 Z-2.434
X267.961 Y169.387 Z-2.303
X267.959 Y168.651 Z-2.351
Y168.183 Z-2.529
X267.912 Y168.1 Z-2.532
X267.935 Y167.677 Z-2.365
X267.955 Y167.304 Z-2.301
X267.959 Y160.181 Z-2.297
X267.948 Y158.251 Z-2.326
X268.018 Y156.376 Z-2.426
X268.114 Y155.754 Z-2.481
X268.339 Y155.114 Z-2.515
X268.62 Y154.741 Z-2.47
X268.863 Y154.524 Z-2.413
X269.483 Y154.132 Z-2.249
X270.016 Y153.938 Z-2.124
X270.42 Y153.833 Z-2.037
X271.057 Y153.764 Z-1.916
X271.801 Y153.806 Z-1.798
X272.043 Y153.846 Z-1.766
X272.483 Y153.186 Z-1.003
X272.043 Y153.846 Z-1.766
X272.76 Y154.248 Z-1.482
X273.407 Y154.715 Z-1.293
X273.813 Y155.061 Z-1.209
X274.075 Y155.06 Z-1.008
X273.813 Y155.061 Z-1.209
X273.844 Y155.344 Z-1.004
G0 Z5
X264.009 Y295.23
Z4
G1 Z-1.001 F850
X264.704 Y295.875 Z-1.696
X264.017 Y296.578 Z-1.009
X264.704 Y295.875 Z-1.696
X266.464 Y295.75 Z-1.783
X267.517 Y295.617 Z-1.899
X268.076 Y295.446 Z-2.062
X268.66 Y295.171 Z-2.331
X268.767 Y295.109 Z-2.391
X268.878 Y295.044 Z-2.455
X269.523 Y294.588 Z-2.906
X270.984 Y293.341 Z-4.145
X272.13 Y294.366 Z-3.119
X272.816 Y294.865 Z-2.623
X273.477 Y295.238 Z-2.254
X273.858 Y295.41 Z-2.085
X274.415 Y295.577 Z-1.924
X275.807 Y295.771 Z-1.754
X276.922 Y295.862 Z-1.691
X277.351 Y295.885 Z-1.681
X278.025 Y296.578 Z-1.007
X277.351 Y295.885 Z-1.681
X278.018 Y295.249 Z-1.014
X277.351 Y295.885 Z-1.681
X276.922 Y295.862 Z-1.691
X275.807 Y295.771 Z-1.754
X274.415 Y295.577 Z-1.924
X273.858 Y295.41 Z-2.085
X273.477 Y295.238 Z-2.254
X272.816 Y294.865 Z-2.623
X272.13 Y294.366 Z-3.119
X270.984 Y293.341 Z-4.145
X271 Y291.818 Z-4.052
X270.989 Y288.554 Z-3.987
X270.98 Y280.378 Z-3.91
X270.916 Y273.493 Z-3.942
X270.897 Y269.479 Z-4.068
X269.323 Y267.997 Z-2.605
X268.738 Y267.619 Z-2.239
X268.148 Y267.382 Z-2.017
X266.396 Y266.852 Z-1.544
X265.943 Y266.732 Z-1.441
X265.505 Y267.002 Z-1.003
X265.943 Y266.732 Z-1.441
X265.515 Y266.289 Z-1.013
X265.943 Y266.732 Z-1.441
X266.396 Y266.852 Z-1.544
X268.148 Y267.382 Z-2.017
X268.738 Y267.619 Z-2.239
X269.323 Y267.997 Z-2.605
X270.897 Y269.479 Z-4.068
X271.996 Y268.454 Z-3.036
X272.327 Y268.202 Z-2.783
X272.939 Y267.836 Z-2.426
X273.553 Y267.608 Z-2.207
X274.515 Y267.507 Z-2.12
X278.468 Y267.412 Z-2.078
X281.197 Y267.432 Z-2.133
X283.343 Y267.523 Z-2.251
X285.351 Y267.7 Z-2.405
X286.056 Y267.793 Z-2.468
X287.407 Y266.41 Z-1.005
X286.056 Y267.793 Z-2.468
X286.377 Y268.297 Z-2.193
X286.521 Y268.619 Z-2.079
X286.686 Y269.28 Z-1.978
X287.245 Y272.321 Z-1.771
X287.388 Y273.136 Z-1.737
X286.791 Y273.872 Z-1.001
X287.388 Y273.136 Z-1.737
X288.222 Y273.862 Z-1.011
G0 Z5
X264.603 Y120.602
Z4
G1 Z-1.01 F850
X264.931 Y120.93 Z-1.338
X265.255 Y120.594 Z-1.002
X264.931 Y120.93 Z-1.338
X264.934 Y122.241 Z-1.407
X264.858 Y122.953 Z-1.546
X264.758 Y123.51 Z-1.711
X264.458 Y124.364 Z-2.13
X265.699 Y125.036 Z-1.013
X264.458 Y124.364 Z-2.13
X263.83 Y124.669 Z-2.034
X263.029 Y124.932 Z-1.942
X262.115 Y125.129 Z-1.84
X261.081 Y125.243 Z-1.73
X260.078 Y125.24 Z-1.647
X259.344 Y125.148 Z-1.576
X258.259 Y124.892 Z-1.454
X257.5 Y124.609 Z-1.388
X256.782 Y124.248 Z-1.392
X255.976 Y123.73 Z-1.451
X255.329 Y123.23 Z-1.534
X254.661 Y122.502 Z-1.722
X254.136 Y121.791 Z-1.868
X253.81 Y121.175 Z-1.958
X253.495 Y120.343 Z-2.079
X253.238 Y119.151 Z-2.217
X253.129 Y118.17 Z-2.302
X253.131 Y116.776 Z-2.391
X253.277 Y115.375 Z-2.446
X253.477 Y114.481 Z-2.477
X253.822 Y113.545 Z-2.493
X254.248 Y112.692 Z-2.504
X254.888 Y111.731 Z-2.458
X255.373 Y111.171 Z-2.364
X255.966 Y110.674 Z-2.294
X256.501 Y110.308 Z-2.207
X257.406 Y109.803 Z-2.056
X258.048 Y109.541 Z-1.961
X258.761 Y109.35 Z-1.866
X259.826 Y109.192 Z-1.771
X260.825 Y109.144 Z-1.692
X261.634 Y109.185 Z-1.63
X262.732 Y109.363 Z-1.559
X263.81 Y109.668 Z-1.499
X264.762 Y110.049 Z-1.438
X265.059 Y109.72 Z-1.01
X264.762 Y110.049 Z-1.438
X265.423 Y110.614 Z-1.186
X265.453 Y110.823 Z-1.01
X265.423 Y110.614 Z-1.186
X265.656 Y110.646 Z-1.007
G0 Z5
X265.282 Y63.365
Z4
G1 Z-1.006 F850
X265.544 Y63.641 Z-1.268
X265.286 Y63.9 Z-1.01
X265.544 Y63.641 Z-1.268
X266.751 Y63.667 Z-1.243
X267.333 Y63.718 Z-1.275
X267.847 Y63.839 Z-1.384
X268.559 Y64.127 Z-1.661
X269.067 Y64.419 Z-1.948
X269.648 Y64.925 Z-2.451
X270.286 Y64.428 Z-1.962
X270.901 Y64.054 Z-1.596
X271.458 Y63.865 Z-1.418
X272.068 Y63.726 Z-1.295
X272.712 Y63.666 Z-1.254
X273.863 Y63.639 Z-1.27
X274.119 Y63.372 Z-1.014
X273.863 Y63.639 Z-1.27
X274.123 Y63.9 Z-1.01
X273.863 Y63.639 Z-1.27
X272.712 Y63.666 Z-1.254
X272.068 Y63.726 Z-1.295
X271.458 Y63.865 Z-1.418
X270.901 Y64.054 Z-1.596
X270.286 Y64.428 Z-1.962
X269.648 Y64.925 Z-2.451
X269.702 Y67.452 Z-2.327
X269.713 Y71.102 Z-2.29
X269.709 Y73.809 Z-2.306
X269.779 Y75.668 Z-2.4
X269.833 Y76.239 Z-2.467
X269.695 Y76.724 Z-2.344
X269.632 Y77.261 Z-2.297
X269.601 Y77.926 Z-2.337
X269.495 Y78.584 Z-2.452
X270.625 Y80.174 Z-1.35
X270.904 Y80.567 Z-1.074
X270.962 Y80.614 Z-1.007
X270.904 Y80.567 Z-1.074
X270.625 Y80.174 Z-1.35
X269.495 Y78.584 Z-2.452
X268.772 Y78.849 Z-1.988
X268.352 Y78.951 Z-1.774
X267.757 Y78.996 Z-1.585
X267.041 Y78.992 Z-1.437
X266.178 Y78.92 Z-1.357
X265.591 Y78.879 Z-1.315
X265.291 Y79.143 Z-1.015
X265.591 Y78.879 Z-1.315
X265.286 Y78.573 Z-1.01
X265.591 Y78.879 Z-1.315
X266.178 Y78.92 Z-1.357
X267.041 Y78.992 Z-1.437
X267.757 Y78.996 Z-1.585
X268.352 Y78.951 Z-1.774
X268.772 Y78.849 Z-1.988
X269.495 Y78.584 Z-2.452
X269.601 Y77.926 Z-2.337
X269.632 Y77.261 Z-2.297
X269.695 Y76.724 Z-2.344
X269.833 Y76.239 Z-2.467
X270.533 Y76.381 Z-1.878
X271.02 Y76.561 Z-1.512
X271.381 Y76.787 Z-1.308
X271.646 Y77.058 Z-1.247
X272.246 Y77.623 Z-1.221
X272.944 Y78.183 Z-1.266
X273.928 Y78.843 Z-1.424
X274.681 Y79.241 Z-1.616
X275.251 Y79.437 Z-1.737
X275.333 Y79.457 Z-1.751
X276.034 Y79.571 Z-1.826
X276.853 Y79.606 Z-1.916
X277.534 Y79.561 Z-1.987
X278.394 Y79.385 Z-2.1
X279.068 Y79.163 Z-2.186
X279.906 Y78.712 Z-2.3
X280.487 Y78.271 Z-2.378
X280.848 Y77.902 Z-2.43
X281.299 Y77.21 Z-2.461
X281.544 Y76.529 Z-2.431
X281.752 Y75.619 Z-2.413
X281.864 Y74.603 Z-2.363
X281.894 Y73.358 Z-2.331
X281.859 Y69.5 Z-2.318
X281.803 Y66.175 Z-2.378
X281.847 Y64.952 Z-2.495
X280.243 Y63.37 Z-1.006
X281.847 Y64.952 Z-2.495
X282.806 Y64.227 Z-1.753
X283.399 Y63.96 Z-1.49
X283.966 Y63.776 Z-1.317
X284.487 Y63.696 Z-1.251
X285.222 Y63.661 Z-1.249
X285.806 Y63.645 Z-1.265
X286.061 Y63.9 Z-1.01
X285.806 Y63.645 Z-1.265
X286.06 Y63.374 Z-1.011
G0 Z5
X265.522 Y212.513
Z4
G1 Z-1.005 F850
X265.785 Y212.789 Z-1.268
X265.527 Y213.047 Z-1.01
X265.785 Y212.789 Z-1.268
X266.997 Y212.815 Z-1.243
X267.58 Y212.867 Z-1.276
X268.087 Y212.987 Z-1.384
X268.796 Y213.274 Z-1.659
X269.307 Y213.567 Z-1.947
X269.889 Y214.073 Z-2.451
X270.236 Y213.787 Z-2.17
X270.862 Y213.363 Z-1.753
X271.349 Y213.116 Z-1.514
X271.853 Y212.971 Z-1.38
X272.46 Y212.853 Z-1.278
X274.103 Y212.787 Z-1.27
X274.359 Y212.52 Z-1.014
X274.103 Y212.787 Z-1.27
X274.363 Y213.047 Z-1.01
X274.103 Y212.787 Z-1.27
X272.46 Y212.853 Z-1.278
X271.853 Y212.971 Z-1.38
X271.349 Y213.116 Z-1.514
X270.862 Y213.363 Z-1.753
X270.236 Y213.787 Z-2.17
X269.889 Y214.073 Z-2.451
X269.888 Y214.104 Z-2.448
X269.943 Y216.604 Z-2.327
X269.954 Y220.25 Z-2.29
X269.95 Y222.957 Z-2.306
X270.02 Y224.816 Z-2.4
X270.073 Y225.387 Z-2.468
X269.936 Y225.872 Z-2.343
X269.873 Y226.409 Z-2.297
X269.841 Y227.078 Z-2.337
X269.736 Y227.732 Z-2.452
X269.013 Y227.997 Z-1.988
X268.594 Y228.099 Z-1.775
X268.002 Y228.143 Z-1.586
X267.323 Z-1.443
X266.296 Y228.059 Z-1.347
X265.832 Y228.027 Z-1.315
X265.532 Y228.291 Z-1.015
X265.832 Y228.027 Z-1.315
X265.527 Y227.722 Z-1.01
X265.832 Y228.027 Z-1.315
X266.296 Y228.059 Z-1.347
X267.323 Y228.143 Z-1.443
X268.002 Z-1.586
X268.594 Y228.099 Z-1.775
X269.013 Y227.997 Z-1.988
X269.736 Y227.732 Z-2.452
X270.95 Y229.442 Z-1.269
X271.068 Y229.612 Z-1.155
X271.089 Y229.643 Z-1.134
X271.116 Y229.68 Z-1.105
X271.126 Y229.693 Z-1.094
X271.146 Y229.716 Z-1.073
X271.201 Y229.761 Z-1.01
X271.146 Y229.716 Z-1.073
X271.126 Y229.693 Z-1.094
X271.116 Y229.68 Z-1.105
X271.089 Y229.643 Z-1.134
X271.068 Y229.612 Z-1.155
X270.95 Y229.442 Z-1.269
X269.736 Y227.732 Z-2.452
X269.841 Y227.078 Z-2.337
X269.873 Y226.409 Z-2.297
X269.936 Y225.872 Z-2.343
X270.073 Y225.387 Z-2.468
X270.354 Y225.433 Z-2.225
X270.928 Y225.576 Z-1.756
X271.261 Y225.708 Z-1.512
X271.603 Y225.919 Z-1.316
X271.96 Y226.28 Z-1.238
X272.656 Y226.916 Z-1.225
X273.526 Y227.572 Z-1.311
X274.284 Y228.059 Z-1.449
X274.963 Y228.407 Z-1.626
X275.579 Y228.607 Z-1.751
X276.274 Y228.719 Z-1.825
X277.095 Y228.754 Z-1.916
X277.812 Y228.703 Z-1.99
X278.662 Y228.526 Z-2.104
X279.382 Y228.281 Z-2.193
X280.147 Y227.86 Z-2.3
X280.727 Y227.42 Z-2.377
X281.08 Y227.059 Z-2.429
X281.539 Y226.359 Z-2.461
X281.584 Y226.254 Z-2.452
X281.785 Y225.677 Z-2.431
X281.993 Y224.767 Z-2.413
X282.109 Y223.677 Z-2.36
X282.119 Y220.277 Z-2.319
X282.066 Y216.928 Z-2.327
X282.044 Y215.373 Z-2.375
X282.088 Y214.1 Z-2.495
X280.484 Y212.518 Z-1.007
X282.088 Y214.1 Z-2.495
X283.044 Y213.376 Z-1.754
X283.631 Y213.111 Z-1.494
X284.186 Y212.929 Z-1.321
X284.715 Y212.845 Z-1.252
X285.465 Y212.809 Z-1.248
X286.047 Y212.792 Z-1.265
X286.302 Y213.047 Z-1.01
X286.047 Y212.792 Z-1.265
X286.302 Y212.522 Z-1.01
G0 Z5
X268.13 Y108.795
Z4
G1 Z-1.003 F850
X268.429 Y109.107 Z-1.302
X268.132 Y109.368 Z-1.005
X268.429 Y109.107 Z-1.302
X269.382 Y109.183 Z-1.341
X270.139 Y109.268 Z-1.401
X270.825 Y109.406 Z-1.522
X271.199 Y109.564 Z-1.673
X271.752 Y109.872 Z-1.972
X272.419 Y110.376 Z-2.469
X273.016 Y109.876 Z-1.971
X273.501 Y109.608 Z-1.709
X274.284 Y109.33 Z-1.445
X274.803 Y109.229 Z-1.356
X275.519 Y109.173 Z-1.322
X276.672 Y109.098 Z-1.293
X276.957 Y108.801 Z-1.008
X276.672 Y109.098 Z-1.293
X276.962 Y109.363 Z-1.003
X276.672 Y109.098 Z-1.293
X275.519 Y109.173 Z-1.322
X274.803 Y109.229 Z-1.356
X274.284 Y109.33 Z-1.445
X273.501 Y109.608 Z-1.709
X273.016 Y109.876 Z-1.971
X272.419 Y110.376 Z-2.469
X272.423 Y110.72 Z-2.425
X272.406 Y112.428 Z-2.308
X272.416 Y119.137 Z-2.286
X272.452 Y120.381 Z-2.322
X272.584 Y121.748 Z-2.454
X272.46 Y122.253 Z-2.329
X272.418 Y122.758 Z-2.288
Y127.602
X272.423 Y127.994 Z-2.287
X272.443 Y130.407 Z-2.315
X272.401 Y132.37 Z-2.424
X272.336 Y133.571 Z-2.529
X271.82 Y133.826 Z-2.157
X271.247 Y134.001 Z-1.854
X270.506 Y134.137 Z-1.571
X269.921 Y134.167 Z-1.442
X269.25 Y134.129 Z-1.384
X268.467 Y134.078 Z-1.34
X268.138 Y134.372 Z-1.011
X268.467 Y134.078 Z-1.34
X268.137 Y133.748 Z-1.01
X268.467 Y134.078 Z-1.34
X269.25 Y134.129 Z-1.384
X269.921 Y134.167 Z-1.442
X270.506 Y134.137 Z-1.571
X271.247 Y134.001 Z-1.854
X271.82 Y133.826 Z-2.157
X272.336 Y133.571 Z-2.529
X273.335 Y134.869 Z-1.576
X273.865 Y135.557 Z-1.097
X273.928 Y135.654 Z-1.026
X273.94 Y135.664 Z-1.011
X273.928 Y135.654 Z-1.026
Y135.672 Z-1.008
Y135.654 Z-1.026
X273.865 Y135.557 Z-1.097
X273.335 Y134.869 Z-1.576
X272.336 Y133.571 Z-2.529
X272.401 Y132.37 Z-2.424
X272.443 Y130.407 Z-2.315
X272.423 Y127.994 Z-2.287
X272.418 Y127.602 Z-2.288
Y122.758
X272.46 Y122.253 Z-2.329
X272.584 Y121.748 Z-2.454
X273.578 Y121.999 Z-1.598
X273.819 Y122.08 Z-1.441
X274.132 Y122.258 Z-1.281
X274.621 Y122.736 Z-1.205
X275.309 Y123.318 Z-1.222
X275.88 Y123.738 Z-1.282
X276.777 Y124.309 Z-1.446
X277.507 Y124.686 Z-1.626
X278.378 Y124.958 Z-1.8
X278.762 Y125.02 Z-1.84
X279.542 Y125.055 Z-1.918
X280.36 Y124.987 Z-1.982
X281.161 Y124.815 Z-2.082
X281.914 Y124.546 Z-2.167
X282.74 Y124.074 Z-2.294
X283.286 Y123.628 Z-2.376
X283.601 Y123.282 Z-2.428
X283.989 Y122.647 Z-2.465
X284.236 Y121.875 Z-2.431
X284.424 Y120.855 Z-2.42
X284.523 Y119.723 Z-2.376
X284.541 Y118.088 Z-2.342
X284.458 Y113.33 Z-2.334
X284.454 Y111.268 Z-2.42
X284.475 Y110.384 Z-2.491
X282.896 Y108.81 Z-1.012
X284.475 Y110.384 Z-2.491
X285.058 Y109.936 Z-2.031
X285.594 Y109.617 Z-1.709
X286.079 Y109.404 Z-1.501
X286.64 Y109.27 Z-1.377
X288.413 Y109.107 Z-1.29
X288.699 Y109.365 Z-1.004
X288.413 Y109.107 Z-1.29
X288.695 Y108.806 Z-1.008
G0 Z5
X275.983 Y167.281
Z4
G1 Z-1.001 F850
X276.18 Y167.493 Z-1.198
X275.989 Y167.623 Z-1.007
X276.18 Y167.493 Z-1.198
X276.403 Y167.544 Z-1.233
X278.386 Y167.993 Z-1.607
X278.819 Y168.082 Z-1.71
X279.577 Y168.1 Z-2.09
X280.143 Z-2.532
X280.19 Y168.183 Z-2.529
Y168.651 Z-2.351
X280.192 Y169.393 Z-2.303
X280.223 Y173.644 Z-2.434
X278.756 Y174.573 Z-1.004
X280.223 Y173.644 Z-2.434
X281.519 Y175.578 Z-1.262
X281.545 Y175.883 Z-1.005
X281.519 Y175.578 Z-1.262
X281.776 Y175.694 Z-1.014
X281.519 Y175.578 Z-1.262
X280.223 Y173.644 Z-2.434
X280.192 Y169.393 Z-2.303
X280.19 Y168.651 Z-2.351
Y168.183 Z-2.529
X281.04 Z-1.872
X281.398 Z-1.692
X281.737 Z-1.629
X282.958 Y168.186 Z-1.63
X285.83 Y168.23 Z-1.658
X286.415 Y167.565 Z-1.006
X285.83 Y168.23 Z-1.658
X286.557 Y168.916 Z-1.009
X285.83 Y168.23 Z-1.658
X282.958 Y168.186 Z-1.63
X281.737 Y168.183 Z-1.629
X281.398 Z-1.692
X281.04 Z-1.872
X280.19 Z-2.529
X280.143 Y168.1 Z-2.532
X280.166 Y167.677 Z-2.365
X280.186 Y167.304 Z-2.301
X280.19 Y160.181 Z-2.297
X280.186 Y159.825 Z-2.3
X280.185 Y157.919 Z-2.338
X280.25 Y156.376 Z-2.426
X280.354 Y155.721 Z-2.483
X280.569 Y155.117 Z-2.515
X280.847 Y154.745 Z-2.471
X281.093 Y154.525 Z-2.413
X281.484 Y154.264 Z-2.309
X281.882 Y154.06 Z-2.209
X282.651 Y153.833 Z-2.037
X283.289 Y153.764 Z-1.916
X284.032 Y153.806 Z-1.798
X284.275 Y153.846 Z-1.766
X284.715 Y153.186 Z-1.004
X284.275 Y153.846 Z-1.766
X284.996 Y154.251 Z-1.481
X285.678 Y154.746 Z-1.284
X286.045 Y155.061 Z-1.209
X286.307 Y155.06 Z-1.008
X286.045 Y155.061 Z-1.209
X286.076 Y155.344 Z-1.004
G0 Z5
X287.784 Y213.075
Z4
G1 Z-1.002 F850
X288.074 Y212.808 Z-1.292
X287.788 Y212.511 Z-1.006
X288.074 Y212.808 Z-1.292
X289.195 Y212.873 Z-1.317
X289.832 Y212.927 Z-1.352
X290.318 Y213.036 Z-1.448
X290.978 Y213.302 Z-1.7
X291.478 Y213.597 Z-1.988
X292.083 Y214.126 Z-2.51
X292.83 Y213.508 Z-1.885
X293.321 Y213.257 Z-1.638
X293.943 Y213.037 Z-1.428
X294.443 Y212.945 Z-1.346
X295.228 Y212.887 Z-1.316
X296.091 Y212.819 Z-1.292
X296.374 Y212.52 Z-1.009
X296.091 Y212.819 Z-1.292
X296.379 Y213.079 Z-1.004
X296.091 Y212.819 Z-1.292
X295.228 Y212.887 Z-1.316
X294.443 Y212.945 Z-1.346
X293.943 Y213.037 Z-1.428
X293.321 Y213.257 Z-1.638
X292.83 Y213.508 Z-1.885
X292.083 Y214.126 Z-2.51
X292.082 Y215.976 Z-2.351
Y229.732 Z-2.297
X292.088 Y231.37 Z-2.311
X292.11 Y235.738 Z-2.397
X292.111 Y236.523 Z-2.43
X292.041 Y237.208 Z-2.533
X293.34 Y238.933 Z-1.324
X293.579 Y239.261 Z-1.102
X293.592 Y239.359 Z-1.015
X293.579 Y239.261 Z-1.102
X293.67 Y239.305 Z-1.013
X293.579 Y239.261 Z-1.102
X293.34 Y238.933 Z-1.324
X292.041 Y237.208 Z-2.533
X291.196 Y237.583 Z-1.946
X290.737 Y237.697 Z-1.733
X289.928 Y237.79 Z-1.488
X289.318 Y237.782 Z-1.403
X288.111 Y237.709 Z-1.329
X287.786 Y238 Z-1.004
X288.111 Y237.709 Z-1.329
X287.792 Y237.39 Z-1.01
G0 Z5
X290.039 Y167.977
Z4
G1 Z-1.011 F850
X290.689 Y167.605 Z-1.656
X290.412 Y166.118 Z-1.379
X290.642 Y165.672 Z-1.007
X290.412 Y166.118 Z-1.379
X290.042 Y165.839 Z-1.013
X290.412 Y166.118 Z-1.379
X290.689 Y167.605 Z-1.656
X291.143 Y168.125 Z-1.428
X291.639 Y168.494 Z-1.353
X292.49 Y168.94 Z-1.378
X293.401 Y169.293 Z-1.461
X294.234 Y169.508 Z-1.552
X294.946 Y169.608 Z-1.63
X295.816 Y169.627 Z-1.722
X296.626 Y169.558 Z-1.796
X297.452 Y169.385 Z-1.907
X298.115 Y169.145 Z-2.026
X298.776 Y168.782 Z-2.13
X299.528 Y168.258 Z-2.24
X300.012 Y167.684 Z-2.334
X300.315 Y167.219 Z-2.372
X300.557 Y166.652 Z-2.353
X300.673 Y166.303 Z-2.342
X300.811 Y165.466 Z-2.276
X300.911 Y164.33 Z-2.258
X300.931 Y163.541 Z-2.279
X300.9 Y163.266 Z-2.321
X300.114 Z-1.625
X299.804 Z-1.409
X299.516 Z-1.298
X298.238 Y163.043 Z-1.301
X296.344 Y162.637 Z-1.35
X294.803 Y162.214 Z-1.427
X292.981 Y161.579 Z-1.565
X292.378 Y161.333 Z-1.633
X291.834 Y160.978 Z-1.756
X291.288 Y160.532 Z-1.875
X290.875 Y160.059 Z-1.969
X290.463 Y159.361 Z-2.099
X290.224 Y158.683 Z-2.201
X290.071 Y158.015 Z-2.286
X290.024 Y157.275 Z-2.34
X290.062 Y156.591 Z-2.388
X290.194 Y155.945 Z-2.431
X290.337 Y155.587 Z-2.438
X290.766 Y154.941 Z-2.4
X291.333 Y154.43 Z-2.271
X291.895 Y154.103 Z-2.172
X292.528 Y153.867 Z-2.031
X293.14 Y153.729 Z-1.928
X293.834 Y153.671 Z-1.853
X294.327 Y153.693 Z-1.784
X294.82 Y153.818 Z-1.686
X295.697 Y154.175 Z-1.455
X296.43 Y154.56 Z-1.316
X297.308 Y155.108 Z-1.22
X298.567 Y156.078 Z-1.228
X299.236 Y156.658 Z-1.31
X299.514 Y156.803 Z-1.428
X299.853 Y156.9 Z-1.63
X300.467 Y156.953 Z-2.077
X300.881 Z-2.422
X300.945 Y157.294 Z-2.345
X300.976 Y157.789 Z-2.301
X300.9 Y163.266 Z-2.321
X300.976 Y157.789 Z-2.301
X300.945 Y157.294 Z-2.345
X300.881 Y156.953 Z-2.422
X300.966 Y156.579 Z-2.355
X301.086 Y154.656 Z-2.393
X299.69 Y153.19 Z-1.012
X301.086 Y154.656 Z-2.393
X301.694 Y154.173 Z-1.892
X302.324 Y153.838 Z-1.552
X302.795 Y153.663 Z-1.389
X303.266 Y153.582 Z-1.322
X303.904 Y153.551 Z-1.319
X304.497 Y153.534 Z-1.336
X304.823 Y153.86 Z-1.01
X304.497 Y153.534 Z-1.336
X304.822 Y153.189 Z-1.011
G0 Z5
X291.395 Y266.291
Z4
G1 Z-1.009 F850
X292.13 Y267.072 Z-1.744
X291.396 Y267.769 Z-1.01
X292.13 Y267.072 Z-1.744
X292.69 Y267.121 Z-1.763
X293.707 Y267.264 Z-1.868
X294.344 Y267.392 Z-1.983
X295.069 Y267.698 Z-2.282
X295.987 Y268.175 Z-2.756
X296.578 Y267.802 Z-2.385
X297.116 Y267.553 Z-2.139
X297.588 Y267.395 Z-1.986
X298.131 Y267.292 Z-1.891
X299.671 Y267.128 Z-1.775
X300.337 Y267.078 Z-1.757
X301.088 Y266.286 Z-1.006
X300.337 Y267.078 Z-1.757
X301.093 Y267.781 Z-1.001
X300.337 Y267.078 Z-1.757
X299.671 Y267.128 Z-1.775
X298.131 Y267.292 Z-1.891
X297.588 Y267.395 Z-1.986
X297.116 Y267.553 Z-2.139
X296.578 Y267.802 Z-2.385
X295.987 Y268.175 Z-2.756
X296.089 Y268.885 Z-2.509
X296.21 Y269.434 Z-2.386
X296.447 Y270.207 Z-2.282
X297.07 Y271.89 Z-2.16
X297.847 Y273.856 Z-2.086
X298.821 Y276.199 Z-2.076
X299.02 Y276.504 Z-2.143
X299.267 Y276.794 Z-2.261
X299.553 Y277.059 Z-2.424
X300.084 Y276.862 Z-2.187
X300.529 Y276.763 Z-2.079
X302.317 Y276.721 Z-2.003
X305.789 Y276.706 Z-1.971
X309.697 Y276.731 Z-2.03
X310.576 Y276.754 Z-2.07
X311.086 Y276.862 Z-2.187
X311.862 Y277.162 Z-2.577
X312.401 Y277.379 Z-2.992
X313.605 Y277.865 Z-4.102
X313.97 Y277.279 Z-3.993
X315.917 Y272.625 Z-4.004
X316.545 Y271.019 Z-4.044
X317.046 Y269.587 Z-4.17
X316.561 Y269.043 Z-3.628
X315.828 Y268.367 Z-2.956
X315.134 Y267.854 Z-2.451
X314.586 Y267.557 Z-2.161
X313.978 Y267.332 Z-1.947
X313.542 Y267.231 Z-1.856
X312.266 Y267.108 Z-1.768
X311.253 Y267.051 Z-1.746
X310.513 Y266.282 Z-1.006
X311.253 Y267.051 Z-1.746
X310.509 Y267.771 Z-1.002
X311.253 Y267.051 Z-1.746
X312.266 Y267.108 Z-1.768
X313.542 Y267.231 Z-1.856
X313.978 Y267.332 Z-1.947
X314.586 Y267.557 Z-2.161
X315.134 Y267.854 Z-2.451
X315.828 Y268.367 Z-2.956
X316.561 Y269.043 Z-3.628
X317.046 Y269.587 Z-4.17
X318.917 Y268.441 Z-3.032
X320.329 Y267.631 Z-2.241
X320.899 Y267.426 Z-2.048
X322.051 Y267.191 Z-1.846
X322.922 Y267.086 Z-1.77
X323.24 Y267.062 Z-1.758
X323.99 Y267.771 Z-1.008
X323.24 Y267.062 Z-1.758
X323.995 Y266.278 Z-1.003
X323.24 Y267.062 Z-1.758
X322.922 Y267.086 Z-1.77
X322.051 Y267.191 Z-1.846
X320.899 Y267.426 Z-2.048
X320.329 Y267.631 Z-2.241
X318.917 Y268.441 Z-3.032
X317.046 Y269.587 Z-4.17
X316.545 Y271.019 Z-4.044
X315.917 Y272.625 Z-4.004
X313.97 Y277.279 Z-3.993
X313.605 Y277.865 Z-4.102
X313.439 Y278.578 Z-3.978
X313.198 Y279.26 Z-3.936
X308.472 Y290.551 Z-3.913
X308.07 Y291.347 Z-3.974
X307.561 Y292.086 Z-4.156
X307.547 Y294.667 Z-3.168
X306.095 Y296.83 Z-1.005
X307.547 Y294.667 Z-3.168
X308.983 Y296.829 Z-1.006
X307.547 Y294.667 Z-3.168
X307.561 Y292.086 Z-4.156
X306.756 Y291.82 Z-3.511
X306.059 Y291.51 Z-2.983
X305.47 Y291.155 Z-2.572
X304.99 Y290.757 Z-2.279
X304.619 Y290.313 Z-2.102
X304.356 Y289.826 Z-2.043
X299.727 Y278.52 Z-2.032
X299.579 Y278.015 Z-2.085
X299.53 Y277.461 Z-2.249
X299.553 Y277.059 Z-2.424
G0 Z5
X292.017 Y123.596
Z4
G1 Z-1.011 F850
X292.667 Y123.225 Z-1.656
X292.39 Y121.737 Z-1.379
X292.623 Y121.286 Z-1.003
X292.39 Y121.737 Z-1.379
X292.02 Y121.458 Z-1.013
X292.39 Y121.737 Z-1.379
X292.667 Y123.225 Z-1.656
X293.121 Y123.745 Z-1.428
X293.617 Y124.114 Z-1.353
X294.519 Y124.582 Z-1.382
X295.298 Y124.887 Z-1.453
X296.224 Y125.13 Z-1.553
X296.924 Y125.228 Z-1.63
X297.794 Y125.246 Z-1.722
X298.737 Y125.157 Z-1.81
X299.434 Y125.004 Z-1.908
X300.198 Y124.716 Z-2.043
X300.749 Y124.404 Z-2.129
X301.503 Y123.88 Z-2.239
X301.604 Y123.775 Z-2.253
X302.079 Y123.183 Z-2.35
X302.326 Y122.775 Z-2.372
X302.651 Y121.925 Z-2.342
X302.799 Y121.005 Z-2.272
X302.897 Y119.806 Z-2.259
X302.91 Y119.16 Z-2.279
X302.879 Y118.886 Z-2.321
X302.954 Y113.409 Z-2.3
X302.924 Y112.914 Z-2.344
X302.859 Y112.573 Z-2.421
X302.975 Y111.967 Z-2.336
X303.065 Y110.276 Z-2.393
X303.662 Y109.799 Z-1.899
X304.292 Y109.463 Z-1.556
X304.718 Y109.299 Z-1.403
X305.173 Y109.208 Z-1.327
X305.756 Y109.174 Z-1.316
X306.476 Y109.154 Z-1.336
X306.801 Y108.808 Z-1.011
X306.476 Y109.154 Z-1.336
X306.802 Y109.48 Z-1.01
X306.476 Y109.154 Z-1.336
X305.756 Y109.174 Z-1.316
X305.173 Y109.208 Z-1.327
X304.718 Y109.299 Z-1.403
X304.292 Y109.463 Z-1.556
X303.662 Y109.799 Z-1.899
X303.065 Y110.276 Z-2.393
X301.669 Y108.809 Z-1.012
X303.065 Y110.276 Z-2.393
X302.975 Y111.967 Z-2.336
X302.859 Y112.573 Z-2.421
X302.012 Y112.548 Z-1.752
X301.484 Y112.42 Z-1.424
X301.207 Y112.273 Z-1.308
X300.762 Y111.884 Z-1.245
X299.966 Y111.235 Z-1.212
X299.037 Y110.566 Z-1.243
X298.049 Y109.98 Z-1.376
X297.305 Y109.632 Z-1.55
X296.524 Y109.357 Z-1.744
X296.305 Y109.313 Z-1.784
X295.849 Y109.29 Z-1.848
X295.15 Y109.344 Z-1.924
X294.428 Y109.51 Z-2.047
X293.865 Y109.727 Z-2.173
X293.316 Y110.047 Z-2.27
X292.746 Y110.559 Z-2.4
X292.299 Y111.239 Z-2.439
X292.155 Y111.624 Z-2.427
X292.023 Y112.344 Z-2.381
X292.002 Y112.91 Z-2.339
X292.05 Y113.635 Z-2.285
X292.2 Y114.297 Z-2.203
X292.489 Y115.074 Z-2.08
X292.834 Y115.651 Z-1.973
X293.163 Y116.049 Z-1.9
X293.672 Y116.491 Z-1.786
X294.358 Y116.953 Z-1.632
X294.959 Y117.198 Z-1.565
X296.783 Y117.835 Z-1.427
X298.322 Y118.256 Z-1.35
X300.216 Y118.663 Z-1.301
X301.497 Y118.886 Z-1.298
X301.784 Z-1.41
X302.093 Z-1.626
X302.879 Z-2.321
G0 Z5
X298.038 Y228.784
Z4
G1 Z-1.01 F850
X298.292 Y229.038 Z-1.264
X298.038 Y229.309 Z-1.01
X298.292 Y229.038 Z-1.264
X298.45 Y229.034 Z-1.26
X299.005 Y228.965 Z-1.298
X299.696 Y228.828 Z-1.407
X300.285 Y228.637 Z-1.583
X300.962 Y228.315 Z-1.895
X301.977 Y227.704 Z-2.516
X302.504 Y228.175 Z-2.053
X303.05 Y228.553 Z-1.687
X303.533 Y228.78 Z-1.471
X303.976 Y228.912 Z-1.35
X304.565 Y229.01 Z-1.267
X305.128 Y229.034 Z-1.26
X305.911 Y229.047 Z-1.273
X306.183 Y229.327 Z-1.001
X305.911 Y229.047 Z-1.273
X306.174 Y228.784 Z-1.01
X305.911 Y229.047 Z-1.273
X305.128 Y229.034 Z-1.26
X304.565 Y229.01 Z-1.267
X303.976 Y228.912 Z-1.35
X303.533 Y228.78 Z-1.471
X303.05 Y228.553 Z-1.687
X302.504 Y228.175 Z-2.053
X301.977 Y227.704 Z-2.516
X302.144 Y227.096 Z-2.429
X302.481 Y226.142 Z-2.363
X304.223 Y221.759 Z-2.287
X306.264 Y216.734 Z-2.296
X307.152 Y214.618 Z-2.34
X307.466 Y214.14 Z-2.457
X307.435 Y211.602 Z-1.506
X307.38 Y211.227 Z-1.407
X306.47 Y208.99 Z-1.346
X305.641 Y207.147 Z-1.347
X304.474 Y204.886 Z-1.443
X304.171 Y204.456 Z-1.495
X303.702 Y203.943 Z-1.562
X303.297 Y203.624 Z-1.613
X302.71 Y203.306 Z-1.702
X301.899 Y203.043 Z-1.811
X301.316 Y202.992 Z-1.897
X300.701 Y203.044 Z-2.002
X300.138 Y203.211 Z-2.094
X299.975 Y203.118 Z-1.963
X298.814 Y202.565 Z-1.012
X299.975 Y203.118 Z-1.963
X300.138 Y203.211 Z-2.094
X299.876 Y203.964 Z-1.625
X299.654 Y204.794 Z-1.173
X299.623 Y204.935 Z-1.102
X299.669 Y205.036 Z-1.001
X299.623 Y204.935 Z-1.102
X299.547 Y205.037 Z-1
X299.623 Y204.935 Z-1.102
X299.654 Y204.794 Z-1.173
X299.876 Y203.964 Z-1.625
X300.138 Y203.211 Z-2.094
X300.701 Y203.044 Z-2.002
X301.316 Y202.992 Z-1.897
X301.899 Y203.043 Z-1.811
X302.71 Y203.306 Z-1.702
X303.297 Y203.624 Z-1.613
X303.702 Y203.943 Z-1.562
X304.171 Y204.456 Z-1.495
X304.474 Y204.886 Z-1.443
X305.641 Y207.147 Z-1.347
X306.47 Y208.99 Z-1.346
X307.38 Y211.227 Z-1.407
X307.435 Y211.602 Z-1.506
X307.466 Y214.14 Z-2.457
X307.614 Y214.185 Z-2.338
X308.165 Y214.404 Z-1.915
X308.598 Y214.675 Z-1.621
X308.912 Y214.997 Z-1.457
X309.109 Y215.367 Z-1.419
X311.267 Y220.375 Z-1.411
X312.711 Y223.801 Z-1.504
X313.948 Y226.728 Z-1.669
X314.211 Y227.474 Z-1.775
X314.297 Y228.099 Z-1.984
X314.298 Y228.185 Z-2.023
X315.024 Y228.553 Z-1.661
X315.659 Y228.787 Z-1.439
X316.289 Y228.949 Z-1.301
X316.845 Y229.022 Z-1.26
X317.126 Y229.037 Z-1.263
X317.38 Y229.308 Z-1.009
X317.126 Y229.037 Z-1.263
