%
(1001)
(RoadSign_threequarters_chamfer z0 model bottom)
(T7  D=16 CR=0 TAPER=45deg - ZMIN=-8 - chamfer mill)
G90 G94
G17
G21

(2D Contour3)
M9
T7 M6
S6000 M3
G54
M9
G0 X219.1 Y24.95
Z15
Z5
G1 Z4.1 F850
G19 G3 Y26.55 Z2.5 J1.6 F283.3
G1 Y28.15 F850
G17 G3 X217.5 Y29.75 I-1.6
G1 X30 Z2.084 F283.3
G2 X29.75 Y30 Z2.083 J0.25
G1 Y330 Z1.417
G2 X30 Y330.25 Z1.416 I0.25
G1 X405 Z0.584
G2 X405.25 Y330 Z0.583 J-0.25
G1 Y30 Z-0.083
G2 X405 Y29.75 Z-0.084 I-0.25
G1 X30 Z-0.916
G2 X29.75 Y30 Z-0.917 J0.25
G1 Y330 Z-1.583
G2 X30 Y330.25 Z-1.584 I0.25
G1 X405 Z-2.416
G2 X405.25 Y330 Z-2.417 J-0.25
G1 Y30 Z-3.083
G2 X405 Y29.75 Z-3.084 I-0.25
G1 X30 Z-3.916
G2 X29.75 Y30 Z-3.917 J0.25
G1 Y330 Z-4.583
G2 X30 Y330.25 Z-4.584 I0.25
G1 X405 Z-5.416
G2 X405.25 Y330 Z-5.417 J-0.25
G1 Y30 Z-6.083
G2 X405 Y29.75 Z-6.084 I-0.25
G1 X30 Z-6.916
G2 X29.75 Y30 Z-6.917 J0.25
G1 Y330 Z-7.583
G2 X30 Y330.25 Z-7.584 I0.25
G1 X217.5 Z-8
X405 F850
G2 X405.25 Y330 J-0.25
G1 Y30
G2 X405 Y29.75 I-0.25
G1 X30
G2 X29.75 Y30 J0.25
G1 Y330
G2 X30 Y330.25 I0.25
G1 X217.5
G3 X219.1 Y331.85 J1.6
G1 Y333.45
G19 G3 Y335.05 Z-6.4 K1.6
G0 Z15
G17
M9
M30
%
