%
(1001)
(RoadSign_threequarters_face z0 stock top)
(T1  D=22 CR=0 - ZMIN=-1 - flat end mill)
G90 G94
G17
G21

(Face3)
M9
T1 M6
(22mm Facing Bit)
S5500 M3
G54
M9
G0 X422.275 Y36.618
Z15
Z5
G1 Z1.2 F850
G18 G3 X420.075 Z-1 I-2.2
G1 X409
X26
G17 G2 Y57.027 J10.204
G1 X409
G3 Y77.435 J10.204
G1 X26
G2 Y97.844 J10.204
G1 X409
G3 Y118.253 J10.204
G1 X26
G2 Y138.662 J10.204
G1 X409
G3 Y159.071 J10.204
G1 X26
G2 Y179.479 J10.204
G1 X409
G3 Y199.888 J10.204
G1 X26
G2 Y220.297 J10.204
G1 X409
G3 Y240.706 J10.204
G1 X26
G2 Y261.115 J10.204
G1 X409
G3 Y281.523 J10.204
G1 X26
G2 Y301.932 J10.204
G1 X409
G3 Y322.341 J10.204
G1 X26
G18 G3 X23.8 Z1.2 K2.2
G0 Z15
G17
M9
M30
%
