%
(1001)
(RoadSign_halfsize_facing)
(T7  D=16 CR=0 TAPER=45deg - ZMIN=15.874 - chamfer mill)
G90 G94
G17
G21

(Engrave1)
M9
T7 M6
S6000 M3
G54
M8
G0 X42.07 Y206.903
Z35
Z23
G1 Z17.998 F850
X42.448 Y207.25 Z17.62
X42.075 Y207.636 Z17.993
X42.448 Y207.25 Z17.62
X42.992 Y207.221 Z17.611
X43.621 Y207.161 Z17.572
X44.371 Y206.994 Z17.423
X44.687 Y206.866 Z17.303
X45.396 Y206.378 Z16.824
X46.398 Y205.561 Z16.009
X47.105 Y206.253 Z16.693
X47.61 Y206.655 Z17.089
X47.942 Y206.835 Z17.264
X48.277 Y206.949 Z17.373
X49.114 Y207.051 Z17.458
X50.316 Y207.122 Z17.501
X51.407 Y207.102 Z17.458
X52.133 Y207.034 Z17.382
X52.926 Y206.87 Z17.225
X53.94 Y206.527 Z16.946
X54.452 Y206.282 Z16.784
X55.359 Y205.643 Z16.379
X55.748 Y205.258 Z16.217
X56.09 Y204.734 Z16.097
X56.273 Y204.228 Z16.057
X56.382 Y203.445 Z16.075
X56.342 Y202.304 Z16.177
X56.214 Y201.593 Z16.265
X55.979 Y200.933 Z16.418
X55.593 Y200.167 Z16.601
X55.32 Y199.788 Z16.708
X54.652 Y199.064 Z16.922
X54.106 Y198.605 Z17.076
X53.395 Y198.225 Z17.237
X52.692 Y197.968 Z17.384
X51.977 Y197.82 Z17.469
X51.718 Y197.785 Z17.484
X50.847 Y197.783 Z17.563
X50.476 Y197.827 Z17.582
X49.968 Y198.193 Z17.863
X49.921 Y198.337 Z17.995
X49.968 Y198.193 Z17.863
X49.802 Y198.214 Z17.998
X49.968 Y198.193 Z17.863
X50.476 Y197.827 Z17.582
X50.192 Y197.458 Z17.999
X50.476 Y197.827 Z17.582
X50.847 Y197.783 Z17.563
X51.718 Y197.785 Z17.484
X51.977 Y197.82 Z17.469
X52.692 Y197.968 Z17.384
X53.395 Y198.225 Z17.237
X54.106 Y198.605 Z17.076
X54.652 Y199.064 Z16.922
X55.32 Y199.788 Z16.708
X55.593 Y200.167 Z16.601
X55.979 Y200.933 Z16.418
X56.214 Y201.593 Z16.265
X56.342 Y202.304 Z16.177
X56.382 Y203.445 Z16.075
X56.273 Y204.228 Z16.057
X56.09 Y204.734 Z16.097
X55.748 Y205.258 Z16.217
X55.359 Y205.643 Z16.379
X54.452 Y206.282 Z16.784
X53.94 Y206.527 Z16.946
X52.926 Y206.87 Z17.225
X52.133 Y207.034 Z17.382
X51.407 Y207.102 Z17.458
X50.316 Y207.122 Z17.501
X49.114 Y207.051 Z17.458
X48.277 Y206.949 Z17.373
X47.942 Y206.835 Z17.264
X47.61 Y206.655 Z17.089
X47.105 Y206.253 Z16.693
X46.398 Y205.561 Z16.009
X46.418 Y204.956 Z16.046
X46.428 Y200.457 Z16.15
X46.442 Y195.414 Z16.136
X46.445 Y191.004 Z16.055
X46.432 Y189.719 Z15.974
X45.371 Y188.79 Z16.885
X44.778 Y188.416 Z17.25
X44.301 Y188.219 Z17.437
X44.245 Y188.201 Z17.454
X43.724 Y188.106 Z17.538
X42.698 Y188.006 Z17.615
X42.445 Y187.992 Z17.623
X42.077 Y188.338 Z17.991
X42.445 Y187.992 Z17.623
X42.073 Y187.611 Z17.996
X42.445 Y187.992 Z17.623
X42.698 Y188.006 Z17.615
X43.724 Y188.106 Z17.538
X44.245 Y188.201 Z17.454
X44.301 Y188.219 Z17.437
X44.778 Y188.416 Z17.25
X45.371 Y188.79 Z16.885
X46.432 Y189.719 Z15.974
X47.578 Y188.741 Z16.958
X48.136 Y188.406 Z17.288
X48.651 Y188.212 Z17.475
X49.196 Y188.128 Z17.549
X50.475 Y188.015 Z17.624
X50.927 Y187.992 Z17.632
X51.283 Y187.622 Z17.988
X50.927 Y187.992 Z17.632
X51.293 Y188.341 Z17.999
G0 Z25
X122.701 Y121.891
Z23
G1 Z17.602 F850
X122.28 Y121.356 Z17.494
X121.851 Y120.556 Z17.356
X121.628 Y119.965 Z17.277
X121.427 Y119.115 Z17.169
X121.365 Y118.374 Z17.117
X121.363 Y118.25 Z17.109
X121.385 Y117.431 Z17.079
X121.515 Y116.373 Z17.06
X121.701 Y115.663 Z17.062
X122.011 Y114.946 Z17.111
X122.54 Y114.009 Z17.215
X122.893 Y113.604 Z17.3
X123.582 Y112.965 Z17.439
X123.941 Y112.723 Z17.516
X124.511 Y112.459 Z17.632
X125.131 Y112.288 Z17.717
X125.86 Y112.187 Z17.781
X126.648 Y112.189 Z17.855
X127.557 Y112.348 Z17.866
X128.113 Y112.554 Z17.854
X128.676 Y112.897 Z17.808
X129.334 Y113.433 Z17.723
X129.745 Y113.925 Z17.604
X130.291 Y114.797 Z17.458
X130.587 Y115.463 Z17.33
X130.745 Y116.013 Z17.242
X130.861 Y116.773 Z17.168
X130.915 Y117.854 Z17.095
X130.876 Y118.601 Z17.071
X130.722 Y119.546 Z17.052
X130.533 Y120.149 Z17.071
X130.209 Y120.838 Z17.156
X129.77 Y121.535 Z17.248
X129.221 Y122.108 Z17.387
X128.628 Y122.576 Z17.49
X128.089 Y122.879 Z17.594
X127.339 Y123.138 Z17.716
X126.64 Y123.27 Z17.786
X125.897 Y123.305 Z17.829
X125.185 Y123.238 Z17.834
X124.575 Y123.088 Z17.82
X123.855 Y122.777 Z17.781
X123.17 Y122.33 Z17.696
X122.701 Y121.891 Z17.602
G0 Z25
X151.434 Y97.109
Z23
G1 Z17.503 F850
X152.126 Y97.738 Z17.612
X152.972 Y98.342 Z17.668
X153.599 Y98.695 Z17.695
X154.557 Y99.068 Z17.726
X155.333 Y99.26 Z17.753
X156.257 Y99.38 Z17.754
X157.38 Y99.434 Z17.725
X158.223 Y99.394 Z17.701
X159.268 Y99.254 Z17.644
X160.193 Y99.02 Z17.549
X161.175 Y98.65 Z17.46
X162.071 Y98.104 Z17.361
X162.771 Y97.57 Z17.283
X163.386 Y96.996 Z17.166
X163.675 Y96.641 Z17.122
X164.321 Y95.67 Z17.037
X164.757 Y94.775 Z16.948
X165.01 Y94.06 Z16.929
X165.208 Y93.153 Z16.941
X165.331 Y92.053 Z16.95
X165.349 Y91.236 Z16.975
X165.264 Y89.939 Z17.043
X165.095 Y88.853 Z17.113
X164.866 Y88.058 Z17.189
X164.476 Y87.155 Z17.305
X163.982 Y86.242 Z17.449
X163.259 Y85.231 Z17.567
X162.561 Y84.546 Z17.681
X161.828 Y83.971 Z17.73
X161.135 Y83.529 Z17.759
X160.308 Y83.155 Z17.771
X159.56 Y82.921 Z17.79
X158.648 Y82.761 Z17.784
X157.467 Y82.674 Z17.742
X156.368 Y82.714 Z17.675
X155.491 Y82.847 Z17.608
X154.642 Y83.083 Z17.513
X153.72 Y83.463 Z17.431
X153.294 Y83.705 Z17.37
X152.524 Y84.215 Z17.267
X151.763 Y84.881 Z17.174
X151.253 Y85.467 Z17.101
X150.743 Y86.237 Z17.045
X150.318 Y87.024 Z16.998
X149.789 Y88.452 Z16.96
X149.576 Y89.34 Z16.964
X149.454 Y90.317 Z16.983
X149.412 Y91.38 Z17.013
X149.482 Y92.69 Z17.079
X149.636 Y93.709 Z17.134
X149.876 Y94.522 Z17.201
X150.237 Y95.322 Z17.29
X150.806 Y96.296 Z17.415
X151.434 Y97.109 Z17.503
G0 Z25
X174.712 Y114.011
Z23
G1 Z17.214 F850
X175.065 Y113.605 Z17.3
X175.755 Y112.965 Z17.439
X176.114 Y112.723 Z17.516
X176.684 Y112.459 Z17.632
X177.304 Y112.288 Z17.718
X178.033 Y112.187 Z17.781
X178.82 Y112.189 Z17.855
X179.73 Y112.348 Z17.866
X180.286 Y112.554 Z17.854
X180.544 Y112.695 Z17.837
X181.148 Y113.124 Z17.775
X181.612 Y113.549 Z17.69
X182.008 Y114.056 Z17.585
X182.479 Y114.826 Z17.452
X182.782 Y115.527 Z17.318
X182.952 Y116.182 Z17.222
X183.063 Y117.115 Z17.146
X183.076 Y118.305 Z17.075
X182.932 Y119.383 Z17.053
X182.765 Y119.989 Z17.061
X182.537 Y120.539 Z17.116
X182.148 Y121.23 Z17.205
X181.816 Y121.68 Z17.287
X181.3 Y122.192 Z17.404
X180.673 Y122.659 Z17.515
X180.176 Y122.914 Z17.607
X179.423 Y123.161 Z17.728
X178.812 Y123.27 Z17.786
X178.07 Y123.305 Z17.829
X177.357 Y123.238 Z17.834
X176.748 Y123.088 Z17.82
X176.028 Y122.777 Z17.781
X175.343 Y122.33 Z17.696
X174.873 Y121.89 Z17.602
X174.453 Y121.356 Z17.494
X174.024 Y120.556 Z17.356
X173.801 Y119.965 Z17.277
X173.6 Y119.115 Z17.169
X173.538 Y118.374 Z17.117
X173.558 Y117.431 Z17.079
X173.688 Y116.373 Z17.06
X173.873 Y115.663 Z17.062
X174.184 Y114.946 Z17.111
X174.712 Y114.011 Z17.214
G0 Z25
X176.06 Y151.843
Z23
G1 Z17.699 F850
X175.672 Y151.857 Z17.675
X174.797 Y151.989 Z17.608
X173.947 Y152.225 Z17.513
X173.024 Y152.606 Z17.43
X172.593 Y152.851 Z17.37
X172.163 Y153.115 Z17.303
X171.831 Y153.356 Z17.267
X171.067 Y154.025 Z17.175
X170.562 Y154.605 Z17.101
X170.052 Y155.373 Z17.045
X169.623 Y156.167 Z16.998
X169.092 Y157.601 Z16.96
X168.875 Y158.514 Z16.964
X168.76 Y159.457 Z16.983
X168.717 Y160.522 Z17.013
X168.786 Y161.834 Z17.078
X168.959 Y162.93 Z17.141
X169.181 Y163.665 Z17.201
X169.536 Y164.455 Z17.289
X170.005 Y165.284 Z17.402
X170.712 Y166.225 Z17.497
X171.31 Y166.78 Z17.599
X172.04 Y167.329 Z17.655
X172.859 Y167.817 Z17.695
X173.565 Y168.11 Z17.713
X174.327 Y168.338 Z17.745
X175.258 Y168.493 Z17.757
X176.518 Y168.576 Z17.735
X177.53 Y168.537 Z17.701
X178.573 Y168.397 Z17.644
X179.498 Y168.163 Z17.549
X180.48 Y167.792 Z17.46
X181.375 Y167.248 Z17.361
X182.077 Y166.711 Z17.282
X182.804 Y166.023 Z17.139
X183.54 Y164.959 Z17.053
X183.944 Y164.185 Z16.967
X184.253 Y163.405 Z16.929
X184.471 Y162.537 Z16.937
X184.607 Y161.527 Z16.949
X184.658 Y160.577 Z16.963
X184.577 Y159.163 Z17.039
X184.44 Y158.197 Z17.098
X184.237 Y157.395 Z17.168
X183.946 Y156.647 Z17.257
X183.496 Y155.753 Z17.389
X183.034 Y155.005 Z17.489
X182.511 Y154.317 Z17.578
X181.865 Y153.689 Z17.681
X181.077 Y153.074 Z17.733
X180.44 Y152.672 Z17.759
X179.613 Y152.298 Z17.771
X178.864 Y152.064 Z17.79
X177.952 Y151.903 Z17.784
X176.772 Y151.817 Z17.742
X176.06 Y151.843 Z17.699
G0 Z25
X160.126 Y63.551
Z23
G1 Z17.727 F850
X159.502 Y63.663 Z17.786
X158.761 Y63.698 Z17.829
X158.048 Y63.631 Z17.835
X157.438 Y63.482 Z17.82
X156.721 Y63.173 Z17.781
X156.021 Y62.714 Z17.694
X155.551 Y62.27 Z17.599
X155.144 Y61.751 Z17.494
X154.715 Y60.95 Z17.356
X154.492 Y60.359 Z17.278
X154.291 Y59.512 Z17.17
X154.228 Y58.764 Z17.116
X154.249 Y57.825 Z17.079
X154.379 Y56.767 Z17.06
X154.564 Y56.057 Z17.062
X154.874 Y55.34 Z17.11
X155.402 Y54.404 Z17.215
X155.755 Y53.999 Z17.3
X156.334 Y53.448 Z17.416
X156.804 Y53.118 Z17.516
X157.374 Y52.853 Z17.631
X157.994 Y52.682 Z17.717
X158.724 Y52.58 Z17.781
X159.511 Y52.582 Z17.855
X160.421 Y52.741 Z17.866
X160.979 Y52.949 Z17.854
X161.54 Y53.29 Z17.809
X162.198 Y53.827 Z17.723
X162.606 Y54.315 Z17.605
X163.154 Y55.191 Z17.458
X163.411 Y55.752 Z17.349
X163.609 Y56.409 Z17.242
X163.724 Y57.166 Z17.168
X163.778 Y58.239 Z17.096
X163.742 Y58.98 Z17.072
X163.617 Y59.803 Z17.053
X163.441 Y60.425 Z17.062
X163.159 Y61.074 Z17.137
X162.648 Y61.912 Z17.244
X162.087 Y62.5 Z17.386
X161.491 Y62.969 Z17.49
X160.952 Y63.273 Z17.594
X160.126 Y63.551 Z17.727
G0 Z25
X98.493 Y85.808
Z23
G1 Z17.346 F850
X98.396 Y85.539 Z17.394
X98.042 Y84.872 Z17.519
X97.488 Y84.078 Z17.656
X97.069 Y83.658 Z17.757
X96.316 Y83.108 Z17.837
X95.797 Y82.855 Z17.863
X95.187 Y82.688 Z17.864
X94.383 Y82.585 Z17.848
X93.393 Y82.644 Z17.745
X92.616 Y82.818 Z17.658
X92.155 Y82.996 Z17.574
X91.645 Y83.292 Z17.463
X91.127 Y83.726 Z17.357
X90.542 Y84.346 Z17.235
X90.31 Y84.709 Z17.176
X89.765 Y85.767 Z17.078
X89.55 Y86.39 Z17.057
X89.403 Y87.14 Z17.066
X89.305 Y88.264 Z17.085
X89.347 Y89.347 Z17.154
X89.477 Y90.039 Z17.231
X89.751 Y90.874 Z17.34
X90.242 Y91.798 Z17.5
X90.646 Y92.305 Z17.603
X91.118 Y92.746 Z17.696
X91.666 Y93.113 Z17.764
X92.224 Y93.387 Z17.806
X92.88 Y93.604 Z17.832
X93.553 Y93.699 Z17.833
X94.21 Y93.714 Z17.804
X94.853 Y93.644 Z17.767
X95.404 Y93.517 Z17.697
X95.862 Y93.361 Z17.621
X96.329 Y93.143 Z17.539
X96.955 Y92.704 Z17.424
X97.472 Y92.219 Z17.318
X97.865 Y91.731 Z17.215
X98.319 Y90.929 Z17.113
X98.588 Y90.248 Z17.054
X98.734 Y89.639 Z17.057
X98.854 Y88.637 Z17.076
X98.856 Y88.108 Z17.106
X98.779 Y86.95 Z17.187
X98.63 Y86.185 Z17.278
X98.493 Y85.808 Z17.346
G0 Z25
X60.311 Y187.615
Z23
G1 Z17.994 F850
X60.682 Y188 Z17.624
X60.312 Y188.343 Z17.993
X60.682 Y188 Z17.624
X60.855 Y188.012 Z17.619
X62.168 Y188.149 Z17.522
X62.591 Y188.26 Z17.42
X62.933 Y188.406 Z17.279
X63.53 Y188.783 Z16.911
X64.657 Y189.75 Z15.953
X65.886 Y188.708 Z16.985
X66.5 Y188.363 Z17.322
X66.977 Y188.195 Z17.481
X67.384 Y188.119 Z17.546
X68.484 Y188.004 Z17.628
X68.755 Y187.989 Z17.633
X69.112 Y187.62 Z17.99
X68.755 Y187.989 Z17.633
X69.121 Y188.34 Z17.999
X68.755 Y187.989 Z17.633
X68.484 Y188.004 Z17.628
X67.384 Y188.119 Z17.546
X66.977 Y188.195 Z17.481
X66.5 Y188.363 Z17.322
X65.886 Y188.708 Z16.985
X64.657 Y189.75 Z15.953
X64.647 Y191.063 Z16.04
X64.608 Y194.934 Z16.147
X64.637 Y200.595 Z16.1
X64.646 Y204.008 Z16.034
X64.597 Y205.509 Z15.951
X63.34 Y206.549 Z16.989
X62.802 Y206.864 Z17.295
X62.473 Y206.995 Z17.418
X62.073 Y207.09 Z17.503
X60.934 Y207.228 Z17.607
X60.688 Y207.247 Z17.617
X60.317 Y207.631 Z17.988
X60.688 Y207.247 Z17.617
X60.317 Y206.909 Z17.989
X60.688 Y207.247 Z17.617
X60.934 Y207.228 Z17.607
X62.073 Y207.09 Z17.503
X62.473 Y206.995 Z17.418
X62.802 Y206.864 Z17.295
X63.34 Y206.549 Z16.989
X64.597 Y205.509 Z15.951
X65.303 Y206.21 Z16.641
X65.814 Y206.636 Z17.06
X66.328 Y206.901 Z17.318
X67.063 Y207.016 Z17.423
X68.731 Y207.071 Z17.455
X70.128 Y207.023 Z17.387
X70.97 Y206.914 Z17.267
X71.737 Y206.737 Z17.087
X72.779 Y206.397 Z16.794
X73.311 Y206.106 Z16.586
X74.054 Y205.599 Z16.278
X74.331 Y205.325 Z16.176
X74.662 Y204.822 Z16.082
X74.845 Y204.35 Z16.051
X74.969 Y203.593 Z16.072
X74.946 Y202.644 Z16.174
X74.835 Y202.169 Z16.267
X74.671 Y201.67 Z16.386
X74.209 Y200.808 Z16.694
X73.791 Y200.227 Z16.905
X73.232 Y199.664 Z17.124
X72.413 Y199.028 Z17.368
X72.042 Y198.743 Z17.437
X71.77 Y198.456 Z17.369
X71.53 Y198.059 Z17.182
X71.317 Y197.507 Z16.821
X71.074 Y196.655 Z16.158
X70.021 Y197.033 Z16.83
X68.854 Y197.559 Z17.516
X68.31 Y197.874 Z17.797
X68.091 Y197.86 Z17.987
X68.31 Y197.874 Z17.797
X68.177 Y198.092 Z17.998
X68.31 Y197.874 Z17.797
X68.854 Y197.559 Z17.516
X70.021 Y197.033 Z16.83
X71.074 Y196.655 Z16.158
X72.559 Y194.407 Z16.153
X75.77 Y189.531 Z16.107
X74.757 Y187.617 Z17.988
X75.77 Y189.531 Z16.107
X77.751 Y188.549 Z17.127
X78.646 Y188.208 Z17.476
X79.031 Y188.111 Z17.575
X79.683 Y188.03 Z17.663
X80.009 Y187.71 Z17.989
X79.683 Y188.03 Z17.663
X80.02 Y188.346 Z18
G0 Z25
X81.974 Y188.335
Z23
G1 Z17.996 F850
X82.339 Y187.981 Z17.632
X81.979 Y187.613 Z17.992
X82.339 Y187.981 Z17.632
X82.956 Y188.013 Z17.613
X83.93 Y188.129 Z17.517
X84.54 Y188.263 Z17.396
X85.136 Y188.58 Z17.091
X85.758 Y189.012 Z16.673
X86.527 Y189.682 Z16.018
X87.655 Y188.752 Z16.943
X88.147 Y188.445 Z17.242
X88.638 Y188.235 Z17.44
X89.122 Y188.118 Z17.541
X90.321 Y188.011 Z17.614
X90.69 Y187.991 Z17.625
X91.058 Y188.338 Z17.992
X90.69 Y187.991 Z17.625
X91.058 Y187.614 Z17.992
X90.69 Y187.991 Z17.625
X90.321 Y188.011 Z17.614
X89.122 Y188.118 Z17.541
X88.638 Y188.235 Z17.44
X88.147 Y188.445 Z17.242
X87.655 Y188.752 Z16.943
X86.527 Y189.682 Z16.018
X86.501 Y190.812 Z16.09
X86.522 Y194.085 Z16.149
X86.511 Y199.744 Z16.155
X86.517 Y204.347 Z16.097
X86.515 Y205.588 Z16.038
X87.202 Y206.188 Z16.635
X87.772 Y206.597 Z17.039
X88.423 Y206.95 Z17.384
X88.837 Y207.073 Z17.501
X89.663 Y207.186 Z17.593
X90.7 Y207.263 Z17.634
X91.051 Y206.926 Z17.985
X90.7 Y207.263 Z17.634
X91.056 Y207.633 Z17.991
X90.7 Y207.263 Z17.634
X89.663 Y207.186 Z17.593
X88.837 Y207.073 Z17.501
X88.423 Y206.95 Z17.384
X87.772 Y206.597 Z17.039
X87.202 Y206.188 Z16.635
X86.515 Y205.588 Z16.038
X85.548 Y206.446 Z16.888
X84.932 Y206.827 Z17.261
X84.46 Y207.018 Z17.445
X84.11 Y207.103 Z17.522
X82.811 Y207.235 Z17.619
X82.341 Y207.261 Z17.63
X81.985 Y206.923 Z17.986
X82.341 Y207.261 Z17.63
X81.984 Y207.63 Z17.987
G0 Z25
X85.483 Y95.588
Z23
G1 Z17.986 F850
X85.641 Y95.753 Z17.821
X85.808 Y95.577 Z17.997
X85.641 Y95.753 Z17.821
X85.657 Y96.784 Z17.759
X85.698 Y97.614 Z17.674
X85.651 Y97.968 Z17.55
X85.528 Y98.321 Z17.342
X86.364 Y98.82 Z17.999
X85.528 Y98.321 Z17.342
X84.165 Y98.837 Z17.543
X83.05 Y99.155 Z17.636
X82.039 Y99.338 Z17.69
X81.032 Y99.431 Z17.718
X80.09 Y99.43 Z17.729
X78.576 Y99.291 Z17.711
X77.63 Y99.093 Z17.693
X76.993 Y98.882 Z17.667
X76.106 Y98.486 Z17.592
X75.224 Y97.977 Z17.501
X74.373 Y97.346 Z17.422
X73.731 Y96.673 Z17.314
X73.237 Y96.032 Z17.26
X72.664 Y95.11 Z17.179
X72.317 Y94.262 Z17.119
X72.048 Y93.333 Z17.034
X71.904 Y92.417 Z16.99
X71.834 Y91.316 Z16.964
X71.869 Y90.539 Z16.951
X71.99 Y89.508 Z16.944
X72.199 Y88.662 Z16.95
X72.552 Y87.754 Z16.973
X72.996 Y86.857 Z17.019
X73.515 Y86.107 Z17.059
X74.14 Y85.364 Z17.123
X74.725 Y84.836 Z17.196
X75.543 Y84.246 Z17.266
X76.029 Y83.963 Z17.317
X77.012 Y83.489 Z17.406
X77.983 Y83.135 Z17.48
X78.877 Y82.923 Z17.551
X79.968 Y82.794 Z17.598
X81.115 Y82.759 Z17.629
X82.38 Y82.861 Z17.661
X83.54 Y83.074 Z17.702
X84.723 Y83.406 Z17.742
X85.645 Y83.784 Z17.751
X85.919 Y83.92 Z17.742
X86.119 Y83.732 Z17.997
X85.919 Y83.92 Z17.742
X86.476 Y84.58 Z17.999
G0 Z25
X86.508 Y125.176
Z23
G1 Z17.986 F850
X86.666 Y125.341 Z17.821
X86.833 Y125.165 Z17.997
X86.666 Y125.341 Z17.821
X86.682 Y126.371 Z17.759
X86.723 Y127.201 Z17.674
X86.676 Y127.555 Z17.55
X86.553 Y127.908 Z17.342
X87.389 Y128.407 Z17.999
X86.553 Y127.908 Z17.342
X85.15 Y128.437 Z17.547
X84.033 Y128.751 Z17.639
X82.835 Y128.954 Z17.701
X81.733 Y129.031 Z17.721
X80.865 Y129.002 Z17.725
X79.519 Y128.866 Z17.709
X78.588 Y128.661 Z17.692
X77.806 Y128.384 Z17.654
X76.899 Y127.954 Z17.565
X76.242 Y127.559 Z17.5
X75.398 Y126.933 Z17.422
X74.757 Y126.261 Z17.314
X74.174 Y125.491 Z17.25
X73.689 Y124.696 Z17.179
X73.342 Y123.849 Z17.119
X73.073 Y122.92 Z17.034
X72.929 Y122.004 Z16.99
X72.859 Y120.902 Z16.964
X72.894 Y120.127 Z16.951
X73.015 Y119.095 Z16.944
X73.224 Y118.25 Z16.949
X73.577 Y117.342 Z16.973
X74.022 Y116.443 Z17.02
X74.539 Y115.694 Z17.059
X75.174 Y114.942 Z17.124
X75.819 Y114.368 Z17.203
X76.725 Y113.731 Z17.277
X77.841 Y113.159 Z17.394
X78.972 Y112.732 Z17.478
X79.819 Y112.525 Z17.545
X80.682 Y112.408 Z17.588
X81.941 Y112.339 Z17.628
X83.289 Y112.433 Z17.656
X84.442 Y112.632 Z17.696
X85.642 Y112.956 Z17.74
X86.643 Y113.358 Z17.752
X86.944 Y113.507 Z17.742
X87.144 Y113.319 Z17.997
X86.944 Y113.507 Z17.742
X87.501 Y114.167 Z17.999
G0 Z25
X86.564 Y151.77
Z23
G1 Z17.997 F850
X86.692 Y151.904 Z17.869
X86.573 Y152.019 Z17.987
X86.692 Y151.904 Z17.869
X87.133 Y151.924 Z17.871
X87.928 Y152.029 Z17.793
X88.437 Y152.216 Z17.616
X89.045 Y152.54 Z17.298
X89.493 Y152.264 Z17.574
X89.868 Y152.118 Z17.718
X90.51 Y152.011 Z17.814
X91.642 Y151.922 Z17.856
X91.784 Y151.772 Z17.998
X91.642 Y151.922 Z17.856
X91.782 Y152.046 Z17.996
X91.642 Y151.922 Z17.856
X90.51 Y152.011 Z17.814
X89.868 Y152.118 Z17.718
X89.493 Y152.264 Z17.574
X89.045 Y152.54 Z17.298
X89.122 Y153.014 Z17.435
X89.356 Y153.701 Z17.524
X89.778 Y154.762 Z17.598
X90.652 Y156.758 Z17.628
X91.161 Y157.852 Z17.604
X91.359 Y158.068 Z17.51
X91.809 Y157.889 Z17.724
X92.037 Y157.863 Z17.75
X98.415 Y157.89 Z17.723
X98.644 Y157.968 Z17.645
X98.969 Y158.117 Z17.429
X99.39 Y158.309 Z17.045
X99.683 Y157.81 Z17.118
X101.082 Y154.418 Z17.063
X101.096 Y154.384
X101.439 Y153.503 Z17.035
X101.642 Y152.882 Z16.956
X102.093 Y152.608 Z17.229
X102.677 Y152.285 Z17.545
X103.165 Y152.093 Z17.727
X103.622 Y151.989 Z17.816
X104.407 Y151.907 Z17.865
X104.539 Y152.033 Z17.997
X104.407 Y151.907 Z17.865
X104.535 Y151.773 Z17.993
X104.407 Y151.907 Z17.865
X103.622 Y151.989 Z17.816
X103.165 Y152.093 Z17.727
X102.677 Y152.285 Z17.545
X102.093 Y152.608 Z17.229
X101.642 Y152.882 Z16.956
X101.383 Y152.635 Z17.2
X100.909 Y152.28 Z17.549
X100.571 Y152.116 Z17.709
X100.249 Y152.026 Z17.793
X99.663 Y151.959 Z17.846
X98.577 Y151.907 Z17.861
X98.449 Y151.774 Z17.99
X98.577 Y151.907 Z17.861
X98.438 Y152.037 Z18
X98.577 Y151.907 Z17.861
X99.663 Y151.959 Z17.846
X100.249 Y152.026 Z17.793
X100.571 Y152.116 Z17.709
X100.909 Y152.28 Z17.549
X101.383 Y152.635 Z17.2
X101.642 Y152.882 Z16.956
X101.439 Y153.503 Z17.035
X101.096 Y154.384 Z17.063
X101.082 Y154.418
X99.683 Y157.81 Z17.118
X99.39 Y158.309 Z17.045
X99.242 Y158.806 Z17.106
X96.135 Y166.125 Z17.142
X95.954 Y166.467 Z17.111
X95.718 Y166.774 Z17.015
X95.694 Y168.392 Z17.633
X95.932 Y168.753 Z17.994
X95.694 Y168.392 Z17.633
X95.443 Y168.757 Z17.998
X95.694 Y168.392 Z17.633
X95.718 Y166.774 Z17.015
X95.34 Y166.616 Z17.304
X94.937 Y166.35 Z17.574
X94.668 Y166.029 Z17.694
X94.426 Y165.482 Z17.699
X91.386 Y158.348 Z17.599
X91.359 Y158.068 Z17.51
G0 Z25
X89.132 Y129.044
Z23
G1 Z17.998 F850
X89.266 Y128.923 Z17.864
X89.14 Y128.797 Z17.99
X89.266 Y128.923 Z17.864
X89.804 Y128.955 Z17.832
X90.306 Y128.98 Z17.788
X90.801 Y128.947 Z17.67
X91.306 Y128.845 Z17.462
X91.886 Y128.59 Z17.061
X92.891 Y129.93 Z17.996
X91.886 Y128.59 Z17.061
X91.904 Y128.46 Z17.086
X91.927 Y126.879 Z17.174
X91.914 Y117.436 Z17.219
X91.915 Y116.99 Z17.224
X91.914 Y115.044 Z17.212
Y113.202 Z17.077
X92.41 Y112.791 Z17.492
X92.794 Y112.599 Z17.68
X93.272 Y112.448 Z17.823
X93.724 Y112.394 Z17.866
X94.586 Y112.331 Z17.888
X94.694 Y112.428 Z17.996
X94.586 Y112.331 Z17.888
X94.685 Y112.226 Z17.987
X94.586 Y112.331 Z17.888
X93.724 Y112.394 Z17.866
X93.272 Y112.448 Z17.823
X92.794 Y112.599 Z17.68
X92.41 Y112.791 Z17.492
X91.914 Y113.202 Z17.077
X91.689 Y112.997 Z17.279
X91.366 Y112.75 Z17.522
X90.985 Y112.566 Z17.699
X90.581 Y112.433 Z17.822
X89.242 Y112.323 Z17.889
X89.142 Y112.219 Z17.989
X89.242 Y112.323 Z17.889
X89.132 Y112.424 Z17.998
G0 Z25
X92.816 Y207.635
Z23
G1 Z17.992 F850
X93.187 Y207.252 Z17.621
X92.816 Y206.911 Z17.991
X93.187 Y207.252 Z17.621
X93.597 Y207.218 Z17.601
X94.601 Y207.077 Z17.488
X95.084 Y206.94 Z17.362
X95.772 Y206.616 Z17.05
X97.535 Y205.514 Z15.964
X98.045 Y206.054 Z16.502
X98.68 Y206.572 Z17.014
X99.178 Y206.862 Z17.298
X99.666 Y207.041 Z17.469
X100.037 Y207.116 Z17.535
X101.233 Y207.239 Z17.621
X101.523 Y207.257 Z17.628
X101.891 Y206.911 Z17.996
X101.523 Y207.257 Z17.628
X101.894 Y207.641 Z17.999
X101.523 Y207.257 Z17.628
X101.233 Y207.239 Z17.621
X100.037 Y207.116 Z17.535
X99.666 Y207.041 Z17.469
X99.178 Y206.862 Z17.298
X98.68 Y206.572 Z17.014
X98.045 Y206.054 Z16.502
X97.535 Y205.514 Z15.964
X97.879 Y204.547 Z16.047
X98.499 Y202.961 Z16.117
X99.61 Y200.298 Z16.131
X103.234 Y191.54 Z16.158
X103.493 Y191.023 Z16.118
X103.824 Y190.537 Z15.999
X103.867 Y188.603 Z16.704
X103.007 Y187.313 Z17.994
X103.867 Y188.603 Z16.704
X104.792 Y187.309 Z17.998
X103.867 Y188.603 Z16.704
X103.824 Y190.537 Z15.999
X104.042 Y190.603 Z16.178
X104.701 Y190.86 Z16.694
X105.212 Y191.152 Z17.056
X105.605 Y191.49 Z17.288
X105.882 Y191.875 Z17.393
X109.311 Y200.175 Z17.35
X110.233 Y202.409 Z17.339
X110.795 Y203.906 Z17.282
X111.34 Y205.449 Z17.135
X111.517 Y205.971 Z17.043
X111.607 Y206.436 Z16.884
X112.612 Y206.975 Z17.405
X113.099 Y207.094 Z17.51
X113.949 Y207.222 Z17.608
X114.231 Y207.247 Z17.622
X114.602 Y206.907 Z17.993
X114.231 Y207.247 Z17.622
X114.603 Y207.635 Z17.994
X114.231 Y207.247 Z17.622
X113.949 Y207.222 Z17.608
X113.099 Y207.094 Z17.51
X112.612 Y206.975 Z17.405
X111.607 Y206.436 Z16.884
X111.106 Y206.774 Z17.219
X110.618 Y206.993 Z17.429
X110.145 Y207.116 Z17.542
X108.801 Y207.243 Z17.628
X108.47 Y207.261 Z17.633
X108.114 Y207.631 Z17.989
X108.47 Y207.261 Z17.633
X108.104 Y206.911 Z17.999
G0 Z25
X96.434 Y112.428
Z23
G1 Z17.997 F850
X96.543 Y112.329 Z17.887
X96.444 Y112.225 Z17.987
X96.543 Y112.329 Z17.887
X97.012 Y112.365 Z17.874
X97.715 Y112.419 Z17.845
X98.229 Y112.54 Z17.735
X98.596 Y112.707 Z17.572
X99.264 Y113.21 Z17.072
X99.798 Y112.826 Z17.45
X100.177 Y112.621 Z17.65
X100.622 Y112.488 Z17.774
X101.17 Y112.4 Z17.846
X101.964 Y112.333 Z17.881
X102.078 Y112.214 Z17.995
X101.964 Y112.333 Z17.881
X102.078 Y112.432 Z17.995
X101.964 Y112.333 Z17.881
X101.17 Y112.4 Z17.846
X100.622 Y112.488 Z17.774
X100.177 Y112.621 Z17.65
X99.798 Y112.826 Z17.45
X99.264 Y113.21 Z17.072
X99.262 Y113.833 Z17.139
X99.244 Y116.121 Z17.211
X99.269 Y120.093 Z17.186
X99.231 Y121.903 Z17.106
X99.19 Y122.181 Z17.055
X100.151 Y123.454 Z17.938
X100.157 Y123.509 Z17.988
X100.151 Y123.454 Z17.938
X100.202 Y123.479 Z17.987
X100.151 Y123.454 Z17.938
X99.19 Y122.181 Z17.055
X98.583 Y122.41 Z17.446
X98.203 Y122.5 Z17.616
X97.549 Y122.533 Z17.781
X96.791 Y122.477 Z17.853
X96.56 Y122.46 Z17.87
X96.439 Y122.564 Z17.991
X96.56 Y122.46 Z17.87
X96.44 Y122.34 Z17.99
G0 Z25
X99.047 Y127.433
Z23
G1 Z17.282 F850
X99.202 Y127.809 Z16.886
X99.203 Y127.806 Z16.888
X99.204 Y127.803 Z16.892
X99.389 Y127.348 Z17.372
X99.204 Y127.803 Z16.892
X99.203 Y127.806 Z16.888
X99.202 Y127.809 Z16.886
Y127.811 Z16.884
X99.588 Y127.65 Z17.292
X99.202 Y127.811 Z16.884
Y127.812
X99.2 Y127.811 Z16.885
X99.202 Y127.812 Z16.884
Y127.817 Z16.883
Y127.828 Z16.885
X99.568 Y127.978 Z17.272
X99.202 Y127.828 Z16.885
X99.201 Y127.841 Z16.892
X99.202 Y127.847 Z16.897
Y127.853 Z16.901
X99.056 Y128.202 Z17.27
X99.202 Y127.853 Z16.901
X99.205 Y127.861 Z16.909
X99.357 Y128.222 Z17.291
G0 Z25
X101.755 Y99.457
Z23
G1 Z17.998 F850
X101.889 Y99.336 Z17.864
X101.763 Y99.21 Z17.99
X101.889 Y99.336 Z17.864
X102.247 Y99.357 Z17.844
X102.921 Y99.393 Z17.789
X103.414 Y99.361 Z17.673
X103.928 Y99.258 Z17.462
X104.508 Y99.003 Z17.061
X105.513 Y100.343 Z17.996
X104.508 Y99.003 Z17.061
X104.559 Y98.446 Z17.138
X104.551 Y97.565 Z17.166
X104.537 Y94.08 Z17.218
Y86.329 Z17.229
X104.536 Y84.661 Z17.17
X104.537 Y83.615 Z17.077
X105.034 Y83.203 Z17.493
X105.449 Y82.999 Z17.693
X105.883 Y82.864 Z17.821
X106.344 Y82.807 Z17.866
X107.208 Y82.743 Z17.888
X107.307 Y82.639 Z17.987
X107.208 Y82.743 Z17.888
X107.316 Y82.841 Z17.996
X107.208 Y82.743 Z17.888
X106.344 Y82.807 Z17.866
X105.883 Y82.864 Z17.821
X105.449 Y82.999 Z17.693
X105.034 Y83.203 Z17.493
X104.537 Y83.615 Z17.077
X103.987 Y83.162 Z17.522
X103.465 Y82.923 Z17.752
X103.054 Y82.818 Z17.847
X102.517 Y82.774 Z17.874
X101.864 Y82.736 Z17.889
X101.764 Y82.632 Z17.989
X101.864 Y82.736 Z17.889
X101.755 Y82.837 Z17.998
G0 Z25
X103.372 Y112.212
Z23
G1 Z17.992 F850
X103.464 Y112.306 Z17.9
X103.374 Y112.396 Z17.99
X103.464 Y112.306 Z17.9
X104.146 Y112.311 Z17.909
X104.649 Y112.347 Z17.885
X105.144 Y112.473 Z17.77
X105.693 Y112.717 Z17.538
X106.307 Y113.225 Z17.043
X106.989 Y112.7 Z17.583
X107.489 Y112.496 Z17.779
X107.946 Y112.376 Z17.891
X108.427 Y112.33 Z17.924
X109.505 Y112.309 Z17.903
X109.592 Y112.396 Z17.99
X109.505 Y112.309 Z17.903
X109.591 Y112.22 Z17.989
X109.505 Y112.309 Z17.903
X108.427 Y112.33 Z17.924
X107.946 Y112.376 Z17.891
X107.489 Y112.496 Z17.779
X106.989 Y112.7 Z17.583
X106.307 Y113.225 Z17.043
X106.315 Y114.583 Z17.196
X106.318 Y116.073 Z17.231
Y121.895 Z17.184
Y122.214 Z17.064
X107.12 Z17.62
X107.603 Y122.219 Z17.667
X109.678 Y122.255 Z17.643
X109.953 Y122.26 Z17.631
X110.383 Y122.65 Z17.992
X109.953 Y122.26 Z17.631
X110.259 Y121.889 Z17.994
X109.953 Y122.26 Z17.631
X109.678 Y122.255 Z17.643
X107.603 Y122.219 Z17.667
X107.12 Y122.214 Z17.62
X106.318 Z17.064
X106.284 Y122.275 Z17.062
X105.624 Z17.521
X105.25 Y122.226 Z17.651
X103.831 Y121.839 Z17.948
X103.782 Y121.869 Z17.997
X103.831 Y121.839 Z17.948
X103.793 Y121.799 Z17.986
X103.831 Y121.839 Z17.948
X105.25 Y122.226 Z17.651
X105.624 Y122.275 Z17.521
X106.284 Z17.062
X106.315 Y122.8 Z17.215
X106.318 Y122.922 Z17.219
X106.353 Y125.417 Z17.258
X106.456 Y126.039 Z17.332
X106.769 Y126.902 Z17.521
X107.222 Y127.748 Z17.737
X107.513 Y128.171 Z17.82
X108.053 Y128.683 Z17.805
X108.455 Y128.939 Z17.732
X109.05 Y129.191 Z17.572
X109.315 Y129.281 Z17.491
X109.556 Y129.319 Z17.43
X110.127 Y129.312 Z17.341
X110.242 Y129.294 Z17.33
X110.922 Y129.855 Z17.988
X110.242 Y129.294 Z17.33
X110.653 Y128.675 Z17.737
X110.924 Y128.191 Z17.988
X110.932 Y128.186 Z17.996
G0 Z25
X109.03 Y99.457
Z23
G1 Z17.998 F850
X109.164 Y99.336 Z17.864
X109.038 Y99.21 Z17.99
X109.164 Y99.336 Z17.864
X109.523 Y99.357 Z17.844
X110.196 Y99.393 Z17.789
X110.69 Y99.361 Z17.673
X111.203 Y99.258 Z17.462
X111.784 Y99.003 Z17.061
X112.789 Y100.343 Z17.996
X111.784 Y99.003 Z17.061
X111.834 Y98.482 Z17.135
X111.827 Y97.561 Z17.166
X111.812 Y94.019 Z17.219
X111.811 Y84.655 Z17.17
X111.812 Y83.615 Z17.077
X112.309 Y83.203 Z17.493
X112.697 Y83.01 Z17.682
X113.171 Y82.861 Z17.824
X113.62 Y82.807 Z17.866
X114.483 Y82.744 Z17.888
X114.591 Y82.841 Z17.996
X114.483 Y82.744 Z17.888
X114.582 Y82.639 Z17.987
X114.483 Y82.744 Z17.888
X113.62 Y82.807 Z17.866
X113.171 Y82.861 Z17.824
X112.697 Y83.01 Z17.682
X112.309 Y83.203 Z17.493
X111.812 Y83.615 Z17.077
X111.262 Y83.162 Z17.523
X110.741 Y82.923 Z17.752
X110.329 Y82.818 Z17.847
X109.793 Y82.774 Z17.874
X109.139 Y82.736 Z17.889
X109.039 Y82.632 Z17.989
X109.139 Y82.736 Z17.889
X109.03 Y82.837 Z17.998
G0 Z25
X109.809 Y52.851
Z23
G1 Z17.99 F850
X109.927 Y52.732 Z17.872
X109.813 Y52.614 Z17.986
X109.927 Y52.732 Z17.872
X110.809 Y52.744 Z17.886
X111.376 Y52.802 Z17.842
X111.916 Y52.943 Z17.713
X112.436 Y53.147 Z17.517
X113.191 Y53.744 Z16.928
X113.808 Y53.252 Z17.424
X114.302 Y52.999 Z17.672
X114.759 Y52.862 Z17.803
X115.439 Y52.762 Z17.885
X116.327 Y52.735 Z17.875
X116.44 Y52.616 Z17.988
X116.327 Y52.735 Z17.875
X116.442 Y52.851 Z17.99
X116.327 Y52.735 Z17.875
X115.439 Y52.762 Z17.885
X114.759 Y52.862 Z17.803
X114.302 Y52.999 Z17.672
X113.808 Y53.252 Z17.424
X113.191 Y53.744 Z16.928
X113.225 Y55.14 Z17.055
X113.211 Y56.772 Z17.104
X113.2 Y60.972 Z17.103
X113.27 Y61.539 Z17.032
X113.2 Y62.107 Z17.103
X113.205 Y65.712 Z17.111
X113.199 Y67.125 Z17.074
X113.16 Y68.332 Z16.955
X112.508 Y68.857 Z17.474
X112.093 Y69.047 Z17.659
X111.472 Y69.234 Z17.836
X110.99 Y69.297 Z17.886
X110.003 Y69.319 Z17.874
X109.926 Y69.32 Z17.873
X109.812 Y69.438 Z17.987
X109.926 Y69.32 Z17.873
X109.809 Y69.203 Z17.99
X109.926 Y69.32 Z17.873
X110.003 Y69.319 Z17.874
X110.99 Y69.297 Z17.886
X111.472 Y69.234 Z17.836
X112.093 Y69.047 Z17.659
X112.508 Y68.857 Z17.474
X113.16 Y68.332 Z16.955
X113.822 Y68.833 Z17.453
X114.299 Y69.077 Z17.693
X114.691 Y69.198 Z17.808
X115.486 Y69.297 Z17.885
X116.326 Y69.319 Z17.874
X116.44 Y69.438 Z17.988
X116.326 Y69.319 Z17.874
X116.442 Y69.203 Z17.99
X116.326 Y69.319 Z17.874
X115.486 Y69.297 Z17.885
X114.691 Y69.198 Z17.808
X114.299 Y69.077 Z17.693
X113.822 Y68.833 Z17.453
X113.16 Y68.332 Z16.955
X113.199 Y67.125 Z17.074
X113.205 Y65.712 Z17.111
X113.2 Y62.107 Z17.103
X113.27 Y61.539 Z17.032
X114.108 Z17.634
X114.57 Z17.689
X118.722 Y61.54 Z17.765
X123.17 Z17.729
X124.745 Y61.539 Z17.633
X124.982 Z17.507
X125.58 Z17.032
X125.65 Y62.107 Z17.103
X125.625 Y67.061 Z17.057
X125.605 Y68.342 Z16.965
X126.2 Y68.793 Z17.412
X126.714 Y69.071 Z17.685
X126.99 Y69.17 Z17.78
X127.745 Y69.29 Z17.883
X128.375 Y69.31
X128.923 Y69.32 Z17.873
X129.04 Y69.203 Z17.99
X128.923 Y69.32 Z17.873
X129.044 Y69.445 Z17.994
X128.923 Y69.32 Z17.873
X128.375 Y69.31 Z17.883
X127.745 Y69.29
X126.99 Y69.17 Z17.78
X126.714 Y69.071 Z17.685
X126.2 Y68.793 Z17.412
X125.605 Y68.342 Z16.965
X125.107 Y68.727 Z17.347
X124.605 Y69.011 Z17.627
X124.221 Y69.161 Z17.771
X123.723 Y69.259 Z17.859
X122.377 Y69.32 Z17.873
X122.263 Y69.438 Z17.987
X122.377 Y69.32 Z17.873
X122.26 Y69.203 Z17.99
X122.377 Y69.32 Z17.873
X123.723 Y69.259 Z17.859
X124.221 Y69.161 Z17.771
X124.605 Y69.011 Z17.627
X125.107 Y68.727 Z17.347
X125.605 Y68.342 Z16.965
X125.625 Y67.061 Z17.057
X125.65 Y62.107 Z17.103
X125.58 Y61.539 Z17.032
X125.65 Y60.972 Z17.103
Y57.793
X125.637 Y56.393 Z17.105
X125.632 Y54.962 Z17.049
X125.65 Y53.746 Z16.93
X125.018 Y53.267 Z17.405
X124.464 Y52.97 Z17.697
X124.12 Y52.865 Z17.796
X123.509 Y52.767 Z17.88
X122.782 Y52.741 Z17.881
X122.377 Y52.734 Z17.873
X122.263 Y52.615 Z17.987
X122.377 Y52.734 Z17.873
X122.26 Y52.851 Z17.99
X122.377 Y52.734 Z17.873
X122.782 Y52.741 Z17.881
X123.509 Y52.767 Z17.88
X124.12 Y52.865 Z17.796
X124.464 Y52.97 Z17.697
X125.018 Y53.267 Z17.405
X125.65 Y53.746 Z16.93
X126.407 Y53.146 Z17.527
X126.947 Y52.93 Z17.738
X127.442 Y52.801 Z17.858
X127.958 Y52.752 Z17.893
X128.924 Y52.734 Z17.874
X129.038 Y52.615 Z17.988
X128.924 Y52.734 Z17.874
X129.04 Y52.851 Z17.99
G0 Z25
X111.946 Y121.701
Z23
G1 Z17.999 F850
X111.994 Y121.669 Z17.951
X111.951 Y121.623 Z17.994
X111.994 Y121.669 Z17.951
X113.548 Y122.021 Z17.661
X113.936 Y122.074 Z17.543
X114.636 Z17.062
X114.668 Y122.129 Z17.064
Y122.447 Z17.184
Y122.714 Z17.219
X114.69 Y125.769 Z17.127
X115.554 Y127.059 Z17.909
X115.562 Y127.155 Z17.989
X115.554 Y127.059 Z17.909
X115.633 Y127.095 Z17.986
X115.554 Y127.059 Z17.909
X114.69 Y125.769 Z17.127
X113.81 Y126.327 Z17.986
X114.69 Y125.769 Z17.127
X114.668 Y122.714 Z17.219
Y122.447 Z17.184
Y122.129 Z17.064
X115.251 Z17.513
X115.483 Z17.626
X116.003 Z17.664
X118.428 Y122.16 Z17.645
X118.745 Y121.8 Z17.998
X118.428 Y122.16 Z17.645
X118.816 Y122.526 Z17.991
X118.428 Y122.16 Z17.645
X116.003 Y122.129 Z17.664
X115.483 Z17.626
X115.251 Z17.513
X114.668 Z17.064
X114.636 Y122.074 Z17.062
X114.652 Y121.785 Z17.175
X114.668 Y116.794 Z17.219
X114.659 Y116.039 Z17.211
X114.696 Y114.432 Z17.142
X114.75 Y113.944 Z17.106
X114.921 Y113.418 Z17.073
X115.157 Y113.121 Z17.115
X115.271 Y113.022 Z17.142
X115.801 Y112.711 Z17.278
X116.431 Y112.541 Z17.418
X116.893 Y112.518 Z17.499
X117.391 Y112.57 Z17.572
X117.63 Y112.21 Z17.988
X117.391 Y112.57 Z17.572
X117.902 Y112.86 Z17.773
X118.44 Y113.265 Z17.92
X118.571 Y113.381 Z17.944
X118.578 Y113.442 Z17.988
X118.571 Y113.381 Z17.944
X118.633 Z17.991
G0 Z25
X114.659 Y159.637
Z23
G1 Z17.99 F850
X114.791 Y159.769 Z17.858
X114.918 Y159.637 Z17.99
X114.791 Y159.769 Z17.858
X114.8 Y160.347 Z17.84
X114.773 Y160.882 Z17.773
X114.677 Y161.484 Z17.611
X114.475 Y162.059 Z17.33
X115.217 Y162.459 Z17.997
X114.475 Y162.059 Z17.33
X113.952 Y162.303 Z17.406
X113.34 Y162.484 Z17.475
X112.431 Y162.633 Z17.575
X111.641 Y162.646 Z17.644
X110.98 Y162.565 Z17.709
X110.174 Y162.354 Z17.8
X109.563 Y162.092 Z17.828
X109.005 Y161.762 Z17.798
X108.389 Y161.302 Z17.727
X107.883 Y160.743 Z17.586
X107.519 Y160.217 Z17.484
X107.244 Y159.601 Z17.399
X107.074 Y158.989 Z17.32
X106.935 Y158.119 Z17.229
X106.916 Y157.405 Z17.18
X106.98 Y156.372 Z17.133
X107.134 Y155.544 Z17.101
X107.386 Y154.844 Z17.088
X107.742 Y154.157 Z17.083
X108.19 Y153.52 Z17.125
X108.565 Y153.133 Z17.193
X109.191 Y152.676 Z17.282
X109.939 Y152.277 Z17.404
X110.528 Y152.083 Z17.488
X111.258 Y151.959 Z17.561
X112.119 Y151.912 Z17.628
X112.787 Y151.963 Z17.677
X113.573 Y152.12 Z17.724
X114.389 Y152.392 Z17.774
X114.678 Y152.515 Z17.791
X114.816 Y152.363 Z17.99
X114.678 Y152.515 Z17.791
X115.119 Y152.892 Z17.959
X115.125 Y152.933 Z17.994
X115.119 Y152.892 Z17.959
X115.167 Y152.898 Z17.996
G0 Z25
X116.85 Y188.445
Z23
G1 Z17.999 F850
X117.262 Y188.055 Z17.587
X116.852 Y187.619 Z17.997
X117.262 Y188.055 Z17.587
X117.371 Y188.063 Z17.585
X118.165 Y188.158 Z17.525
X118.742 Y188.269 Z17.427
X119.062 Y188.397 Z17.303
X119.833 Y188.79 Z16.913
X120.286 Y188.51 Z17.191
X120.769 Y188.311 Z17.387
X121.188 Y188.21 Z17.482
X122.564 Y188.071 Z17.576
X122.733 Y188.059 Z17.579
X123.153 Y188.45 Z17.999
X122.733 Y188.059 Z17.579
X123.143 Y187.625 Z17.989
X122.733 Y188.059 Z17.579
X122.564 Y188.071 Z17.576
X121.188 Y188.21 Z17.482
X120.769 Y188.311 Z17.387
X120.286 Y188.51 Z17.191
X119.833 Y188.79 Z16.913
X119.922 Y189.381 Z17.109
X119.966 Y189.569 Z17.148
X119.978 Y189.615 Z17.157
X120.046 Y189.864 Z17.197
X120.074 Y189.952 Z17.209
X120.117 Y190.081 Z17.223
X120.523 Y191.185 Z17.305
X121.255 Y193.024 Z17.366
X121.722 Y194.14
X122.017 Y194.534 Z17.244
X122.21 Y194.713 Z17.134
X122.194 Y194.985 Z17.252
X122.227 Y195.35 Z17.36
X125.412 Y203.223 Z17.388
X125.631 Y203.61 Z17.331
X125.954 Y203.953 Z17.162
X126.381 Y204.255 Z16.88
X126.913 Y204.513 Z16.486
X127.549 Y204.73 Z15.979
X127.54 Y206.451 Z16.638
X128.44 Y207.807 Z17.994
X127.54 Y206.451 Z16.638
X126.629 Y207.808 Z17.995
X127.54 Y206.451 Z16.638
X127.549 Y204.73 Z15.979
X127.888 Y204.238 Z16.101
X128.156 Y203.707 Z16.141
X131.467 Y195.726 Z16.098
X131.578 Y195.251 Z16.015
X130.756 Y194.919 Z16.772
X130.404 Y194.777 Z17.04
X130.068 Y194.641 Z17.229
X129.733 Y194.538 Z17.339
X129.245 Y194.497 Z17.388
X125.987 Y194.477 Z17.437
X123.16 Y194.498 Z17.388
X122.714 Y194.542 Z17.335
X122.21 Y194.713 Z17.134
X122.714 Y194.542 Z17.335
X123.16 Y194.498 Z17.388
X125.987 Y194.477 Z17.437
X129.245 Y194.497 Z17.388
X129.733 Y194.538 Z17.339
X130.068 Y194.641 Z17.229
X130.404 Y194.777 Z17.04
X130.756 Y194.919 Z16.772
X131.578 Y195.251 Z16.015
X131.821 Y194.859 Z16.088
X133.027 Y191.98 Z16.083
X133.45 Y190.922 Z16.065
X133.872 Y189.732 Z15.97
X133.344 Y189.168 Z16.531
X133.284 Y189.113 Z16.585
X133.142 Y188.987 Z16.71
X132.547 Y188.545 Z17.147
X132.101 Y188.322 Z17.363
X131.736 Y188.202 Z17.477
X131.134 Y188.119 Z17.545
X130.123 Y188.045 Z17.585
X130.01 Y188.04 Z17.586
X129.602 Y188.436 Z17.994
X130.01 Y188.04 Z17.586
X129.602 Y187.616 Z17.994
X130.01 Y188.04 Z17.586
X130.123 Y188.045 Z17.585
X131.134 Y188.119 Z17.545
X131.736 Y188.202 Z17.477
X132.101 Y188.322 Z17.363
X132.547 Y188.545 Z17.147
X133.142 Y188.987 Z16.71
X133.284 Y189.113 Z16.585
X133.344 Y189.168 Z16.531
X133.872 Y189.732 Z15.97
X135.429 Y188.786 Z16.907
X136.251 Y188.348 Z17.332
X136.896 Y188.192 Z17.472
X137.605 Y188.081 Z17.559
X138.002 Y188.048 Z17.578
X138.414 Y188.437 Z17.99
X138.002 Y188.048 Z17.578
X138.415 Y187.619 Z17.991
G0 Z25
X125.755 Y83.474
Z23
G1 Z17.986 F850
X125.59 Y83.619 Z17.781
X126.004 Y84.108 Z17.993
X125.59 Y83.619 Z17.781
X124.729 Y83.223 Z17.758
X123.814 Y82.941 Z17.723
X122.883 Y82.794 Z17.666
X121.833 Z17.578
X121.02 Y82.912 Z17.51
X120.336 Y83.112 Z17.41
X119.716 Y83.408 Z17.311
X119.122 Y83.817 Z17.256
X118.639 Y84.284 Z17.175
X118.446 Y84.506 Z17.138
X117.965 Y85.254 Z17.101
X117.651 Y85.919 Z17.067
X117.481 Y86.542 Z17.062
X117.358 Y87.491 Z17.073
X117.328 Y88.329 Z17.094
X117.394 Y88.756 Z17.058
X117.378 Y89.157 Z17.121
X117.491 Y89.952 Z17.201
X117.721 Y90.823 Z17.32
X117.902 Y91.251 Z17.39
X118.29 Y91.887 Z17.513
X118.715 Y92.395 Z17.65
X119.131 Y92.776 Z17.754
X119.743 Y93.191 Z17.839
X120.286 Y93.456 Z17.866
X120.845 Y93.615 Z17.855
X121.626 Y93.711 Z17.833
X122.364 Y93.677 Z17.785
X122.999 Y93.538 Z17.712
X123.586 Y93.318 Z17.626
X124.089 Y93.008 Z17.553
X124.506 Y92.627 Z17.466
X124.894 Y92.141 Z17.354
X125.325 Y91.243 Z17.222
X125.457 Y90.789 Z17.175
X125.552 Y90.051 Z17.142
X125.575 Y89.548 Z17.127
X126.425 Y88.84 Z17.986
X125.575 Y89.548 Z17.127
X125.097 Y89.028 Z17.587
X124.822 Y88.849 Z17.75
X124.489 Y88.759 Z17.823
X122.686 Y88.687 Z17.838
X119.362 Y88.711 Z17.808
X118.262 Y88.733 Z17.736
X118.022 Y88.739 Z17.591
X117.394 Y88.756 Z17.058
G0 Z25
X125.755 Y159.637
Z23
G1 Z17.99 F850
X125.887 Y159.769 Z17.858
X126.014 Y159.638 Z17.989
X125.887 Y159.769 Z17.858
X125.897 Y160.34 Z17.84
X125.869 Y160.882 Z17.773
X125.774 Y161.484 Z17.612
X125.571 Y162.059 Z17.33
X126.313 Y162.459 Z17.997
X125.571 Y162.059 Z17.33
X125.027 Y162.311 Z17.408
X124.414 Y162.489 Z17.477
X123.527 Y162.633 Z17.575
X122.737 Y162.646 Z17.644
X122.076 Y162.565 Z17.709
X121.27 Y162.354 Z17.8
X120.659 Y162.092 Z17.828
X120.1 Y161.761 Z17.798
X119.485 Y161.302 Z17.727
X118.93 Y160.681 Z17.572
X118.615 Y160.217 Z17.484
X118.342 Y159.604 Z17.399
X118.159 Y158.94 Z17.315
X118.031 Y158.119 Z17.229
X118.013 Y157.405 Z17.179
X118.076 Y156.372 Z17.133
X118.23 Y155.544 Z17.101
X118.48 Y154.848 Z17.088
X118.839 Y154.156 Z17.084
X119.286 Y153.52 Z17.125
X119.662 Y153.133 Z17.194
X120.287 Y152.676 Z17.282
X121.035 Y152.277 Z17.404
X121.624 Y152.083 Z17.488
X122.416 Y151.952 Z17.565
X123.284 Y151.912 Z17.634
X123.901 Y151.966 Z17.678
X124.669 Y152.12 Z17.724
X125.485 Y152.392 Z17.773
X125.774 Y152.515 Z17.791
X125.912 Y152.363 Z17.99
X125.774 Y152.515 Z17.791
X126.215 Y152.892 Z17.959
X126.221 Y152.933 Z17.994
X126.215 Y152.892 Z17.959
X126.263 Y152.898 Z17.996
G0 Z25
X127.838 Y93.65
Z23
G1 Z17.996 F850
X127.927 Y93.556 Z17.907
X127.843 Y93.472 Z17.991
X127.927 Y93.556 Z17.907
X128.564 Y93.48 Z17.865
X129.067 Y93.357 Z17.759
X129.6 Y93.13 Z17.542
X130.383 Y92.667 Z17.073
X130.872 Y93.086 Z17.484
X131.283 Y93.326 Z17.715
X131.674 Y93.462 Z17.841
X132.148 Y93.541 Z17.907
X132.925 Y93.56 Z17.903
X133.007 Y93.561 Z17.902
X133.095 Y93.473 Z17.99
X133.007 Y93.561 Z17.902
X133.098 Y93.656 Z17.993
X133.007 Y93.561 Z17.902
X132.925 Y93.56 Z17.903
X132.148 Y93.541 Z17.907
X131.674 Y93.462 Z17.841
X131.283 Y93.326 Z17.715
X130.872 Y93.086 Z17.484
X130.383 Y92.667 Z17.073
X130.525 Y92.163 Z17.141
X130.79 Y91.446 Z17.18
X132.44 Y87.311 Z17.231
X133.835 Y83.94 Z17.19
X134.043 Y83.624 Z17.112
X134.022 Y81.93 Z17.747
X133.985 Y81.683 Z17.812
X133.672 Y80.896 Z17.838
X133.004 Y79.339 Z17.857
X132.122 Y77.593 Z17.795
X131.845 Y77.167 Z17.754
X131.459 Y76.759 Z17.699
X131.044 Y76.485 Z17.645
X130.438 Y76.254 Z17.555
X130.062 Y76.194 Z17.502
X129.533 Y76.226 Z17.415
X129.158 Y76.337 Z17.354
X128.445 Y75.98 Z17.934
X128.372 Y75.949 Z17.994
X128.445 Y75.98 Z17.934
X129.158 Y76.337 Z17.354
X128.889 Y77.167 Z17.851
X128.822 Y77.451 Z17.996
X128.889 Y77.167 Z17.851
X129.158 Y76.337 Z17.354
X129.533 Y76.226 Z17.415
X130.062 Y76.194 Z17.502
X130.438 Y76.254 Z17.555
X131.044 Y76.485 Z17.645
X131.459 Y76.759 Z17.699
X131.845 Y77.167 Z17.754
X132.122 Y77.593 Z17.795
X133.004 Y79.339 Z17.857
X133.672 Y80.896 Z17.838
X133.985 Y81.683 Z17.812
X134.022 Y81.93 Z17.747
X134.043 Y83.624 Z17.112
X134.508 Y83.8 Z17.473
X134.797 Y83.981 Z17.67
X135.007 Y84.196 Z17.779
X135.231 Y84.655 Z17.806
X136.853 Y88.431 Z17.797
X138.17 Y91.54 Z17.678
X138.515 Y92.435 Z17.581
X138.585 Y92.74 Z17.504
X138.598 Y92.988 Z17.401
X139.166 Y93.268 Z17.677
X139.689 Y93.442 Z17.838
X140.223 Y93.539 Z17.909
X140.483 Y93.555 Z17.908
X140.568 Y93.645 Z17.993
X140.483 Y93.555 Z17.908
X140.566 Y93.472 Z17.991
X140.483 Y93.555 Z17.908
X140.223 Y93.539 Z17.909
X139.689 Y93.442 Z17.838
X139.166 Y93.268 Z17.677
X138.598 Y92.988 Z17.401
X138.08 Y93.271 Z17.678
X137.683 Y93.399 Z17.797
X137.218 Y93.463 Z17.847
X136.494 Y93.531 Z17.881
X136.382 Y93.434 Z17.993
X136.494 Y93.531 Z17.881
X136.381 Y93.651 Z17.994
G0 Z25
X137.772 Y152.617
Z23
G1 Z17.986 F850
X137.607 Y152.761 Z17.781
X138.021 Y153.25 Z17.993
X137.607 Y152.761 Z17.781
X137.595 Y152.755
X136.698 Y152.346 Z17.757
X135.758 Y152.066 Z17.719
X134.827 Y151.93 Z17.662
X133.851 Y151.937 Z17.578
X133.041 Y152.055 Z17.51
X132.356 Y152.254 Z17.411
X131.735 Y152.55 Z17.312
X131.211 Y152.906 Z17.26
X130.662 Y153.42 Z17.177
X130.429 Y153.698 Z17.136
X129.922 Y154.506 Z17.095
X129.668 Y155.061 Z17.068
X129.499 Y155.678 Z17.062
X129.375 Y156.64 Z17.073
X129.345 Y157.472 Z17.094
X129.412 Y157.9 Z17.057
X130.039 Y157.882 Z17.591
X130.279 Y157.876 Z17.736
X130.5 Y157.87 Z17.792
X134.697 Y157.83 Z17.838
X136.504 Y157.902 Z17.823
X136.84 Y157.992 Z17.75
X137.117 Y158.174 Z17.584
X137.592 Y158.69 Z17.127
X138.442 Y157.983 Z17.986
X137.592 Y158.69 Z17.127
X137.51 Y159.735 Z17.162
X137.38 Y160.28 Z17.209
X137.133 Y160.864 Z17.289
X136.748 Y161.522 Z17.403
X136.196 Y162.08 Z17.538
X135.715 Y162.403 Z17.609
X135.191 Y162.627 Z17.687
X134.461 Y162.807 Z17.779
X133.788 Y162.856 Z17.823
X133.189 Y162.81 Z17.847
X132.513 Y162.671 Z17.864
X131.95 Y162.44 Z17.855
X131.324 Y162.052 Z17.778
X130.798 Y161.608 Z17.673
X130.285 Y161 Z17.507
X129.919 Y160.394 Z17.389
X129.739 Y159.966 Z17.32
X129.509 Y159.103 Z17.202
X129.396 Y158.3 Z17.12
X129.412 Y157.9 Z17.057
G0 Z25
X131.809 Y62.335
Z23
G1 Z17.989 F850
X132.155 Y62.137 Z17.646
X131.97 Y61.146 Z17.831
X131.812 Y61.026 Z17.987
X131.97 Y61.146 Z17.831
X132.071 Y60.949 Z17.994
X131.97 Y61.146 Z17.831
X132.155 Y62.137 Z17.646
X132.297 Y62.3 Z17.717
X132.667 Y62.659 Z17.847
X132.905 Y62.796 Z17.849
X133.649 Y63.152 Z17.807
X134.357 Y63.37 Z17.735
X134.966 Y63.47 Z17.667
X135.745 Y63.477 Z17.587
X136.449 Y63.378 Z17.512
X137.025 Y63.199 Z17.414
X137.543 Y62.924 Z17.33
X138.048 Y62.572 Z17.257
X138.278 Y62.306 Z17.212
X138.548 Y61.925 Z17.169
X138.811 Y61.27 Z17.189
X138.921 Y60.559 Z17.239
X138.987 Y59.602 Z17.242
X138.963 Y59.244 Z17.203
X138.421 Z17.68
X138.221 Z17.816
X138.04 Z17.885
X136.596 Y58.976 Z17.871
X135.303 Y58.663 Z17.822
X133.884 Y58.194 Z17.723
X133.28 Y57.955 Z17.661
X132.828 Y57.651 Z17.56
X132.441 Y57.307 Z17.474
X132.117 Y56.851 Z17.393
X131.91 Y56.395 Z17.314
X131.755 Y55.813 Z17.232
X131.712 Y55.173 Z17.184
X131.769 Y54.6 Z17.146
X131.884 Y54.199 Z17.123
X132.207 Y53.694 Z17.15
X132.646 Y53.312 Z17.245
X133.061 Y53.091 Z17.325
X133.62 Y52.918 Z17.441
X134.218 Y52.848 Z17.511
X134.581 Y52.862 Z17.56
X135 Y52.977 Z17.649
X135.674 Y53.271 Z17.82
X136.335 Y53.655 Z17.915
X136.947 Y54.087 Z17.942
X137.63 Y54.646 Z17.912
X137.938 Y54.89 Z17.845
X138.263 Y55 Z17.664
X138.678 Y55.036 Z17.362
X138.949 Z17.136
X138.992 Y55.261 Z17.187
X139.004 Y56.959 Z17.213
X139 Y58.843 Z17.228
X138.963 Y59.244 Z17.203
X139 Y58.843 Z17.228
X139.004 Y56.959 Z17.213
X138.992 Y55.261 Z17.187
X138.949 Y55.036 Z17.136
X139.005 Y54.794 Z17.18
X139.086 Y53.505 Z17.155
X138.232 Y52.607 Z18
X139.086 Y53.505 Z17.155
X139.567 Y53.137 Z17.536
X140.091 Y52.885 Z17.785
X140.464 Y52.796 Z17.863
X140.963 Y52.768 Z17.871
X141.36 Y52.756 Z17.859
X141.488 Y52.621 Z17.987
X141.36 Y52.756 Z17.859
X141.491 Y52.887 Z17.99
G0 Z25
X133.52 Y122.576
Z23
G1 Z17.995 F850
X133.642 Y122.469 Z17.873
X133.525 Y122.352 Z17.99
X133.642 Y122.469 Z17.873
X133.87 Y122.484 Z17.858
X134.643 Y122.546 Z17.787
X135.269 Y122.535 Z17.642
X135.672 Y122.476 Z17.476
X136.245 Y122.272 Z17.116
X137.119 Y123.507 Z17.967
X137.138 Y123.533 Z17.985
X137.143 Y123.541 Z17.99
X137.138 Y123.533 Z17.985
X137.119 Y123.507 Z17.967
X136.245 Y122.272 Z17.116
X136.322 Y121.754 Z17.2
X136.355 Y121.168 Z17.207
X136.47 Y120.709 Z17.105
X136.428 Y120.208 Z17.159
X136.383 Y118.687 Z17.219
X136.376 Y114.503 Z17.187
X136.346 Y113.166 Z17.116
X136.083 Y112.927 Z17.355
X135.713 Y112.678 Z17.6
X135.246 Y112.476 Z17.795
X134.858 Y112.371 Z17.892
X133.611 Y112.31 Z17.904
X133.526 Y112.221 Z17.989
X133.611 Y112.31 Z17.904
X133.525 Y112.396 Z17.99
X133.611 Y112.31 Z17.904
X134.858 Y112.371 Z17.892
X135.246 Y112.476 Z17.795
X135.713 Y112.678 Z17.6
X136.083 Y112.927 Z17.355
X136.346 Y113.166 Z17.116
X136.869 Y112.77 Z17.505
X137.321 Y112.528 Z17.741
X137.948 Y112.369 Z17.885
X138.443 Y112.325 Z17.914
X139.156 Y112.309 Z17.903
X139.243 Y112.396 Z17.99
X139.156 Y112.309 Z17.903
X139.241 Y112.22 Z17.988
X139.156 Y112.309 Z17.903
X138.443 Y112.325 Z17.914
X137.948 Y112.369 Z17.885
X137.321 Y112.528 Z17.741
X136.869 Y112.77 Z17.505
X136.346 Y113.166 Z17.116
X136.376 Y114.503 Z17.187
X136.383 Y118.687 Z17.219
X136.428 Y120.208 Z17.159
X136.47 Y120.709 Z17.105
X137.054 Y120.84 Z17.591
X137.427 Y121.017 Z17.843
X137.623 Y121.194 Z17.911
X138.079 Y121.632 Z17.936
X138.622 Y122.06 Z17.897
X139.37 Y122.543 Z17.762
X139.952 Y122.804 Z17.614
X140.135 Y122.854 Z17.583
X140.481 Y122.914 Z17.546
X141.147 Y122.953 Z17.473
X141.776 Y122.896 Z17.407
X142.412 Y122.736 Z17.316
X142.953 Y122.494 Z17.25
X143.389 Y122.216 Z17.19
X143.757 Y121.883 Z17.137
X144.114 Y121.356 Z17.11
X144.306 Y120.796 Z17.129
X144.443 Y120.116 Z17.151
X144.508 Y119.189 Z17.188
X144.5 Y117.299 Z17.204
X144.45 Y113.999 Z17.164
X144.479 Y113.184 Z17.087
X143.499 Y112.217 Z17.996
X144.479 Y113.184 Z17.087
X145.12 Y112.7 Z17.582
X145.619 Y112.483 Z17.795
X146.016 Y112.375 Z17.894
X146.485 Y112.331 Z17.922
X147.119 Y112.313 Z17.907
X147.203 Y112.397 Z17.991
X147.119 Y112.313 Z17.907
X147.208 Y112.218 Z17.996
G0 Z25
X139.768 Y207.634
Z23
G1 Z17.987 F850
X140.697 Y206.725 Z17.117
X140.627 Y206.572 Z17.196
X140.592 Y206.488 Z17.236
X140.526 Y206.31 Z17.311
X140.514 Y206.274 Z17.325
X140.408 Y205.817 Z17.452
X140.387 Y205.622 Z17.48
X140.295 Y203.603 Z17.598
X140.667 Y203.202 Z17.999
X140.295 Y203.603 Z17.598
X139.904 Y203.214 Z17.987
X140.295 Y203.603 Z17.598
X140.387 Y205.622 Z17.48
X140.408 Y205.817 Z17.452
X140.514 Y206.274 Z17.325
X140.526 Y206.31 Z17.311
X140.592 Y206.488 Z17.236
X140.627 Y206.572 Z17.196
X140.697 Y206.725 Z17.117
X141.033 Y206.791 Z17.197
X141.945 Y206.856 Z17.297
X144.307 Y206.88 Z17.395
X146.25 Y206.877 Z17.425
X146.836 Y206.833 Z17.386
X147.504 Y206.68 Z17.24
X147.876 Y206.495 Z17.058
X148.25 Y206.23 Z16.795
X148.979 Y205.539 Z16.105
X149.754 Y206.233 Z16.793
X149.866 Y206.323 Z16.882
X150.27 Y206.585 Z17.14
X150.712 Y206.763 Z17.314
X150.808 Y206.791 Z17.34
X151.213 Y206.864 Z17.409
X151.313 Y206.871 Z17.415
X151.398 Y206.874 Z17.417
X151.543 Y206.875
X153.497 Y206.887 Z17.395
X156.285 Y206.835 Z17.26
X156.721 Y206.797 Z17.207
X157.237 Y206.682 Z17.073
X157.418 Y206.195 Z17.305
X157.485 Y205.779 Z17.413
X157.536 Y204.233 Z17.578
X157.537 Y203.586 Z17.615
X157.172 Y203.206 Z17.995
X157.537 Y203.586 Z17.615
X157.9 Y203.205 Z17.996
X157.537 Y203.586 Z17.615
X157.536 Y204.233 Z17.578
X157.485 Y205.779 Z17.413
X157.418 Y206.195 Z17.305
X157.237 Y206.682 Z17.073
X158.218 Y207.588 Z17.942
X158.271 Y207.601 Z17.994
X158.218 Y207.588 Z17.942
X158.241 Y207.633 Z17.986
X158.218 Y207.588 Z17.942
X157.237 Y206.682 Z17.073
X156.721 Y206.797 Z17.207
X156.285 Y206.835 Z17.26
X153.497 Y206.887 Z17.395
X151.543 Y206.875 Z17.417
X151.398 Y206.874
X151.313 Y206.871 Z17.415
X151.213 Y206.864 Z17.409
X150.808 Y206.791 Z17.34
X150.712 Y206.763 Z17.314
X150.27 Y206.585 Z17.14
X149.866 Y206.323 Z16.882
X149.754 Y206.233 Z16.793
X148.979 Y205.539 Z16.105
X148.982 Y205.21 Z16.108
X148.983 Y205.155
X148.974 Y200.496 Z16.14
X148.927 Y194.23 Z16.142
X148.912 Y191.427 Z16.096
X148.892 Y189.689 Z16.013
X148.03 Y188.948 Z16.751
X147.462 Y188.568 Z17.127
X147.034 Y188.345 Z17.345
X146.425 Y188.156 Z17.524
X145.898 Y188.078 Z17.589
X144.648 Y187.987 Z17.637
X144.298 Y188.327 Z17.987
X144.648 Y187.987 Z17.637
X144.292 Y187.617 Z17.993
X144.648 Y187.987 Z17.637
X145.898 Y188.078 Z17.589
X146.425 Y188.156 Z17.524
X147.034 Y188.345 Z17.345
X147.462 Y188.568 Z17.127
X148.03 Y188.948 Z16.751
X148.892 Y189.689 Z16.013
X149.682 Y189.013 Z16.688
X150.292 Y188.597 Z17.099
X150.929 Y188.263 Z17.426
X151.395 Y188.158 Z17.523
X152.655 Y188.031 Z17.614
X153.153 Y187.998 Z17.627
X153.522 Y188.343 Z17.996
X153.153 Y187.998 Z17.627
X153.52 Y187.617 Z17.994
G0 Z25
X140.594 Y152.013
Z23
G1 Z17.995 F850
X141.215 Y152.419 Z17.452
X140.99 Y153.079 Z17.735
X140.923 Y153.846 Z17.858
X140.931 Y154.66 Z17.878
X140.929 Y154.865 Z17.876
X141.043 Y154.979 Z17.99
X140.929 Y154.865 Z17.876
X140.81 Y154.981 Z17.992
X140.929 Y154.865 Z17.876
X140.931 Y154.66 Z17.878
X140.923 Y153.846 Z17.858
X140.99 Y153.079 Z17.735
X141.215 Y152.419 Z17.452
X141.612 Y152.239 Z17.543
X142.376 Y151.987 Z17.654
X143.366 Y151.781 Z17.763
X144.081 Y151.71 Z17.803
X144.918 Y151.731 Z17.837
X145.612 Y151.832 Z17.843
X146.12 Y151.995 Z17.832
X146.836 Y152.382 Z17.802
X147.366 Y152.795 Z17.733
X147.756 Y153.246 Z17.669
X148.026 Y153.712 Z17.572
X148.193 Y154.169 Z17.486
X148.272 Y154.723 Z17.413
X148.256 Y155.332 Z17.308
X148.166 Y155.689 Z17.247
X147.903 Y156.214 Z17.169
X147.762 Y156.401 Z17.155
X147.438 Y156.661 Z17.139
X147.222 Y156.77 Z17.163
X146.55 Y157.052 Z17.217
X144.686 Y157.471 Z17.248
X143.603 Y157.742 Z17.236
X142.439 Y158.175 Z17.186
X141.982 Y158.465 Z17.189
X141.734 Y158.744 Z17.194
X141.487 Y159.206 Z17.253
X141.384 Y159.632 Z17.317
X141.372 Y160.274 Z17.405
X141.446 Y160.759 Z17.46
X141.603 Y161.182 Z17.538
X141.858 Y161.612 Z17.619
X142.151 Y161.942 Z17.673
X142.666 Y162.336 Z17.751
X143.304 Y162.654 Z17.794
X143.84 Y162.795 Z17.82
X144.543 Y162.863 Z17.823
X145.174 Y162.85 Z17.803
X145.882 Y162.746 Z17.751
X146.708 Y162.509 Z17.641
X147.308 Y162.237 Z17.537
X147.555 Y162.09 Z17.473
X148.116 Y162.452 Z17.999
X147.555 Y162.09 Z17.473
X147.75 Y161.433 Z17.719
X147.841 Y160.551 Z17.854
X147.848 Y160.217 Z17.874
X147.961 Y160.101 Z17.99
X147.848 Y160.217 Z17.874
X147.734 Y160.101 Z17.99
G0 Z25
X142.955 Y52.818
Z23
G1 Z17.998 F850
X143.063 Y52.718 Z17.89
X142.963 Y52.614 Z17.99
X143.063 Y52.718 Z17.89
X143.758 Y52.762 Z17.876
X144.342 Y52.804 Z17.853
X144.858 Y52.915 Z17.752
X145.238 Y53.073 Z17.599
X145.961 Y53.597 Z17.08
X146.505 Y53.18 Z17.492
X146.931 Y52.961 Z17.707
X147.25 Y52.863 Z17.8
X148.032 Y52.742 Z17.903
X148.877 Y52.707 Z17.908
X149.107 Y52.703 Z17.903
X149.193 Y52.614 Z17.989
X149.107 Y52.703 Z17.903
X149.194 Y52.789 Z17.99
X149.107 Y52.703 Z17.903
X148.877 Y52.707 Z17.908
X148.032 Y52.742 Z17.903
X147.25 Y52.863 Z17.8
X146.931 Y52.961 Z17.707
X146.505 Y53.18 Z17.492
X145.961 Y53.597 Z17.08
X145.969 Y54.223 Z17.147
X145.957 Y56.205 Z17.227
X145.975 Y58.21 Z17.235
X146.053 Y59.858 Z17.168
X146.104 Y60.565 Z17.095
X146.056 Y60.68 Z17.136
X145.954 Y61.014 Z17.212
X145.875 Y61.783 Z17.19
X145.796 Y62.641 Z17.093
X145.393 Y62.798 Z17.352
X144.721 Y62.947 Z17.652
X144.269 Y62.978 Z17.77
X143.649 Y62.937 Z17.835
X143.079 Y62.898 Z17.874
X142.959 Y63.004 Z17.994
X143.079 Y62.898 Z17.874
X142.963 Y62.782 Z17.99
X143.079 Y62.898 Z17.874
X143.649 Y62.937 Z17.835
X144.269 Y62.978 Z17.77
X144.721 Y62.947 Z17.652
X145.393 Y62.798 Z17.352
X145.796 Y62.641 Z17.093
X146.557 Y63.708 Z17.832
X146.661 Y63.866 Z17.935
X146.696 Y63.916 Z17.971
X146.71 Y63.937 Z17.988
X146.696 Y63.916 Z17.971
X146.661 Y63.866 Z17.935
X146.557 Y63.708 Z17.832
X145.796 Y62.641 Z17.093
X145.875 Y61.783 Z17.19
X145.954 Y61.014 Z17.212
X146.056 Y60.68 Z17.136
X146.104 Y60.565 Z17.095
X146.165 Y60.582 Z17.15
X146.685 Y60.759 Z17.588
X146.957 Y60.909 Z17.783
X147.154 Y61.082 Z17.879
X147.647 Y61.635 Z17.91
X148.101 Y62.066 Z17.838
X148.559 Y62.426 Z17.7
X149.141 Y62.751 Z17.481
X149.772 Y62.958 Z17.256
X149.969 Y62.984 Z17.197
X150.415 Y62.966 Z17.08
X150.951 Y63.422 Z17.552
X151.419 Y63.731 Z17.973
X151.444 Y63.744 Z17.996
X151.419 Y63.731 Z17.973
X150.951 Y63.422 Z17.552
X150.415 Y62.966 Z17.08
X150.779 Y62.267 Z17.51
X151.054 Y61.514 Z17.822
X151.132 Y61.205 Z17.907
X151.082 Y61.124 Z17.988
X151.132 Y61.205 Z17.907
X151.217 Y61.117 Z17.994
G0 Z25
X151.188 Y152.012
Z23
G1 Z17.996 F850
X151.811 Y152.419 Z17.452
X151.588 Y153.065 Z17.732
X151.52 Y153.796 Z17.854
X151.527 Y154.66 Z17.878
X151.525 Y154.865 Z17.876
X151.639 Y154.979 Z17.99
X151.525 Y154.865 Z17.876
X151.406 Y154.981 Z17.992
X151.525 Y154.865 Z17.876
X151.527 Y154.66 Z17.878
X151.52 Y153.796 Z17.854
X151.588 Y153.065 Z17.732
X151.811 Y152.419 Z17.452
X152.208 Y152.239 Z17.543
X152.972 Y151.987 Z17.654
X153.962 Y151.781 Z17.763
X154.677 Y151.71 Z17.803
X155.514 Y151.731 Z17.837
X156.208 Y151.832 Z17.843
X156.714 Y151.994 Z17.832
X157.429 Y152.38 Z17.802
X157.973 Y152.805 Z17.731
X158.355 Y153.251 Z17.668
X158.622 Y153.712 Z17.572
X158.789 Y154.169 Z17.487
X158.868 Y154.723 Z17.413
X158.852 Y155.332 Z17.308
X158.762 Y155.689 Z17.247
X158.499 Y156.214 Z17.169
X158.384 Y156.37 Z17.158
X158.036 Y156.66 Z17.138
X157.304 Y156.996 Z17.206
X156.611 Y157.202 Z17.238
X154.86 Y157.565 Z17.246
X153.837 Y157.861 Z17.226
X153.034 Y158.175 Z17.186
X152.698 Y158.364 Z17.192
X152.329 Y158.746 Z17.194
X152.075 Y159.228 Z17.257
X151.971 Y159.735 Z17.335
X151.974 Y160.393 Z17.42
X152.064 Y160.838 Z17.472
X152.258 Y161.299 Z17.563
X152.553 Y161.745 Z17.635
X152.808 Y161.995 Z17.685
X153.335 Y162.38 Z17.755
X153.926 Y162.664 Z17.795
X154.453 Y162.798 Z17.82
X155.263 Y162.868 Z17.822
X156.12 Y162.811 Z17.786
X156.843 Y162.657 Z17.705
X157.564 Y162.404 Z17.601
X158.15 Y162.09 Z17.474
X158.698 Y162.443 Z17.987
X158.15 Y162.09 Z17.474
X158.304 Y161.622 Z17.663
X158.406 Y160.968 Z17.805
X158.444 Y160.217 Z17.874
X158.557 Y160.101 Z17.99
X158.444 Y160.217 Z17.874
X158.33 Y160.101 Z17.99
G0 Z25
X160.43 Y207.64
Z23
G1 Z17.998 F850
X160.801 Y207.256 Z17.627
X160.433 Y206.911 Z17.995
X160.801 Y207.256 Z17.627
X161.81 Y207.163 Z17.569
X162.658 Y207.02 Z17.452
X163.113 Y206.855 Z17.299
X163.803 Y206.436 Z16.893
X164.433 Y205.946 Z16.412
X164.831 Y205.584 Z16.056
X165.418 Y206.142 Z16.619
X166.104 Y206.663 Z17.136
X166.55 Y206.855 Z17.321
X166.997 Y206.931 Z17.389
X167.117 Y206.935 Z17.391
X169.43 Y206.999 Z17.417
X171.67 Y207.004 Z17.386
X173.631 Y206.912 Z17.261
X174.22 Y206.848 Z17.202
X174.778 Y206.719 Z17.088
X175 Y206.146 Z17.386
X175.057 Y205.743 Z17.491
X175.069 Y204.233 Z17.633
X175.065 Y203.949 Z17.647
X174.731 Y203.608 Z17.988
X175.065 Y203.949 Z17.647
X175.384 Y203.61 Z17.986
X175.065 Y203.949 Z17.647
X175.069 Y204.233 Z17.633
X175.057 Y205.743 Z17.491
X175 Y206.146 Z17.386
X174.778 Y206.719 Z17.088
X175.829 Y207.556 Z17.995
X174.778 Y206.719 Z17.088
X174.22 Y206.848 Z17.202
X173.631 Y206.912 Z17.261
X171.67 Y207.004 Z17.386
X169.43 Y206.999 Z17.417
X167.117 Y206.935 Z17.391
X166.997 Y206.931 Z17.389
X166.55 Y206.855 Z17.321
X166.104 Y206.663 Z17.136
X165.418 Y206.142 Z16.619
X164.831 Y205.584 Z16.056
X164.826 Y203.032 Z16.147
X164.792 Y198.843 Z16.214
X164.85 Y198.178 Z16.157
X164.909 Y197.895 Z16.1
X165.938 Y197.957 Z16.98
X166.37 Y197.984 Z17.258
X166.779 Y198.008 Z17.393
X167.339 Y198.018 Z17.435
X169.269 Y198.019 Z17.501
X170.797 Y198 Z17.488
X172.081 Y197.991 Z17.374
X172.546 Y197.985 Z17.285
X172.862 Y197.994 Z17.149
X173.103 Y197.502 Z17.382
X173.151 Y197.374 Z17.427
X173.274 Y196.727 Z17.535
X173.375 Y195.514 Z17.61
X173.385 Y195.266 Z17.615
X173.771 Y194.889 Z17.992
X173.385 Y195.266 Z17.615
X173.02 Y194.886 Z17.995
X173.385 Y195.266 Z17.615
X173.375 Y195.514 Z17.61
X173.274 Y196.727 Z17.535
X173.151 Y197.374 Z17.427
X173.103 Y197.502 Z17.382
X172.862 Y197.994 Z17.149
X173.099 Y198.485 Z17.38
X173.236 Y198.979 Z17.508
X173.301 Y199.517 Z17.562
X173.374 Y200.523 Z17.609
X173.77 Y200.907 Z17.993
X173.374 Y200.523 Z17.609
X173.016 Y200.906 Z17.992
X173.374 Y200.523 Z17.609
X173.301 Y199.517 Z17.562
X173.236 Y198.979 Z17.508
X173.099 Y198.485 Z17.38
X172.862 Y197.994 Z17.149
X172.546 Y197.985 Z17.285
X172.081 Y197.991 Z17.374
X170.797 Y198 Z17.488
X169.269 Y198.019 Z17.501
X167.339 Y198.018 Z17.435
X166.779 Y198.008 Z17.393
X166.37 Y197.984 Z17.258
X165.938 Y197.957 Z16.98
X164.909 Y197.895 Z16.1
X164.89 Y197.78 Z16.119
X164.837 Y196.704 Z16.173
X164.811 Y193.155 Z16.148
X164.77 Y189.693 Z15.999
X163.592 Y188.609 Z17.067
X163.168 Y188.35 Z17.316
X162.444 Y188.1 Z17.546
X161.518 Y187.843 Z17.774
X161.308 Y187.975 Z17.984
X161.518 Y187.843 Z17.774
X161.299 Y187.616 Z17.993
X161.518 Y187.843 Z17.774
X162.444 Y188.1 Z17.546
X163.168 Y188.35 Z17.316
X163.592 Y188.609 Z17.067
X164.77 Y189.693 Z15.999
X165.546 Y188.965 Z16.734
X165.972 Y188.647 Z17.055
X166.371 Y188.443 Z17.259
X166.712 Y188.342 Z17.359
X167.733 Y188.3 Z17.394
X170.536 Y188.263 Z17.383
X172.529 Y188.28 Z17.33
X174.587 Y188.382 Z17.24
X174.991 Y188.452 Z17.188
X175.766 Y187.694 Z17.994
X174.991 Y188.452 Z17.188
X175.046 Y188.543 Z17.239
X175.227 Y188.963 Z17.399
X175.342 Y189.597 Z17.476
X175.705 Y191.837 Z17.624
X175.404 Y192.204 Z17.991
X175.705 Y191.837 Z17.624
X176.124 Y192.211 Z17.998
G0 Z25
X166.674 Y69.437
Z23
G1 Z17.998 F850
X166.808 Y69.317 Z17.864
X166.682 Y69.191 Z17.99
X166.808 Y69.317 Z17.864
X167.166 Y69.337 Z17.844
X167.838 Y69.374 Z17.789
X168.335 Y69.342 Z17.672
X168.846 Y69.239 Z17.462
X169.427 Y68.983 Z17.061
X170.432 Y70.324 Z17.996
X169.427 Y68.983 Z17.061
X169.447 Y68.841 Z17.088
X169.468 Y67.271 Z17.174
X169.456 Y57.828 Z17.219
Y57.472 Z17.222
X169.455 Y55.436 Z17.212
Y53.595 Z17.077
X169.951 Y53.184 Z17.492
X170.34 Y52.991 Z17.682
X170.814 Y52.842 Z17.824
X171.264 Y52.787 Z17.866
X172.127 Y52.724 Z17.888
X172.235 Y52.821 Z17.996
X172.127 Y52.724 Z17.888
X172.226 Y52.619 Z17.987
X172.127 Y52.724 Z17.888
X171.264 Y52.787 Z17.866
X170.814 Y52.842 Z17.824
X170.34 Y52.991 Z17.682
X169.951 Y53.184 Z17.492
X169.455 Y53.595 Z17.077
X168.906 Y53.143 Z17.522
X168.384 Y52.903 Z17.752
X167.972 Y52.798 Z17.847
X167.436 Y52.755 Z17.874
X166.783 Y52.716 Z17.889
X166.678 Y52.608 Z17.994
X166.783 Y52.716 Z17.889
X166.674 Y52.817 Z17.998
G0 Z25
X167.893 Y82.837
Z23
G1 Z17.998 F850
X168.001 Y82.738 Z17.89
X167.901 Y82.634 Z17.99
X168.001 Y82.738 Z17.89
X168.695 Y82.781 Z17.876
X169.279 Y82.823 Z17.853
X169.796 Y82.935 Z17.752
X170.175 Y83.093 Z17.599
X170.898 Y83.616 Z17.08
X170.937 Y83.582 Z17.113
X171.381 Y83.239 Z17.453
X171.792 Y83.014 Z17.675
X172.121 Y82.896 Z17.788
X172.778 Y82.782 Z17.888
X174.044 Y82.722 Z17.903
X174.13 Y82.633 Z17.989
X174.044 Y82.722 Z17.903
X174.131 Y82.809 Z17.99
X174.044 Y82.722 Z17.903
X172.778 Y82.782 Z17.888
X172.121 Y82.896 Z17.788
X171.792 Y83.014 Z17.675
X171.381 Y83.239 Z17.453
X170.937 Y83.582 Z17.113
X170.898 Y83.616 Z17.08
X170.909 Y84.065 Z17.134
X170.892 Y85.938 Z17.221
X170.914 Y88.336 Z17.233
X170.999 Y90.022 Z17.158
X171.041 Y90.585 Z17.095
X170.892 Y91.027 Z17.211
X170.832 Y91.506 Z17.215
X170.733 Y92.661 Z17.093
X171.494 Y93.728 Z17.833
X171.651 Y93.959 Z18
X171.494 Y93.728 Z17.833
X170.733 Y92.661 Z17.093
X170.33 Y92.817 Z17.352
X169.66 Y92.966 Z17.651
X169.206 Y92.997 Z17.77
X168.586 Y92.956 Z17.835
X168.017 Y92.917 Z17.874
X167.901 Y92.801 Z17.99
X168.017 Y92.917 Z17.874
X167.897 Y93.023 Z17.994
X168.017 Y92.917 Z17.874
X168.586 Y92.956 Z17.835
X169.206 Y92.997 Z17.77
X169.66 Y92.966 Z17.651
X170.33 Y92.817 Z17.352
X170.733 Y92.661 Z17.093
X170.832 Y91.506 Z17.215
X170.892 Y91.027 Z17.211
X171.041 Y90.585 Z17.095
X171.636 Y90.785 Z17.599
X171.981 Y90.995 Z17.833
X172.167 Y91.194 Z17.894
X172.604 Y91.675 Z17.909
X172.993 Y92.046 Z17.848
X173.495 Y92.444 Z17.701
X174.034 Y92.749 Z17.497
X174.572 Y92.942 Z17.307
X174.707 Y92.977 Z17.257
X175.218 Y93.004 Z17.112
X175.352 Y92.986 Z17.08
X175.889 Y93.441 Z17.552
X176.359 Y93.752 Z17.975
X176.383 Y93.765 Z17.998
X176.359 Y93.752 Z17.975
X175.889 Y93.441 Z17.552
X175.352 Y92.986 Z17.08
X175.713 Y92.293 Z17.507
X175.978 Y91.579 Z17.806
X176.069 Y91.224 Z17.908
X176.019 Y91.143 Z17.988
X176.069 Y91.224 Z17.908
X176.155 Y91.137 Z17.995
G0 Z25
X169.711 Y125.176
Z23
G1 Z17.986 F850
X169.869 Y125.34 Z17.822
X170.036 Y125.165 Z17.997
X169.869 Y125.34 Z17.822
X169.885 Y126.37 Z17.759
X169.926 Y127.202 Z17.674
X169.88 Y127.556 Z17.55
X169.756 Y127.908 Z17.342
X170.593 Y128.407 Z17.999
X169.756 Y127.908 Z17.342
X169.744 Y127.913 Z17.344
X168.58 Y128.361 Z17.523
X167.283 Y128.741 Z17.636
X166.272 Y128.924 Z17.69
X165.011 Y129.03 Z17.718
X163.625 Y128.97 Z17.72
X162.549 Y128.837 Z17.707
X161.644 Y128.617 Z17.686
X160.827 Y128.306 Z17.641
X159.959 Y127.877 Z17.546
X158.879 Y127.167 Z17.461
X158.233 Y126.565 Z17.353
X157.64 Y125.86 Z17.278
X157.07 Y125.01 Z17.21
X156.782 Y124.451 Z17.167
X156.468 Y123.624 Z17.098
X156.252 Y122.809 Z17.026
X156.109 Y121.768 Z16.984
X156.062 Y120.815 Z16.959
X156.145 Y119.614 Z16.947
X156.282 Y118.775 Z16.943
X156.51 Y118.007 Z16.955
X157.068 Y116.716 Z16.99
X157.618 Y115.864 Z17.05
X158.162 Y115.173 Z17.098
X158.748 Y114.595 Z17.171
X159.599 Y113.948 Z17.255
X160.563 Y113.387 Z17.353
X161.63 Y112.92 Z17.434
X162.522 Y112.635 Z17.507
X163.448 Y112.458 Z17.57
X164.733 Y112.346 Z17.609
X165.829 Y112.37 Z17.636
X166.956 Y112.501 Z17.674
X168.378 Y112.812 Z17.73
X169.387 Y113.156 Z17.751
X170.147 Y113.507 Z17.742
X170.348 Y113.319 Z17.997
X170.147 Y113.507 Z17.742
X170.704 Y114.167 Z17.999
G0 Z25
X173.51 Y63.627
Z23
G1 Z17.992 F850
X173.595 Y63.537 Z17.907
X173.511 Y63.452 Z17.991
X173.595 Y63.537 Z17.907
X174.231 Y63.461 Z17.865
X174.735 Y63.337 Z17.759
X175.268 Y63.111 Z17.542
X176.051 Y62.647 Z17.072
X176.541 Y63.068 Z17.485
X176.949 Y63.306 Z17.714
X177.342 Y63.442 Z17.841
X177.816 Y63.521 Z17.907
X178.593 Y63.54 Z17.903
X178.675 Y63.542 Z17.902
X178.766 Y63.636 Z17.993
X178.675 Y63.542 Z17.902
X178.763 Y63.453 Z17.99
X178.675 Y63.542 Z17.902
X178.593 Y63.54 Z17.903
X177.816 Y63.521 Z17.907
X177.342 Y63.442 Z17.841
X176.949 Y63.306 Z17.714
X176.541 Y63.068 Z17.485
X176.051 Y62.647 Z17.072
X176.203 Y62.114 Z17.144
X176.459 Y61.426 Z17.179
X178.039 Y57.461 Z17.231
X179.501 Y53.924 Z17.19
X179.711 Y53.604 Z17.112
X179.69 Y51.913 Z17.746
X179.654 Y51.662 Z17.812
X179.34 Y50.876 Z17.838
X178.672 Y49.32 Z17.857
X177.79 Y47.574 Z17.795
X177.513 Y47.148 Z17.753
X177.127 Y46.74 Z17.699
X176.712 Y46.465 Z17.645
X176.106 Y46.235 Z17.555
X175.73 Y46.175 Z17.502
X175.201 Y46.207 Z17.415
X174.826 Y46.318 Z17.354
X174.112 Y45.96 Z17.935
X174.039 Y45.929 Z17.995
X174.112 Y45.96 Z17.935
X174.826 Y46.318 Z17.354
X174.614 Y46.94 Z17.736
X174.49 Y47.436 Z17.998
X174.614 Y46.94 Z17.736
X174.826 Y46.318 Z17.354
X175.201 Y46.207 Z17.415
X175.73 Y46.175 Z17.502
X176.106 Y46.235 Z17.555
X176.712 Y46.465 Z17.645
X177.127 Y46.74 Z17.699
X177.513 Y47.148 Z17.753
X177.79 Y47.574 Z17.795
X178.672 Y49.32 Z17.857
X179.34 Y50.876 Z17.838
X179.654 Y51.662 Z17.812
X179.69 Y51.913 Z17.746
X179.711 Y53.604 Z17.112
X180.176 Y53.78 Z17.472
X180.467 Y53.963 Z17.671
X180.675 Y54.176 Z17.779
X180.899 Y54.635 Z17.806
X182.521 Y58.414 Z17.797
X183.903 Y61.674 Z17.668
X184.208 Y62.497 Z17.567
X184.266 Y62.968 Z17.401
X184.832 Y63.248 Z17.677
X185.355 Y63.422 Z17.837
X185.872 Y63.517 Z17.908
X186.151 Y63.535
X186.234 Y63.452 Z17.991
X186.151 Y63.535 Z17.908
X186.239 Y63.63 Z17.996
X186.151 Y63.535 Z17.908
X185.872 Y63.517
X185.355 Y63.422 Z17.837
X184.832 Y63.248 Z17.677
X184.266 Y62.968 Z17.401
X183.748 Y63.252 Z17.678
X183.351 Y63.379 Z17.797
X182.887 Y63.443 Z17.847
X182.163 Y63.512 Z17.881
X182.051 Y63.415 Z17.993
X182.163 Y63.512 Z17.881
X182.05 Y63.631 Z17.994
G0 Z25
X185.921 Y121.701
Z23
G1 Z17.999 F850
X185.969 Y121.669 Z17.951
X185.932 Y121.629 Z17.988
X185.969 Y121.669 Z17.951
X187.523 Y122.021 Z17.661
X187.907 Y122.074 Z17.544
X188.611 Z17.062
X188.643 Y122.129 Z17.064
X189.226 Z17.513
X189.458 Z17.626
X189.876 Z17.664
X192.403 Y122.16 Z17.645
X192.719 Y121.8 Z17.998
X192.403 Y122.16 Z17.645
X192.79 Y122.526 Z17.991
X192.403 Y122.16 Z17.645
X189.876 Y122.129 Z17.664
X189.458 Z17.626
X189.226 Z17.513
X188.643 Z17.064
Y122.447 Z17.184
Y122.714 Z17.219
X188.664 Y125.769 Z17.127
X189.528 Y127.059 Z17.908
X189.536 Y127.154 Z17.989
X189.528 Y127.059 Z17.908
X189.608 Y127.095 Z17.986
X189.528 Y127.059 Z17.908
X188.664 Y125.769 Z17.127
X187.784 Y126.327 Z17.986
X188.664 Y125.769 Z17.127
X188.643 Y122.714 Z17.219
Y122.447 Z17.184
Y122.129 Z17.064
X188.611 Y122.074 Z17.062
X188.627 Y121.785 Z17.175
X188.643 Y116.794 Z17.219
X188.634 Y115.939 Z17.21
X188.67 Y114.435 Z17.142
X188.732 Y113.905 Z17.102
X188.895 Y113.418 Z17.073
X189.129 Y113.123 Z17.115
X189.245 Y113.023 Z17.142
X189.734 Y112.727 Z17.27
X190.314 Y112.556 Z17.399
X190.791 Y112.516 Z17.487
X191.366 Y112.571 Z17.573
X191.605 Y112.21 Z17.988
X191.366 Y112.571 Z17.573
X191.872 Y112.857 Z17.772
X192.393 Y113.247 Z17.915
X192.545 Y113.381 Z17.944
X192.552 Y113.442 Z17.988
X192.545 Y113.381 Z17.944
X192.607 Z17.991
G0 Z25
X186.101 Y207.637
Z23
G1 Z17.991 F850
X186.473 Y207.256 Z17.619
X186.103 Y206.914 Z17.989
X186.473 Y207.256 Z17.619
X186.613 Y207.249 Z17.615
X188.111 Y207.128 Z17.524
X188.497 Y207.045 Z17.447
X188.955 Y206.868 Z17.276
X189.544 Y206.51 Z16.923
X190.659 Y205.568 Z15.987
X191.339 Y206.184 Z16.604
X191.944 Y206.624 Z17.041
X192.478 Y206.904 Z17.318
X192.76 Y207.014 Z17.425
X193.385 Y207.125 Z17.527
X194.374 Y207.232 Z17.613
X194.903 Y207.263 Z17.629
X195.26 Y207.631 Z17.987
X194.903 Y207.263 Z17.629
X195.27 Y206.914 Z17.996
X194.903 Y207.263 Z17.629
X194.374 Y207.232 Z17.613
X193.385 Y207.125 Z17.527
X192.76 Y207.014 Z17.425
X192.478 Y206.904 Z17.318
X191.944 Y206.624 Z17.041
X191.339 Y206.184 Z16.604
X190.659 Y205.568 Z15.987
X190.667 Y204.229 Z16.058
X190.67 Y199.959 Z16.12
X190.621 Y193.504 Z16.142
X190.602 Y189.659 Z16.038
X189.553 Y188.672 Z17.012
X189.161 Y188.419 Z17.258
X188.626 Y188.215 Z17.448
X187.381 Y187.85 Z17.771
X187.299 Y187.828 Z17.789
X187.099 Y187.621 Z17.989
X187.299 Y187.828 Z17.789
X187.097 Y187.952 Z17.991
X187.299 Y187.828 Z17.789
X187.381 Y187.85 Z17.771
X188.626 Y188.215 Z17.448
X189.161 Y188.419 Z17.258
X189.553 Y188.672 Z17.012
X190.602 Y189.659 Z16.038
X191.332 Y188.977 Z16.725
X191.962 Y188.564 Z17.133
X192.372 Y188.412 Z17.279
X192.782 Y188.353 Z17.333
X194.206 Y188.308 Z17.357
X196.457 Y188.283 Z17.353
X198.275 Y188.321 Z17.292
X200.108 Y188.459 Z17.156
X200.707 Y188.535 Z17.104
X201.529 Y187.694 Z17.995
X200.707 Y188.535 Z17.104
X200.92 Y188.869 Z17.286
X201.084 Y189.304 Z17.41
X201.334 Y190.636 Z17.518
X201.595 Y192.098 Z17.592
X201.273 Y192.495 Z17.989
X201.595 Y192.098 Z17.592
X202.052 Y192.495 Z17.989
G0 Z25
X186.492 Y90.494
Z23
G1 Z17.99 F850
X186.624 Y90.626 Z17.858
X186.748 Y90.497 Z17.987
X186.624 Y90.626 Z17.858
X186.633 Y91.204 Z17.84
X186.606 Y91.739 Z17.773
X186.51 Y92.341 Z17.611
X186.308 Y92.916 Z17.33
X187.05 Y93.316 Z17.997
X186.308 Y92.916 Z17.33
X186.053 Y93.048 Z17.372
X185.367 Y93.292 Z17.454
X184.502 Y93.462 Z17.552
X183.709 Y93.509 Z17.625
X183.066 Y93.467 Z17.683
X182.204 Y93.277 Z17.777
X181.594 Y93.046 Z17.827
X180.978 Y92.71 Z17.809
X180.305 Y92.238 Z17.748
X179.776 Y91.674 Z17.602
X179.401 Y91.159 Z17.498
X179.11 Y90.546 Z17.411
X178.896 Y89.797 Z17.315
X178.768 Y88.976 Z17.229
X178.758 Y87.86 Z17.156
X178.855 Y86.925 Z17.119
X179.019 Y86.229 Z17.097
X179.318 Y85.479 Z17.081
X179.708 Y84.805 Z17.091
X180.069 Y84.322 Z17.134
X180.476 Y83.927 Z17.202
X181.005 Y83.545 Z17.279
X181.638 Y83.194 Z17.384
X182.25 Y82.969 Z17.473
X182.964 Y82.831 Z17.551
X183.946 Y82.769 Z17.628
X184.747 Y82.838 Z17.685
X185.679 Y83.053 Z17.74
X186.511 Y83.372 Z17.792
X186.656 Y83.212 Z18
X186.511 Y83.372 Z17.792
X186.952 Y83.749 Z17.959
X186.958 Y83.787 Z17.991
X186.952 Y83.749 Z17.959
X187 Y83.755 Z17.996
G0 Z25
X187.104 Y162.13
Z23
G1 Z17.994 F850
X187.224 Y162.024 Z17.874
X187.108 Y161.908 Z17.99
X187.224 Y162.024 Z17.874
X188.523 Y162.108 Z17.73
X189.067 Y162.072 Z17.566
X189.505 Y161.951 Z17.329
X189.827 Y161.828 Z17.116
X190.708 Y163.071 Z17.973
X190.726 Y163.097 Z17.99
X190.708 Y163.071 Z17.973
X189.827 Y161.828 Z17.116
X189.901 Y161.352 Z17.196
X189.937 Y160.724 Z17.207
X190.052 Y160.264 Z17.105
X189.986 Y159.232 Z17.191
X189.975 Y155.801 Z17.222
X189.942 Y153.397 Z17.16
X189.929 Y152.722 Z17.116
X189.418 Y152.301 Z17.534
X188.905 Y152.061 Z17.767
X188.456 Y151.929 Z17.89
X187.995 Y151.883 Z17.921
X187.194 Y151.866 Z17.904
X187.108 Y151.952 Z17.99
X187.194 Y151.866 Z17.904
X187.109 Y151.777 Z17.989
X187.194 Y151.866 Z17.904
X187.995 Y151.883 Z17.921
X188.456 Y151.929 Z17.89
X188.905 Y152.061 Z17.767
X189.418 Y152.301 Z17.534
X189.929 Y152.722 Z17.116
X190.452 Y152.326 Z17.505
X190.904 Y152.083 Z17.741
X191.533 Y151.925 Z17.885
X192.026 Y151.88 Z17.914
X192.739 Y151.865 Z17.903
X192.824 Y151.776 Z17.988
X192.739 Y151.865 Z17.903
X192.826 Y151.952 Z17.99
X192.739 Y151.865 Z17.903
X192.026 Y151.88 Z17.914
X191.533 Y151.925 Z17.885
X190.904 Y152.083 Z17.741
X190.452 Y152.326 Z17.505
X189.929 Y152.722 Z17.116
X189.942 Y153.397 Z17.16
X189.975 Y155.801 Z17.222
X189.986 Y159.232 Z17.191
X190.052 Y160.264 Z17.105
X190.232 Y160.294 Z17.26
X190.732 Y160.43 Z17.662
X190.999 Y160.566 Z17.837
X191.252 Y160.801 Z17.918
X191.942 Y161.425 Z17.927
X192.681 Y161.938 Z17.821
X193.228 Y162.24 Z17.688
X193.719 Y162.41 Z17.583
X194.006 Y162.461 Z17.552
X194.729 Y162.509 Z17.473
X195.354 Y162.452 Z17.407
X195.994 Y162.293 Z17.316
X196.515 Y162.061 Z17.252
X196.87 Y161.849 Z17.2
X197.314 Y161.466 Z17.141
X197.697 Y160.912 Z17.11
X197.887 Y160.359 Z17.128
X198.022 Y159.699 Z17.15
X198.088 Y158.847 Z17.186
X198.087 Y157.396 Z17.202
X198.033 Y153.675 Z17.171
X198.062 Y152.74 Z17.086
X197.082 Y151.773 Z17.996
X198.062 Y152.74 Z17.086
X198.702 Y152.256 Z17.582
X199.194 Y152.041 Z17.792
X199.593 Y151.932 Z17.893
X200.068 Y151.887 Z17.922
X200.701 Y151.868 Z17.906
X200.786 Y151.953 Z17.991
X200.701 Y151.868 Z17.906
X200.786 Y151.778 Z17.991
G0 Z25
X187.564 Y52.609
Z23
G1 Z17.994 F850
X187.654 Y52.704 Z17.904
X187.568 Y52.79 Z17.99
X187.654 Y52.704 Z17.904
X188.896 Y52.763 Z17.893
X189.284 Y52.868 Z17.796
X189.757 Y53.072 Z17.6
X190.124 Y53.32 Z17.356
X190.389 Y53.56 Z17.116
X190.92 Y53.159 Z17.51
X191.363 Y52.922 Z17.741
X191.945 Y52.77 Z17.879
X192.461 Y52.719 Z17.914
X193.199 Y52.702 Z17.903
X193.285 Y52.613 Z17.988
X193.199 Y52.702 Z17.903
X193.286 Y52.789 Z17.99
X193.199 Y52.702 Z17.903
X192.461 Y52.719 Z17.914
X191.945 Y52.77 Z17.879
X191.363 Y52.922 Z17.741
X190.92 Y53.159 Z17.51
X190.389 Y53.56 Z17.116
X190.402 Y54.235 Z17.16
X190.435 Y56.638 Z17.222
X190.446 Y60.069 Z17.191
X190.512 Y61.103 Z17.105
X190.421 Y61.426 Z17.188
X190.377 Y61.885 Z17.216
X190.324 Y62.482 Z17.155
X190.288 Y62.666 Z17.116
X189.71 Y62.871 Z17.479
X189.318 Y62.928 Z17.64
X188.652 Y62.938 Z17.792
X187.833 Y62.872 Z17.863
X187.685 Y62.862 Z17.873
X187.565 Y62.968 Z17.993
X187.685 Y62.862 Z17.873
X187.568 Y62.745 Z17.99
X187.685 Y62.862 Z17.873
X187.833 Y62.872 Z17.863
X188.652 Y62.938 Z17.792
X189.318 Y62.928 Z17.64
X189.71 Y62.871 Z17.479
X190.288 Y62.666 Z17.116
X191.182 Y63.929 Z17.986
X191.193 Y63.943 Z17.998
X191.182 Y63.929 Z17.986
X190.288 Y62.666 Z17.116
X190.324 Y62.482 Z17.155
X190.377 Y61.885 Z17.216
X190.421 Y61.426 Z17.188
X190.512 Y61.103 Z17.105
X190.838 Y61.162 Z17.382
X191.203 Y61.272 Z17.67
X191.473 Y61.414 Z17.845
X191.723 Y61.649 Z17.919
X192.404 Y62.264 Z17.927
X193.066 Y62.728 Z17.836
X193.691 Y63.079 Z17.687
X194.181 Y63.248 Z17.582
X194.646 Y63.324 Z17.533
X195.368 Y63.341 Z17.456
X196.029 Y63.247 Z17.378
X196.65 Y63.059 Z17.294
X197.328 Y62.688 Z17.2
X197.775 Y62.303 Z17.141
X198.157 Y61.75 Z17.109
X198.349 Y61.19 Z17.129
X198.495 Y60.44 Z17.154
X198.551 Y59.582 Z17.188
X198.542 Y57.695 Z17.204
X198.493 Y54.512 Z17.171
X198.522 Y53.578 Z17.086
X197.542 Y52.611 Z17.996
X198.522 Y53.578 Z17.086
X199.162 Y53.094 Z17.581
X199.654 Y52.879 Z17.792
X200.061 Y52.768 Z17.894
X200.53 Y52.725 Z17.922
X201.162 Y52.706 Z17.907
X201.246 Y52.79 Z17.991
X201.162 Y52.706 Z17.907
X201.247 Y52.616 Z17.992
G0 Z25
X188.842 Y82.626
Z23
G1 Z17.996 F850
X188.956 Y82.745 Z17.882
X188.843 Y82.844 Z17.995
X188.956 Y82.745 Z17.882
X189.637 Y82.799 Z17.854
X190.288 Y82.885 Z17.788
X190.655 Y82.983 Z17.699
X191.069 Y83.19 Z17.498
X191.616 Y83.591 Z17.104
X192.142 Y83.175 Z17.517
X192.615 Y82.971 Z17.714
X193.084 Y82.844 Z17.831
X193.586 Y82.793 Z17.867
X194.452 Y82.739 Z17.888
X194.552 Y82.635 Z17.988
X194.452 Y82.739 Z17.888
X194.561 Y82.838 Z17.997
X194.452 Y82.739 Z17.888
X193.586 Y82.793 Z17.867
X193.084 Y82.844 Z17.831
X192.615 Y82.971 Z17.714
X192.142 Y83.175 Z17.517
X191.616 Y83.591 Z17.104
X191.61 Y84.324 Z17.175
X191.615 Y88.868 Z17.225
X191.628 Y90.057 Z17.212
X191.726 Y91.172 Z17.114
X191.643 Y91.509 Z17.197
X191.615 Y91.846 Z17.225
X191.625 Y97.618 Z17.176
X191.561 Y99.054 Z17.064
X192.548 Y100.337 Z17.989
X191.561 Y99.054 Z17.064
X191.211 Y99.226 Z17.316
X190.712 Y99.368 Z17.566
X190.155 Y99.447 Z17.751
X189.652 Y99.438 Z17.819
X188.981 Y99.392 Z17.857
X188.848 Y99.259 Z17.99
X188.981 Y99.392 Z17.857
X188.847 Y99.512 Z17.991
X188.981 Y99.392 Z17.857
X189.652 Y99.438 Z17.819
X190.155 Y99.447 Z17.751
X190.712 Y99.368 Z17.566
X191.211 Y99.226 Z17.316
X191.561 Y99.054 Z17.064
X191.625 Y97.618 Z17.176
X191.615 Y91.846 Z17.225
X191.643 Y91.509 Z17.197
X191.726 Y91.172 Z17.114
X192.016 Y91.239 Z17.379
X192.468 Y91.363 Z17.737
X192.695 Y91.468 Z17.869
X192.975 Y91.724 Z17.938
X193.432 Y92.132 Z17.943
X194.133 Y92.637 Z17.861
X194.744 Y93.004 Z17.733
X195.248 Y93.218 Z17.613
X195.794 Y93.346 Z17.529
X196.412 Y93.376 Z17.468
X197.013 Y93.315 Z17.418
X197.665 Y93.147 Z17.333
X198.17 Y92.92 Z17.274
X198.597 Y92.649 Z17.207
X199.004 Y92.278 Z17.141
X199.33 Y91.77 Z17.106
X199.402 Y91.573 Z17.123
X199.59 Y90.775 Z17.131
X199.685 Y89.827 Z17.166
X199.663 Y86.61 Z17.198
X199.635 Y84.885 Z17.175
X199.653 Y83.596 Z17.09
X198.695 Y82.64 Z17.987
X199.653 Y83.596 Z17.09
X199.663 Y83.588 Z17.098
X200.221 Y83.183 Z17.512
X200.626 Y82.977 Z17.716
X201.075 Y82.858 Z17.829
X201.584 Y82.798 Z17.873
X202.278 Y82.744 Z17.89
X202.377 Y82.639 Z17.989
X202.278 Y82.744 Z17.89
X202.384 Y82.841 Z17.996
G0 Z25
X194.075 Y121.701
Z23
G1 Z17.999 F850
X194.123 Y121.669 Z17.951
X194.08 Y121.623 Z17.994
X194.123 Y121.669 Z17.951
X195.677 Y122.021 Z17.661
X196.065 Y122.074 Z17.543
X196.765 Z17.062
X196.796 Y122.129 Z17.064
X197.38 Z17.513
X197.612 Z17.626
X198.132 Z17.664
X200.557 Y122.16 Z17.645
X200.945 Y122.526 Z17.991
X200.557 Y122.16 Z17.645
X200.874 Y121.8 Z17.998
X200.557 Y122.16 Z17.645
X198.132 Y122.129 Z17.664
X197.612 Z17.626
X197.38 Z17.513
X196.796 Z17.064
Y122.447 Z17.184
Y122.714 Z17.219
X196.819 Y125.77 Z17.127
X195.939 Y126.327 Z17.986
X196.819 Y125.77 Z17.127
X197.683 Y127.059 Z17.909
X197.691 Y127.155 Z17.989
X197.683 Y127.059 Z17.909
X197.762 Y127.095 Z17.986
X197.683 Y127.059 Z17.909
X196.819 Y125.77 Z17.127
X196.796 Y122.714 Z17.219
Y122.447 Z17.184
Y122.129 Z17.064
X196.765 Y122.074 Z17.062
X196.781 Y121.785 Z17.175
X196.796 Y116.794 Z17.219
X196.788 Y116.039 Z17.211
X196.824 Y114.435 Z17.142
X196.888 Y113.898 Z17.101
X197.049 Y113.418 Z17.073
X197.286 Y113.121 Z17.115
X197.4 Y113.022 Z17.142
X197.439 Y112.995 Z17.153
X197.849 Y112.744 Z17.26
X198.425 Y112.565 Z17.39
X198.901 Y112.515 Z17.479
X199.52 Y112.57 Z17.572
X199.759 Y112.21 Z17.988
X199.52 Y112.57 Z17.572
X200.031 Y112.86 Z17.773
X200.569 Y113.265 Z17.92
X200.7 Y113.381 Z17.944
X200.707 Y113.442 Z17.988
X200.7 Y113.381 Z17.944
X200.762 Z17.991
G0 Z25
X201.944 Y151.98
Z23
G1 Z17.998 F850
X202.053 Y151.879 Z17.889
X201.954 Y151.775 Z17.988
X202.053 Y151.879 Z17.889
X202.805 Y151.922 Z17.872
X203.282 Y151.967 Z17.841
X203.661 Y152.069 Z17.749
X204.177 Y152.306 Z17.521
X204.725 Y152.758 Z17.077
X205.221 Y152.347 Z17.492
X205.609 Y152.154 Z17.682
X206.084 Y152.004 Z17.824
X206.531 Y151.95 Z17.866
X207.397 Y151.887 Z17.888
X207.496 Y151.782 Z17.987
X207.397 Y151.887 Z17.888
X207.505 Y151.984 Z17.996
X207.397 Y151.887 Z17.888
X206.531 Y151.95 Z17.866
X206.084 Y152.004 Z17.824
X205.609 Y152.154 Z17.682
X205.221 Y152.347 Z17.492
X204.725 Y152.758 Z17.077
Y153.803 Z17.17
Y163.161 Z17.219
X204.74 Y166.703 Z17.166
X204.747 Y167.625 Z17.135
X204.697 Y168.146 Z17.061
X205.702 Y169.486 Z17.996
X204.697 Y168.146 Z17.061
X204.136 Y168.395 Z17.451
X203.912 Y168.456 Z17.562
X203.35 Y168.53 Z17.744
X202.078 Y168.479 Z17.864
X201.952 Y168.353 Z17.99
X202.078 Y168.479 Z17.864
X201.946 Y168.597 Z17.996
G0 Z25
X203.45 Y121.941
Z23
G1 Z17.989 F850
X203.796 Y121.744 Z17.646
X203.611 Y120.753 Z17.831
X203.453 Y120.633 Z17.987
X203.611 Y120.753 Z17.831
X203.712 Y120.556 Z17.994
X203.611 Y120.753 Z17.831
X203.796 Y121.744 Z17.646
X203.938 Y121.907 Z17.718
X204.312 Y122.268 Z17.847
X204.591 Y122.428 Z17.848
X205.338 Y122.778 Z17.803
X205.996 Y122.976 Z17.736
X206.611 Y123.077 Z17.666
X207.445 Y123.08 Z17.581
X208.089 Y122.984 Z17.512
X208.667 Y122.805 Z17.414
X209.177 Y122.535 Z17.331
X209.69 Y122.178 Z17.257
X210.087 Y121.693 Z17.18
X210.286 Y121.334 Z17.171
X210.452 Y120.876 Z17.189
X210.558 Y120.197 Z17.238
X210.628 Y119.212 Z17.242
X210.604 Y118.851 Z17.203
X210.063 Z17.679
X209.863 Z17.816
X209.682 Z17.885
X208.238 Y118.583 Z17.871
X206.945 Y118.27 Z17.822
X205.525 Y117.8 Z17.723
X204.922 Y117.563 Z17.662
X204.47 Y117.258 Z17.56
X204.083 Y116.914 Z17.474
X203.758 Y116.458 Z17.393
X203.551 Y116.001 Z17.314
X203.396 Y115.42 Z17.232
X203.353 Y114.778 Z17.183
X203.41 Y114.206 Z17.146
X203.524 Y113.807 Z17.123
X203.849 Y113.299 Z17.15
X204.285 Y112.919 Z17.245
X204.7 Y112.698 Z17.324
X205.273 Y112.522 Z17.442
X205.891 Y112.453 Z17.515
X206.223 Y112.469 Z17.561
X206.627 Y112.579 Z17.646
X207.316 Y112.879 Z17.82
X207.976 Y113.262 Z17.915
X208.588 Y113.694 Z17.942
X209.271 Y114.253 Z17.912
X209.579 Y114.497 Z17.845
X209.902 Y114.606 Z17.665
X210.312 Y114.642 Z17.367
X210.59 Z17.136
X210.633 Y114.867 Z17.187
X210.645 Y116.565 Z17.213
X210.641 Y118.45 Z17.228
X210.604 Y118.851 Z17.203
X210.641 Y118.45 Z17.228
X210.645 Y116.565 Z17.213
X210.633 Y114.867 Z17.187
X210.59 Y114.642 Z17.136
X210.647 Y114.393 Z17.18
X210.727 Y113.111 Z17.155
X209.873 Y112.214 Z18
X210.727 Y113.111 Z17.155
X211.23 Y112.731 Z17.548
X211.739 Y112.489 Z17.788
X212.109 Y112.402 Z17.864
X212.603 Y112.374 Z17.871
X213.002 Y112.363 Z17.86
X213.129 Y112.228 Z17.987
X213.002 Y112.363 Z17.86
X213.132 Y112.493 Z17.99
G0 Z25
X204.345 Y188.445
Z23
G1 Z17.999 F850
X204.757 Y188.055 Z17.587
X204.348 Y187.621 Z17.996
X204.757 Y188.055 Z17.587
X204.866 Y188.063 Z17.585
X205.66 Y188.158 Z17.525
X206.237 Y188.269 Z17.427
X206.557 Y188.397 Z17.303
X207.328 Y188.79 Z16.913
X207.782 Y188.509 Z17.191
X208.243 Y188.318 Z17.38
X208.683 Y188.21 Z17.482
X210.059 Y188.071 Z17.576
X210.228 Y188.059 Z17.579
X210.641 Y188.443 Z17.992
X210.228 Y188.059 Z17.579
X210.638 Y187.625 Z17.989
X210.228 Y188.059 Z17.579
X210.059 Y188.071 Z17.576
X208.683 Y188.21 Z17.482
X208.243 Y188.318 Z17.38
X207.782 Y188.509 Z17.191
X207.328 Y188.79 Z16.913
X207.417 Y189.381 Z17.109
X207.461 Y189.569 Z17.148
X207.473 Y189.615 Z17.157
X207.612 Y190.081 Z17.223
X208.015 Y191.176 Z17.304
X208.568 Y192.577 Z17.359
X209.216 Y194.137 Z17.367
X209.514 Y194.535 Z17.243
X209.705 Y194.713 Z17.134
X209.689 Y194.986 Z17.254
X209.722 Y195.35 Z17.36
X209.822 Y195.687 Z17.396
X212.907 Y203.223 Z17.388
X213.126 Y203.61 Z17.332
X213.449 Y203.953 Z17.162
X213.876 Y204.255 Z16.88
X214.408 Y204.513 Z16.486
X215.044 Y204.73 Z15.979
X215.035 Y206.451 Z16.638
X214.124 Y207.808 Z17.995
X215.035 Y206.451 Z16.638
X215.935 Y207.807 Z17.994
X215.035 Y206.451 Z16.638
X215.044 Y204.73 Z15.979
X215.383 Y204.238 Z16.101
X215.648 Y203.714 Z16.141
X218.802 Y196.18 Z16.126
X218.963 Y195.726 Z16.098
X219.073 Y195.251 Z16.015
X218.251 Y194.919 Z16.771
X217.899 Y194.777 Z17.04
X217.563 Y194.641 Z17.229
X217.228 Y194.538 Z17.339
X216.741 Y194.497 Z17.388
X213.482 Y194.477 Z17.437
X210.655 Y194.498 Z17.388
X210.209 Y194.542 Z17.335
X209.705 Y194.713 Z17.134
X210.209 Y194.542 Z17.335
X210.655 Y194.498 Z17.388
X213.482 Y194.477 Z17.437
X216.741 Y194.497 Z17.388
X217.228 Y194.538 Z17.339
X217.563 Y194.641 Z17.229
X217.899 Y194.777 Z17.04
X218.251 Y194.919 Z16.771
X219.073 Y195.251 Z16.015
X219.317 Y194.86 Z16.088
X220.523 Y191.98 Z16.082
X220.945 Y190.922 Z16.065
X221.367 Y189.732 Z15.97
X220.839 Y189.168 Z16.531
X220.779 Y189.113 Z16.585
X220.637 Y188.987 Z16.71
X220.042 Y188.545 Z17.147
X219.592 Y188.32 Z17.365
X219.231 Y188.202 Z17.477
X218.627 Y188.119 Z17.545
X217.549 Y188.042 Z17.586
X217.506 Y188.04
X217.093 Y187.611 Z17.999
X217.506 Y188.04 Z17.586
X217.098 Y188.436 Z17.994
X217.506 Y188.04 Z17.586
X217.549 Y188.042
X218.627 Y188.119 Z17.545
X219.231 Y188.202 Z17.477
X219.592 Y188.32 Z17.365
X220.042 Y188.545 Z17.147
X220.637 Y188.987 Z16.71
X220.779 Y189.113 Z16.585
X220.839 Y189.168 Z16.531
X221.367 Y189.732 Z15.97
X222.924 Y188.786 Z16.907
X223.747 Y188.348 Z17.332
X224.391 Y188.192 Z17.472
X225.1 Y188.081 Z17.559
X225.497 Y188.048 Z17.578
X225.909 Y188.437 Z17.99
X225.497 Y188.048 Z17.578
X225.91 Y187.619 Z17.991
G0 Z25
X204.769 Y92.354
Z23
G1 Z17.989 F850
X205.115 Y92.156 Z17.646
X204.93 Y91.165 Z17.831
X204.772 Y91.046 Z17.987
X204.93 Y91.165 Z17.831
X205.033 Y90.965 Z17.997
X204.93 Y91.165 Z17.831
X205.115 Y92.156 Z17.646
X205.418 Y92.503 Z17.798
X205.787 Y92.771 Z17.849
X206.442 Y93.102 Z17.821
X207.116 Y93.339 Z17.757
X207.841 Y93.481 Z17.676
X208.424 Y93.506 Z17.612
X209.192 Y93.439 Z17.54
X209.809 Y93.284 Z17.446
X210.297 Y93.066 Z17.361
X210.897 Y92.676 Z17.276
X211.131 Y92.456 Z17.236
X211.523 Y91.916 Z17.168
X211.716 Y91.457 Z17.184
X211.771 Y91.29 Z17.189
X211.879 Y90.588 Z17.238
X211.947 Y89.624 Z17.242
X211.922 Y89.264 Z17.203
X211.381 Z17.68
X211.182 Z17.816
X211.001 Z17.885
X209.555 Y88.995 Z17.87
X208.264 Y88.683 Z17.823
X206.844 Y88.214 Z17.723
X206.241 Y87.975 Z17.662
X205.712 Y87.611 Z17.544
X205.362 Y87.282 Z17.465
X205.036 Y86.796 Z17.378
X204.83 Y86.293 Z17.296
X204.704 Y85.767 Z17.226
X204.673 Y85.109 Z17.177
X204.734 Y84.592 Z17.145
X204.847 Y84.212 Z17.123
X205.167 Y83.713 Z17.15
X205.605 Y83.331 Z17.245
X206.021 Y83.11 Z17.325
X206.582 Y82.937 Z17.441
X207.182 Y82.867 Z17.512
X207.541 Y82.882 Z17.561
X207.967 Y82.999 Z17.651
X208.634 Y83.291 Z17.819
X209.295 Y83.675 Z17.915
X209.908 Y84.108 Z17.942
X210.662 Y84.731 Z17.904
X210.898 Y84.91 Z17.845
X211.223 Y85.019 Z17.664
X211.626 Y85.055 Z17.371
X211.909 Z17.136
X211.969 Y85.446 Z17.208
X211.966 Y86.373 Z17.217
X211.922 Y89.264 Z17.203
X211.966 Y86.373 Z17.217
X211.969 Y85.446 Z17.208
X211.909 Y85.055 Z17.136
X211.966 Y84.806 Z17.18
X212.046 Y83.524 Z17.155
X211.206 Y82.641 Z17.986
X212.046 Y83.524 Z17.155
X212.555 Y83.141 Z17.552
X213.084 Y82.893 Z17.796
X213.454 Y82.812 Z17.866
X214.005 Y82.785 Z17.868
X214.32 Y82.776 Z17.859
X214.448 Y82.641 Z17.987
X214.32 Y82.776 Z17.859
X214.451 Y82.907 Z17.99
G0 Z25
X208.776 Y162.794
Z23
G1 Z17.996 F850
X208.865 Y162.699 Z17.907
X208.781 Y162.615 Z17.991
X208.865 Y162.699 Z17.907
X208.876
X209.503 Y162.622 Z17.865
X210.005 Y162.5 Z17.758
X210.543 Y162.271 Z17.539
X211.321 Y161.809 Z17.073
X211.795 Y162.218 Z17.474
X212.201 Y162.46 Z17.707
X212.612 Y162.604 Z17.841
X213.089 Y162.684 Z17.908
X213.945 Y162.704 Z17.902
X214.036 Y162.799 Z17.993
X213.945 Y162.704 Z17.902
X214.033 Y162.616 Z17.99
X213.945 Y162.704 Z17.902
X213.089 Y162.684 Z17.908
X212.612 Y162.604 Z17.841
X212.201 Y162.46 Z17.707
X211.795 Y162.218 Z17.474
X211.321 Y161.809 Z17.073
X211.44 Y161.378 Z17.134
X212.574 Y158.463 Z17.22
X214.427 Y153.893 Z17.213
X214.771 Y153.085 Z17.19
X214.98 Y152.767 Z17.112
X214.923 Y150.824 Z17.812
X214.609 Y150.036 Z17.838
X213.845 Y148.274 Z17.855
X213.086 Y146.784 Z17.798
X212.777 Y146.302 Z17.752
X212.341 Y145.857 Z17.692
X211.976 Y145.625 Z17.644
X211.492 Y145.431 Z17.57
X210.998 Y145.337 Z17.502
X210.493 Y145.366 Z17.42
X210.474 Y145.369 Z17.416
X210.096 Y145.48 Z17.354
X209.987 Y145.419 Z17.44
X209.313 Y145.105 Z17.996
X209.987 Y145.419 Z17.44
X210.096 Y145.48 Z17.354
X209.827 Y146.308 Z17.85
X209.76 Y146.593 Z17.996
X209.827 Y146.308 Z17.85
X210.096 Y145.48 Z17.354
X210.474 Y145.369 Z17.416
X210.493 Y145.366 Z17.42
X210.998 Y145.337 Z17.502
X211.492 Y145.431 Z17.57
X211.976 Y145.625 Z17.644
X212.341 Y145.857 Z17.692
X212.777 Y146.302 Z17.752
X213.086 Y146.784 Z17.798
X213.845 Y148.274 Z17.855
X214.609 Y150.036 Z17.838
X214.923 Y150.824 Z17.812
X214.98 Y152.767 Z17.112
X215.443 Y152.942 Z17.471
X215.735 Y153.123 Z17.669
X215.944 Y153.338 Z17.779
X216.63 Y154.863 Z17.814
X217.876 Y157.777 Z17.792
X219.023 Y160.485 Z17.69
X219.397 Y161.417 Z17.604
X219.522 Y161.879 Z17.505
X219.536 Y162.13 Z17.401
X220.127 Y162.421 Z17.686
X220.655 Y162.591 Z17.844
X221.169 Y162.682 Z17.909
X221.421 Y162.698 Z17.908
X221.509 Y162.792 Z17.996
X221.421 Y162.698 Z17.908
X221.504 Y162.615 Z17.991
X221.421 Y162.698 Z17.908
X221.169 Y162.682 Z17.909
X220.655 Y162.591 Z17.844
X220.127 Y162.421 Z17.686
X219.536 Y162.13 Z17.401
X218.976 Y162.431 Z17.695
X218.557 Y162.555 Z17.809
X218.017 Y162.617 Z17.852
X217.433 Y162.674 Z17.881
X217.321 Y162.577 Z17.993
X217.433 Y162.674 Z17.881
X217.32 Y162.794 Z17.994
G0 Z25
X215.855 Y110.563
Z23
G1 Z17.99 F850
X216.238 Y110.135 Z17.438
X216.751 Y110.698 Z17.71
X217.326 Y111.19 Z17.854
X218.002 Y111.677 Z17.898
X218.178 Y111.838 Z17.858
X218.351 Y112.124 Z17.688
X218.544 Y112.657 Z17.246
X218.985 Y112.643 Z17.352
X219.8 Y112.6 Z17.427
X222.807 Y112.629 Z17.399
X223.741 Y112.612 Z17.351
X224.201 Y112.566 Z17.296
X224.811 Y112.408 Z17.158
X225.232 Y112.19 Z17.071
X225.516 Y111.881
X225.808 Y111.359 Z17.124
X225.995 Y110.823 Z17.186
X226.083 Y110.24 Z17.259
X226.069 Y109.519 Z17.341
X225.939 Y108.917 Z17.411
X225.692 Y108.263 Z17.501
X225.438 Y107.826 Z17.56
X224.964 Y107.196 Z17.635
X224.468 Y106.721 Z17.707
X223.881 Y106.308 Z17.766
X223.215 Y105.963 Z17.811
X222.397 Y105.669 Z17.827
X221.691 Y105.509 Z17.833
X220.797 Y105.428 Z17.827
X219.966 Y105.433 Z17.802
X219.156 Y105.522 Z17.76
X218.488 Y105.694 Z17.688
X217.916 Y105.939 Z17.62
X217.296 Y106.316 Z17.549
X216.701 Y106.841 Z17.432
X216.319 Y107.357 Z17.358
X216.13 Y107.748 Z17.31
X216.002 Y108.278 Z17.291
X215.939 Y108.768 Z17.284
X215.987 Y109.338 Z17.323
X216.122 Y109.849 Z17.394
X216.238 Y110.135 Z17.438
X216.122 Y109.849 Z17.394
X215.987 Y109.338 Z17.323
X215.939 Y108.768 Z17.284
X216.002 Y108.278 Z17.291
X216.13 Y107.748 Z17.31
X216.319 Y107.357 Z17.358
X216.701 Y106.841 Z17.432
X217.296 Y106.316 Z17.549
X217.916 Y105.939 Z17.62
X218.488 Y105.694 Z17.688
X219.156 Y105.522 Z17.76
X219.966 Y105.433 Z17.802
X220.797 Y105.428 Z17.827
X221.691 Y105.509 Z17.833
X222.397 Y105.669 Z17.827
X223.215 Y105.963 Z17.811
X223.881 Y106.308 Z17.766
X224.468 Y106.721 Z17.707
X224.964 Y107.196 Z17.635
X225.438 Y107.826 Z17.56
X225.692 Y108.263 Z17.501
X225.939 Y108.917 Z17.411
X226.069 Y109.519 Z17.341
X226.083 Y110.24 Z17.259
X225.995 Y110.823 Z17.186
X225.808 Y111.359 Z17.124
X225.516 Y111.881 Z17.071
X225.232 Y112.19
X224.811 Y112.408 Z17.158
X224.201 Y112.566 Z17.296
X223.741 Y112.612 Z17.351
X222.807 Y112.629 Z17.399
X219.8 Y112.6 Z17.427
X218.985 Y112.643 Z17.352
X218.544 Y112.657 Z17.246
X218.225 Y112.826 Z17.3
X217.721 Y113.087 Z17.221
X217.365 Y113.36 Z17.133
X217.202 Y113.279 Z17.288
X217.107 Y113.22 Z17.389
X216.934 Y113.149 Z17.572
X217.107 Y113.22 Z17.389
X217.202 Y113.279 Z17.288
X217.365 Y113.36 Z17.133
X217.331 Y113.707 Z17.265
X217.334 Y113.779 Z17.294
X217.462 Y114.246 Z17.53
X217.661 Y114.621 Z17.723
X217.934 Y114.992 Z17.867
X218.315 Y115.357 Z17.945
X218.767 Y115.75 Z17.964
X218.884 Y115.981 Z17.854
X218.944 Y116.316 Z17.622
X218.738 Y116.445 Z17.626
X218.03 Y116.826 Z17.463
X217.707 Y117.054 Z17.377
X217.15 Y117.643 Z17.202
X217.101 Y117.722 Z17.195
X216.818 Y118.257 Z17.145
X216.678 Y118.815 Z17.15
X216.629 Y119.339 Z17.172
X216.653 Y120.035 Z17.237
X216.819 Y120.768 Z17.357
X217.054 Y121.343 Z17.479
X217.365 Y121.841 Z17.582
X217.902 Y122.402 Z17.736
X218.308 Y122.7 Z17.808
X218.908 Y123.023 Z17.879
X219.489 Y123.222 Z17.884
X220.244 Y123.341 Z17.855
X221.094 Y123.32 Z17.758
X221.649 Y123.21 Z17.675
X222.208 Y122.987 Z17.555
X222.85 Y122.592 Z17.411
X223.427 Y122.019 Z17.241
X223.749 Y121.676 Z17.115
X224.147 Y121.904 Z17.415
X224.507 Y122.058 Z17.569
X224.867 Y122.11 Z17.621
X226.732 Y122.127 Z17.604
X226.969 Y121.738 Z17.993
X226.732 Y122.127 Z17.604
X227.466 Y122.581 Z17.998
X226.732 Y122.127 Z17.604
X224.867 Y122.11 Z17.621
X224.507 Y122.058 Z17.569
X224.147 Y121.904 Z17.415
X223.749 Y121.676 Z17.115
X223.825 Y121.291 Z17.191
X224.016 Y120.58 Z17.172
X224.064 Y120.194 Z17.17
X224.038 Y119.518 Z17.236
X223.883 Y118.866 Z17.345
X223.653 Y118.296 Z17.471
X223.342 Y117.781 Z17.579
X222.864 Y117.248 Z17.711
X222.471 Y116.923 Z17.79
X221.858 Y116.572 Z17.87
X221.376 Y116.386 Z17.894
X220.698 Y116.265 Z17.892
X219.966 Y116.25 Z17.854
X219.334 Y116.325 Z17.787
X218.944 Y116.316 Z17.622
G0 Z25
X215.915 Y82.837
Z23
G1 Z17.998 F850
X216.023 Y82.738 Z17.89
X215.923 Y82.634 Z17.99
X216.023 Y82.738 Z17.89
X216.853 Y82.79 Z17.873
X217.392 Y82.836 Z17.843
X217.929 Y82.967 Z17.721
X218.268 Y83.138 Z17.553
X218.92 Y83.616 Z17.08
X219.471 Y83.196 Z17.496
X219.914 Y82.97 Z17.717
X220.21 Y82.882 Z17.8
X220.992 Y82.761 Z17.903
X221.838 Y82.727 Z17.908
X222.067 Y82.722 Z17.903
X222.154 Y82.809 Z17.99
X222.067 Y82.722 Z17.903
X222.153 Y82.633 Z17.989
X222.067 Y82.722 Z17.903
X221.838 Y82.727 Z17.908
X220.992 Y82.761 Z17.903
X220.21 Y82.882 Z17.8
X219.914 Y82.97 Z17.717
X219.471 Y83.196 Z17.496
X218.92 Y83.616 Z17.08
X218.928 Y84.284 Z17.15
X218.917 Y86.292 Z17.229
X218.938 Y88.406 Z17.232
X219.016 Y89.939 Z17.164
X219.063 Y90.585 Z17.095
X219.016 Y90.7 Z17.136
X218.914 Y91.034 Z17.212
X218.834 Y91.81 Z17.189
X218.756 Y92.661 Z17.093
X218.352 Y92.818 Z17.353
X217.682 Y92.966 Z17.651
X217.228 Y92.997 Z17.771
X216.609 Y92.956 Z17.835
X216.039 Y92.917 Z17.874
X215.923 Y92.801 Z17.99
X216.039 Y92.917 Z17.874
X215.919 Y93.023 Z17.994
X216.039 Y92.917 Z17.874
X216.609 Y92.956 Z17.835
X217.228 Y92.997 Z17.771
X217.682 Y92.966 Z17.651
X218.352 Y92.818 Z17.353
X218.756 Y92.661 Z17.093
X219.516 Y93.727 Z17.832
X219.673 Y93.96 Z17.991
X219.516 Y93.727 Z17.832
X218.756 Y92.661 Z17.093
X218.834 Y91.81 Z17.189
X218.914 Y91.034 Z17.212
X219.016 Y90.7 Z17.136
X219.063 Y90.585 Z17.095
X219.659 Y90.785 Z17.599
X220.003 Y90.994 Z17.833
X220.188 Y91.192 Z17.893
X220.608 Y91.656 Z17.91
X221.012 Y92.043 Z17.85
X221.489 Y92.425 Z17.711
X222.057 Y92.749 Z17.497
X222.595 Y92.942 Z17.307
X222.732 Y92.977 Z17.256
X222.935 Y93.004 Z17.195
X223.375 Y92.986 Z17.08
X223.912 Y93.442 Z17.552
X224.379 Y93.75 Z17.973
X224.404 Y93.764 Z17.997
X224.379 Y93.75 Z17.973
X223.912 Y93.442 Z17.552
X223.375 Y92.986 Z17.08
X223.739 Y92.286 Z17.51
X224.016 Y91.525 Z17.824
X224.092 Y91.224 Z17.907
X224.042 Y91.143 Z17.988
X224.092 Y91.224 Z17.907
X224.177 Y91.137 Z17.994
G0 Z25
X224.925 Y161.439
Z23
G1 Z17.328 F850
X225.389 Y161.629 Z16.838
X225.393 Y161.632 Z16.833
X225.242 Y161.267 Z17.218
X225.393 Y161.632 Z16.833
X225.398 Y161.635 Z16.829
X225.401 Y161.632 Z16.832
X225.402 Y161.631 Z16.833
X225.405 Y161.63 Z16.835
Z16.836
X225.752 Y161.486 Z17.201
X225.405 Y161.63 Z16.836
Z16.835
X225.402 Y161.631 Z16.833
X225.571 Y161.225 Z17.262
X225.402 Y161.631 Z16.833
X225.401 Y161.632 Z16.832
X225.398 Y161.635 Z16.829
X225.392 Y161.641 Z16.835
X225.391 Y161.642 Z16.837
X224.993 Y161.806 Z17.256
X225.391 Y161.642 Z16.837
X225.392 Y161.641 Z16.835
X225.242 Y162.004 Z17.218
X225.392 Y161.641 Z16.835
X225.398 Y161.635 Z16.829
X225.401 Y161.64 Z16.833
X225.402 Y161.641 Z16.834
X225.756 Y161.788 Z17.207
X225.402 Y161.641 Z16.834
X225.403 Y161.643 Z16.836
X225.575 Y162.055 Z17.271
G0 Z25
X225.053 Y152.546
Z23
G1 Z17.192 F850
X225.396 Y152.689 Z16.83
X225.395 Y152.69 Z16.832
X225.39 Y152.695 Z16.837
X225.386 Y152.697 Z16.841
X225.39 Y152.695 Z16.837
X225.231 Y153.08 Z17.243
X225.39 Y152.695 Z16.837
X225.395 Y152.69 Z16.832
X225.396 Y152.689 Z16.83
X225.398 Y152.688 Z16.829
Y152.686 Z16.831
X225.209 Y152.234 Z17.31
X225.398 Y152.686 Z16.831
Y152.685 Z16.832
X225.401 Y152.676 Z16.841
X225.582 Y152.246 Z17.296
X225.401 Y152.676 Z16.841
X225.398 Y152.685 Z16.832
Y152.686 Z16.831
Y152.688 Z16.829
X225.399 Y152.689 Z16.83
X225.805 Y152.52 Z17.259
X225.399 Y152.689 Z16.83
X225.4 Y152.69 Z16.831
X225.401 Y152.691 Z16.832
X225.406 Y152.696 Z16.838
X225.779 Y152.852 Z17.231
X225.406 Y152.696 Z16.838
Y152.697 Z16.839
X225.569 Y153.094 Z17.257
G0 Z25
X227.772 Y207.639
Z23
G1 Z17.995 F850
X228.143 Y207.256 Z17.624
X227.774 Y206.912 Z17.993
X228.143 Y207.256 Z17.624
X228.62 Y207.225 Z17.606
X229.903 Y207.078 Z17.488
X230.223 Y207.005 Z17.419
X230.277 Y206.988 Z17.402
X230.397 Y206.946 Z17.362
X230.779 Y206.778 Z17.198
X230.87 Y206.729 Z17.15
X231.011 Y206.648 Z17.068
X231.266 Y206.488 Z16.905
X232.456 Y205.497 Z15.894
X232.182 Y205.243 Z16.193
X231.657 Y204.672 Z16.755
X231.37 Y204.261 Z17.054
X231.185 Y203.885 Z17.242
X231.079 Y203.52 Z17.345
X231.06 Y197.509 Z17.384
X231.062 Y191.893 Z17.313
Y190.474 Z17.283
X231.058 Y189.323 Z17.152
X231.046 Y188.688 Z17.013
X231.207 Y188.584 Z17.118
X231.684 Y188.331 Z17.364
X231.848 Y188.268 Z17.424
X232.243 Y188.165 Z17.519
X233.492 Y188.025 Z17.62
X233.914 Y187.997 Z17.631
X234.269 Y187.626 Z17.986
X233.914 Y187.997 Z17.631
X234.281 Y188.344 Z17.998
X233.914 Y187.997 Z17.631
X233.492 Y188.025 Z17.62
X232.243 Y188.165 Z17.519
X231.848 Y188.268 Z17.424
X231.684 Y188.331 Z17.364
X231.207 Y188.584 Z17.118
X231.046 Y188.688 Z17.013
X230.763 Y188.51 Z17.186
X230.257 Y188.267 Z17.421
X229.921 Y188.157 Z17.523
X229.213 Y188.063 Z17.598
X228.249 Y187.992 Z17.637
X228.13 Y187.986
X227.78 Y188.326 Z17.987
X228.13 Y187.986 Z17.637
X227.774 Y187.616 Z17.993
X228.13 Y187.986 Z17.637
X228.249 Y187.992
X229.213 Y188.063 Z17.598
X229.921 Y188.157 Z17.523
X230.257 Y188.267 Z17.421
X230.763 Y188.51 Z17.186
X231.046 Y188.688 Z17.013
X231.058 Y189.323 Z17.152
X231.062 Y190.474 Z17.283
Y191.893 Z17.313
X231.06 Y197.509 Z17.384
X231.079 Y203.52 Z17.345
X231.185 Y203.885 Z17.242
X231.37 Y204.261 Z17.054
X231.657 Y204.672 Z16.755
X232.182 Y205.243 Z16.193
X232.456 Y205.497 Z15.894
X232.568 Y205.485 Z15.879
X233.555 Y207.639 Z17.992
X232.568 Y205.485 Z15.879
X232.83 Y205.298 Z15.967
X233.221 Y204.962 Z16.065
X234.506 Y203.401 Z16.093
X237.195 Y200.102 Z16.086
X241.281 Y195.269 Z16.101
X244.617 Y191.485 Z16.072
X245.132 Y190.998 Z16.008
X245.612 Y190.661 Z15.874
X246.266 Y188.986 Z16.497
X245.508 Y187.595 Z17.988
X246.266 Y188.986 Z16.497
X247.787 Y187.241 Z17.958
X247.799 Y187.206 Z17.991
X247.787 Y187.241 Z17.958
X247.825 Y187.227 Z17.996
X247.787 Y187.241 Z17.958
X246.266 Y188.986 Z16.497
X245.612 Y190.661 Z15.874
X245.634 Y190.678 Z15.896
X246.3 Y191.274 Z16.566
X246.631 Y191.669 Z16.899
X246.956 Y192.239 Z17.224
X247.066 Y192.596 Z17.333
X247.104 Y192.953 Z17.369
X247.121 Y198.772 Z17.352
X247.118 Y203.542 Z17.304
X247.111 Y204.953 Z17.274
X247.104 Y205.862 Z17.181
X247.099 Y206.395 Z17.061
X247.108 Y206.553 Z17.01
X247.11 Y206.581 Z17
X247.284 Y206.685 Z17.104
X247.499 Y206.802 Z17.22
X247.575 Y206.84 Z17.257
X247.8 Y206.938 Z17.353
X247.953 Y206.995 Z17.409
X248.058 Y207.029 Z17.443
X248.309 Y207.094 Z17.505
X248.777 Y207.161 Z17.564
X250.01 Y207.259 Z17.628
X250.381 Y207.643 Z17.999
X250.01 Y207.259 Z17.628
X250.378 Y206.912 Z17.996
X250.01 Y207.259 Z17.628
X248.777 Y207.161 Z17.564
X248.309 Y207.094 Z17.505
X248.058 Y207.029 Z17.443
X247.953 Y206.995 Z17.409
X247.8 Y206.938 Z17.353
X247.575 Y206.84 Z17.257
X247.499 Y206.802 Z17.22
X247.284 Y206.685 Z17.104
X247.11 Y206.581 Z17
X246.668 Y206.849 Z17.27
X246.162 Y207.055 Z17.472
X246.004 Y207.095 Z17.511
X245.931 Y207.111 Z17.526
X245.881 Y207.121 Z17.535
X245.514 Y207.163 Z17.572
X244.165 Y207.254 Z17.627
X243.796 Y206.91 Z17.996
X244.165 Y207.254 Z17.627
X243.794 Y207.64 Z17.998
G0 Z25
X238.145 Y113.061
Z23
G1 Z17.986 F850
X237.98 Y113.206 Z17.781
X238.393 Y113.695 Z17.994
X237.98 Y113.206 Z17.781
X237.147 Y112.821 Z17.758
X236.207 Y112.529 Z17.724
X235.271 Y112.381 Z17.666
X234.225 Z17.578
X233.414 Y112.498 Z17.51
X232.858 Y112.652 Z17.432
X232.221 Y112.93 Z17.328
X231.509 Y113.406 Z17.255
X231.028 Y113.872 Z17.175
X230.837 Y114.091 Z17.139
X230.353 Y114.843 Z17.101
X230.04 Y115.506 Z17.067
X229.872 Y116.122 Z17.062
X229.747 Y117.092 Z17.073
X229.718 Y117.923 Z17.094
X229.784 Y118.343 Z17.057
X229.767 Y118.741 Z17.12
X229.88 Y119.539 Z17.201
X230.112 Y120.41 Z17.32
X230.29 Y120.835 Z17.389
X230.69 Y121.488 Z17.516
X231.106 Y121.983 Z17.651
X231.521 Y122.364 Z17.754
X232.218 Y122.827 Z17.847
X232.674 Y123.043 Z17.866
X233.235 Y123.202 Z17.855
X234.016 Y123.298 Z17.833
X234.699 Y123.271 Z17.788
X235.317 Y123.145 Z17.722
X235.975 Y122.905 Z17.626
X236.477 Y122.598 Z17.553
X236.897 Y122.213 Z17.466
X237.208 Y121.863 Z17.375
X237.499 Y121.319 Z17.292
X237.752 Y120.724 Z17.208
X237.88 Y120.191 Z17.163
X237.965 Y119.134 Z17.127
X238.815 Y118.427 Z17.985
X237.965 Y119.134 Z17.127
X237.357 Y118.518 Z17.676
X237.064 Y118.379 Z17.799
X236.616 Y118.329 Z17.828
X234.97 Y118.274 Z17.837
X231.053 Y118.311 Z17.795
X230.652 Y118.32 Z17.736
X230.411 Y118.326 Z17.591
X229.784 Y118.343 Z17.057
G0 Z25
X232.77 Y82.693
Z23
G1 Z17.986 F850
X232.577 Y83.036 Z17.601
X231.927 Y82.947 Z17.518
X231.104 Y82.965 Z17.405
X230.684 Y83.044 Z17.369
X230.085 Y83.221 Z17.289
X229.602 Y83.451 Z17.215
X229.117 Y83.801 Z17.17
X228.506 Y84.383 Z17.126
X228.34 Y84.625 Z17.118
X227.793 Y85.555 Z17.105
X227.56 Y86.155 Z17.117
X227.403 Y86.893 Z17.148
X227.313 Y87.905 Z17.174
X227.345 Y88.956 Z17.223
X227.471 Y89.724 Z17.296
X227.717 Y90.551 Z17.392
X227.97 Y91.081 Z17.462
X228.362 Y91.632 Z17.577
X228.721 Y92.022 Z17.694
X229.129 Y92.392 Z17.797
X229.986 Y92.974 Z17.896
X230.606 Y93.278 Z17.888
X231.352 Y93.508 Z17.815
X232.017 Y93.611 Z17.76
X232.828 Y93.596 Z17.69
X233.502 Y93.464 Z17.634
X234.311 Y93.179 Z17.558
X235.119 Y92.761 Z17.472
X235.528 Y92.549 Z17.379
X235.974 Y92.424 Z17.167
X236.318 Y92.38 Z16.957
X236.481 Y92.782 Z17.12
X236.566 Y93.183 Z17.205
X236.593 Y94.254 Z17.206
X236.619 Y97.651 Z17.18
X236.625 Y98.44 Z17.154
X236.563 Y99.05 Z17.066
X235.956 Y99.321 Z17.482
X235.401 Y99.429 Z17.702
X234.953 Y99.452 Z17.798
X234.108 Y99.405 Z17.856
X233.932 Y99.396 Z17.865
X233.807 Y99.271 Z17.99
X233.932 Y99.396 Z17.865
X233.8 Y99.515 Z17.997
X233.932 Y99.396 Z17.865
X234.108 Y99.405 Z17.856
X234.953 Y99.452 Z17.798
X235.401 Y99.429 Z17.702
X235.956 Y99.321 Z17.482
X236.563 Y99.05 Z17.066
X237.562 Y100.343 Z17.99
X236.563 Y99.05 Z17.066
X236.625 Y98.44 Z17.154
X236.619 Y97.651 Z17.18
X236.593 Y94.254 Z17.206
X236.566 Y93.183 Z17.205
X236.481 Y92.782 Z17.12
X236.318 Y92.38 Z16.957
X236.536 Y91.745 Z17.175
X236.58 Y91.318 Z17.219
Y88.336
X236.576 Y87.73 Z17.215
X236.536 Y86.69 Z17.175
X236.404 Y85.549 Z17.049
X235.913 Y85.389 Z17.475
X235.474 Y85.173 Z17.777
X235.278 Y84.991 Z17.858
X234.789 Y84.486 Z17.945
X234.127 Y83.935 Z17.947
X233.328 Y83.408 Z17.822
X232.719 Y83.099 Z17.649
X232.577 Y83.036 Z17.601
X232.719 Y83.099 Z17.649
X233.328 Y83.408 Z17.822
X234.127 Y83.935 Z17.947
X234.789 Y84.486 Z17.945
X235.278 Y84.991 Z17.858
X235.474 Y85.173 Z17.777
X235.913 Y85.389 Z17.475
X236.404 Y85.549 Z17.049
X236.511 Y85.225 Z17.158
X236.575 Y84.823 Z17.217
X236.616 Y83.566 Z17.138
X235.685 Y82.633 Z17.999
X236.616 Y83.566 Z17.138
X237.079 Y83.231 Z17.488
X237.546 Y83.027 Z17.684
X238.036 Y82.884 Z17.815
X238.603 Y82.809 Z17.866
X239.25 Y82.749 Z17.887
X239.358 Y82.844 Z17.995
X239.25 Y82.749 Z17.887
X239.359 Y82.632 Z17.996
G0 Z25
X252.905 Y207.64
Z23
G1 Z17.998 F850
X253.276 Y207.256 Z17.627
X252.908 Y206.911 Z17.995
X253.276 Y207.256 Z17.627
X253.859 Y207.212 Z17.604
X254.799 Y207.082 Z17.504
X255.359 Y206.956 Z17.393
X255.924 Y206.663 Z17.114
X256.585 Y206.211 Z16.673
X257.307 Y205.584 Z16.056
X258.135 Y206.354 Z16.834
X258.579 Y206.663 Z17.136
X259.025 Y206.856 Z17.321
X259.712 Y206.94 Z17.394
X262.553 Y207.008 Z17.415
X264.652 Y206.991 Z17.364
X266.406 Y206.886 Z17.236
X267.1 Y206.764 Z17.127
X267.254 Y206.719 Z17.088
X267.477 Y206.141 Z17.389
X267.533 Y205.743 Z17.491
X267.545 Y204.233 Z17.634
X267.541 Y203.948 Z17.648
X267.199 Y203.6 Z17.996
X267.541 Y203.948 Z17.648
X267.859 Y203.61 Z17.986
X267.541 Y203.948 Z17.648
X267.545 Y204.233 Z17.634
X267.533 Y205.743 Z17.491
X267.477 Y206.141 Z17.389
X267.254 Y206.719 Z17.088
X268.305 Y207.557 Z17.995
X267.254 Y206.719 Z17.088
X267.1 Y206.764 Z17.127
X266.406 Y206.886 Z17.236
X264.652 Y206.991 Z17.364
X262.553 Y207.008 Z17.415
X259.712 Y206.94 Z17.394
X259.025 Y206.856 Z17.321
X258.579 Y206.663 Z17.136
X258.135 Y206.354 Z16.834
X257.307 Y205.584 Z16.056
X257.302 Y203.139 Z16.144
X257.27 Y199.119 Z16.212
X257.278 Y198.572 Z16.203
X257.384 Y197.896 Z16.1
X258.413 Y197.958 Z16.98
X258.845 Y197.984 Z17.258
X259.255 Y198.008 Z17.393
X259.726 Y198.017 Z17.429
X261.377 Y198.02 Z17.497
