%
(1001)
(RoadSign_halfsize_contour)
(T1  D=6.3 CR=0 - ZMIN=0 - flat end mill)
G90 G94
G17
G21

(2D Contour2)
M9
T1 M6
S6000 M3
G54
M9
G0 X24.96 Y216.137
Z33
Z23
G1 Z21.5 F750
Z21.13 F250
G18 G2 X25.59 Z20.5 I0.63
G1 X26.22 F750
G17 G3 X26.85 Y216.767 J0.63
G1 Y230 Z20.038 F250
G2 X30 Y233.15 Z19.865 I3.15
G1 X155 Z15.5
X280 F750
G2 X283.15 Y230 J-3.15
G1 Y30
G2 X280 Y26.85 I-3.15
G1 X30
G2 X26.85 Y30 J3.15
G1 Y230
G2 X30 Y233.15 I3.15
G1 X155
X269.974 Z13 F250
X280 F750
G2 X283.15 Y230 J-3.15
G1 Y30
G2 X280 Y26.85 I-3.15
G1 X30
G2 X26.85 Y30 J3.15
G1 Y230
G2 X30 Y233.15 I3.15
G1 X269.974
X280 Z12.782 F250
G2 X283.15 Y230 Z12.674 J-3.15
G1 Y130 Z10.5
Y30 F750
G2 X280 Y26.85 I-3.15
G1 X30
G2 X26.85 Y30 J3.15
G1 Y230
G2 X30 Y233.15 I3.15
G1 X280
G2 X283.15 Y230 J-3.15
G1 Y130
Y30 Z8.326 F250
G2 X280 Y26.85 Z8.218 I-3.15
G1 X269.974 Z8
X30 F750
G2 X26.85 Y30 J3.15
G1 Y230
G2 X30 Y233.15 I3.15
G1 X280
G2 X283.15 Y230 J-3.15
G1 Y30
G2 X280 Y26.85 I-3.15
G1 X269.974
X155 Z5.5 F250
X30 F750
G2 X26.85 Y30 J3.15
G1 Y230
G2 X30 Y233.15 I3.15
G1 X280
G2 X283.15 Y230 J-3.15
G1 Y30
G2 X280 Y26.85 I-3.15
G1 X155
X40.026 Z3 F250
X30 F750
G2 X26.85 Y30 J3.15
G1 Y230
G2 X30 Y233.15 I3.15
G1 X280
G2 X283.15 Y230 J-3.15
G1 Y30
G2 X280 Y26.85 I-3.15
G1 X40.026
X30 Z2.782 F250
G2 X26.85 Y30 Z2.674 J3.15
G1 Y74.35 Z1.71
Z2
Y84.01
Y85.65 F750
Z1.5 F250
Y174.35 F750
Z2
Y185.65
Z1.5 F250
Y230 F750
G2 X30 Y233.15 I3.15
G1 X66.017
Z2
X77.317
Z1.5 F250
X149.35 F750
Z2
X160.65
Z1.5 F250
X232.683 F750
Z2
X243.983
Z1.5 F250
X280 F750
G2 X283.15 Y230 J-3.15
G1 Y185.65
Z2
Y174.35
Z1.5 F250
Y85.65 F750
Z2
Y74.35
Z1.5 F250
Y30 F750
G2 X280 Y26.85 I-3.15
G1 X243.983
Z2
X232.683
Z1.5 F250
X160.65 F750
Z2
X149.35
Z1.5 F250
X77.317 F750
Z2
X66.017
Z1.5 F250
X30 F750
G2 X26.85 Y30 J3.15
G1 Y74.35
Z2
Y84.01
Y85.65 F250
Z1.464
Y152.995 Z0
Y174.35 F750
Z2
Y185.65
Z0 F250
Y230 F750
G2 X30 Y233.15 I3.15
G1 X66.017
Z2
X77.317
Z0 F250
X149.35 F750
Z2
X160.65
Z0 F250
X232.683 F750
Z2
X243.983
Z0 F250
X280 F750
G2 X283.15 Y230 J-3.15
G1 Y185.65
Z2
Y174.35
Z0 F250
Y85.65 F750
Z2
Y74.35
Z0 F250
Y30 F750
G2 X280 Y26.85 I-3.15
G1 X243.983
Z2
X232.683
Z0 F250
X160.65 F750
Z2
X149.35
Z0 F250
X77.317 F750
Z2
X66.017
Z0 F250
X30 F750
G2 X26.85 Y30 J3.15
G1 Y74.35
Z2
Y85.65
Z0 F250
Y152.995 F750
G3 X26.22 Y153.625 I-0.63
G1 X25.59
G18 G3 X24.96 Z0.63 K0.63
G0 Z33
G17
M9
M30
%
