%
(1001)
(RoadSign_halfsize_engrave)
(T7  D=16 CR=0 TAPER=45deg - ZMIN=-3.126 - chamfer mill)
G90 G94
G17
G21

(Engrave1)
M9
T7 M6
S6000 M3
G54
M8
G0 X42.07 Y206.903
Z15
Z4
G1 Z-1.002 F850
X42.448 Y207.25 Z-1.38
X42.075 Y207.636 Z-1.007
X42.448 Y207.25 Z-1.38
X42.992 Y207.221 Z-1.389
X43.621 Y207.161 Z-1.428
X44.371 Y206.994 Z-1.577
X44.687 Y206.866 Z-1.697
X45.396 Y206.378 Z-2.176
X46.398 Y205.561 Z-2.991
X47.448 Y206.543 Z-2.021
X47.942 Y206.835 Z-1.736
X48.277 Y206.949 Z-1.627
X48.879 Y207.027 Z-1.561
X50.046 Y207.112 Z-1.502
X51.049 Y207.117 Z-1.521
X52.049 Y207.045 Z-1.606
X52.628 Y206.943 Z-1.706
X53.433 Y206.715 Z-1.909
X54.323 Y206.356 Z-2.167
X54.959 Y205.937 Z-2.438
X55.359 Y205.643 Z-2.621
X55.748 Y205.258 Z-2.783
X56.09 Y204.734 Z-2.903
X56.306 Y204.086 Z-2.945
X56.382 Y203.445 Z-2.925
X56.342 Y202.304 Z-2.823
X56.214 Y201.593 Z-2.735
X55.979 Y200.933 Z-2.582
X55.593 Y200.167 Z-2.399
X55.32 Y199.788 Z-2.292
X54.652 Y199.064 Z-2.078
X54.106 Y198.605 Z-1.924
X53.395 Y198.225 Z-1.763
X52.692 Y197.968 Z-1.616
X51.977 Y197.82 Z-1.531
X51.718 Y197.785 Z-1.516
X50.847 Y197.783 Z-1.437
X50.476 Y197.827 Z-1.418
X49.968 Y198.193 Z-1.137
X49.802 Y198.214 Z-1.002
X49.968 Y198.193 Z-1.137
X49.921 Y198.337 Z-1.005
X49.968 Y198.193 Z-1.137
X50.476 Y197.827 Z-1.418
X50.192 Y197.457 Z-1
X50.476 Y197.827 Z-1.418
X50.847 Y197.783 Z-1.437
X51.718 Y197.785 Z-1.516
X51.977 Y197.82 Z-1.531
X52.692 Y197.968 Z-1.616
X53.395 Y198.225 Z-1.763
X54.106 Y198.605 Z-1.924
X54.652 Y199.064 Z-2.078
X55.32 Y199.788 Z-2.292
X55.593 Y200.167 Z-2.399
X55.979 Y200.933 Z-2.582
X56.214 Y201.593 Z-2.735
X56.342 Y202.304 Z-2.823
X56.382 Y203.445 Z-2.925
X56.306 Y204.086 Z-2.945
X56.09 Y204.734 Z-2.903
X55.748 Y205.258 Z-2.783
X55.359 Y205.643 Z-2.621
X54.959 Y205.937 Z-2.438
X54.323 Y206.356 Z-2.167
X53.433 Y206.715 Z-1.909
X52.628 Y206.943 Z-1.706
X52.049 Y207.045 Z-1.606
X51.049 Y207.117 Z-1.521
X50.046 Y207.112 Z-1.502
X48.879 Y207.027 Z-1.561
X48.277 Y206.949 Z-1.627
X47.942 Y206.835 Z-1.736
X47.448 Y206.543 Z-2.021
X46.398 Y205.561 Z-2.991
X46.418 Y204.956 Z-2.954
X46.428 Y200.457 Z-2.85
X46.442 Y195.414 Z-2.864
X46.445 Y191.004 Z-2.945
X46.432 Y189.719 Z-3.026
X45.371 Y188.79 Z-2.115
X44.778 Y188.416 Z-1.75
X44.301 Y188.219 Z-1.563
X44.245 Y188.201 Z-1.546
X43.724 Y188.106 Z-1.462
X42.698 Y188.006 Z-1.385
X42.445 Y187.992 Z-1.377
X42.077 Y188.338 Z-1.009
X42.445 Y187.992 Z-1.377
X42.073 Y187.611 Z-1.004
X42.445 Y187.992 Z-1.377
X42.698 Y188.006 Z-1.385
X43.724 Y188.106 Z-1.462
X44.245 Y188.201 Z-1.546
X44.301 Y188.219 Z-1.563
X44.778 Y188.416 Z-1.75
X45.371 Y188.79 Z-2.115
X46.432 Y189.719 Z-3.026
X47.578 Y188.741 Z-2.042
X48.136 Y188.406 Z-1.712
X48.651 Y188.212 Z-1.525
X49.196 Y188.128 Z-1.451
X50.475 Y188.015 Z-1.376
X50.927 Y187.992 Z-1.368
X51.283 Y187.622 Z-1.012
X50.927 Y187.992 Z-1.368
X51.293 Y188.341 Z-1.001
G0 Z5
X168.887 Y162.579
Z4
G1 Z-1.882 F850
X168.761 Y161.562 Z-1.933
X168.715 Y160.405 Z-1.995
X168.746 Y159.631 Z-2.014
X168.899 Y158.382 Z-2.039
X169.101 Y157.571
X169.473 Y156.537 Z-2.014
X169.885 Y155.654 Z-1.969
X170.491 Y154.7 Z-1.908
X170.962 Y154.132 Z-1.841
X171.558 Y153.577 Z-1.761
X172.299 Y153.03 Z-1.675
X173.171 Y152.539 Z-1.56
X174.135 Y152.163 Z-1.466
X175.023 Y151.946 Z-1.37
X175.985 Y151.829 Z-1.312
X176.687 Y151.816 Z-1.264
X177.509 Y151.858 Z-1.226
X178.648 Y152.015 Z-1.209
X179.33 Y152.197 Z-1.22
X180.047 Y152.48 Z-1.24
X180.827 Y152.903 Z-1.254
X181.757 Y153.596 Z-1.309
X182.353 Y154.151 Z-1.389
X182.859 Y154.751 Z-1.484
X183.432 Y155.638 Z-1.591
X183.637 Y156.016 Z-1.652
X184.109 Y157.033 Z-1.792
X184.357 Y157.816 Z-1.872
X184.534 Y158.787 Z-1.941
X184.637 Y159.916 Z-1.995
X184.65 Y160.986 Z-2.051
X184.512 Y162.297 Z-2.059
X184.314 Y163.203 Z-2.072
X184.034 Y163.985 Z-2.049
X183.623 Y164.819 Z-1.962
X183.07 Y165.657 Z-1.888
X182.628 Y166.201 Z-1.819
X181.937 Y166.828 Z-1.698
X181.199 Y167.365 Z-1.622
X180.48 Y167.792 Z-1.54
X179.746 Y168.082 Z-1.477
X178.729 Y168.365 Z-1.37
X177.816 Y168.509 Z-1.309
X176.656 Y168.577 Z-1.273
X175.706 Y168.535 Z-1.247
X174.622 Y168.4
X173.851 Y168.207 Z-1.274
X172.993 Y167.878 Z-1.304
X172.4 Y167.562 Z-1.325
X171.538 Y166.965 Z-1.378
X170.94 Y166.448 Z-1.457
X170.425 Y165.881 Z-1.548
X169.862 Y165.045 Z-1.63
X169.384 Y164.143 Z-1.748
X169.061 Y163.316 Z-1.831
X168.887 Y162.579 Z-1.882
G0 Z5
X177.357 Y123.238
Z4
G1 Z-1.166 F850
X176.748 Y123.088 Z-1.18
X176.392 Y122.948 Z-1.197
X175.754 Y122.618 Z-1.254
X175.26 Y122.262 Z-1.316
X174.796 Y121.805 Z-1.418
X174.399 Y121.266 Z-1.525
X173.972 Y120.446 Z-1.663
X173.801 Y119.965 Z-1.723
X173.6 Y119.115 Z-1.831
X173.538 Y118.374 Z-1.883
X173.558 Y117.431 Z-1.921
X173.688 Y116.373 Z-1.94
X173.873 Y115.663 Z-1.938
X174.184 Y114.946 Z-1.889
X174.712 Y114.011 Z-1.786
X175.065 Y113.605 Z-1.7
X175.755 Y112.965 Z-1.561
X176.114 Y112.723 Z-1.484
X176.684 Y112.459 Z-1.368
X177.304 Y112.288 Z-1.282
X178.033 Y112.187 Z-1.219
X178.82 Y112.189 Z-1.145
X179.73 Y112.348 Z-1.134
X180.286 Y112.554 Z-1.146
X180.849 Y112.897 Z-1.192
X181.507 Y113.433 Z-1.277
X181.918 Y113.925 Z-1.396
X182.479 Y114.826 Z-1.548
X182.782 Y115.527 Z-1.682
X182.952 Y116.182 Z-1.778
X183.063 Y117.115 Z-1.854
X183.076 Y118.305 Z-1.925
X182.932 Y119.383 Z-1.947
X182.765 Y119.989 Z-1.939
X182.537 Y120.539 Z-1.884
X182.148 Y121.23 Z-1.795
X181.816 Y121.68 Z-1.713
X181.3 Y122.192 Z-1.596
X180.673 Y122.659 Z-1.485
X180.176 Y122.914 Z-1.393
X179.423 Y123.161 Z-1.272
X178.812 Y123.27 Z-1.214
X178.07 Y123.305 Z-1.171
X177.357 Y123.238 Z-1.166
G0 Z5
X160.126 Y63.551
Z4
G1 Z-1.273 F850
X159.502 Y63.663 Z-1.214
X158.761 Y63.698 Z-1.171
X158.048 Y63.631 Z-1.165
X157.438 Y63.482 Z-1.18
X156.721 Y63.173 Z-1.219
X156.021 Y62.714 Z-1.306
X155.551 Y62.27 Z-1.401
X155.144 Y61.751 Z-1.506
X154.715 Y60.95 Z-1.644
X154.492 Y60.359 Z-1.722
X154.291 Y59.512 Z-1.83
X154.228 Y58.764 Z-1.884
X154.232 Y58.061 Z-1.918
X154.347 Y56.947 Z-1.938
X154.543 Y56.121 Z-1.939
X154.8 Y55.491 Z-1.903
X155.365 Y54.453 Z-1.798
X155.755 Y53.999 Z-1.7
X156.334 Y53.448 Z-1.584
X156.804 Y53.118 Z-1.484
X157.374 Y52.853 Z-1.369
X157.994 Y52.682 Z-1.283
X158.724 Y52.58 Z-1.219
X159.511 Y52.582 Z-1.145
X160.421 Y52.741 Z-1.134
X160.979 Y52.949 Z-1.146
X161.54 Y53.29 Z-1.191
X162.198 Y53.827 Z-1.277
X162.606 Y54.315 Z-1.395
X163.154 Y55.191 Z-1.542
X163.448 Y55.85 Z-1.669
X163.628 Y56.502 Z-1.769
X163.724 Y57.166 Z-1.832
X163.778 Y58.239 Z-1.904
X163.742 Y58.98 Z-1.928
X163.617 Y59.803 Z-1.947
X163.441 Y60.425 Z-1.938
X163.159 Y61.074 Z-1.863
X162.648 Y61.912 Z-1.756
X162.087 Y62.5 Z-1.614
X161.491 Y62.969 Z-1.51
X160.952 Y63.273 Z-1.406
X160.126 Y63.551 Z-1.273
G0 Z5
X60.312 Y187.616
Z4
G1 Z-1.006 F850
X60.682 Y188 Z-1.376
X60.312 Y188.343 Z-1.007
X60.682 Y188 Z-1.376
X60.855 Y188.012 Z-1.381
X62.168 Y188.149 Z-1.478
X62.591 Y188.26 Z-1.58
X62.933 Y188.406 Z-1.721
X63.53 Y188.783 Z-2.089
X64.657 Y189.75 Z-3.047
X65.886 Y188.708 Z-2.015
X66.5 Y188.363 Z-1.678
X66.977 Y188.195 Z-1.519
X67.384 Y188.119 Z-1.454
X68.484 Y188.004 Z-1.372
X68.755 Y187.989 Z-1.367
X69.121 Y188.34 Z-1.001
X68.755 Y187.989 Z-1.367
X69.112 Y187.62 Z-1.01
X68.755 Y187.989 Z-1.367
X68.484 Y188.004 Z-1.372
X67.384 Y188.119 Z-1.454
X66.977 Y188.195 Z-1.519
X66.5 Y188.363 Z-1.678
X65.886 Y188.708 Z-2.015
X64.657 Y189.75 Z-3.047
X64.649 Y190.878 Z-2.967
X64.606 Y195.544 Z-2.845
X64.621 Y198.262 Z-2.862
X64.638 Y204.519 Z-2.986
X64.597 Y205.509 Z-3.049
X63.34 Y206.549 Z-2.011
X62.802 Y206.864 Z-1.705
X62.473 Y206.995 Z-1.582
X62.073 Y207.09 Z-1.497
X60.934 Y207.228 Z-1.393
X60.688 Y207.247 Z-1.383
X60.317 Y207.631 Z-1.012
X60.688 Y207.247 Z-1.383
X60.317 Y206.909 Z-1.011
X60.688 Y207.247 Z-1.383
X60.934 Y207.228 Z-1.393
X62.073 Y207.09 Z-1.497
X62.473 Y206.995 Z-1.582
X62.802 Y206.864 Z-1.705
X63.34 Y206.549 Z-2.011
X64.597 Y205.509 Z-3.049
X65.303 Y206.21 Z-2.359
X65.814 Y206.636 Z-1.94
X66.328 Y206.901 Z-1.682
X67.063 Y207.016 Z-1.577
X68.731 Y207.071 Z-1.545
X70.128 Y207.023 Z-1.613
X70.97 Y206.914 Z-1.733
X71.737 Y206.737 Z-1.913
X72.779 Y206.397 Z-2.206
X73.311 Y206.106 Z-2.414
X74.054 Y205.599 Z-2.722
X74.331 Y205.325 Z-2.824
X74.662 Y204.822 Z-2.918
X74.887 Y204.192 Z-2.952
X74.969 Y203.593 Z-2.928
X74.946 Y202.644 Z-2.826
X74.835 Y202.169 Z-2.733
X74.671 Y201.67 Z-2.614
X74.209 Y200.808 Z-2.306
X73.791 Y200.227 Z-2.095
X73.232 Y199.664 Z-1.876
X72.413 Y199.028 Z-1.632
X72.042 Y198.743 Z-1.563
X71.77 Y198.456 Z-1.631
X71.53 Y198.059 Z-1.818
X71.317 Y197.507 Z-2.179
X71.074 Y196.655 Z-2.842
X70.021 Y197.033 Z-2.17
X68.854 Y197.559 Z-1.484
X68.31 Y197.874 Z-1.203
X68.177 Y198.092 Z-1.002
X68.31 Y197.874 Z-1.203
X68.084 Y197.859 Z-1.006
X68.31 Y197.874 Z-1.203
X68.854 Y197.559 Z-1.484
X70.021 Y197.033 Z-2.17
X71.074 Y196.655 Z-2.842
X72.559 Y194.407 Z-2.847
X75.77 Y189.531 Z-2.893
X74.755 Y187.612 Z-1.008
X75.77 Y189.531 Z-2.893
X77.751 Y188.549 Z-1.873
X78.646 Y188.208 Z-1.524
X79.031 Y188.111 Z-1.425
X79.683 Y188.03 Z-1.337
X80.007 Y188.334 Z-1.013
X79.683 Y188.03 Z-1.337
X80.009 Y187.71 Z-1.011
G0 Z5
X81.974 Y206.913
Z4
G1 Z-1.003 F850
X82.341 Y207.261 Z-1.37
X81.984 Y207.63 Z-1.013
X82.341 Y207.261 Z-1.37
X82.811 Y207.235 Z-1.381
X84.11 Y207.103 Z-1.478
X84.46 Y207.018 Z-1.555
X84.932 Y206.827 Z-1.739
X85.548 Y206.446 Z-2.112
X86.515 Y205.588 Z-2.962
X87.333 Y206.291 Z-2.263
X87.936 Y206.695 Z-1.864
X88.427 Y206.951 Z-1.614
X88.851 Y207.076 Z-1.497
X90.092 Y207.227 Z-1.381
X90.7 Y207.263 Z-1.366
X91.056 Y207.633 Z-1.009
X90.7 Y207.263 Z-1.366
X91.051 Y206.926 Z-1.015
X90.7 Y207.263 Z-1.366
X90.092 Y207.227 Z-1.381
X88.851 Y207.076 Z-1.497
X88.427 Y206.951 Z-1.614
X87.936 Y206.695 Z-1.864
X87.333 Y206.291 Z-2.263
X86.515 Y205.588 Z-2.962
X86.517 Y204.347 Z-2.903
X86.511 Y199.744 Z-2.845
X86.522 Y194.085 Z-2.851
X86.501 Y190.812 Z-2.91
X86.527 Y189.682 Z-2.982
X85.758 Y189.012 Z-2.327
X85.136 Y188.58 Z-1.909
X84.54 Y188.263 Z-1.604
X83.93 Y188.129 Z-1.483
X82.956 Y188.013 Z-1.387
X82.339 Y187.981 Z-1.368
X81.974 Y188.335 Z-1.004
X82.339 Y187.981 Z-1.368
X81.979 Y187.613 Z-1.008
X82.339 Y187.981 Z-1.368
X82.956 Y188.013 Z-1.387
X83.93 Y188.129 Z-1.483
X84.54 Y188.263 Z-1.604
X85.136 Y188.58 Z-1.909
X85.758 Y189.012 Z-2.327
X86.527 Y189.682 Z-2.982
X87.655 Y188.752 Z-2.057
X88.147 Y188.445 Z-1.758
X88.638 Y188.235 Z-1.56
X89.122 Y188.118 Z-1.459
X90.321 Y188.011 Z-1.386
X90.69 Y187.991 Z-1.375
X91.065 Y188.345 Z-1
X90.69 Y187.991 Z-1.375
X91.058 Y187.614 Z-1.008
G0 Z5
X85.483 Y95.588
Z4
G1 Z-1.014 F850
X85.641 Y95.753 Z-1.179
X85.808 Y95.577 Z-1.003
X85.641 Y95.753 Z-1.179
X85.657 Y96.784 Z-1.241
X85.698 Y97.614 Z-1.326
X85.651 Y97.968 Z-1.45
X85.528 Y98.321 Z-1.658
X86.364 Y98.82 Z-1.001
X85.528 Y98.321 Z-1.658
X85.518 Y98.325 Z-1.656
X84.352 Y98.774 Z-1.477
X83.056 Y99.153 Z-1.365
X81.935 Y99.352 Z-1.305
X80.783 Y99.443 Z-1.282
X79.396 Y99.383 Z-1.28
X78.339 Y99.253 Z-1.292
X77.563 Y99.074 Z-1.308
X76.781 Y98.797 Z-1.346
X75.731 Y98.29 Z-1.454
X74.652 Y97.581 Z-1.539
X74.005 Y96.978 Z-1.647
X73.412 Y96.273 Z-1.722
X72.843 Y95.424 Z-1.79
X72.553 Y94.863 Z-1.834
X72.239 Y94.034 Z-1.902
X72.024 Y93.219 Z-1.974
X71.881 Y92.178 Z-2.016
X71.834 Y91.229 Z-2.041
X71.917 Y90.025 Z-2.053
X72.054 Y89.189 Z-2.057
X72.267 Y88.461 Z-2.046
X72.84 Y87.13 Z-2.011
X73.394 Y86.272 Z-1.95
X73.933 Y85.587 Z-1.902
X74.519 Y85.008 Z-1.829
X75.37 Y84.362 Z-1.745
X76.334 Y83.8 Z-1.647
X77.402 Y83.333 Z-1.566
X78.18 Y83.078 Z-1.503
X79.064 Y82.893 Z-1.438
X80.504 Y82.759 Z-1.391
X81.582 Y82.782 Z-1.364
X82.729 Y82.914 Z-1.326
X84.104 Y83.213 Z-1.273
X85.057 Y83.529 Z-1.251
X85.919 Y83.92 Z-1.258
X86.119 Y83.732 Z-1.003
X85.919 Y83.92 Z-1.258
X86.476 Y84.58 Z-1.001
G0 Z5
X86.508 Y125.176
Z4
G1 Z-1.014 F850
X86.666 Y125.341 Z-1.179
X86.833 Y125.165 Z-1.003
X86.666 Y125.341 Z-1.179
X86.682 Y126.371 Z-1.241
X86.723 Y127.201 Z-1.326
X86.676 Y127.555 Z-1.45
X86.553 Y127.908 Z-1.658
X87.389 Y128.407 Z-1.001
X86.553 Y127.908 Z-1.658
X85.379 Y128.36 Z-1.477
X84.08 Y128.74 Z-1.364
X83.069 Y128.924 Z-1.31
X81.808 Y129.03 Z-1.282
X80.421 Y128.97 Z-1.28
X79.345 Y128.837 Z-1.293
X78.441 Y128.617 Z-1.314
X77.624 Y128.306 Z-1.359
X76.756 Y127.877 Z-1.454
X75.677 Y127.168 Z-1.539
X75.03 Y126.565 Z-1.647
X74.436 Y125.859 Z-1.722
X73.868 Y125.011 Z-1.79
X73.578 Y124.45 Z-1.834
X73.264 Y123.621 Z-1.902
X73.049 Y122.807 Z-1.974
X72.906 Y121.765 Z-2.016
X72.859 Y120.816 Z-2.041
X72.942 Y119.612 Z-2.053
X73.079 Y118.776 Z-2.057
X73.292 Y118.049 Z-2.046
X73.864 Y116.717 Z-2.011
X74.418 Y115.86 Z-1.95
X74.959 Y115.173 Z-1.902
X75.544 Y114.595 Z-1.829
X76.396 Y113.949 Z-1.745
X77.359 Y113.388 Z-1.647
X78.426 Y112.921 Z-1.566
X79.318 Y112.635 Z-1.493
X80.245 Y112.458 Z-1.43
X81.53 Y112.346 Z-1.391
X82.626 Y112.37 Z-1.364
X83.753 Y112.501 Z-1.326
X85.128 Y112.8 Z-1.273
X86.099 Y113.123 Z-1.251
X86.944 Y113.507 Z-1.258
X87.144 Y113.319 Z-1.003
X86.944 Y113.507 Z-1.258
X87.501 Y114.167 Z-1.001
G0 Z5
X86.564 Y151.77
Z4
G1 Z-1.003 F850
X86.692 Y151.904 Z-1.131
X86.575 Y152.017 Z-1.014
X86.692 Y151.904 Z-1.131
X87.133 Y151.924 Z-1.129
X87.928 Y152.029 Z-1.207
X88.437 Y152.216 Z-1.384
X89.045 Y152.54 Z-1.702
X89.493 Y152.264 Z-1.426
X89.868 Y152.118 Z-1.282
X90.51 Y152.011 Z-1.186
X91.642 Y151.922 Z-1.144
X91.782 Y152.046 Z-1.004
X91.642 Y151.922 Z-1.144
X91.784 Y151.772 Z-1.002
X91.642 Y151.922 Z-1.144
X90.51 Y152.011 Z-1.186
X89.868 Y152.118 Z-1.282
X89.493 Y152.264 Z-1.426
X89.045 Y152.54 Z-1.702
X89.122 Y153.014 Z-1.565
X89.356 Y153.701 Z-1.476
X89.778 Y154.762 Z-1.402
X90.652 Y156.758 Z-1.372
X91.161 Y157.852 Z-1.396
X91.359 Y158.068 Z-1.49
X91.582 Y157.967 Z-1.354
X91.809 Y157.889 Z-1.276
X98.186 Y157.863 Z-1.25
X98.415 Y157.89 Z-1.277
X98.644 Y157.968 Z-1.355
X98.969 Y158.117 Z-1.571
X99.39 Y158.309 Z-1.955
X99.683 Y157.81 Z-1.882
X101.082 Y154.418 Z-1.937
X101.096 Y154.384
X101.439 Y153.503 Z-1.965
X101.642 Y152.882 Z-2.044
X101.383 Y152.635 Z-1.8
X100.909 Y152.28 Z-1.451
X100.571 Y152.116 Z-1.291
X100.249 Y152.026 Z-1.207
X99.663 Y151.959 Z-1.154
X98.577 Y151.907 Z-1.139
X98.438 Y152.037 Z-1
X98.577 Y151.907 Z-1.139
X98.449 Y151.774 Z-1.01
X98.577 Y151.907 Z-1.139
X99.663 Y151.959 Z-1.154
X100.249 Y152.026 Z-1.207
X100.571 Y152.116 Z-1.291
X100.909 Y152.28 Z-1.451
X101.383 Y152.635 Z-1.8
X101.642 Y152.882 Z-2.044
X102.677 Y152.285 Z-1.455
X103.185 Y152.087 Z-1.267
X103.622 Y151.989 Z-1.184
X104.407 Y151.907 Z-1.135
X104.539 Y152.033 Z-1.003
X104.407 Y151.907 Z-1.135
X104.535 Y151.773 Z-1.007
X104.407 Y151.907 Z-1.135
X103.622 Y151.989 Z-1.184
X103.185 Y152.087 Z-1.267
X102.677 Y152.285 Z-1.455
X101.642 Y152.882 Z-2.044
X101.439 Y153.503 Z-1.965
X101.096 Y154.384 Z-1.937
X101.082 Y154.418
X99.683 Y157.81 Z-1.882
X99.39 Y158.309 Z-1.955
X99.242 Y158.806 Z-1.894
X96.135 Y166.125 Z-1.858
X95.954 Y166.467 Z-1.889
X95.718 Y166.774 Z-1.985
X95.694 Y168.392 Z-1.367
X95.932 Y168.753 Z-1.006
X95.694 Y168.392 Z-1.367
X95.443 Y168.757 Z-1.002
X95.694 Y168.392 Z-1.367
X95.718 Y166.774 Z-1.985
X95.343 Y166.617 Z-1.698
X94.938 Y166.351 Z-1.427
X94.668 Y166.03 Z-1.306
X91.465 Y158.604 Z-1.37
X91.386 Y158.348 Z-1.401
X91.359 Y158.068 Z-1.49
G0 Z5
X89.132 Y129.044
Z4
G1 Z-1.002 F850
X89.266 Y128.923 Z-1.136
X89.14 Y128.797 Z-1.01
X89.266 Y128.923 Z-1.136
X89.804 Y128.955 Z-1.168
X90.306 Y128.98 Z-1.212
X90.801 Y128.947 Z-1.33
X91.306 Y128.845 Z-1.538
X91.886 Y128.59 Z-1.939
X92.891 Y129.93 Z-1.004
X91.886 Y128.59 Z-1.939
X91.936 Y128.048 Z-1.863
X91.929 Y127.148 Z-1.834
X91.914 Y123.606 Z-1.781
Y114.246 Z-1.83
Y113.202 Z-1.923
X92.41 Y112.791 Z-1.508
X92.794 Y112.599 Z-1.32
X93.272 Y112.448 Z-1.177
X93.724 Y112.394 Z-1.134
X94.586 Y112.331 Z-1.112
X94.694 Y112.428 Z-1.004
X94.586 Y112.331 Z-1.112
X94.685 Y112.226 Z-1.013
X94.586 Y112.331 Z-1.112
X93.724 Y112.394 Z-1.134
X93.272 Y112.448 Z-1.177
X92.794 Y112.599 Z-1.32
X92.41 Y112.791 Z-1.508
X91.914 Y113.202 Z-1.923
X91.361 Y112.747 Z-1.476
X90.813 Y112.5 Z-1.238
X90.421 Y112.403 Z-1.152
X89.895 Y112.361 Z-1.126
X89.242 Y112.323 Z-1.111
X89.142 Y112.219 Z-1.011
X89.242 Y112.323 Z-1.111
X89.132 Y112.424 Z-1.002
G0 Z5
X92.816 Y207.635
Z4
G1 Z-1.008 F850
X93.187 Y207.252 Z-1.379
X92.816 Y206.911 Z-1.009
X93.187 Y207.252 Z-1.379
X93.597 Y207.218 Z-1.399
X94.601 Y207.077 Z-1.512
X95.084 Y206.94 Z-1.638
X95.772 Y206.616 Z-1.95
X97.535 Y205.514 Z-3.036
X98.045 Y206.054 Z-2.498
X98.68 Y206.572 Z-1.986
X99.178 Y206.862 Z-1.702
X99.666 Y207.041 Z-1.531
X100.037 Y207.116 Z-1.465
X101.233 Y207.239 Z-1.379
X101.523 Y207.257 Z-1.372
X101.891 Y206.911 Z-1.004
X101.523 Y207.257 Z-1.372
X101.888 Y207.636 Z-1.007
X101.523 Y207.257 Z-1.372
X101.233 Y207.239 Z-1.379
X100.037 Y207.116 Z-1.465
X99.666 Y207.041 Z-1.531
X99.178 Y206.862 Z-1.702
X98.68 Y206.572 Z-1.986
X98.045 Y206.054 Z-2.498
X97.535 Y205.514 Z-3.036
X97.994 Y204.237 Z-2.932
X103.229 Y191.551 Z-2.842
X103.493 Y191.023 Z-2.882
X103.824 Y190.537 Z-3.001
X103.867 Y188.603 Z-2.296
X104.792 Y187.309 Z-1.002
X103.867 Y188.603 Z-2.296
X103.007 Y187.313 Z-1.006
X103.867 Y188.603 Z-2.296
X103.824 Y190.537 Z-3.001
X104.042 Y190.603 Z-2.822
X104.701 Y190.86 Z-2.306
X105.212 Y191.152 Z-1.944
X105.605 Y191.49 Z-1.712
X105.882 Y191.875 Z-1.607
X109.311 Y200.175 Z-1.65
X110.233 Y202.409 Z-1.661
X110.795 Y203.906 Z-1.718
X111.34 Y205.449 Z-1.865
X111.517 Y205.971 Z-1.957
X111.607 Y206.436 Z-2.116
X112.612 Y206.975 Z-1.595
X113.099 Y207.094 Z-1.49
X113.949 Y207.222 Z-1.392
X114.231 Y207.247 Z-1.378
X114.602 Y206.907 Z-1.007
X114.231 Y207.247 Z-1.378
X114.601 Y207.633 Z-1.008
X114.231 Y207.247 Z-1.378
X113.949 Y207.222 Z-1.392
X113.099 Y207.094 Z-1.49
X112.612 Y206.975 Z-1.595
X111.607 Y206.436 Z-2.116
X111.106 Y206.774 Z-1.781
X110.618 Y206.993 Z-1.571
X110.145 Y207.116 Z-1.458
X108.801 Y207.243 Z-1.372
X108.47 Y207.261 Z-1.367
X108.114 Y207.631 Z-1.011
X108.47 Y207.261 Z-1.367
X108.104 Y206.911 Z-1.001
G0 Z5
X96.434 Y112.428
Z4
G1 Z-1.003 F850
X96.543 Y112.329 Z-1.113
X96.444 Y112.225 Z-1.013
X96.543 Y112.329 Z-1.113
X97.012 Y112.365 Z-1.126
X97.715 Y112.419 Z-1.155
X98.229 Y112.54 Z-1.265
X98.596 Y112.707 Z-1.428
X99.264 Y113.21 Z-1.928
X99.798 Y112.826 Z-1.55
X100.177 Y112.621 Z-1.35
X100.622 Y112.488 Z-1.226
X101.17 Y112.4 Z-1.154
X101.964 Y112.333 Z-1.119
X102.078 Y112.432 Z-1.005
X101.964 Y112.333 Z-1.119
X102.078 Y112.214 Z-1.005
X101.964 Y112.333 Z-1.119
X101.17 Y112.4 Z-1.154
X100.622 Y112.488 Z-1.226
X100.177 Y112.621 Z-1.35
X99.798 Y112.826 Z-1.55
X99.264 Y113.21 Z-1.928
X99.262 Y113.833 Z-1.861
X99.244 Y116.121 Z-1.789
X99.269 Y120.093 Z-1.814
X99.231 Y121.903 Z-1.894
X99.19 Y122.181 Z-1.945
X100.151 Y123.454 Z-1.062
X100.157 Y123.509 Z-1.012
X100.151 Y123.454 Z-1.062
X100.202 Y123.479 Z-1.013
X100.151 Y123.454 Z-1.062
X99.19 Y122.181 Z-1.945
X98.583 Y122.41 Z-1.554
X98.203 Y122.5 Z-1.384
X97.549 Y122.533 Z-1.219
X96.791 Y122.477 Z-1.147
X96.56 Y122.46 Z-1.13
X96.439 Y122.564 Z-1.009
X96.56 Y122.46 Z-1.13
X96.44 Y122.34 Z-1.01
G0 Z5
X94.584 Y93.683
Z4
G1 Z-1.214 F850
X95.206 Y93.571 Z-1.273
X96.034 Y93.292 Z-1.406
X96.572 Y92.988 Z-1.51
X97.167 Y92.519 Z-1.614
X97.714 Y91.949 Z-1.752
X98.153 Y91.251 Z-1.844
X98.478 Y90.563 Z-1.929
X98.669 Y89.951 Z-1.948
X98.822 Y89.005 Z-1.928
X98.859 Y88.263 Z-1.904
X98.805 Y87.185 Z-1.832
X98.71 Y86.523 Z-1.769
X98.53 Y85.873 Z-1.669
X98.236 Y85.211 Z-1.542
X97.689 Y84.336 Z-1.395
X97.217 Y83.783 Z-1.261
X96.503 Y83.227 Z-1.179
X96.059 Y82.968 Z-1.146
X95.502 Y82.76 Z-1.134
X94.592 Y82.602 Z-1.145
X93.805 Y82.6 Z-1.219
X93.076 Y82.701 Z-1.282
X92.455 Y82.872 Z-1.368
X91.885 Y83.137 Z-1.484
X91.415 Y83.468 Z-1.585
X90.837 Y84.018 Z-1.7
X90.484 Y84.424 Z-1.786
X89.956 Y85.359 Z-1.89
X89.646 Y86.076 Z-1.938
X89.46 Y86.786 Z-1.94
X89.33 Y87.845 Z-1.921
X89.31 Y88.785 Z-1.883
X89.372 Y89.529 Z-1.831
X89.573 Y90.377 Z-1.723
X89.796 Y90.969 Z-1.644
X90.225 Y91.771 Z-1.506
X90.637 Y92.295 Z-1.4
X91.104 Y92.734 Z-1.306
X91.797 Y93.189 Z-1.219
X92.519 Y93.501 Z-1.18
X93.129 Y93.651 Z-1.165
X93.843 Y93.718 Z-1.171
X94.584 Y93.683 Z-1.214
G0 Z5
X99.047 Y127.433
Z4
G1 Z-1.718 F850
X99.202 Y127.809 Z-2.114
X99.203 Y127.806 Z-2.112
X99.204 Y127.803 Z-2.108
X99.389 Y127.348 Z-1.628
X99.204 Y127.803 Z-2.108
X99.203 Y127.806 Z-2.112
X99.202 Y127.809 Z-2.114
Y127.811 Z-2.116
X99.588 Y127.65 Z-1.708
X99.202 Y127.811 Z-2.116
Y127.812
X99.2 Y127.811 Z-2.115
X99.202 Y127.812 Z-2.116
Y127.817 Z-2.117
Y127.828 Z-2.115
X99.568 Y127.978 Z-1.728
X99.202 Y127.828 Z-2.115
X99.201 Y127.841 Z-2.108
X99.202 Y127.847 Z-2.103
Y127.853 Z-2.099
X99.056 Y128.202 Z-1.73
X99.202 Y127.853 Z-2.099
X99.205 Y127.861 Z-2.091
X99.357 Y128.222 Z-1.709
G0 Z5
X101.755 Y99.457
Z4
G1 Z-1.002 F850
X101.889 Y99.336 Z-1.136
X101.763 Y99.21 Z-1.01
X101.889 Y99.336 Z-1.136
X102.247 Y99.357 Z-1.156
X102.921 Y99.393 Z-1.211
X103.414 Y99.361 Z-1.327
X103.928 Y99.258 Z-1.538
X104.508 Y99.003 Z-1.939
X105.513 Y100.343 Z-1.004
X104.508 Y99.003 Z-1.939
X104.559 Y98.446 Z-1.862
X104.551 Y97.565 Z-1.834
X104.537 Y94.08 Z-1.782
Y86.329 Z-1.771
X104.536 Y84.661 Z-1.83
X104.537 Y83.615 Z-1.923
X105.034 Y83.203 Z-1.507
X105.449 Y82.999 Z-1.307
X105.883 Y82.864 Z-1.179
X106.344 Y82.807 Z-1.134
X107.208 Y82.743 Z-1.112
X107.316 Y82.841 Z-1.004
X107.208 Y82.743 Z-1.112
X107.307 Y82.639 Z-1.013
X107.208 Y82.743 Z-1.112
X106.344 Y82.807 Z-1.134
X105.883 Y82.864 Z-1.179
X105.449 Y82.999 Z-1.307
X105.034 Y83.203 Z-1.507
X104.537 Y83.615 Z-1.923
X103.987 Y83.162 Z-1.478
X103.465 Y82.923 Z-1.248
X103.054 Y82.818 Z-1.153
X102.517 Y82.774 Z-1.126
X101.864 Y82.736 Z-1.111
X101.764 Y82.632 Z-1.011
X101.864 Y82.736 Z-1.111
X101.755 Y82.837 Z-1.002
G0 Z5
X103.372 Y112.212
Z4
G1 Z-1.008 F850
X103.464 Y112.306 Z-1.1
X103.374 Y112.396 Z-1.01
X103.464 Y112.306 Z-1.1
X104.146 Y112.311 Z-1.091
X104.649 Y112.347 Z-1.115
X105.144 Y112.473 Z-1.23
X105.693 Y112.717 Z-1.462
X106.307 Y113.225 Z-1.957
X106.989 Y112.7 Z-1.417
X107.489 Y112.496 Z-1.221
X107.946 Y112.376 Z-1.109
X108.427 Y112.33 Z-1.076
X109.505 Y112.309 Z-1.097
X109.591 Y112.22 Z-1.011
X109.505 Y112.309 Z-1.097
X109.592 Y112.396 Z-1.01
X109.505 Y112.309 Z-1.097
X108.427 Y112.33 Z-1.076
X107.946 Y112.376 Z-1.109
X107.489 Y112.496 Z-1.221
X106.989 Y112.7 Z-1.417
X106.307 Y113.225 Z-1.957
X106.315 Y114.583 Z-1.804
X106.318 Y116.073 Z-1.769
Y121.895 Z-1.816
Y122.214 Z-1.936
X106.892 Z-1.494
X107.12 Z-1.38
X107.941 Y122.227 Z-1.33
X109.953 Y122.26 Z-1.369
X110.378 Y122.645 Z-1.013
X109.953 Y122.26 Z-1.369
X110.259 Y121.889 Z-1.006
X109.953 Y122.26 Z-1.369
X107.941 Y122.227 Z-1.33
X107.12 Y122.214 Z-1.38
X106.892 Z-1.494
X106.318 Z-1.936
X106.284 Y122.275 Z-1.938
X105.624 Z-1.479
X105.25 Y122.226 Z-1.349
X103.831 Y121.839 Z-1.052
X103.782 Y121.869 Z-1.003
X103.831 Y121.839 Z-1.052
X103.793 Y121.799 Z-1.014
X103.831 Y121.839 Z-1.052
X105.25 Y122.226 Z-1.349
X105.624 Y122.275 Z-1.479
X106.284 Z-1.938
X106.315 Y122.8 Z-1.785
X106.318 Y122.922 Z-1.781
X106.353 Y125.417 Z-1.742
X106.456 Y126.039 Z-1.668
X106.738 Y126.831 Z-1.496
X107.269 Y127.829 Z-1.241
X107.458 Y128.112 Z-1.182
X107.907 Y128.564
X108.289 Y128.846 Z-1.232
X108.847 Y129.114 Z-1.37
X109.315 Y129.281 Z-1.509
X109.556 Y129.319 Z-1.57
X110.127 Y129.312 Z-1.659
X110.242 Y129.294 Z-1.67
X110.922 Y129.855 Z-1.012
X110.242 Y129.294 Z-1.67
X110.653 Y128.675 Z-1.263
X110.924 Y128.191 Z-1.012
X110.932 Y128.186 Z-1.004
G0 Z5
X109.03 Y99.457
Z4
G1 Z-1.002 F850
X109.164 Y99.336 Z-1.136
X109.038 Y99.21 Z-1.01
X109.164 Y99.336 Z-1.136
X109.523 Y99.357 Z-1.156
X110.196 Y99.393 Z-1.211
X110.69 Y99.361 Z-1.327
X111.203 Y99.258 Z-1.538
X111.784 Y99.003 Z-1.939
X112.789 Y100.343 Z-1.004
X111.784 Y99.003 Z-1.939
X111.834 Y98.482 Z-1.865
X111.827 Y97.561 Z-1.834
X111.812 Y94.019 Z-1.781
X111.811 Y84.655 Z-1.83
X111.812 Y83.615 Z-1.923
X112.309 Y83.203 Z-1.507
X112.697 Y83.01 Z-1.318
X113.171 Y82.861 Z-1.176
X113.62 Y82.807 Z-1.134
X114.483 Y82.744 Z-1.112
X114.582 Y82.639 Z-1.013
X114.483 Y82.744 Z-1.112
X114.591 Y82.841 Z-1.004
X114.483 Y82.744 Z-1.112
X113.62 Y82.807 Z-1.134
X113.171 Y82.861 Z-1.176
X112.697 Y83.01 Z-1.318
X112.309 Y83.203 Z-1.507
X111.812 Y83.615 Z-1.923
X111.262 Y83.162 Z-1.477
X110.741 Y82.923 Z-1.248
X110.329 Y82.818 Z-1.153
X109.793 Y82.774 Z-1.126
X109.139 Y82.736 Z-1.111
X109.039 Y82.632 Z-1.011
X109.139 Y82.736 Z-1.111
X109.03 Y82.837 Z-1.002
G0 Z5
X109.809 Y52.851
Z4
G1 Z-1.01 F850
X109.927 Y52.732 Z-1.128
X109.813 Y52.614 Z-1.014
X109.927 Y52.732 Z-1.128
X110.809 Y52.744 Z-1.114
X111.376 Y52.802 Z-1.158
X111.916 Y52.943 Z-1.287
X112.436 Y53.147 Z-1.483
X113.191 Y53.744 Z-2.072
X113.808 Y53.252 Z-1.576
X114.302 Y52.999 Z-1.328
X114.759 Y52.862 Z-1.197
X115.439 Y52.762 Z-1.115
X116.327 Y52.735 Z-1.125
X116.44 Y52.616 Z-1.012
X116.327 Y52.735 Z-1.125
X116.442 Y52.851 Z-1.01
X116.327 Y52.735 Z-1.125
X115.439 Y52.762 Z-1.115
X114.759 Y52.862 Z-1.197
X114.302 Y52.999 Z-1.328
X113.808 Y53.252 Z-1.576
X113.191 Y53.744 Z-2.072
X113.225 Y55.14 Z-1.945
X113.211 Y56.772 Z-1.896
X113.2 Y60.972 Z-1.898
X113.27 Y61.539 Z-1.968
X113.2 Y62.107 Z-1.898
X113.205 Y65.712 Z-1.889
X113.199 Y67.125 Z-1.926
X113.16 Y68.332 Z-2.045
X113.822 Y68.833 Z-1.547
X114.299 Y69.077 Z-1.307
X114.691 Y69.198 Z-1.192
X115.486 Y69.297 Z-1.115
X116.326 Y69.319 Z-1.126
X116.442 Y69.203 Z-1.01
X116.326 Y69.319 Z-1.126
X116.44 Y69.438 Z-1.012
X116.326 Y69.319 Z-1.126
X115.486 Y69.297 Z-1.115
X114.691 Y69.198 Z-1.192
X114.299 Y69.077 Z-1.307
X113.822 Y68.833 Z-1.547
X113.16 Y68.332 Z-2.045
X112.508 Y68.857 Z-1.526
X112.093 Y69.047 Z-1.341
X111.472 Y69.234 Z-1.164
X110.99 Y69.297 Z-1.114
X110.003 Y69.319 Z-1.126
X109.926 Y69.32 Z-1.127
X109.809 Y69.203 Z-1.01
X109.926 Y69.32 Z-1.127
X109.812 Y69.438 Z-1.013
X109.926 Y69.32 Z-1.127
X110.003 Y69.319 Z-1.126
X110.99 Y69.297 Z-1.114
X111.472 Y69.234 Z-1.164
X112.093 Y69.047 Z-1.341
X112.508 Y68.857 Z-1.526
X113.16 Y68.332 Z-2.045
X113.199 Y67.125 Z-1.926
X113.205 Y65.712 Z-1.889
X113.2 Y62.107 Z-1.898
X113.27 Y61.539 Z-1.968
X113.87 Z-1.491
X114.108 Z-1.366
X116.177 Y61.54 Z-1.266
X120.842 Z-1.235
X124.33 Z-1.311
X124.745 Y61.539 Z-1.367
X125.58 Z-1.968
X125.65 Y62.107 Z-1.898
X125.625 Y67.061 Z-1.943
X125.605 Y68.342 Z-2.035
X126.037 Y68.684 Z-1.696
X126.535 Y68.984 Z-1.4
X126.958 Y69.163 Z-1.227
X127.505 Y69.265 Z-1.136
X128.923 Y69.32 Z-1.127
X129.04 Y69.203 Z-1.01
X128.923 Y69.32 Z-1.127
X129.044 Y69.445 Z-1.006
X128.923 Y69.32 Z-1.127
X127.505 Y69.265 Z-1.136
X126.958 Y69.163 Z-1.227
X126.535 Y68.984 Z-1.4
X126.037 Y68.684 Z-1.696
X125.605 Y68.342 Z-2.035
X125.017 Y68.786 Z-1.595
X124.499 Y69.06 Z-1.326
X124.172 Y69.172 Z-1.219
X123.527 Y69.283 Z-1.122
X122.871 Y69.31 Z-1.117
X122.377 Y69.32 Z-1.127
X122.256 Y69.445 Z-1.006
X122.377 Y69.32 Z-1.127
X122.26 Y69.203 Z-1.01
X122.377 Y69.32 Z-1.127
X122.871 Y69.31 Z-1.117
X123.527 Y69.283 Z-1.122
X124.172 Y69.172 Z-1.219
X124.499 Y69.06 Z-1.326
X125.017 Y68.786 Z-1.595
X125.605 Y68.342 Z-2.035
X125.625 Y67.061 Z-1.943
X125.65 Y62.107 Z-1.898
X125.58 Y61.539 Z-1.968
X125.65 Y60.972 Z-1.898
Y57.793
X125.637 Y56.393 Z-1.895
X125.632 Y54.962 Z-1.951
X125.65 Y53.746 Z-2.07
X125.018 Y53.267 Z-1.595
X124.464 Y52.97 Z-1.303
X124.12 Y52.865 Z-1.204
X123.509 Y52.767 Z-1.12
X122.782 Y52.741 Z-1.119
X122.377 Y52.734 Z-1.127
X122.263 Y52.615 Z-1.013
X122.377 Y52.734 Z-1.127
X122.26 Y52.851 Z-1.01
X122.377 Y52.734 Z-1.127
X122.782 Y52.741 Z-1.119
X123.509 Y52.767 Z-1.12
X124.12 Y52.865 Z-1.204
X124.464 Y52.97 Z-1.303
X125.018 Y53.267 Z-1.595
X125.65 Y53.746 Z-2.07
X125.687 Y53.713 Z-2.037
X126.261 Y53.235 Z-1.561
X126.551 Y53.077 Z-1.405
X127.028 Y52.903 Z-1.237
X127.501 Y52.792 Z-1.134
X128.924 Y52.734 Z-1.126
X129.038 Y52.615 Z-1.012
X128.924 Y52.734 Z-1.126
X129.04 Y52.851 Z-1.01
G0 Z5
X111.946 Y121.701
Z4
G1 Z-1.001 F850
X111.994 Y121.669 Z-1.049
X111.951 Y121.623 Z-1.006
X111.994 Y121.669 Z-1.049
X113.548 Y122.021 Z-1.339
X113.936 Y122.074 Z-1.457
X114.636 Z-1.938
X114.668 Y122.129 Z-1.936
Y122.447 Z-1.816
Y122.714 Z-1.781
X114.69 Y125.769 Z-1.873
X113.81 Y126.327 Z-1.014
X114.69 Y125.769 Z-1.873
X115.554 Y127.059 Z-1.091
X115.562 Y127.158 Z-1.008
X115.554 Y127.059 Z-1.091
X115.633 Y127.095 Z-1.014
X115.554 Y127.059 Z-1.091
X114.69 Y125.769 Z-1.873
X114.668 Y122.714 Z-1.781
Y122.447 Z-1.816
Y122.129 Z-1.936
X115.251 Z-1.487
X115.483 Z-1.374
X116.003 Z-1.336
X118.428 Y122.16 Z-1.355
X118.816 Y122.526 Z-1.009
X118.428 Y122.16 Z-1.355
X118.734 Y121.812 Z-1.014
X118.428 Y122.16 Z-1.355
X116.003 Y122.129 Z-1.336
X115.483 Z-1.374
X115.251 Z-1.487
X114.668 Z-1.936
X114.636 Y122.074 Z-1.938
X114.652 Y121.785 Z-1.825
X114.668 Y116.794 Z-1.781
X114.659 Y116.039 Z-1.789
X114.696 Y114.432 Z-1.858
X114.75 Y113.944 Z-1.894
X114.921 Y113.418 Z-1.927
X115.157 Y113.121 Z-1.885
X115.271 Y113.022 Z-1.858
X115.801 Y112.711 Z-1.722
X116.431 Y112.541 Z-1.582
X116.893 Y112.518 Z-1.501
X117.391 Y112.57 Z-1.428
X117.63 Y112.21 Z-1.012
X117.391 Y112.57 Z-1.428
X117.483 Y112.617 Z-1.388
X118.067 Y112.973 Z-1.174
X118.571 Y113.381 Z-1.056
X118.578 Y113.442 Z-1.012
X118.571 Y113.381 Z-1.056
X118.633 Z-1.009
G0 Z5
X114.659 Y159.637
Z4
G1 Z-1.01 F850
X114.791 Y159.769 Z-1.142
X114.918 Y159.637 Z-1.01
X114.791 Y159.769 Z-1.142
X114.784 Y160.768 Z-1.206
X114.708 Y161.344 Z-1.341
X114.575 Y161.788 Z-1.531
X114.475 Y162.059 Z-1.67
X115.217 Y162.459 Z-1.003
X114.475 Y162.059 Z-1.67
X113.952 Y162.303 Z-1.594
X113.34 Y162.484 Z-1.525
X112.431 Y162.633 Z-1.425
X111.641 Y162.646 Z-1.356
X110.98 Y162.565 Z-1.291
X110.174 Y162.354 Z-1.2
X109.563 Y162.092 Z-1.172
X109.005 Y161.762 Z-1.202
X108.389 Y161.302 Z-1.273
X107.883 Y160.743 Z-1.414
X107.519 Y160.217 Z-1.516
X107.244 Y159.601 Z-1.601
X107.074 Y158.989 Z-1.68
X106.935 Y158.119 Z-1.771
X106.916 Y157.405 Z-1.82
X106.98 Y156.372 Z-1.867
X107.134 Y155.544 Z-1.899
X107.386 Y154.844 Z-1.912
X107.742 Y154.157 Z-1.917
X108.19 Y153.52 Z-1.875
X108.565 Y153.133 Z-1.807
X109.191 Y152.676 Z-1.718
X109.939 Y152.277 Z-1.596
X110.528 Y152.083 Z-1.512
X111.258 Y151.959 Z-1.439
X112.119 Y151.912 Z-1.372
X112.787 Y151.963 Z-1.323
X113.573 Y152.12 Z-1.276
X114.389 Y152.392 Z-1.226
X114.678 Y152.515 Z-1.209
X114.823 Y152.355 Z-1
X114.678 Y152.515 Z-1.209
X115.119 Y152.892 Z-1.041
X115.124 Y152.93 Z-1.009
X115.119 Y152.892 Z-1.041
X115.167 Y152.898 Z-1.004
G0 Z5
X116.85 Y188.445
Z4
G1 Z-1.001 F850
X117.262 Y188.055 Z-1.413
X116.852 Y187.619 Z-1.003
X117.262 Y188.055 Z-1.413
X117.371 Y188.063 Z-1.415
X118.165 Y188.158 Z-1.475
X118.742 Y188.269 Z-1.573
X119.062 Y188.397 Z-1.697
X119.833 Y188.79 Z-2.087
X120.286 Y188.51 Z-1.809
X120.769 Y188.311 Z-1.613
X121.188 Y188.21 Z-1.518
X122.564 Y188.071 Z-1.424
X122.733 Y188.059 Z-1.421
X123.146 Y188.443 Z-1.008
X122.733 Y188.059 Z-1.421
X123.143 Y187.625 Z-1.011
X122.733 Y188.059 Z-1.421
X122.564 Y188.071 Z-1.424
X121.188 Y188.21 Z-1.518
X120.769 Y188.311 Z-1.613
X120.286 Y188.51 Z-1.809
X119.833 Y188.79 Z-2.087
X119.922 Y189.381 Z-1.891
X119.966 Y189.569 Z-1.852
X119.978 Y189.615 Z-1.843
X120.046 Y189.864 Z-1.803
X120.074 Y189.952 Z-1.791
X120.117 Y190.081 Z-1.777
X120.523 Y191.185 Z-1.695
X121.255 Y193.024 Z-1.634
X121.722 Y194.14
X122.017 Y194.534 Z-1.756
X122.21 Y194.713 Z-1.866
X122.194 Y194.985 Z-1.748
X122.227 Y195.35 Z-1.64
X125.412 Y203.223 Z-1.612
X125.631 Y203.61 Z-1.669
X125.954 Y203.953 Z-1.838
X126.381 Y204.255 Z-2.12
X126.913 Y204.513 Z-2.514
X127.549 Y204.73 Z-3.021
X127.54 Y206.451 Z-2.362
X126.629 Y207.808 Z-1.005
X127.54 Y206.451 Z-2.362
X128.44 Y207.807 Z-1.006
X127.54 Y206.451 Z-2.362
X127.549 Y204.73 Z-3.021
X127.888 Y204.238 Z-2.899
X128.153 Y203.714 Z-2.859
X131.307 Y196.18 Z-2.874
X131.467 Y195.726 Z-2.902
X131.578 Y195.251 Z-2.985
X130.756 Y194.919 Z-2.228
X130.404 Y194.777 Z-1.96
X130.068 Y194.641 Z-1.771
X129.733 Y194.538 Z-1.661
X129.245 Y194.497 Z-1.612
X125.987 Y194.477 Z-1.563
X123.16 Y194.498 Z-1.612
X122.714 Y194.542 Z-1.665
X122.21 Y194.713 Z-1.866
X122.714 Y194.542 Z-1.665
X123.16 Y194.498 Z-1.612
X125.987 Y194.477 Z-1.563
X129.245 Y194.497 Z-1.612
X129.733 Y194.538 Z-1.661
X130.068 Y194.641 Z-1.771
X130.404 Y194.777 Z-1.96
X130.756 Y194.919 Z-2.228
X131.578 Y195.251 Z-2.985
X131.821 Y194.859 Z-2.912
X133.027 Y191.98 Z-2.917
X133.45 Y190.922 Z-2.935
X133.872 Y189.732 Z-3.03
X133.344 Y189.168 Z-2.469
X133.284 Y189.113 Z-2.415
X133.142 Y188.987 Z-2.29
X132.547 Y188.545 Z-1.853
X132.101 Y188.322 Z-1.637
X131.736 Y188.202 Z-1.523
X131.134 Y188.119 Z-1.455
X130.123 Y188.045 Z-1.415
X130.01 Y188.04 Z-1.414
X129.602 Y188.436 Z-1.006
X130.01 Y188.04 Z-1.414
X129.597 Y187.611 Z-1.001
X130.01 Y188.04 Z-1.414
X130.123 Y188.045 Z-1.415
X131.134 Y188.119 Z-1.455
X131.736 Y188.202 Z-1.523
X132.101 Y188.322 Z-1.637
X132.547 Y188.545 Z-1.853
X133.142 Y188.987 Z-2.29
X133.284 Y189.113 Z-2.415
X133.344 Y189.168 Z-2.469
X133.872 Y189.732 Z-3.03
X135.429 Y188.786 Z-2.093
X136.251 Y188.348 Z-1.668
X136.896 Y188.192 Z-1.528
X137.605 Y188.081 Z-1.441
X138.002 Y188.048 Z-1.422
X138.414 Y188.437 Z-1.01
X138.002 Y188.048 Z-1.422
X138.415 Y187.619 Z-1.009
G0 Z5
X125.76 Y83.469
Z4
G1 Z-1.006 F850
X125.59 Y83.619 Z-1.219
X126.004 Y84.108 Z-1.007
X125.59 Y83.619 Z-1.219
X124.729 Y83.223 Z-1.242
X123.814 Y82.941 Z-1.277
X122.883 Y82.794 Z-1.334
X121.833 Z-1.422
X121.02 Y82.912 Z-1.49
X120.336 Y83.112 Z-1.59
X119.716 Y83.408 Z-1.689
X119.122 Y83.817 Z-1.744
X118.639 Y84.284 Z-1.825
X118.446 Y84.506 Z-1.862
X117.965 Y85.254 Z-1.899
X117.651 Y85.919 Z-1.933
X117.481 Y86.542 Z-1.938
X117.358 Y87.491 Z-1.927
X117.328 Y88.329 Z-1.906
X117.394 Y88.756 Z-1.942
X118.022 Y88.739 Z-1.409
X118.262 Y88.733 Z-1.264
X119.362 Y88.711 Z-1.192
X122.686 Y88.687 Z-1.162
X124.489 Y88.759 Z-1.177
X124.822 Y88.849 Z-1.25
X125.097 Y89.028 Z-1.413
X125.575 Y89.548 Z-1.873
X126.428 Y88.838 Z-1.011
X125.575 Y89.548 Z-1.873
X125.552 Y90.051 Z-1.858
X125.457 Y90.789 Z-1.825
X125.325 Y91.243 Z-1.778
X124.894 Y92.141 Z-1.646
X124.506 Y92.627 Z-1.534
X124.089 Y93.008 Z-1.447
X123.586 Y93.318 Z-1.374
X122.999 Y93.538 Z-1.288
X122.364 Y93.677 Z-1.215
X121.626 Y93.711 Z-1.167
X120.845 Y93.615 Z-1.145
X120.286 Y93.456 Z-1.134
X119.743 Y93.191 Z-1.161
X119.131 Y92.776 Z-1.246
X118.715 Y92.395 Z-1.35
X118.29 Y91.887 Z-1.487
X117.902 Y91.251 Z-1.61
X117.721 Y90.823 Z-1.68
X117.491 Y89.952 Z-1.799
X117.378 Y89.157 Z-1.879
X117.394 Y88.756 Z-1.942
G0 Z5
X125.755 Y159.637
Z4
G1 Z-1.01 F850
X125.887 Y159.769 Z-1.142
X126.014 Y159.638 Z-1.011
X125.887 Y159.769 Z-1.142
X125.897 Y160.34 Z-1.16
X125.869 Y160.882 Z-1.227
X125.774 Y161.484 Z-1.388
X125.571 Y162.059 Z-1.67
X126.313 Y162.459 Z-1.003
X125.571 Y162.059 Z-1.67
X124.979 Y162.329 Z-1.587
X124.147 Y162.544 Z-1.493
X123.45 Y162.638 Z-1.417
X122.579 Z-1.341
X121.726 Y162.488 Z-1.249
X121.078 Y162.282 Z-1.183
X120.468 Y161.989 Z-1.178
X119.622 Y161.423 Z-1.245
X119.12 Y160.913 Z-1.377
X118.689 Y160.342 Z-1.495
X118.382 Y159.712 Z-1.585
X118.188 Y159.071 Z-1.669
X118.041 Y158.212 Z-1.764
X118.02 Y157.021 Z-1.843
X118.118 Y156.064 Z-1.881
X118.282 Y155.371 Z-1.903
X118.584 Y154.618 Z-1.919
X118.972 Y153.948 Z-1.909
X119.332 Y153.465 Z-1.866
X119.74 Y153.069 Z-1.798
X120.177 Y152.745 Z-1.738
X120.904 Y152.335 Z-1.616
X121.512 Y152.112 Z-1.527
X122.227 Y151.974 Z-1.449
X123.21 Y151.912 Z-1.372
X124.012 Y151.981 Z-1.315
X124.944 Y152.196 Z-1.26
X125.774 Y152.515 Z-1.209
X125.919 Y152.355 Z-1
X125.774 Y152.515 Z-1.209
X126.215 Y152.892 Z-1.041
X126.22 Y152.93 Z-1.009
X126.215 Y152.892 Z-1.041
X126.263 Y152.898 Z-1.004
G0 Z5
X126.265 Y123.3
Z4
G1 Z-1.196 F850
X125.605 Y123.286 Z-1.167
X124.941 Y123.193 Z-1.168
X124.283 Y122.976 Z-1.194
X123.657 Y122.663 Z-1.244
X123.17 Y122.33 Z-1.304
X122.702 Y121.892 Z-1.397
X122.298 Y121.385 Z-1.5
X121.851 Y120.556 Z-1.644
X121.564 Y119.747 Z-1.752
X121.417 Y119.044 Z-1.837
X121.36 Y118.05 Z-1.903
X121.436 Y116.901 Z-1.93
X121.578 Y116.082 Z-1.943
X121.805 Y115.389 Z-1.924
X122.364 Y114.297 Z-1.824
X122.598 Y113.933 Z-1.765
X123.182 Y113.313 Z-1.643
X123.699 Y112.88 Z-1.537
X124.211 Y112.583 Z-1.426
X124.671 Y112.405 Z-1.342
X125.367 Y112.244 Z-1.261
X126.436 Y112.171 Z-1.152
X127.121 Y112.253 Z-1.137
X127.203 Y112.268
X127.851 Y112.441
X128.372 Y112.695 Z-1.163
X129.124 Y113.245 Z-1.243
X129.543 Y113.665 Z-1.343
X130.098 Y114.459 Z-1.481
X130.451 Y115.126 Z-1.606
X130.684 Y115.768 Z-1.722
X130.834 Y116.539 Z-1.814
X130.912 Y117.7 Z-1.895
X130.905 Y118.287 Z-1.924
X130.788 Y119.233 Z-1.943
X130.642 Y119.837 Z-1.946
X130.376 Y120.513 Z-1.887
X129.858 Y121.416 Z-1.773
X129.341 Y121.995 Z-1.638
X128.76 Y122.483 Z-1.533
X128.235 Y122.814 Z-1.428
X127.457 Y123.105 Z-1.302
X126.851 Y123.24 Z-1.228
X126.265 Y123.3 Z-1.196
G0 Z5
X127.842 Y93.646
Z4
G1 Z-1.008 F850
X127.927 Y93.556 Z-1.093
X127.843 Y93.472 Z-1.009
X127.927 Y93.556 Z-1.093
X128.564 Y93.48 Z-1.135
X129.067 Y93.357 Z-1.241
X129.6 Y93.13 Z-1.458
X130.383 Y92.667 Z-1.927
X130.872 Y93.086 Z-1.516
X131.283 Y93.326 Z-1.285
X131.674 Y93.462 Z-1.159
X132.148 Y93.541 Z-1.093
X132.925 Y93.56 Z-1.097
X133.007 Y93.561 Z-1.098
X133.092 Y93.65 Z-1.013
X133.007 Y93.561 Z-1.098
X133.095 Y93.473 Z-1.01
X133.007 Y93.561 Z-1.098
X132.925 Y93.56 Z-1.097
X132.148 Y93.541 Z-1.093
X131.674 Y93.462 Z-1.159
X131.283 Y93.326 Z-1.285
X130.872 Y93.086 Z-1.516
X130.383 Y92.667 Z-1.927
X130.525 Y92.163 Z-1.859
X130.79 Y91.446 Z-1.82
X132.44 Y87.311 Z-1.769
X133.835 Y83.94 Z-1.81
X134.043 Y83.624 Z-1.888
X134.022 Y81.93 Z-1.253
X133.985 Y81.683 Z-1.188
X133.672 Y80.896 Z-1.162
X133.004 Y79.339 Z-1.143
X132.122 Y77.593 Z-1.205
X131.845 Y77.167 Z-1.246
X131.459 Y76.759 Z-1.301
X131.044 Y76.485 Z-1.355
X130.438 Y76.254 Z-1.445
X130.062 Y76.194 Z-1.498
X129.533 Y76.226 Z-1.585
X129.158 Y76.337 Z-1.646
X129.093 Y76.301 Z-1.594
X128.375 Y75.963 Z-1.004
X129.093 Y76.301 Z-1.594
X129.158 Y76.337 Z-1.646
X128.889 Y77.167 Z-1.149
X128.822 Y77.451 Z-1.004
X128.889 Y77.167 Z-1.149
X129.158 Y76.337 Z-1.646
X129.533 Y76.226 Z-1.585
X130.062 Y76.194 Z-1.498
X130.438 Y76.254 Z-1.445
X131.044 Y76.485 Z-1.355
X131.459 Y76.759 Z-1.301
X131.845 Y77.167 Z-1.246
X132.122 Y77.593 Z-1.205
X133.004 Y79.339 Z-1.143
X133.672 Y80.896 Z-1.162
X133.985 Y81.683 Z-1.188
X134.022 Y81.93 Z-1.253
X134.043 Y83.624 Z-1.888
X134.505 Y83.799 Z-1.529
X134.797 Y83.981 Z-1.33
X135.006 Y84.195 Z-1.221
X135.582 Y85.465 Z-1.187
X136.938 Y88.633 Z-1.207
X138.105 Y91.389 Z-1.313
X138.459 Y92.277 Z-1.397
X138.584 Y92.737 Z-1.495
X138.598 Y92.988 Z-1.599
X139.166 Y93.268 Z-1.323
X139.689 Y93.442 Z-1.162
X140.223 Y93.539 Z-1.091
X140.483 Y93.555 Z-1.092
X140.568 Y93.645 Z-1.007
X140.483 Y93.555 Z-1.092
X140.566 Y93.472 Z-1.009
X140.483 Y93.555 Z-1.092
X140.223 Y93.539 Z-1.091
X139.689 Y93.442 Z-1.162
X139.166 Y93.268 Z-1.323
X138.598 Y92.988 Z-1.599
X138.08 Y93.271 Z-1.322
X137.683 Y93.399 Z-1.203
X137.218 Y93.463 Z-1.153
X136.494 Y93.531 Z-1.119
X136.382 Y93.434 Z-1.007
X136.494 Y93.531 Z-1.119
X136.381 Y93.651 Z-1.006
G0 Z5
X137.777 Y152.611
Z4
G1 Z-1.006 F850
X137.607 Y152.761 Z-1.219
X138.026 Y153.256 Z-1.004
X137.607 Y152.761 Z-1.219
X137.595 Y152.755
X136.698 Y152.346 Z-1.243
X135.758 Y152.066 Z-1.281
X134.827 Y151.93 Z-1.338
X133.851 Y151.937 Z-1.422
X133.041 Y152.055 Z-1.49
X132.356 Y152.254 Z-1.589
X131.735 Y152.55 Z-1.688
X131.211 Y152.906 Z-1.74
X130.662 Y153.42 Z-1.823
X130.429 Y153.698 Z-1.864
X129.922 Y154.506 Z-1.905
X129.668 Y155.061 Z-1.932
X129.499 Y155.678 Z-1.938
X129.375 Y156.64 Z-1.927
X129.345 Y157.472 Z-1.906
X129.412 Y157.9 Z-1.943
X129.396 Y158.3 Z-1.88
X129.509 Y159.103 Z-1.798
X129.739 Y159.966 Z-1.68
X129.919 Y160.394 Z-1.611
X130.285 Y161 Z-1.493
X130.798 Y161.608 Z-1.327
X131.324 Y162.052 Z-1.222
X131.95 Y162.44 Z-1.145
X132.513 Y162.671 Z-1.136
X133.189 Y162.81 Z-1.153
X133.788 Y162.856 Z-1.177
X134.461 Y162.807 Z-1.221
X135.191 Y162.627 Z-1.313
X135.715 Y162.403 Z-1.391
X136.196 Y162.08 Z-1.462
X136.748 Y161.522 Z-1.597
X137.133 Y160.864 Z-1.711
X137.38 Y160.28 Z-1.791
X137.51 Y159.735 Z-1.838
X137.592 Y158.69 Z-1.873
X138.442 Y157.983 Z-1.014
X137.592 Y158.69 Z-1.873
X137.117 Y158.174 Z-1.416
X136.84 Y157.992 Z-1.25
X136.504 Y157.902 Z-1.177
X134.697 Y157.83 Z-1.162
X130.5 Y157.87 Z-1.208
X130.279 Y157.876 Z-1.264
X130.039 Y157.882 Z-1.409
X129.412 Y157.9 Z-1.943
G0 Z5
X131.809 Y62.335
Z4
G1 Z-1.011 F850
X132.155 Y62.137 Z-1.354
X131.97 Y61.146 Z-1.169
X132.071 Y60.949 Z-1.006
X131.97 Y61.146 Z-1.169
X131.812 Y61.026 Z-1.013
X131.97 Y61.146 Z-1.169
X132.155 Y62.137 Z-1.354
X132.297 Y62.3 Z-1.283
X132.667 Y62.659 Z-1.153
X132.905 Y62.796 Z-1.151
X133.649 Y63.152 Z-1.193
X134.357 Y63.37 Z-1.265
X134.966 Y63.47 Z-1.333
X135.745 Y63.477 Z-1.413
X136.449 Y63.378 Z-1.488
X137.025 Y63.199 Z-1.586
X137.543 Y62.924 Z-1.67
X138.048 Y62.572 Z-1.743
X138.278 Y62.306 Z-1.788
X138.548 Y61.925 Z-1.831
X138.811 Y61.27 Z-1.811
X138.921 Y60.559 Z-1.761
X138.987 Y59.602 Z-1.758
X138.963 Y59.244 Z-1.797
X139.006 Y56.354 Z-1.784
X139.009 Y55.426 Z-1.792
X138.949 Y55.036 Z-1.864
X139.005 Y54.794 Z-1.82
X139.086 Y53.505 Z-1.845
X139.216 Y53.391 Z-1.728
X139.565 Y53.138 Z-1.466
X139.984 Y52.927 Z-1.254
X140.341 Y52.816 Z-1.153
X141.36 Y52.756 Z-1.141
X141.491 Y52.887 Z-1.01
X141.36 Y52.756 Z-1.141
X141.488 Y52.621 Z-1.013
X141.36 Y52.756 Z-1.141
X140.341 Y52.816 Z-1.153
X139.984 Y52.927 Z-1.254
X139.565 Y53.138 Z-1.466
X139.216 Y53.391 Z-1.728
X139.086 Y53.505 Z-1.845
X138.232 Y52.607 Z-1
X139.086 Y53.505 Z-1.845
X139.005 Y54.794 Z-1.82
X138.949 Y55.036 Z-1.864
X138.261 Y54.999 Z-1.334
X137.936 Y54.889 Z-1.154
X137.699 Y54.708 Z-1.095
X137.02 Y54.143 Z-1.058
X136.264 Y53.611 Z-1.093
X135.578 Y53.224 Z-1.201
X134.826 Y52.919 Z-1.394
X134.581 Y52.862 Z-1.44
X134.218 Y52.848 Z-1.489
X133.62 Y52.918 Z-1.559
X133.061 Y53.091 Z-1.675
X132.646 Y53.312 Z-1.755
X132.207 Y53.694 Z-1.85
X131.884 Y54.199 Z-1.877
X131.769 Y54.6 Z-1.854
X131.712 Y55.173 Z-1.816
X131.755 Y55.813 Z-1.768
X131.91 Y56.395 Z-1.686
X132.117 Y56.851 Z-1.607
X132.441 Y57.307 Z-1.526
X132.828 Y57.651 Z-1.44
X133.28 Y57.955 Z-1.339
X133.884 Y58.194 Z-1.277
X135.303 Y58.663 Z-1.178
X136.596 Y58.976 Z-1.129
X138.04 Y59.244 Z-1.115
X138.221 Z-1.184
X138.421 Z-1.32
X138.963 Z-1.797
G0 Z5
X133.52 Y122.576
Z4
G1 Z-1.005 F850
X133.642 Y122.469 Z-1.127
X133.525 Y122.352 Z-1.01
X133.642 Y122.469 Z-1.127
X134.885 Y122.553 Z-1.257
X135.481 Y122.517 Z-1.432
X135.923 Y122.395 Z-1.672
X136.245 Y122.272 Z-1.884
X137.119 Y123.507 Z-1.033
X137.138 Y123.533 Z-1.015
X137.143 Y123.541 Z-1.01
X137.138 Y123.533 Z-1.015
X137.119 Y123.507 Z-1.033
X136.245 Y122.272 Z-1.884
X136.322 Y121.754 Z-1.8
X136.355 Y121.168 Z-1.793
X136.47 Y120.709 Z-1.895
X136.4 Y119.561 Z-1.803
X136.393 Y116.072 Z-1.779
X136.359 Y113.836 Z-1.841
X136.346 Y113.166 Z-1.884
X136.869 Y112.77 Z-1.495
X137.321 Y112.528 Z-1.259
X137.948 Y112.369 Z-1.115
X138.443 Y112.325 Z-1.086
X139.156 Y112.309 Z-1.097
X139.241 Y112.22 Z-1.012
X139.156 Y112.309 Z-1.097
X139.243 Y112.396 Z-1.01
X139.156 Y112.309 Z-1.097
X138.443 Y112.325 Z-1.086
X137.948 Y112.369 Z-1.115
X137.321 Y112.528 Z-1.259
X136.869 Y112.77 Z-1.495
X136.346 Y113.166 Z-1.884
X135.832 Y112.744 Z-1.464
X135.316 Y112.503 Z-1.23
X134.917 Y112.382 Z-1.117
X134.476 Y112.33 Z-1.079
X133.611 Y112.31 Z-1.096
X133.526 Y112.221 Z-1.011
X133.611 Y112.31 Z-1.096
X133.525 Y112.396 Z-1.01
X133.611 Y112.31 Z-1.096
X134.476 Y112.33 Z-1.079
X134.917 Y112.382 Z-1.117
X135.316 Y112.503 Z-1.23
X135.832 Y112.744 Z-1.464
X136.346 Y113.166 Z-1.884
X136.359 Y113.836 Z-1.841
X136.393 Y116.072 Z-1.779
X136.4 Y119.561 Z-1.803
X136.47 Y120.709 Z-1.895
X137.054 Y120.84 Z-1.409
X137.427 Y121.017 Z-1.157
X137.623 Y121.194 Z-1.089
X138.079 Y121.632 Z-1.064
X138.622 Y122.06 Z-1.103
X139.37 Y122.543 Z-1.238
X139.952 Y122.804 Z-1.386
X140.135 Y122.854 Z-1.417
X140.481 Y122.914 Z-1.454
X141.147 Y122.953 Z-1.527
X141.776 Y122.896 Z-1.593
X142.412 Y122.736 Z-1.684
X142.953 Y122.494 Z-1.75
X143.389 Y122.216 Z-1.81
X143.757 Y121.883 Z-1.863
X144.114 Y121.356 Z-1.89
X144.242 Y121.027 Z-1.87
X144.416 Y120.293 Z-1.859
X144.504 Y119.339 Z-1.815
X144.478 Y115.675 Z-1.797
X144.45 Y114.237 Z-1.822
X144.479 Y113.184 Z-1.913
X143.508 Y112.226 Z-1.012
X144.479 Y113.184 Z-1.913
X145.12 Y112.7 Z-1.418
X145.619 Y112.483 Z-1.205
X146.016 Y112.375 Z-1.106
X146.485 Y112.331 Z-1.078
X147.119 Y112.313 Z-1.093
X147.203 Y112.397 Z-1.009
X147.119 Y112.313 Z-1.093
X147.204 Y112.223 Z-1.008
G0 Z5
X139.761 Y207.64
Z4
G1 Z-1.007 F850
X140.697 Y206.725 Z-1.883
X140.627 Y206.572 Z-1.804
X140.592 Y206.488 Z-1.764
X140.526 Y206.31 Z-1.689
X140.416 Y205.87 Z-1.559
X140.408 Y205.817 Z-1.548
X140.387 Y205.622 Z-1.52
X140.295 Y203.603 Z-1.402
X140.667 Y203.202 Z-1.001
X140.295 Y203.603 Z-1.402
X139.904 Y203.214 Z-1.013
X140.295 Y203.603 Z-1.402
X140.387 Y205.622 Z-1.52
X140.408 Y205.817 Z-1.548
X140.416 Y205.87 Z-1.559
X140.526 Y206.31 Z-1.689
X140.592 Y206.488 Z-1.764
X140.627 Y206.572 Z-1.804
X140.697 Y206.725 Z-1.883
X141.13 Y206.802 Z-1.788
X141.903 Y206.855 Z-1.705
X143.747 Y206.878 Z-1.621
X146.519 Y206.865 Z-1.584
X147.131 Y206.786 Z-1.657
X147.504 Y206.68 Z-1.76
X147.88 Y206.493 Z-1.944
X148.25 Y206.23 Z-2.205
X148.979 Y205.539 Z-2.895
X149.754 Y206.233 Z-2.207
X149.866 Y206.323 Z-2.118
X150.27 Y206.585 Z-1.86
X150.712 Y206.763 Z-1.686
X150.808 Y206.791 Z-1.66
X151.213 Y206.864 Z-1.591
X151.313 Y206.871 Z-1.585
X151.398 Y206.874 Z-1.583
X151.543 Y206.875
X153.497 Y206.887 Z-1.605
X156.285 Y206.835 Z-1.74
X156.721 Y206.797 Z-1.793
X157.237 Y206.682 Z-1.927
X157.418 Y206.195 Z-1.695
X157.485 Y205.779 Z-1.587
X157.536 Y204.233 Z-1.422
X157.537 Y203.586 Z-1.385
X157.9 Y203.205 Z-1.004
X157.537 Y203.586 Z-1.385
X157.179 Y203.214 Z-1.013
X157.537 Y203.586 Z-1.385
X157.536 Y204.233 Z-1.422
X157.485 Y205.779 Z-1.587
X157.418 Y206.195 Z-1.695
X157.237 Y206.682 Z-1.927
X158.218 Y207.588 Z-1.058
X158.271 Y207.601 Z-1.006
X158.218 Y207.588 Z-1.058
X158.241 Y207.633 Z-1.014
X158.218 Y207.588 Z-1.058
X157.237 Y206.682 Z-1.927
X156.721 Y206.797 Z-1.793
X156.285 Y206.835 Z-1.74
X153.497 Y206.887 Z-1.605
X151.543 Y206.875 Z-1.583
X151.398 Y206.874
X151.313 Y206.871 Z-1.585
X151.213 Y206.864 Z-1.591
X150.808 Y206.791 Z-1.66
X150.712 Y206.763 Z-1.686
X150.27 Y206.585 Z-1.86
X149.866 Y206.323 Z-2.118
X149.754 Y206.233 Z-2.207
X148.979 Y205.539 Z-2.895
X148.982 Y205.21 Z-2.892
X148.983 Y205.155
X148.967 Y199.278 Z-2.856
X148.915 Y191.99 Z-2.887
X148.892 Y189.689 Z-2.987
X148.03 Y188.948 Z-2.249
X147.462 Y188.568 Z-1.873
X147.034 Y188.345 Z-1.655
X146.425 Y188.156 Z-1.476
X145.898 Y188.078 Z-1.411
X144.648 Y187.987 Z-1.363
X144.298 Y188.326 Z-1.013
X144.648 Y187.987 Z-1.363
X144.291 Y187.617 Z-1.006
X144.648 Y187.987 Z-1.363
X145.898 Y188.078 Z-1.411
X146.425 Y188.156 Z-1.476
X147.034 Y188.345 Z-1.655
X147.462 Y188.568 Z-1.873
X148.03 Y188.948 Z-2.249
X148.892 Y189.689 Z-2.987
X149.682 Y189.013 Z-2.312
X150.292 Y188.597 Z-1.901
X150.929 Y188.263 Z-1.574
X151.395 Y188.158 Z-1.477
X152.655 Y188.031 Z-1.386
X153.153 Y187.998 Z-1.373
X153.522 Y188.343 Z-1.004
X153.153 Y187.998 Z-1.373
X153.523 Y187.613 Z-1.003
G0 Z5
X140.594 Y152.013
Z4
G1 Z-1.005 F850
X140.95 Y152.237 Z-1.311
X141.215 Y152.419 Z-1.548
X140.99 Y153.079 Z-1.265
X140.923 Y153.846 Z-1.142
X140.931 Y154.66 Z-1.122
X140.929 Y154.865 Z-1.124
X140.81 Y154.981 Z-1.008
X140.929 Y154.865 Z-1.124
X141.043 Y154.979 Z-1.01
X140.929 Y154.865 Z-1.124
X140.931 Y154.66 Z-1.122
X140.923 Y153.846 Z-1.142
X140.99 Y153.079 Z-1.265
X141.215 Y152.419 Z-1.548
X141.846 Y152.15 Z-1.417
X142.685 Y151.911 Z-1.311
X143.655 Y151.743 Z-1.216
X144.511 Y151.708 Z-1.172
X145.156 Y151.755 Z-1.16
X145.837 Y151.892
X146.319 Y152.087 Z-1.176
X146.985 Y152.482 Z-1.207
X147.587 Y153.025 Z-1.299
X147.896 Y153.464 Z-1.374
X148.142 Y153.998 Z-1.486
X148.256 Y154.481 Z-1.552
X148.27 Y155.153 Z-1.655
X148.256 Y155.332 Z-1.692
X148.099 Y155.862 Z-1.783
X147.903 Y156.214 Z-1.831
X147.762 Y156.401 Z-1.845
X147.438 Y156.661 Z-1.861
X147.222 Y156.77 Z-1.837
X146.55 Y157.052 Z-1.783
X144.686 Y157.471 Z-1.752
X143.603 Y157.742 Z-1.764
X142.439 Y158.175 Z-1.814
X142.106 Y158.362 Z-1.808
X141.734 Y158.744 Z-1.806
X141.487 Y159.206 Z-1.747
X141.384 Y159.632 Z-1.683
X141.372 Y160.274 Z-1.595
X141.446 Y160.759 Z-1.54
X141.603 Y161.182 Z-1.462
X141.858 Y161.612 Z-1.381
X142.151 Y161.942 Z-1.327
X142.666 Y162.336 Z-1.249
X143.304 Y162.654 Z-1.206
X143.84 Y162.795 Z-1.18
X144.543 Y162.863 Z-1.177
X145.174 Y162.85 Z-1.197
X145.882 Y162.746 Z-1.249
X146.708 Y162.509 Z-1.359
X147.308 Y162.237 Z-1.463
X147.555 Y162.09 Z-1.527
X148.116 Y162.452 Z-1.001
X147.555 Y162.09 Z-1.527
X147.75 Y161.433 Z-1.281
X147.841 Y160.551 Z-1.146
X147.848 Y160.217 Z-1.126
X147.961 Y160.101 Z-1.01
X147.848 Y160.217 Z-1.126
X147.734 Y160.101 Z-1.01
G0 Z5
X142.955 Y52.818
Z4
G1 Z-1.002 F850
X143.063 Y52.718 Z-1.11
X142.963 Y52.614 Z-1.01
X143.063 Y52.718 Z-1.11
X143.758 Y52.762 Z-1.124
X144.342 Y52.804 Z-1.147
X144.858 Y52.915 Z-1.248
X145.238 Y53.073 Z-1.401
X145.961 Y53.597 Z-1.92
X146.505 Y53.18 Z-1.508
X146.931 Y52.961 Z-1.293
X147.25 Y52.863 Z-1.2
X148.032 Y52.742 Z-1.097
X148.877 Y52.707 Z-1.092
X149.107 Y52.703 Z-1.097
X149.193 Y52.614 Z-1.011
X149.107 Y52.703 Z-1.097
X149.194 Y52.789 Z-1.01
X149.107 Y52.703 Z-1.097
X148.877 Y52.707 Z-1.092
X148.032 Y52.742 Z-1.097
X147.25 Y52.863 Z-1.2
X146.931 Y52.961 Z-1.293
X146.505 Y53.18 Z-1.508
X145.961 Y53.597 Z-1.92
X145.968 Y54.265 Z-1.85
X145.957 Y56.205 Z-1.773
X145.981 Y58.482 Z-1.77
X146.065 Y60.072 Z-1.848
X146.104 Y60.565 Z-1.905
X146.056 Y60.68 Z-1.864
X145.954 Y61.014 Z-1.788
X145.875 Y61.783 Z-1.81
X145.796 Y62.641 Z-1.907
X145.393 Y62.798 Z-1.648
X144.721 Y62.947 Z-1.348
X144.269 Y62.978 Z-1.23
X143.649 Y62.937 Z-1.165
X143.079 Y62.898 Z-1.126
X142.959 Y63.004 Z-1.006
X143.079 Y62.898 Z-1.126
X142.963 Y62.782 Z-1.01
X143.079 Y62.898 Z-1.126
X143.649 Y62.937 Z-1.165
X144.269 Y62.978 Z-1.23
X144.721 Y62.947 Z-1.348
X145.393 Y62.798 Z-1.648
X145.796 Y62.641 Z-1.907
X146.557 Y63.708 Z-1.168
X146.661 Y63.866 Z-1.065
X146.696 Y63.916 Z-1.029
X146.71 Y63.937 Z-1.012
X146.696 Y63.916 Z-1.029
X146.661 Y63.866 Z-1.065
X146.557 Y63.708 Z-1.168
X145.796 Y62.641 Z-1.907
X145.875 Y61.783 Z-1.81
X145.954 Y61.014 Z-1.788
X146.056 Y60.68 Z-1.864
X146.104 Y60.565 Z-1.905
X146.165 Y60.582 Z-1.85
X146.685 Y60.759 Z-1.412
X146.957 Y60.909 Z-1.217
X147.154 Y61.082 Z-1.121
X147.647 Y61.635 Z-1.09
X148.101 Y62.066 Z-1.162
X148.559 Y62.426 Z-1.3
X149.141 Y62.751 Z-1.519
X149.772 Y62.958 Z-1.744
X149.969 Y62.984 Z-1.803
X150.415 Y62.966 Z-1.92
X150.951 Y63.422 Z-1.448
X151.419 Y63.731 Z-1.027
X151.444 Y63.744 Z-1.004
X151.419 Y63.731 Z-1.027
X150.951 Y63.422 Z-1.448
X150.415 Y62.966 Z-1.92
X150.779 Y62.267 Z-1.49
X151.054 Y61.514 Z-1.178
X151.132 Y61.205 Z-1.093
X151.082 Y61.124 Z-1.012
X151.132 Y61.205 Z-1.093
X151.217 Y61.117 Z-1.006
G0 Z5
X151.188 Y152.012
Z4
G1 Z-1.004 F850
X151.811 Y152.419 Z-1.548
X151.588 Y153.065 Z-1.268
X151.52 Y153.796 Z-1.146
X151.527 Y154.66 Z-1.122
X151.525 Y154.865 Z-1.124
X151.406 Y154.981 Z-1.008
X151.525 Y154.865 Z-1.124
X151.639 Y154.979 Z-1.01
X151.525 Y154.865 Z-1.124
X151.527 Y154.66 Z-1.122
X151.52 Y153.796 Z-1.146
X151.588 Y153.065 Z-1.268
X151.811 Y152.419 Z-1.548
X152.442 Y152.15 Z-1.417
X153.281 Y151.911 Z-1.311
X154.25 Y151.744 Z-1.216
X155.106 Y151.708 Z-1.172
X155.751 Y151.755 Z-1.16
X156.431 Y151.891
X156.915 Y152.087 Z-1.176
X157.581 Y152.482 Z-1.207
X158.182 Y153.025 Z-1.299
X158.493 Y153.465 Z-1.374
X158.737 Y153.998 Z-1.486
X158.85 Y154.467 Z-1.55
X158.867 Y155.14 Z-1.653
X158.852 Y155.332 Z-1.692
X158.762 Y155.689 Z-1.753
X158.499 Y156.214 Z-1.831
X158.384 Y156.37 Z-1.842
X158.036 Y156.66 Z-1.862
X157.821 Y156.768 Z-1.838
X157.141 Y157.053 Z-1.783
X155.283 Y157.471 Z-1.752
X154.199 Y157.742 Z-1.764
X153.034 Y158.175 Z-1.814
X152.584 Y158.458 Z-1.811
X152.329 Y158.746 Z-1.806
X152.075 Y159.228 Z-1.743
X151.971 Y159.735 Z-1.665
X151.974 Y160.393 Z-1.58
X152.064 Y160.838 Z-1.528
X152.258 Y161.299 Z-1.437
X152.553 Y161.745 Z-1.365
X152.808 Y161.995 Z-1.315
X153.335 Y162.38 Z-1.245
X153.926 Y162.664 Z-1.205
X154.453 Y162.798 Z-1.18
X155.263 Y162.868 Z-1.178
X156.12 Y162.811 Z-1.214
X156.843 Y162.657 Z-1.295
X157.564 Y162.404 Z-1.399
X158.15 Y162.09 Z-1.526
X158.712 Y162.452 Z-1
X158.15 Y162.09 Z-1.526
X158.346 Y161.433 Z-1.281
X158.437 Y160.551 Z-1.146
X158.444 Y160.217 Z-1.126
X158.557 Y160.101 Z-1.01
X158.444 Y160.217 Z-1.126
X158.33 Y160.101 Z-1.01
G0 Z5
X157.38 Y99.434
Z4
G1 Z-1.275 F850
X156.257 Y99.38 Z-1.246
X155.333 Y99.26 Z-1.247
X154.557 Y99.068 Z-1.274
X153.599 Y98.695 Z-1.305
X152.972 Y98.342 Z-1.332
X152.126 Y97.738 Z-1.388
X151.434 Y97.109 Z-1.497
X150.806 Y96.296 Z-1.585
X150.237 Y95.322 Z-1.71
X149.876 Y94.522 Z-1.799
X149.636 Y93.709 Z-1.866
X149.482 Y92.69 Z-1.921
X149.412 Y91.38 Z-1.987
X149.454 Y90.317 Z-2.017
X149.576 Y89.34 Z-2.036
X149.789 Y88.452 Z-2.04
X150.318 Y87.024 Z-2.002
X150.743 Y86.237 Z-1.955
X151.253 Y85.467 Z-1.899
X151.763 Y84.881 Z-1.826
X152.529 Y84.211 Z-1.733
X153.294 Y83.705 Z-1.63
X153.72 Y83.463 Z-1.569
X154.642 Y83.083 Z-1.487
X155.491 Y82.847 Z-1.392
X156.368 Y82.714 Z-1.325
X157.467 Y82.674 Z-1.258
X158.648 Y82.761 Z-1.216
X159.56 Y82.921 Z-1.21
X160.308 Y83.155 Z-1.229
X161.135 Y83.529 Z-1.241
X161.828 Y83.971 Z-1.27
X162.561 Y84.546 Z-1.319
X163.259 Y85.231 Z-1.433
X163.982 Y86.242 Z-1.551
X164.476 Y87.155 Z-1.695
X164.866 Y88.058 Z-1.811
X165.095 Y88.853 Z-1.887
X165.264 Y89.939 Z-1.957
X165.349 Y91.236 Z-2.025
X165.331 Y92.053 Z-2.05
X165.208 Y93.153 Z-2.059
X165.01 Y94.06 Z-2.071
X164.757 Y94.775 Z-2.052
X164.321 Y95.67 Z-1.963
X163.675 Y96.641 Z-1.878
X163.456 Y96.925 Z-1.85
X162.771 Y97.57 Z-1.717
X162.071 Y98.104 Z-1.639
X161.175 Y98.65 Z-1.54
X160.193 Y99.02 Z-1.451
X159.268 Y99.254 Z-1.356
X158.223 Y99.394 Z-1.299
X157.38 Y99.434 Z-1.275
G0 Z5
X160.43 Y207.64
Z4
G1 Z-1.002 F850
X160.801 Y207.256 Z-1.373
X160.433 Y206.911 Z-1.005
X160.801 Y207.256 Z-1.373
X161.483 Y207.202 Z-1.403
X162.616 Y207.029 Z-1.541
X163.109 Y206.857 Z-1.699
X163.496 Y206.634 Z-1.914
X164.109 Y206.211 Z-2.327
X164.831 Y205.584 Z-2.944
X165.418 Y206.142 Z-2.381
X166.104 Y206.663 Z-1.864
X166.55 Y206.855 Z-1.679
X166.997 Y206.931 Z-1.611
X167.117 Y206.935 Z-1.609
X169.43 Y206.999 Z-1.583
X171.67 Y207.004 Z-1.614
X173.631 Y206.912 Z-1.739
X174.22 Y206.848 Z-1.798
X174.778 Y206.719 Z-1.912
X175 Y206.146 Z-1.614
X175.057 Y205.743 Z-1.509
X175.069 Y204.233 Z-1.367
X175.065 Y203.949 Z-1.353
X175.384 Y203.61 Z-1.014
X175.065 Y203.949 Z-1.353
X174.724 Y203.6 Z-1.004
X175.065 Y203.949 Z-1.353
X175.069 Y204.233 Z-1.367
X175.057 Y205.743 Z-1.509
X175 Y206.146 Z-1.614
X174.778 Y206.719 Z-1.912
X175.829 Y207.556 Z-1.005
X174.778 Y206.719 Z-1.912
X174.22 Y206.848 Z-1.798
X173.631 Y206.912 Z-1.739
X171.67 Y207.004 Z-1.614
X169.43 Y206.999 Z-1.583
X167.117 Y206.935 Z-1.609
X166.997 Y206.931 Z-1.611
X166.55 Y206.855 Z-1.679
X166.104 Y206.663 Z-1.864
X165.418 Y206.142 Z-2.381
X164.831 Y205.584 Z-2.944
X164.826 Y203.032 Z-2.853
X164.792 Y198.843 Z-2.786
X164.85 Y198.178 Z-2.843
X164.909 Y197.895 Z-2.9
X165.938 Y197.957 Z-2.02
X166.37 Y197.984 Z-1.742
X166.935 Y198.013 Z-1.594
X168.815 Y198.021 Z-1.504
X171.089 Y197.995 Z-1.528
X172.343 Y197.989 Z-1.663
X172.546 Y197.985 Z-1.715
X172.862 Y197.994 Z-1.851
X173.099 Y198.485 Z-1.62
X173.236 Y198.979 Z-1.492
X173.301 Y199.517 Z-1.438
X173.374 Y200.523 Z-1.391
X173.016 Y200.906 Z-1.008
X173.374 Y200.523 Z-1.391
X173.772 Y200.909 Z-1.005
X173.374 Y200.523 Z-1.391
X173.301 Y199.517 Z-1.438
X173.236 Y198.979 Z-1.492
X173.099 Y198.485 Z-1.62
X172.862 Y197.994 Z-1.851
X173.103 Y197.502 Z-1.618
X173.151 Y197.374 Z-1.573
X173.274 Y196.727 Z-1.465
X173.375 Y195.514 Z-1.39
X173.385 Y195.266 Z-1.385
X173.02 Y194.886 Z-1.005
X173.385 Y195.266 Z-1.385
X173.771 Y194.889 Z-1.008
X173.385 Y195.266 Z-1.385
X173.375 Y195.514 Z-1.39
X173.274 Y196.727 Z-1.465
X173.151 Y197.374 Z-1.573
X173.103 Y197.502 Z-1.618
X172.862 Y197.994 Z-1.851
X172.546 Y197.985 Z-1.715
X172.343 Y197.989 Z-1.663
X171.089 Y197.995 Z-1.528
X168.815 Y198.021 Z-1.504
X166.935 Y198.013 Z-1.594
X166.37 Y197.984 Z-1.742
X165.938 Y197.957 Z-2.02
X164.909 Y197.895 Z-2.9
X164.89 Y197.78 Z-2.881
X164.837 Y196.704 Z-2.827
X164.811 Y193.155 Z-2.852
X164.77 Y189.693 Z-3.001
X163.592 Y188.609 Z-1.933
X163.168 Y188.35 Z-1.684
X162.444 Y188.1 Z-1.454
X161.518 Y187.843 Z-1.226
X161.308 Y187.975 Z-1.016
X161.518 Y187.843 Z-1.226
X161.304 Y187.622 Z-1.012
X161.518 Y187.843 Z-1.226
X162.444 Y188.1 Z-1.454
X163.168 Y188.35 Z-1.684
X163.592 Y188.609 Z-1.933
X164.77 Y189.693 Z-3.001
X165.759 Y188.793 Z-2.093
X166.204 Y188.518 Z-1.815
X166.544 Y188.384 Z-1.682
X166.882 Y188.317 Z-1.617
X167.733 Y188.3 Z-1.606
X171.608 Y188.264 Z-1.64
X173.642 Y188.323 Z-1.72
X174.896 Y188.428 Z-1.792
X174.991 Y188.452 Z-1.812
X175.766 Y187.694 Z-1.006
X174.991 Y188.452 Z-1.812
X175.152 Y188.757 Z-1.665
X175.277 Y189.182 Z-1.564
X175.619 Y191.299 Z-1.402
X175.705 Y191.837 Z-1.376
X175.404 Y192.204 Z-1.009
X175.705 Y191.837 Z-1.376
X176.124 Y192.211 Z-1.002
G0 Z5
X166.674 Y52.817
Z4
G1 Z-1.002 F850
X166.783 Y52.716 Z-1.111
X166.683 Y52.613 Z-1.011
X166.783 Y52.716 Z-1.111
X167.436 Y52.755 Z-1.126
X167.972 Y52.798 Z-1.153
X168.384 Y52.903 Z-1.248
X168.906 Y53.143 Z-1.478
X169.455 Y53.595 Z-1.923
X169.951 Y53.184 Z-1.508
X170.34 Y52.991 Z-1.318
X170.814 Y52.842 Z-1.176
X171.264 Y52.787 Z-1.134
X172.127 Y52.724 Z-1.112
X172.235 Y52.821 Z-1.004
X172.127 Y52.724 Z-1.112
X172.226 Y52.619 Z-1.013
X172.127 Y52.724 Z-1.112
X171.264 Y52.787 Z-1.134
X170.814 Y52.842 Z-1.176
X170.34 Y52.991 Z-1.318
X169.951 Y53.184 Z-1.508
X169.455 Y53.595 Z-1.923
Y54.641 Z-1.83
X169.456 Y63.999 Z-1.781
X169.47 Y67.541 Z-1.834
X169.477 Y68.463 Z-1.865
X169.427 Y68.983 Z-1.939
X170.432 Y70.324 Z-1.004
X169.427 Y68.983 Z-1.939
X168.846 Y69.239 Z-1.538
X168.335 Y69.342 Z-1.328
X167.838 Y69.374 Z-1.211
X167.166 Y69.337 Z-1.156
X166.808 Y69.317 Z-1.136
X166.682 Y69.191 Z-1.01
X166.808 Y69.317 Z-1.136
X166.676 Y69.435 Z-1.004
G0 Z5
X167.893 Y82.837
Z4
G1 Z-1.002 F850
X168.001 Y82.738 Z-1.11
X167.901 Y82.634 Z-1.01
X168.001 Y82.738 Z-1.11
X169.521 Y82.864 Z-1.182
X169.908 Y82.968 Z-1.279
X170.246 Y83.138 Z-1.447
X170.898 Y83.616 Z-1.92
X171.406 Y83.223 Z-1.531
X171.839 Y82.993 Z-1.305
X172.187 Y82.882 Z-1.2
X172.97 Y82.761 Z-1.097
X173.816 Y82.727 Z-1.092
X174.044 Y82.722 Z-1.097
X174.13 Y82.633 Z-1.011
X174.044 Y82.722 Z-1.097
X174.131 Y82.809 Z-1.01
X174.044 Y82.722 Z-1.097
X173.816 Y82.727 Z-1.092
X172.97 Y82.761 Z-1.097
X172.187 Y82.882 Z-1.2
X171.839 Y82.993 Z-1.305
X171.406 Y83.223 Z-1.531
X170.898 Y83.616 Z-1.92
X170.906 Y84.284 Z-1.85
X170.894 Y86.229 Z-1.773
X170.933 Y88.888 Z-1.781
X171.021 Y90.404 Z-1.875
X171.041 Y90.585 Z-1.905
X170.892 Y91.027 Z-1.789
X170.832 Y91.506 Z-1.785
X170.733 Y92.661 Z-1.907
X171.494 Y93.728 Z-1.167
X171.651 Y93.959 Z-1
X171.494 Y93.728 Z-1.167
X170.733 Y92.661 Z-1.907
X170.33 Y92.817 Z-1.648
X169.66 Y92.966 Z-1.349
X169.206 Y92.997 Z-1.23
X168.586 Y92.956 Z-1.165
X168.017 Y92.917 Z-1.126
X167.901 Y92.801 Z-1.01
X168.017 Y92.917 Z-1.126
X167.897 Y93.023 Z-1.006
X168.017 Y92.917 Z-1.126
X168.586 Y92.956 Z-1.165
X169.206 Y92.997 Z-1.23
X169.66 Y92.966 Z-1.349
X170.33 Y92.817 Z-1.648
X170.733 Y92.661 Z-1.907
X170.832 Y91.506 Z-1.785
X170.892 Y91.027 Z-1.789
X171.041 Y90.585 Z-1.905
X171.133 Y90.608 Z-1.824
X171.609 Y90.773 Z-1.422
X171.887 Y90.924 Z-1.221
X172.088 Y91.098 Z-1.122
X172.534 Y91.602 Z-1.088
X173.029 Y92.078 Z-1.16
X173.495 Y92.444 Z-1.299
X174.074 Y92.768 Z-1.517
X174.707 Y92.977 Z-1.743
X174.9 Y93.003 Z-1.801
X175.352 Y92.986 Z-1.92
X175.889 Y93.441 Z-1.448
X176.359 Y93.752 Z-1.025
X176.383 Y93.765 Z-1.002
X176.359 Y93.752 Z-1.025
X175.889 Y93.441 Z-1.448
X175.352 Y92.986 Z-1.92
X175.713 Y92.293 Z-1.493
X175.978 Y91.579 Z-1.194
X176.069 Y91.224 Z-1.092
X176.019 Y91.143 Z-1.012
X176.069 Y91.224 Z-1.092
X176.155 Y91.137 Z-1.005
G0 Z5
X169.711 Y125.176
Z4
G1 Z-1.014 F850
X169.869 Y125.34 Z-1.178
X170.036 Y125.165 Z-1.003
X169.869 Y125.34 Z-1.178
X169.885 Y126.37 Z-1.241
X169.926 Y127.202 Z-1.326
X169.88 Y127.556 Z-1.45
X169.756 Y127.908 Z-1.658
X170.593 Y128.407 Z-1.001
X169.756 Y127.908 Z-1.658
X168.354 Y128.437 Z-1.453
X167.236 Y128.751 Z-1.361
X165.994 Y128.959 Z-1.297
X164.936 Y129.031 Z-1.279
X164.068 Y129.002 Z-1.275
X162.722 Y128.866 Z-1.291
X161.79 Y128.661 Z-1.308
X161.009 Y128.384 Z-1.346
X160.103 Y127.954 Z-1.435
X159.445 Y127.559 Z-1.5
X158.601 Y126.933 Z-1.578
X157.961 Y126.261 Z-1.686
X157.377 Y125.491 Z-1.75
X156.892 Y124.696 Z-1.821
X156.546 Y123.852 Z-1.881
X156.276 Y122.921 Z-1.966
X156.132 Y122.004 Z-2.01
X156.063 Y120.906 Z-2.036
X156.098 Y120.125 Z-2.049
X156.218 Y119.097 Z-2.057
X156.429 Y118.244 Z-2.05
X156.78 Y117.34 Z-2.027
X157.226 Y116.441 Z-1.98
X157.743 Y115.693 Z-1.941
X158.377 Y114.941 Z-1.876
X159.022 Y114.368 Z-1.797
X159.918 Y113.736 Z-1.725
X161.045 Y113.159 Z-1.606
X162.156 Y112.738 Z-1.524
X162.918 Y112.545 Z-1.462
X163.885 Y112.408 Z-1.412
X165.144 Y112.339 Z-1.372
X166.492 Y112.433 Z-1.344
X167.645 Y112.632 Z-1.304
X168.846 Y112.956 Z-1.26
X169.847 Y113.358 Z-1.248
X170.147 Y113.507 Z-1.258
X170.348 Y113.319 Z-1.003
X170.147 Y113.507 Z-1.258
X170.704 Y114.167 Z-1.001
G0 Z5
X173.51 Y63.627
Z4
G1 Z-1.008 F850
X173.595 Y63.537 Z-1.093
X173.511 Y63.452 Z-1.009
X173.595 Y63.537 Z-1.093
X174.231 Y63.461 Z-1.135
X174.735 Y63.337 Z-1.241
X175.268 Y63.111 Z-1.458
X176.051 Y62.647 Z-1.928
X176.541 Y63.068 Z-1.515
X176.949 Y63.306 Z-1.286
X177.342 Y63.442 Z-1.159
X177.816 Y63.521 Z-1.093
X178.593 Y63.54 Z-1.097
X178.675 Y63.542 Z-1.098
X178.76 Y63.63 Z-1.013
X178.675 Y63.542 Z-1.098
X178.763 Y63.453 Z-1.01
X178.675 Y63.542 Z-1.098
X178.593 Y63.54 Z-1.097
X177.816 Y63.521 Z-1.093
X177.342 Y63.442 Z-1.159
X176.949 Y63.306 Z-1.286
X176.541 Y63.068 Z-1.515
X176.051 Y62.647 Z-1.928
X176.203 Y62.114 Z-1.856
X176.459 Y61.426 Z-1.821
X178.039 Y57.461 Z-1.769
X179.501 Y53.924 Z-1.81
X179.711 Y53.604 Z-1.888
X179.69 Y51.913 Z-1.254
X179.654 Y51.662 Z-1.188
X179.34 Y50.876 Z-1.162
X178.672 Y49.32 Z-1.143
X177.79 Y47.574 Z-1.205
X177.513 Y47.148 Z-1.247
X177.127 Y46.74 Z-1.301
X176.712 Y46.465 Z-1.355
X176.106 Y46.235 Z-1.445
X175.73 Y46.175 Z-1.498
X175.201 Y46.207 Z-1.585
X174.826 Y46.318 Z-1.646
X174.112 Y45.96 Z-1.065
X174.039 Y45.929 Z-1.005
X174.112 Y45.96 Z-1.065
X174.826 Y46.318 Z-1.646
X174.614 Y46.94 Z-1.264
X174.49 Y47.436 Z-1.002
X174.614 Y46.94 Z-1.264
X174.826 Y46.318 Z-1.646
X175.201 Y46.207 Z-1.585
X175.73 Y46.175 Z-1.498
X176.106 Y46.235 Z-1.445
X176.712 Y46.465 Z-1.355
X177.127 Y46.74 Z-1.301
X177.513 Y47.148 Z-1.247
X177.79 Y47.574 Z-1.205
X178.672 Y49.32 Z-1.143
X179.34 Y50.876 Z-1.162
X179.654 Y51.662 Z-1.188
X179.69 Y51.913 Z-1.254
X179.711 Y53.604 Z-1.888
X180.176 Y53.78 Z-1.528
X180.467 Y53.963 Z-1.329
X180.675 Y54.176 Z-1.221
X180.899 Y54.635 Z-1.194
X182.521 Y58.414 Z-1.203
X183.903 Y61.674 Z-1.332
X184.208 Y62.497 Z-1.433
X184.266 Y62.968 Z-1.599
X184.832 Y63.248 Z-1.323
X185.355 Y63.422 Z-1.163
X185.872 Y63.517 Z-1.092
X186.151 Y63.535
X186.239 Y63.63 Z-1.004
X186.151 Y63.535 Z-1.092
X186.234 Y63.452 Z-1.009
X186.151 Y63.535 Z-1.092
X185.872 Y63.517
X185.355 Y63.422 Z-1.163
X184.832 Y63.248 Z-1.323
X184.266 Y62.968 Z-1.599
X183.748 Y63.252 Z-1.322
X183.351 Y63.379 Z-1.203
X182.887 Y63.443 Z-1.153
X182.163 Y63.512 Z-1.119
X182.051 Y63.415 Z-1.007
X182.163 Y63.512 Z-1.119
X182.05 Y63.631 Z-1.006
G0 Z5
X185.921 Y121.701
Z4
G1 Z-1.001 F850
X185.969 Y121.669 Z-1.049
X185.927 Y121.623 Z-1.007
X185.969 Y121.669 Z-1.049
X187.523 Y122.021 Z-1.339
X187.907 Y122.074 Z-1.456
X188.611 Z-1.938
X188.643 Y122.129 Z-1.936
X189.226 Z-1.487
X189.458 Z-1.374
X189.876 Z-1.336
X192.403 Y122.16 Z-1.355
X192.79 Y122.526 Z-1.009
X192.403 Y122.16 Z-1.355
X192.708 Y121.812 Z-1.014
X192.403 Y122.16 Z-1.355
X189.876 Y122.129 Z-1.336
X189.458 Z-1.374
X189.226 Z-1.487
X188.643 Z-1.936
Y122.447 Z-1.816
Y122.714 Z-1.781
X188.664 Y125.769 Z-1.873
X187.784 Y126.327 Z-1.014
X188.664 Y125.769 Z-1.873
X189.528 Y127.059 Z-1.092
X189.608 Y127.095 Z-1.014
X189.528 Y127.059 Z-1.092
X189.536 Y127.154 Z-1.011
X189.528 Y127.059 Z-1.092
X188.664 Y125.769 Z-1.873
X188.643 Y122.714 Z-1.781
Y122.447 Z-1.816
Y122.129 Z-1.936
X188.611 Y122.074 Z-1.938
X188.627 Y121.785 Z-1.825
X188.643 Y116.794 Z-1.781
X188.634 Y115.939 Z-1.79
X188.67 Y114.435 Z-1.858
X188.732 Y113.905 Z-1.898
X188.895 Y113.418 Z-1.927
X189.129 Y113.123 Z-1.885
X189.245 Y113.023 Z-1.858
X189.734 Y112.727 Z-1.73
X190.314 Y112.556 Z-1.601
X190.791 Y112.516 Z-1.513
X191.366 Y112.571 Z-1.427
X191.605 Y112.21 Z-1.012
X191.366 Y112.571 Z-1.427
X191.872 Y112.857 Z-1.228
X192.393 Y113.247 Z-1.085
X192.545 Y113.381 Z-1.056
X192.552 Y113.442 Z-1.012
X192.545 Y113.381 Z-1.056
X192.607 Z-1.009
G0 Z5
X186.093 Y206.905
Z4
G1 Z-1.001 F850
X186.473 Y207.256 Z-1.381
X186.101 Y207.637 Z-1.009
X186.473 Y207.256 Z-1.381
X186.613 Y207.249 Z-1.385
X188.111 Y207.128 Z-1.476
X188.497 Y207.045 Z-1.553
X188.955 Y206.868 Z-1.724
X189.544 Y206.51 Z-2.077
X190.659 Y205.568 Z-3.013
X191.339 Y206.184 Z-2.396
X191.944 Y206.624 Z-1.959
X192.478 Y206.904 Z-1.682
X192.76 Y207.014 Z-1.575
X193.385 Y207.125 Z-1.473
X194.374 Y207.232 Z-1.387
X194.903 Y207.263 Z-1.371
X195.27 Y206.914 Z-1.004
X194.903 Y207.263 Z-1.371
X195.26 Y207.631 Z-1.013
X194.903 Y207.263 Z-1.371
X194.374 Y207.232 Z-1.387
X193.385 Y207.125 Z-1.473
X192.76 Y207.014 Z-1.575
X192.478 Y206.904 Z-1.682
X191.944 Y206.624 Z-1.959
X191.339 Y206.184 Z-2.396
X190.659 Y205.568 Z-3.013
X190.667 Y204.229 Z-2.942
X190.67 Y199.959 Z-2.88
X190.621 Y193.504 Z-2.858
X190.602 Y189.659 Z-2.962
X189.553 Y188.672 Z-1.988
X189.161 Y188.419 Z-1.742
X188.626 Y188.215 Z-1.552
X187.381 Y187.85 Z-1.229
X187.299 Y187.828 Z-1.211
X187.104 Y187.948 Z-1.016
X187.299 Y187.828 Z-1.211
X187.099 Y187.621 Z-1.011
X187.299 Y187.828 Z-1.211
X187.381 Y187.85 Z-1.229
X188.626 Y188.215 Z-1.552
X189.161 Y188.419 Z-1.742
X189.553 Y188.672 Z-1.988
X190.602 Y189.659 Z-2.962
X191.332 Y188.977 Z-2.275
X191.962 Y188.564 Z-1.867
X192.372 Y188.412 Z-1.721
X192.782 Y188.353 Z-1.667
X194.206 Y188.308 Z-1.643
X196.457 Y188.283 Z-1.647
X198.275 Y188.321 Z-1.708
X200.108 Y188.459 Z-1.844
X200.707 Y188.535 Z-1.896
X201.529 Y187.694 Z-1.005
X200.707 Y188.535 Z-1.896
X200.92 Y188.869 Z-1.714
X201.084 Y189.304 Z-1.59
X201.334 Y190.636 Z-1.482
X201.595 Y192.098 Z-1.408
X201.272 Y192.496 Z-1.01
X201.595 Y192.098 Z-1.408
X202.052 Y192.496 Z-1.01
G0 Z5
X186.492 Y90.494
Z4
G1 Z-1.01 F850
X186.624 Y90.626 Z-1.142
X186.748 Y90.497 Z-1.013
X186.624 Y90.626 Z-1.142
X186.633 Y91.204 Z-1.16
X186.606 Y91.739 Z-1.227
X186.51 Y92.341 Z-1.389
X186.308 Y92.916 Z-1.67
X187.05 Y93.316 Z-1.003
X186.308 Y92.916 Z-1.67
X185.788 Y93.16 Z-1.594
X185.219 Y93.331 Z-1.529
X184.325 Y93.484 Z-1.43
X183.628 Y93.508 Z-1.369
X182.936 Y93.445 Z-1.304
X182.113 Y93.247 Z-1.212
X181.494 Y92.999 Z-1.172
X180.928 Y92.678 Z-1.195
X180.224 Y92.161 Z-1.272
X179.661 Y91.532 Z-1.429
X179.31 Y90.996 Z-1.527
X179.045 Y90.368 Z-1.615
X178.885 Y89.743 Z-1.692
X178.76 Y88.882 Z-1.777
X178.758 Y87.856 Z-1.844
X178.877 Y86.791 Z-1.886
X179.053 Y86.126 Z-1.904
X179.405 Y85.298 Z-1.925
X179.95 Y84.467 Z-1.886
X180.321 Y84.055 Z-1.815
X180.914 Y83.602 Z-1.738
X181.642 Y83.192 Z-1.615
X182.25 Y82.969 Z-1.527
X182.844 Y82.848 Z-1.46
X183.745 Y82.773 Z-1.39
X184.495 Y82.804 Z-1.332
X185.333 Y82.958 Z-1.28
X186.166 Y83.227 Z-1.23
X186.511 Y83.372 Z-1.208
X186.656 Y83.212 Z-1
X186.511 Y83.372 Z-1.208
X186.952 Y83.749 Z-1.041
X186.958 Y83.787 Z-1.009
X186.952 Y83.749 Z-1.041
X187 Y83.755 Z-1.004
G0 Z5
X187.104 Y162.13
Z4
G1 Z-1.006 F850
X187.224 Y162.024 Z-1.126
X187.108 Y161.908 Z-1.01
X187.224 Y162.024 Z-1.126
X187.453 Y162.04 Z-1.142
X188.226 Y162.102 Z-1.213
X188.853 Y162.091 Z-1.358
X189.249 Y162.033 Z-1.521
X189.827 Y161.828 Z-1.884
X190.708 Y163.071 Z-1.027
X190.726 Y163.097 Z-1.01
X190.708 Y163.071 Z-1.027
X189.827 Y161.828 Z-1.884
X189.901 Y161.352 Z-1.804
X189.937 Y160.724 Z-1.793
X190.052 Y160.264 Z-1.895
X190.011 Y159.756 Z-1.841
X189.966 Y158.32 Z-1.782
X189.972 Y155.103 Z-1.786
X189.927 Y152.918 Z-1.865
X189.929 Y152.722 Z-1.884
X190.452 Y152.326 Z-1.495
X190.904 Y152.083 Z-1.259
X191.533 Y151.925 Z-1.115
X192.026 Y151.88 Z-1.086
X192.739 Y151.865 Z-1.097
X192.824 Y151.776 Z-1.012
X192.739 Y151.865 Z-1.097
X192.826 Y151.952 Z-1.01
X192.739 Y151.865 Z-1.097
X192.026 Y151.88 Z-1.086
X191.533 Y151.925 Z-1.115
X190.904 Y152.083 Z-1.259
X190.452 Y152.326 Z-1.495
X189.929 Y152.722 Z-1.884
X189.666 Y152.483 Z-1.645
X189.299 Y152.235 Z-1.401
X188.822 Y152.03 Z-1.203
X188.435 Y151.926 Z-1.107
X187.194 Y151.866 Z-1.096
X187.108 Y151.952 Z-1.01
X187.194 Y151.866 Z-1.096
X187.109 Y151.777 Z-1.011
X187.194 Y151.866 Z-1.096
X188.435 Y151.926 Z-1.107
X188.822 Y152.03 Z-1.203
X189.299 Y152.235 Z-1.401
X189.666 Y152.483 Z-1.645
X189.929 Y152.722 Z-1.884
X189.927 Y152.918 Z-1.865
X189.972 Y155.103 Z-1.786
X189.966 Y158.32 Z-1.782
X190.011 Y159.756 Z-1.841
X190.052 Y160.264 Z-1.895
X190.232 Y160.294 Z-1.74
X190.732 Y160.43 Z-1.338
X190.999 Y160.566 Z-1.163
X191.252 Y160.801 Z-1.082
X191.942 Y161.425 Z-1.073
X192.681 Y161.938 Z-1.179
X193.228 Y162.24 Z-1.312
X193.719 Y162.41 Z-1.417
X194.006 Y162.461 Z-1.448
X194.729 Y162.509 Z-1.527
X195.354 Y162.452 Z-1.593
X195.994 Y162.293 Z-1.684
X196.515 Y162.061 Z-1.748
X196.87 Y161.849 Z-1.8
X197.314 Y161.466 Z-1.859
X197.697 Y160.912 Z-1.89
X197.824 Y160.583 Z-1.87
X197.998 Y159.854 Z-1.858
X198.086 Y158.895 Z-1.815
X198.061 Y155.231 Z-1.797
X198.033 Y153.857 Z-1.819
X198.062 Y152.74 Z-1.914
X197.082 Y151.773 Z-1.004
X198.062 Y152.74 Z-1.914
X198.702 Y152.256 Z-1.418
X199.194 Y152.041 Z-1.208
X199.593 Y151.932 Z-1.107
X200.068 Y151.887 Z-1.078
X200.701 Y151.868 Z-1.094
X200.786 Y151.953 Z-1.009
X200.701 Y151.868 Z-1.094
X200.79 Y151.774 Z-1.005
G0 Z5
X187.565 Y62.968
Z4
G1 Z-1.007 F850
X187.685 Y62.862 Z-1.127
X187.568 Y62.745 Z-1.01
X187.685 Y62.862 Z-1.127
X187.833 Y62.872 Z-1.137
X188.652 Y62.938 Z-1.208
X189.318 Y62.928 Z-1.36
X189.71 Y62.871 Z-1.521
X190.288 Y62.666 Z-1.884
X191.182 Y63.929 Z-1.014
X191.193 Y63.943 Z-1.002
X191.182 Y63.929 Z-1.014
X190.288 Y62.666 Z-1.884
X190.365 Y62.148 Z-1.8
X190.398 Y61.561 Z-1.793
X190.512 Y61.103 Z-1.895
X190.471 Y60.594 Z-1.841
X190.427 Y59.22 Z-1.783
X190.432 Y55.941 Z-1.786
X190.387 Y53.757 Z-1.865
X190.389 Y53.56 Z-1.884
X189.879 Y53.14 Z-1.466
X189.362 Y52.897 Z-1.231
X188.915 Y52.767 Z-1.11
X188.458 Y52.721 Z-1.079
X187.654 Y52.704 Z-1.096
X187.568 Y52.79 Z-1.01
X187.654 Y52.704 Z-1.096
X187.568 Y52.614 Z-1.01
X187.654 Y52.704 Z-1.096
X188.458 Y52.721 Z-1.079
X188.915 Y52.767 Z-1.11
X189.362 Y52.897 Z-1.231
X189.879 Y53.14 Z-1.466
X190.389 Y53.56 Z-1.884
X190.92 Y53.159 Z-1.49
X191.363 Y52.922 Z-1.259
X191.945 Y52.77 Z-1.121
X192.461 Y52.719 Z-1.086
X193.199 Y52.702 Z-1.097
X193.29 Y52.608 Z-1.006
X193.199 Y52.702 Z-1.097
X193.286 Y52.789 Z-1.01
X193.199 Y52.702 Z-1.097
X192.461 Y52.719 Z-1.086
X191.945 Y52.77 Z-1.121
X191.363 Y52.922 Z-1.259
X190.92 Y53.159 Z-1.49
X190.389 Y53.56 Z-1.884
X190.387 Y53.757 Z-1.865
X190.432 Y55.941 Z-1.786
X190.427 Y59.22 Z-1.783
X190.471 Y60.594 Z-1.841
X190.512 Y61.103 Z-1.895
X191.095 Y61.233 Z-1.411
X191.473 Y61.414 Z-1.155
X191.664 Y61.587 Z-1.089
X192.122 Y62.026 Z-1.064
X192.741 Y62.508 Z-1.114
X193.429 Y62.946 Z-1.243
X194.017 Y63.205 Z-1.39
X194.181 Y63.248 Z-1.418
X194.646 Y63.324 Z-1.467
X195.368 Y63.341 Z-1.544
X196.029 Y63.247 Z-1.622
X196.65 Y63.059 Z-1.706
X197.328 Y62.688 Z-1.8
X197.775 Y62.303 Z-1.859
X198.157 Y61.75 Z-1.891
X198.349 Y61.19 Z-1.871
X198.495 Y60.44 Z-1.846
X198.551 Y59.582 Z-1.812
X198.542 Y57.695 Z-1.796
X198.493 Y54.512 Z-1.829
X198.522 Y53.578 Z-1.914
X197.542 Y52.611 Z-1.004
X198.522 Y53.578 Z-1.914
X198.9 Y53.272 Z-1.6
X199.245 Y53.052 Z-1.375
X199.715 Y52.857 Z-1.187
X200.102 Y52.762 Z-1.1
X201.162 Y52.706 Z-1.093
X201.246 Y52.79 Z-1.009
X201.162 Y52.706 Z-1.093
X201.247 Y52.616 Z-1.008
G0 Z5
X188.842 Y82.626
Z4
G1 Z-1.004 F850
X188.956 Y82.745 Z-1.118
X188.843 Y82.844 Z-1.005
X188.956 Y82.745 Z-1.118
X189.637 Y82.799 Z-1.146
X190.288 Y82.885 Z-1.212
X190.655 Y82.983 Z-1.301
X191.069 Y83.19 Z-1.502
X191.616 Y83.591 Z-1.896
X192.142 Y83.175 Z-1.483
X192.615 Y82.971 Z-1.286
X193.084 Y82.844 Z-1.169
X193.586 Y82.793 Z-1.133
X194.452 Y82.739 Z-1.112
X194.561 Y82.838 Z-1.003
X194.452 Y82.739 Z-1.112
X194.552 Y82.635 Z-1.012
X194.452 Y82.739 Z-1.112
X193.586 Y82.793 Z-1.133
X193.084 Y82.844 Z-1.169
X192.615 Y82.971 Z-1.286
X192.142 Y83.175 Z-1.483
X191.616 Y83.591 Z-1.896
X191.609 Y84.452 Z-1.816
X191.61 Y85.857 Z-1.77
X191.655 Y90.5 Z-1.815
X191.726 Y91.172 Z-1.886
X191.643 Y91.509 Z-1.803
X191.615 Y91.846 Z-1.776
X191.625 Y97.618 Z-1.824
X191.561 Y99.054 Z-1.936
X191.211 Y99.226 Z-1.684
X190.712 Y99.368 Z-1.434
X190.155 Y99.447 Z-1.249
X189.652 Y99.438 Z-1.181
X188.981 Y99.392 Z-1.143
X188.847 Y99.512 Z-1.009
X188.981 Y99.392 Z-1.143
X188.848 Y99.259 Z-1.01
X188.981 Y99.392 Z-1.143
X189.652 Y99.438 Z-1.181
X190.155 Y99.447 Z-1.249
X190.712 Y99.368 Z-1.434
X191.211 Y99.226 Z-1.684
X191.561 Y99.054 Z-1.936
X192.548 Y100.337 Z-1.011
X191.561 Y99.054 Z-1.936
X191.625 Y97.618 Z-1.824
X191.615 Y91.846 Z-1.776
X191.643 Y91.509 Z-1.803
X191.726 Y91.172 Z-1.886
X192.016 Y91.239 Z-1.621
X192.468 Y91.363 Z-1.263
X192.695 Y91.468 Z-1.131
X192.975 Y91.724 Z-1.062
X193.432 Y92.132 Z-1.057
X194.133 Y92.637 Z-1.139
X194.744 Y93.004 Z-1.267
X195.248 Y93.218 Z-1.387
X195.794 Y93.346 Z-1.471
X196.412 Y93.376 Z-1.532
X197.013 Y93.315 Z-1.582
X197.665 Y93.147 Z-1.667
X198.17 Y92.92 Z-1.726
X198.597 Y92.649 Z-1.793
X199.004 Y92.278 Z-1.859
X199.33 Y91.77 Z-1.894
X199.516 Y91.156 Z-1.872
X199.648 Y90.346 Z-1.854
X199.699 Y89.337 Z-1.822
X199.677 Y87.373 Z-1.803
X199.635 Y84.535 Z-1.841
X199.653 Y83.596 Z-1.91
X198.694 Y82.639 Z-1.012
X199.653 Y83.596 Z-1.91
X199.663 Y83.588 Z-1.902
X200.221 Y83.183 Z-1.488
X200.626 Y82.977 Z-1.284
X201.075 Y82.858 Z-1.171
X201.584 Y82.798 Z-1.127
X202.278 Y82.744 Z-1.11
X202.377 Y82.639 Z-1.011
X202.278 Y82.744 Z-1.11
X202.384 Y82.841 Z-1.004
G0 Z5
X194.075 Y121.701
Z4
G1 Z-1.001 F850
X194.123 Y121.669 Z-1.049
X194.08 Y121.623 Z-1.006
X194.123 Y121.669 Z-1.049
X195.677 Y122.021 Z-1.339
X196.065 Y122.074 Z-1.457
X196.765 Z-1.938
X196.796 Y122.129 Z-1.936
Y122.447 Z-1.816
Y122.714 Z-1.781
X196.819 Y125.77 Z-1.873
X195.929 Y126.334 Z-1.004
X196.819 Y125.77 Z-1.873
X197.683 Y127.059 Z-1.091
X197.762 Y127.095 Z-1.014
X197.683 Y127.059 Z-1.091
X197.691 Y127.158 Z-1.008
X197.683 Y127.059 Z-1.091
X196.819 Y125.77 Z-1.873
X196.796 Y122.714 Z-1.781
Y122.447 Z-1.816
Y122.129 Z-1.936
X197.38 Z-1.487
X197.612 Z-1.374
X198.132 Z-1.336
X200.557 Y122.16 Z-1.355
X200.945 Y122.526 Z-1.009
X200.557 Y122.16 Z-1.355
X200.863 Y121.812 Z-1.014
X200.557 Y122.16 Z-1.355
X198.132 Y122.129 Z-1.336
X197.612 Z-1.374
X197.38 Z-1.487
X196.796 Z-1.936
X196.765 Y122.074 Z-1.938
X196.781 Y121.785 Z-1.825
X196.796 Y116.794 Z-1.781
X196.788 Y116.039 Z-1.789
X196.824 Y114.435 Z-1.858
X196.888 Y113.898 Z-1.899
X197.049 Y113.418 Z-1.927
X197.286 Y113.121 Z-1.885
X197.4 Y113.022 Z-1.858
X197.929 Y112.712 Z-1.722
X198.56 Y112.541 Z-1.582
X199.022 Y112.518 Z-1.501
X199.52 Y112.57 Z-1.428
X199.759 Y112.21 Z-1.012
X199.52 Y112.57 Z-1.428
X199.612 Y112.617 Z-1.388
X200.196 Y112.973 Z-1.174
X200.7 Y113.381 Z-1.056
X200.707 Y113.442 Z-1.012
X200.7 Y113.381 Z-1.056
X200.762 Z-1.009
G0 Z5
X201.944 Y168.599
Z4
G1 Z-1.002 F850
X202.078 Y168.479 Z-1.136
X201.952 Y168.353 Z-1.01
X202.078 Y168.479 Z-1.136
X202.435 Y168.499 Z-1.156
X203.104 Y168.536 Z-1.21
X203.597 Y168.505 Z-1.325
X204.117 Y168.401 Z-1.538
X204.697 Y168.146 Z-1.939
X205.702 Y169.486 Z-1.004
X204.697 Y168.146 Z-1.939
X204.747 Y167.625 Z-1.865
X204.74 Y166.703 Z-1.834
X204.725 Y163.161 Z-1.781
Y153.803 Z-1.83
Y152.758 Z-1.923
X205.221 Y152.347 Z-1.508
X205.609 Y152.154 Z-1.318
X206.084 Y152.004 Z-1.176
X206.531 Y151.95 Z-1.134
X207.397 Y151.887 Z-1.112
X207.505 Y151.984 Z-1.004
X207.397 Y151.887 Z-1.112
X207.496 Y151.782 Z-1.013
X207.397 Y151.887 Z-1.112
X206.531 Y151.95 Z-1.134
X206.084 Y152.004 Z-1.176
X205.609 Y152.154 Z-1.318
X205.221 Y152.347 Z-1.508
X204.725 Y152.758 Z-1.923
X204.177 Y152.306 Z-1.479
X203.661 Y152.069 Z-1.251
X203.282 Y151.967 Z-1.159
X202.805 Y151.922 Z-1.128
X202.053 Y151.879 Z-1.111
X201.949 Y151.77 Z-1.007
X202.053 Y151.879 Z-1.111
X201.944 Y151.98 Z-1.002
G0 Z5
X203.45 Y121.941
Z4
G1 Z-1.011 F850
X203.796 Y121.744 Z-1.354
X203.611 Y120.753 Z-1.169
X203.712 Y120.556 Z-1.006
X203.611 Y120.753 Z-1.169
X203.453 Y120.633 Z-1.013
X203.611 Y120.753 Z-1.169
X203.796 Y121.744 Z-1.354
X203.938 Y121.907 Z-1.282
X204.312 Y122.268 Z-1.153
X204.591 Y122.428 Z-1.152
X205.338 Y122.778 Z-1.197
X205.996 Y122.976 Z-1.264
X206.611 Y123.077 Z-1.334
X207.445 Y123.08 Z-1.419
X208.089 Y122.984 Z-1.488
X208.667 Y122.805 Z-1.586
X209.177 Y122.535 Z-1.669
X209.69 Y122.178 Z-1.743
X209.92 Y121.912 Z-1.788
X210.189 Y121.531 Z-1.831
X210.452 Y120.876 Z-1.811
X210.558 Y120.197 Z-1.762
X210.628 Y119.212 Z-1.758
X210.604 Y118.851 Z-1.797
X210.641 Y118.45 Z-1.772
X210.645 Y116.565 Z-1.787
X210.633 Y114.867 Z-1.813
X210.59 Y114.642 Z-1.864
X210.647 Y114.393 Z-1.82
X210.727 Y113.111 Z-1.845
X211.23 Y112.731 Z-1.452
X211.739 Y112.489 Z-1.212
X212.109 Y112.402 Z-1.136
X212.603 Y112.374 Z-1.129
X213.002 Y112.363 Z-1.14
X213.129 Y112.228 Z-1.013
X213.002 Y112.363 Z-1.14
X213.132 Y112.493 Z-1.01
X213.002 Y112.363 Z-1.14
X212.603 Y112.374 Z-1.129
X212.109 Y112.402 Z-1.136
X211.739 Y112.489 Z-1.212
X211.23 Y112.731 Z-1.452
X210.727 Y113.111 Z-1.845
X209.873 Y112.214 Z-1
X210.727 Y113.111 Z-1.845
X210.647 Y114.393 Z-1.82
X210.59 Y114.642 Z-1.864
X210.312 Z-1.633
X209.902 Y114.606 Z-1.335
X209.579 Y114.497 Z-1.155
X209.271 Y114.253 Z-1.088
X208.588 Y113.694 Z-1.058
X207.976 Y113.262 Z-1.085
X207.316 Y112.879 Z-1.18
X206.627 Y112.579 Z-1.354
X206.223 Y112.469 Z-1.439
X205.891 Y112.453 Z-1.485
X205.273 Y112.522 Z-1.558
X204.7 Y112.698 Z-1.676
X204.285 Y112.919 Z-1.755
X203.849 Y113.299 Z-1.85
X203.524 Y113.807 Z-1.877
X203.41 Y114.206 Z-1.854
X203.353 Y114.778 Z-1.817
X203.396 Y115.42 Z-1.768
X203.551 Y116.001 Z-1.686
X203.758 Y116.458 Z-1.607
X204.083 Y116.914 Z-1.526
X204.47 Y117.258 Z-1.44
X204.922 Y117.563 Z-1.338
X205.525 Y117.8 Z-1.277
X206.945 Y118.27 Z-1.178
X208.238 Y118.583 Z-1.129
X209.682 Y118.851 Z-1.115
X209.863 Z-1.184
X210.063 Z-1.321
X210.604 Z-1.797
G0 Z5
X204.345 Y188.445
Z4
G1 Z-1.001 F850
X204.757 Y188.055 Z-1.413
X204.347 Y187.619 Z-1.003
X204.757 Y188.055 Z-1.413
X204.866 Y188.063 Z-1.415
X205.66 Y188.158 Z-1.475
X206.237 Y188.269 Z-1.573
X206.557 Y188.397 Z-1.697
X207.328 Y188.79 Z-2.087
X207.782 Y188.509 Z-1.809
X208.243 Y188.318 Z-1.62
X208.683 Y188.21 Z-1.518
X210.059 Y188.071 Z-1.424
X210.228 Y188.059 Z-1.421
X210.638 Y187.625 Z-1.011
X210.228 Y188.059 Z-1.421
X210.641 Y188.443 Z-1.008
X210.228 Y188.059 Z-1.421
X210.059 Y188.071 Z-1.424
X208.683 Y188.21 Z-1.518
X208.243 Y188.318 Z-1.62
X207.782 Y188.509 Z-1.809
X207.328 Y188.79 Z-2.087
X207.417 Y189.381 Z-1.891
X207.461 Y189.569 Z-1.852
X207.473 Y189.615 Z-1.843
X207.612 Y190.081 Z-1.777
X208.015 Y191.176 Z-1.696
X208.568 Y192.577 Z-1.641
X209.216 Y194.137 Z-1.633
X209.514 Y194.535 Z-1.757
X209.705 Y194.713 Z-1.866
X210.209 Y194.542 Z-1.665
X210.655 Y194.498 Z-1.612
X213.482 Y194.477 Z-1.563
X216.741 Y194.497 Z-1.612
X217.228 Y194.538 Z-1.661
X217.563 Y194.641 Z-1.771
X217.899 Y194.777 Z-1.96
X218.251 Y194.919 Z-2.229
X219.073 Y195.251 Z-2.985
X219.317 Y194.86 Z-2.912
X220.523 Y191.98 Z-2.918
X220.945 Y190.922 Z-2.935
X221.367 Y189.732 Z-3.03
X222.924 Y188.786 Z-2.093
X223.747 Y188.348 Z-1.668
X224.391 Y188.192 Z-1.528
X225.1 Y188.081 Z-1.441
X225.497 Y188.048 Z-1.422
X225.909 Y188.437 Z-1.01
X225.497 Y188.048 Z-1.422
X225.91 Y187.619 Z-1.009
X225.497 Y188.048 Z-1.422
X225.1 Y188.081 Z-1.441
X224.391 Y188.192 Z-1.528
X223.747 Y188.348 Z-1.668
X222.924 Y188.786 Z-2.093
X221.367 Y189.732 Z-3.03
X220.839 Y189.168 Z-2.469
X220.779 Y189.113 Z-2.415
X220.637 Y188.987 Z-2.29
X220.042 Y188.545 Z-1.853
X219.592 Y188.32 Z-1.635
X219.231 Y188.202 Z-1.523
X218.627 Y188.119 Z-1.455
X217.549 Y188.042 Z-1.414
X217.506 Y188.04
X217.098 Y188.436 Z-1.006
X217.506 Y188.04 Z-1.414
X217.093 Y187.611 Z-1.001
X217.506 Y188.04 Z-1.414
X217.549 Y188.042
X218.627 Y188.119 Z-1.455
X219.231 Y188.202 Z-1.523
X219.592 Y188.32 Z-1.635
X220.042 Y188.545 Z-1.853
X220.637 Y188.987 Z-2.29
X220.779 Y189.113 Z-2.415
X220.839 Y189.168 Z-2.469
X221.367 Y189.732 Z-3.03
X220.945 Y190.922 Z-2.935
X220.523 Y191.98 Z-2.918
X219.317 Y194.86 Z-2.912
X219.073 Y195.251 Z-2.985
X218.963 Y195.726 Z-2.902
X218.802 Y196.18 Z-2.874
X215.648 Y203.714 Z-2.859
X215.383 Y204.238 Z-2.899
X215.044 Y204.73 Z-3.021
X215.035 Y206.451 Z-2.362
X214.124 Y207.808 Z-1.005
X215.035 Y206.451 Z-2.362
X215.935 Y207.807 Z-1.006
X215.035 Y206.451 Z-2.362
X215.044 Y204.73 Z-3.021
X214.408 Y204.513 Z-2.514
X213.876 Y204.255 Z-2.12
X213.449 Y203.953 Z-1.838
X213.126 Y203.61 Z-1.668
X212.907 Y203.223 Z-1.612
X209.722 Y195.35 Z-1.64
X209.689 Y194.981 Z-1.749
X209.705 Y194.713 Z-1.866
G0 Z5
X204.769 Y92.354
Z4
G1 Z-1.011 F850
X205.115 Y92.156 Z-1.354
X204.93 Y91.165 Z-1.169
X205.031 Y90.969 Z-1.006
X204.93 Y91.165 Z-1.169
X204.772 Y91.046 Z-1.013
X204.93 Y91.165 Z-1.169
X205.115 Y92.156 Z-1.354
X205.261 Y92.324 Z-1.28
X205.627 Y92.678 Z-1.153
X206.132 Y92.959 Z-1.158
X206.774 Y93.232 Z-1.209
X207.527 Y93.435 Z-1.291
X208.267 Y93.506 Z-1.374
X208.895 Y93.482 Z-1.431
X209.582 Y93.355 Z-1.514
X210.134 Y93.151 Z-1.612
X210.896 Y92.677 Z-1.724
X211.238 Y92.326 Z-1.788
X211.508 Y91.944 Z-1.831
X211.771 Y91.29 Z-1.811
X211.845 Y90.863 Z-1.774
X211.945 Y89.663 Z-1.757
X211.922 Y89.264 Z-1.797
X211.381 Z-1.32
X211.182 Z-1.184
X211.001 Z-1.115
X209.555 Y88.995 Z-1.13
X208.264 Y88.683 Z-1.177
X206.844 Y88.214 Z-1.277
X206.241 Y87.975 Z-1.338
X205.712 Y87.611 Z-1.456
X205.362 Y87.282 Z-1.535
X205.036 Y86.796 Z-1.622
X204.83 Y86.293 Z-1.704
X204.704 Y85.767 Z-1.774
X204.673 Y85.109 Z-1.823
X204.734 Y84.592 Z-1.855
X204.847 Y84.212 Z-1.877
X205.167 Y83.713 Z-1.85
X205.605 Y83.331 Z-1.755
X206.021 Y83.11 Z-1.675
X206.582 Y82.937 Z-1.559
X207.182 Y82.867 Z-1.488
X207.541 Y82.882 Z-1.439
X207.967 Y82.999 Z-1.349
X208.634 Y83.291 Z-1.181
X209.295 Y83.675 Z-1.085
X209.908 Y84.108 Z-1.058
X210.662 Y84.731 Z-1.096
X210.898 Y84.91 Z-1.155
X211.223 Y85.019 Z-1.336
X211.626 Y85.055 Z-1.629
X211.909 Z-1.864
X211.969 Y85.446 Z-1.792
X211.966 Y86.373 Z-1.783
X211.922 Y89.264 Z-1.797
X211.966 Y86.373 Z-1.783
X211.969 Y85.446 Z-1.792
X211.909 Y85.055 Z-1.864
X211.988 Y84.642 Z-1.807
X212.039 Y83.667 Z-1.838
X212.046 Y83.524 Z-1.845
X211.206 Y82.641 Z-1.014
X212.046 Y83.524 Z-1.845
X212.182 Y83.405 Z-1.722
X212.525 Y83.157 Z-1.466
X212.96 Y82.94 Z-1.248
X213.302 Y82.835 Z-1.152
X214.32 Y82.776 Z-1.141
X214.448 Y82.641 Z-1.013
X214.32 Y82.776 Z-1.141
X214.451 Y82.907 Z-1.01
G0 Z5
X208.78 Y162.789
Z4
G1 Z-1.008 F850
X208.865 Y162.699 Z-1.093
X208.781 Y162.615 Z-1.009
X208.865 Y162.699 Z-1.093
X208.876
X209.503 Y162.622 Z-1.135
X210.005 Y162.5 Z-1.242
X210.543 Y162.271 Z-1.461
X211.321 Y161.809 Z-1.927
X211.795 Y162.218 Z-1.526
X212.201 Y162.46 Z-1.293
X212.612 Y162.604 Z-1.159
X213.089 Y162.684 Z-1.092
X213.945 Y162.704 Z-1.098
X214.033 Y162.616 Z-1.01
X213.945 Y162.704 Z-1.098
X214.036 Y162.799 Z-1.007
X213.945 Y162.704 Z-1.098
X213.089 Y162.684 Z-1.092
X212.612 Y162.604 Z-1.159
X212.201 Y162.46 Z-1.293
X211.795 Y162.218 Z-1.526
X211.321 Y161.809 Z-1.927
X211.44 Y161.378 Z-1.866
X212.574 Y158.463 Z-1.78
X214.427 Y153.893 Z-1.787
X214.771 Y153.085 Z-1.81
X214.98 Y152.767 Z-1.888
X214.923 Y150.824 Z-1.188
X214.609 Y150.036 Z-1.162
X213.845 Y148.274 Z-1.145
X213.086 Y146.784 Z-1.202
X212.777 Y146.302 Z-1.248
X212.341 Y145.857 Z-1.308
X211.976 Y145.625 Z-1.356
X211.492 Y145.431 Z-1.43
X210.998 Y145.337 Z-1.498
X210.493 Y145.366 Z-1.58
X210.474 Y145.369 Z-1.584
X210.096 Y145.48 Z-1.646
X209.827 Y146.308 Z-1.15
X209.76 Y146.593 Z-1.004
X209.827 Y146.308 Z-1.15
X210.096 Y145.48 Z-1.646
X209.987 Y145.419 Z-1.56
X209.315 Y145.106 Z-1.006
X209.987 Y145.419 Z-1.56
X210.096 Y145.48 Z-1.646
X210.474 Y145.369 Z-1.584
X210.493 Y145.366 Z-1.58
X210.998 Y145.337 Z-1.498
X211.492 Y145.431 Z-1.43
X211.976 Y145.625 Z-1.356
X212.341 Y145.857 Z-1.308
X212.777 Y146.302 Z-1.248
X213.086 Y146.784 Z-1.202
X213.845 Y148.274 Z-1.145
X214.609 Y150.036 Z-1.162
X214.923 Y150.824 Z-1.188
X214.98 Y152.767 Z-1.888
X215.447 Y152.944 Z-1.526
X215.735 Y153.123 Z-1.331
X215.945 Y153.339 Z-1.221
X216.169 Y153.798 Z-1.194
X217.791 Y157.576 Z-1.203
X219.196 Y160.892 Z-1.337
X219.478 Y161.656 Z-1.433
X219.536 Y162.13 Z-1.599
X220.127 Y162.421 Z-1.314
X220.655 Y162.591 Z-1.156
X221.169 Y162.682 Z-1.091
X221.421 Y162.698 Z-1.092
X221.504 Y162.615 Z-1.009
X221.421 Y162.698 Z-1.092
X221.509 Y162.792 Z-1.004
X221.421 Y162.698 Z-1.092
X221.169 Y162.682 Z-1.091
X220.655 Y162.591 Z-1.156
X220.127 Y162.421 Z-1.314
X219.536 Y162.13 Z-1.599
X218.976 Y162.431 Z-1.305
X218.557 Y162.555 Z-1.191
X218.017 Y162.617 Z-1.148
X217.433 Y162.674 Z-1.119
X217.321 Y162.577 Z-1.007
X217.433 Y162.674 Z-1.119
X217.32 Y162.794 Z-1.006
G0 Z5
X215.853 Y110.565
Z4
G1 Z-1.007 F850
X216.238 Y110.135 Z-1.562
X216.83 Y110.781 Z-1.255
X217.412 Y111.259 Z-1.134
X218.019 Y111.688 Z-1.102
X218.178 Y111.838 Z-1.142
X218.32 Y112.065 Z-1.268
X218.482 Y112.448 Z-1.573
X218.544 Y112.657 Z-1.754
X218.985 Y112.643 Z-1.648
X219.8 Y112.6 Z-1.573
X222.807 Y112.629 Z-1.601
X223.741 Y112.612 Z-1.649
X224.201 Y112.566 Z-1.704
X224.811 Y112.408 Z-1.842
X225.232 Y112.19 Z-1.929
X225.305 Y112.125 Z-1.934
X225.559 Y111.816 Z-1.923
X225.84 Y111.284 Z-1.87
X226.003 Y110.791 Z-1.81
X226.083 Y110.259 Z-1.743
X226.069 Y109.519 Z-1.659
X225.943 Y108.931 Z-1.591
X225.725 Y108.335 Z-1.507
X225.344 Y107.686 Z-1.422
X224.914 Y107.141 Z-1.358
X224.399 Y106.666 Z-1.283
X223.846 Y106.287 Z-1.233
X223.164 Y105.941 Z-1.186
X222.257 Y105.628 Z-1.171
X221.546 Y105.488 Z-1.167
X220.606 Y105.42 Z-1.174
X219.577 Y105.464 Z-1.212
X218.893 Y105.576 Z-1.264
X218.308 Y105.761 Z-1.335
X217.518 Y106.158 Z-1.415
X216.941 Y106.604 Z-1.525
X216.592 Y106.971 Z-1.584
X216.259 Y107.462 Z-1.657
X216.087 Y107.883 Z-1.698
X215.939 Y108.768 Z-1.716
X215.987 Y109.338 Z-1.677
X216.122 Y109.849 Z-1.606
X216.238 Y110.135 Z-1.562
X216.122 Y109.849 Z-1.606
X215.987 Y109.338 Z-1.677
X215.939 Y108.768 Z-1.716
X216.087 Y107.883 Z-1.698
X216.259 Y107.462 Z-1.657
X216.592 Y106.971 Z-1.584
X216.941 Y106.604 Z-1.525
X217.518 Y106.158 Z-1.415
X218.308 Y105.761 Z-1.335
X218.893 Y105.576 Z-1.264
X219.577 Y105.464 Z-1.212
X220.606 Y105.42 Z-1.174
X221.546 Y105.488 Z-1.167
X222.257 Y105.628 Z-1.171
X223.164 Y105.941 Z-1.186
X223.846 Y106.287 Z-1.233
X224.399 Y106.666 Z-1.283
X224.914 Y107.141 Z-1.358
X225.344 Y107.686 Z-1.422
X225.725 Y108.335 Z-1.507
X225.943 Y108.931 Z-1.591
X226.069 Y109.519 Z-1.659
X226.083 Y110.259 Z-1.743
X226.003 Y110.791 Z-1.81
X225.84 Y111.284 Z-1.87
X225.559 Y111.816 Z-1.923
X225.305 Y112.125 Z-1.934
X225.232 Y112.19 Z-1.929
X224.811 Y112.408 Z-1.842
X224.201 Y112.566 Z-1.704
X223.741 Y112.612 Z-1.649
X222.807 Y112.629 Z-1.601
X219.8 Y112.6 Z-1.573
X218.985 Y112.643 Z-1.648
X218.544 Y112.657 Z-1.754
X218.225 Y112.826 Z-1.7
X217.721 Y113.087 Z-1.779
X217.365 Y113.36 Z-1.867
X217.202 Y113.279 Z-1.712
X217.107 Y113.22 Z-1.611
X216.934 Y113.149 Z-1.428
X217.107 Y113.22 Z-1.611
X217.202 Y113.279 Z-1.712
X217.365 Y113.36 Z-1.867
X217.331 Y113.707 Z-1.735
X217.334 Y113.779 Z-1.706
X217.462 Y114.246 Z-1.47
X217.661 Y114.621 Z-1.277
X217.934 Y114.992 Z-1.133
X218.315 Y115.357 Z-1.055
X218.767 Y115.75 Z-1.036
X218.884 Y115.981 Z-1.146
X218.944 Y116.316 Z-1.378
X219.182 Y116.331 Z-1.261
X219.404 Y116.316 Z-1.2
X220.156 Y116.244 Z-1.128
X220.792 Y116.275 Z-1.107
X221.376 Y116.386 Z-1.106
X221.936 Y116.61 Z-1.137
X222.454 Y116.912 Z-1.208
X222.847 Y117.232 Z-1.284
X223.291 Y117.713 Z-1.407
X223.63 Y118.251 Z-1.519
X223.846 Y118.754 Z-1.632
X224.019 Y119.401 Z-1.751
X224.064 Y120.194 Z-1.83
X224.016 Y120.58 Z-1.828
X223.825 Y121.291 Z-1.809
X223.749 Y121.676 Z-1.885
X224.147 Y121.904 Z-1.585
X224.507 Y122.058 Z-1.431
X224.867 Y122.11 Z-1.379
X226.732 Y122.127 Z-1.396
X227.466 Y122.581 Z-1.002
X226.732 Y122.127 Z-1.396
X226.969 Y121.738 Z-1.007
X226.732 Y122.127 Z-1.396
X224.867 Y122.11 Z-1.379
X224.507 Y122.058 Z-1.431
X224.147 Y121.904 Z-1.585
X223.749 Y121.676 Z-1.885
X223.427 Y122.019 Z-1.759
X222.85 Y122.592 Z-1.589
X222.208 Y122.987 Z-1.445
X221.649 Y123.21 Z-1.325
X221.094 Y123.32 Z-1.242
X220.244 Y123.341 Z-1.145
X219.489 Y123.222 Z-1.116
X218.908 Y123.023 Z-1.121
X218.308 Y122.7 Z-1.192
X217.902 Y122.402 Z-1.264
X217.365 Y121.841 Z-1.418
X217.054 Y121.343 Z-1.521
X216.819 Y120.768 Z-1.643
X216.653 Y120.035 Z-1.763
X216.629 Y119.339 Z-1.828
X216.678 Y118.815 Z-1.85
X216.818 Y118.257 Z-1.855
X217.101 Y117.722 Z-1.805
X217.15 Y117.643 Z-1.798
X217.707 Y117.054 Z-1.623
X218.03 Y116.826 Z-1.537
X218.738 Y116.445 Z-1.374
X218.944 Y116.316 Z-1.378
G0 Z5
X215.915 Y82.837
Z4
G1 Z-1.002 F850
X216.023 Y82.738 Z-1.11
X215.923 Y82.634 Z-1.01
X216.023 Y82.738 Z-1.11
X216.853 Y82.79 Z-1.127
X217.392 Y82.836 Z-1.157
X217.929 Y82.967 Z-1.279
X218.268 Y83.138 Z-1.447
X218.92 Y83.616 Z-1.92
X219.471 Y83.196 Z-1.504
X219.914 Y82.97 Z-1.283
X220.21 Y82.882 Z-1.2
X220.992 Y82.761 Z-1.097
X221.838 Y82.727 Z-1.092
X222.067 Y82.722 Z-1.097
X222.153 Y82.633 Z-1.011
X222.067 Y82.722 Z-1.097
X222.154 Y82.809 Z-1.01
X222.067 Y82.722 Z-1.097
X221.838 Y82.727 Z-1.092
X220.992 Y82.761 Z-1.097
X220.21 Y82.882 Z-1.2
X219.914 Y82.97 Z-1.283
X219.471 Y83.196 Z-1.504
X218.92 Y83.616 Z-1.92
X218.927 Y84.362 Z-1.845
X218.916 Y86.229 Z-1.773
X218.951 Y88.796 Z-1.778
X219.042 Y90.389 Z-1.874
X219.063 Y90.585 Z-1.905
X219.016 Y90.7 Z-1.864
X218.914 Y91.034 Z-1.788
X218.834 Y91.81 Z-1.811
X218.756 Y92.661 Z-1.907
X218.352 Y92.818 Z-1.647
X217.682 Y92.966 Z-1.349
X217.228 Y92.997 Z-1.229
X216.609 Y92.956 Z-1.165
X216.039 Y92.917 Z-1.126
X215.923 Y92.801 Z-1.01
X216.039 Y92.917 Z-1.126
X215.918 Y93.024 Z-1.005
X216.039 Y92.917 Z-1.126
X216.609 Y92.956 Z-1.165
X217.228 Y92.997 Z-1.229
X217.682 Y92.966 Z-1.349
X218.352 Y92.818 Z-1.647
X218.756 Y92.661 Z-1.907
X219.467 Y93.655 Z-1.216
X219.673 Y93.96 Z-1.009
X219.467 Y93.655 Z-1.216
X218.756 Y92.661 Z-1.907
X218.834 Y91.81 Z-1.811
X218.914 Y91.034 Z-1.788
X219.016 Y90.7 Z-1.864
X219.063 Y90.585 Z-1.905
X219.153 Y90.609 Z-1.825
X219.645 Y90.778 Z-1.413
X219.917 Y90.929 Z-1.217
X220.114 Y91.102 Z-1.121
X220.577 Y91.623 Z-1.089
X221.06 Y92.085 Z-1.161
X221.519 Y92.445 Z-1.3
X222.112 Y92.775 Z-1.523
X222.732 Y92.977 Z-1.744
X222.935 Y93.004 Z-1.805
X223.375 Y92.986 Z-1.92
X223.912 Y93.442 Z-1.448
X224.379 Y93.75 Z-1.027
X224.404 Y93.764 Z-1.003
X224.379 Y93.75 Z-1.027
X223.912 Y93.442 Z-1.448
X223.375 Y92.986 Z-1.92
X223.739 Y92.286 Z-1.49
X224.016 Y91.525 Z-1.176
X224.092 Y91.224 Z-1.093
X224.042 Y91.143 Z-1.012
X224.092 Y91.224 Z-1.093
X224.177 Y91.137 Z-1.006
G0 Z5
X224.925 Y161.439
Z4
G1 Z-1.672 F850
X225.389 Y161.629 Z-2.162
X225.393 Y161.632 Z-2.167
X225.242 Y161.267 Z-1.782
X225.393 Y161.632 Z-2.167
X225.398 Y161.635 Z-2.171
X225.401 Y161.632 Z-2.168
X225.402 Y161.631 Z-2.167
X225.571 Y161.225 Z-1.738
X225.402 Y161.631 Z-2.167
X225.405 Y161.63 Z-2.165
Z-2.164
X225.752 Y161.486 Z-1.799
X225.405 Y161.63 Z-2.164
Z-2.165
X225.402 Y161.631 Z-2.167
X225.401 Y161.632 Z-2.168
X225.398 Y161.635 Z-2.171
X225.392 Y161.641 Z-2.165
X225.242 Y162.004 Z-1.782
X225.392 Y161.641 Z-2.165
X225.391 Y161.642 Z-2.163
X224.993 Y161.806 Z-1.744
X225.391 Y161.642 Z-2.163
X225.392 Y161.641 Z-2.165
X225.398 Y161.635 Z-2.171
X225.401 Y161.64 Z-2.167
X225.402 Y161.641 Z-2.166
X225.756 Y161.788 Z-1.793
X225.402 Y161.641 Z-2.166
X225.403 Y161.643 Z-2.164
X225.575 Y162.055 Z-1.729
G0 Z5
X225.053 Y152.546
Z4
G1 Z-1.808 F850
X225.396 Y152.689 Z-2.17
X225.395 Y152.69 Z-2.168
X225.39 Y152.695 Z-2.163
X225.231 Y153.08 Z-1.757
X225.39 Y152.695 Z-2.163
X225.386 Y152.697 Z-2.159
X225.39 Y152.695 Z-2.163
X225.395 Y152.69 Z-2.168
X225.396 Y152.689 Z-2.17
X225.398 Y152.688 Z-2.171
Y152.686 Z-2.169
Y152.685 Z-2.168
X225.401 Y152.676 Z-2.159
X225.582 Y152.246 Z-1.704
X225.401 Y152.676 Z-2.159
X225.398 Y152.685 Z-2.168
Y152.686 Z-2.169
X225.209 Y152.234 Z-1.69
X225.398 Y152.686 Z-2.169
Y152.688 Z-2.171
X225.399 Y152.689 Z-2.17
X225.805 Y152.52 Z-1.741
X225.399 Y152.689 Z-2.17
X225.4 Y152.69 Z-2.169
X225.401 Y152.691 Z-2.168
X225.406 Y152.696 Z-2.162
X225.779 Y152.852 Z-1.769
X225.406 Y152.696 Z-2.162
Y152.697 Z-2.161
X225.569 Y153.094 Z-1.743
G0 Z5
X227.772 Y207.639
Z4
G1 Z-1.005 F850
X228.143 Y207.256 Z-1.376
X227.774 Y206.912 Z-1.007
X228.143 Y207.256 Z-1.376
X228.62 Y207.225 Z-1.394
X229.903 Y207.078 Z-1.512
X230.223 Y207.005 Z-1.581
X230.277 Y206.988 Z-1.598
X230.397 Y206.946 Z-1.638
X230.779 Y206.778 Z-1.802
X230.87 Y206.729 Z-1.85
X231.011 Y206.648 Z-1.932
X231.266 Y206.488 Z-2.095
X232.456 Y205.497 Z-3.106
X232.182 Y205.243 Z-2.807
X231.657 Y204.672 Z-2.245
X231.37 Y204.261 Z-1.946
X231.185 Y203.885 Z-1.758
X231.079 Y203.52 Z-1.655
X231.06 Y197.509 Z-1.616
X231.062 Y191.893 Z-1.687
Y190.474 Z-1.717
X231.058 Y189.323 Z-1.848
X231.046 Y188.688 Z-1.987
X231.207 Y188.584 Z-1.882
X231.684 Y188.331 Z-1.636
X231.848 Y188.268 Z-1.576
X232.243 Y188.165 Z-1.481
X233.492 Y188.025 Z-1.38
X233.914 Y187.997 Z-1.369
X234.269 Y187.626 Z-1.014
X233.914 Y187.997 Z-1.369
X234.281 Y188.344 Z-1.002
X233.914 Y187.997 Z-1.369
X233.492 Y188.025 Z-1.38
X232.243 Y188.165 Z-1.481
X231.848 Y188.268 Z-1.576
X231.684 Y188.331 Z-1.636
X231.207 Y188.584 Z-1.882
X231.046 Y188.688 Z-1.987
X230.763 Y188.51 Z-1.814
X230.257 Y188.267 Z-1.579
X229.921 Y188.157 Z-1.477
X229.213 Y188.063 Z-1.402
X228.249 Y187.992 Z-1.363
X228.13 Y187.986
X227.774 Y187.616 Z-1.007
X228.13 Y187.986 Z-1.363
X227.78 Y188.326 Z-1.013
X228.13 Y187.986 Z-1.363
X228.249 Y187.992
X229.213 Y188.063 Z-1.402
X229.921 Y188.157 Z-1.477
X230.257 Y188.267 Z-1.579
X230.763 Y188.51 Z-1.814
X231.046 Y188.688 Z-1.987
X231.058 Y189.323 Z-1.848
X231.062 Y190.474 Z-1.717
Y191.893 Z-1.687
X231.06 Y197.509 Z-1.616
X231.079 Y203.52 Z-1.655
X231.185 Y203.885 Z-1.758
X231.37 Y204.261 Z-1.946
X231.657 Y204.672 Z-2.245
X232.182 Y205.243 Z-2.807
X232.456 Y205.497 Z-3.106
X232.568 Y205.485 Z-3.121
X233.552 Y207.631 Z-1.016
X232.568 Y205.485 Z-3.121
X232.83 Y205.298 Z-3.033
X233.221 Y204.962 Z-2.935
X234.506 Y203.401 Z-2.907
X237.195 Y200.102 Z-2.914
X241.281 Y195.269 Z-2.899
X244.617 Y191.485 Z-2.928
X245.132 Y190.998 Z-2.992
X245.612 Y190.661 Z-3.126
X246.266 Y188.986 Z-2.503
X247.787 Y187.241 Z-1.042
X247.799 Y187.206 Z-1.009
X247.787 Y187.241 Z-1.042
X247.825 Y187.227 Z-1.004
X247.787 Y187.241 Z-1.042
X246.266 Y188.986 Z-2.503
X245.508 Y187.595 Z-1.012
X246.266 Y188.986 Z-2.503
X245.612 Y190.661 Z-3.126
X245.634 Y190.678 Z-3.104
X246.3 Y191.274 Z-2.434
X246.631 Y191.669 Z-2.101
X246.956 Y192.239 Z-1.776
X247.066 Y192.596 Z-1.667
X247.104 Y192.953 Z-1.631
X247.121 Y198.772 Z-1.648
X247.118 Y203.542 Z-1.696
X247.111 Y204.953 Z-1.726
X247.104 Y205.862 Z-1.819
X247.099 Y206.395 Z-1.939
X247.108 Y206.553 Z-1.99
X247.11 Y206.581 Z-2
X247.284 Y206.685 Z-1.896
X247.499 Y206.802 Z-1.78
X247.575 Y206.84 Z-1.743
X247.8 Y206.938 Z-1.647
X247.953 Y206.995 Z-1.591
X248.058 Y207.029 Z-1.557
X248.309 Y207.094 Z-1.495
X248.777 Y207.161 Z-1.436
X250.01 Y207.259 Z-1.372
X250.381 Y207.643 Z-1.001
X250.01 Y207.259 Z-1.372
X250.378 Y206.912 Z-1.004
X250.01 Y207.259 Z-1.372
X248.777 Y207.161 Z-1.436
X248.309 Y207.094 Z-1.495
X248.058 Y207.029 Z-1.557
X247.953 Y206.995 Z-1.591
X247.8 Y206.938 Z-1.647
X247.575 Y206.84 Z-1.743
X247.499 Y206.802 Z-1.78
X247.284 Y206.685 Z-1.896
X247.11 Y206.581 Z-2
X246.668 Y206.849 Z-1.73
X246.162 Y207.055 Z-1.528
X246.004 Y207.095 Z-1.489
X245.931 Y207.111 Z-1.474
X245.881 Y207.121 Z-1.465
X245.514 Y207.163 Z-1.428
X244.165 Y207.254 Z-1.373
X243.796 Y206.91 Z-1.004
X244.165 Y207.254 Z-1.373
X243.794 Y207.64 Z-1.002
G0 Z5
X238.15 Y113.056
Z4
G1 Z-1.006 F850
X237.98 Y113.206 Z-1.219
X238.393 Y113.695 Z-1.006
X237.98 Y113.206 Z-1.219
X237.147 Y112.821 Z-1.242
X236.207 Y112.529 Z-1.276
X235.271 Y112.381 Z-1.334
X234.225 Z-1.422
X233.414 Y112.498 Z-1.49
X232.858 Y112.652 Z-1.568
X232.221 Y112.93 Z-1.672
X231.509 Y113.406 Z-1.745
X231.028 Y113.872 Z-1.825
X230.837 Y114.091 Z-1.861
X230.353 Y114.843 Z-1.899
X230.04 Y115.506 Z-1.933
X229.872 Y116.122 Z-1.938
X229.747 Y117.092 Z-1.927
X229.718 Y117.923 Z-1.906
X229.784 Y118.343 Z-1.943
X229.767 Y118.741 Z-1.88
X229.866 Y119.467 Z-1.809
X230.083 Y120.322 Z-1.691
X230.268 Y120.792 Z-1.62
X230.657 Y121.444 Z-1.494
X231.169 Y122.05 Z-1.328
X231.551 Y122.386 Z-1.242
X232.218 Y122.827 Z-1.153
X232.768 Y123.077 Z-1.134
X233.45 Y123.239 Z-1.151
X234.01 Y123.298 Z-1.166
X234.525 Y123.291 Z-1.203
X235.149 Y123.188 Z-1.256
X235.808 Y122.983 Z-1.346
X236.272 Y122.74 Z-1.417
X236.733 Y122.377 Z-1.494
X237.208 Y121.863 Z-1.625
X237.499 Y121.319 Z-1.708
X237.752 Y120.724 Z-1.792
X237.88 Y120.191 Z-1.837
X237.965 Y119.134 Z-1.873
X238.815 Y118.427 Z-1.015
X237.965 Y119.134 Z-1.873
X237.357 Y118.518 Z-1.324
X237.064 Y118.379 Z-1.201
X236.616 Y118.329 Z-1.172
X234.97 Y118.274 Z-1.163
X231.053 Y118.311 Z-1.205
X230.652 Y118.32 Z-1.264
X230.411 Y118.326 Z-1.409
X229.784 Y118.343 Z-1.943
G0 Z5
X232.77 Y82.693
Z4
G1 Z-1.014 F850
X232.577 Y83.036 Z-1.399
X232.234 Y82.973 Z-1.434
X231.465 Y82.945 Z-1.547
X230.995 Y82.982 Z-1.603
X230.301 Y83.146 Z-1.679
X229.771 Y83.359 Z-1.761
X229.251 Y83.693 Z-1.821
X228.613 Y84.261 Z-1.857
X228.068 Y85.054 Z-1.891
X227.721 Y85.713 Z-1.895
X227.542 Y86.218 Z-1.881
X227.379 Y87.08 Z-1.845
X227.313 Y87.905 Z-1.826
X227.336 Y88.861 Z-1.782
X227.467 Y89.704 Z-1.706
X227.61 Y90.262 Z-1.647
X227.878 Y90.913 Z-1.562
X228.247 Y91.486 Z-1.456
X228.879 Y92.181 Z-1.253
X229.57 Y92.71 Z-1.143
X230.207 Y93.096 Z-1.097
X230.836 Y93.361 Z-1.13
X231.57 Y93.554 Z-1.207
X232.265 Y93.618 Z-1.263
X232.909 Y93.586 Z-1.316
X233.61 Y93.432 Z-1.376
X234.221 Y93.218 Z-1.431
X234.987 Y92.838 Z-1.513
X235.411 Y92.599 Z-1.583
X235.844 Y92.452 Z-1.763
X236.318 Y92.38 Z-2.043
X236.481 Y92.782 Z-1.88
X236.566 Y93.183 Z-1.795
X236.593 Y94.254 Z-1.794
X236.619 Y97.651 Z-1.82
X236.625 Y98.44 Z-1.846
X236.563 Y99.05 Z-1.934
X235.956 Y99.321 Z-1.518
X235.401 Y99.429 Z-1.298
X234.953 Y99.452 Z-1.202
X234.108 Y99.405 Z-1.144
X233.932 Y99.396 Z-1.135
X233.798 Y99.517 Z-1.001
X233.932 Y99.396 Z-1.135
X233.807 Y99.271 Z-1.01
X233.932 Y99.396 Z-1.135
X234.108 Y99.405 Z-1.144
X234.953 Y99.452 Z-1.202
X235.401 Y99.429 Z-1.298
X235.956 Y99.321 Z-1.518
X236.563 Y99.05 Z-1.934
X237.562 Y100.343 Z-1.01
X236.563 Y99.05 Z-1.934
X236.625 Y98.44 Z-1.846
X236.619 Y97.651 Z-1.82
X236.593 Y94.254 Z-1.794
X236.566 Y93.183 Z-1.795
X236.481 Y92.782 Z-1.88
X236.318 Y92.38 Z-2.043
X236.404 Y92.171 Z-1.957
X236.536 Y91.745 Z-1.825
X236.58 Y91.318 Z-1.781
X236.544 Y86.805 Z-1.817
X236.43 Y85.725 Z-1.928
X236.404 Y85.549 Z-1.951
X236.093 Y85.457 Z-1.677
X235.641 Y85.272 Z-1.323
X235.406 Y85.121 Z-1.189
X235.002 Y84.692 Z-1.081
X234.475 Y84.215 Z-1.045
X233.928 Y83.797 Z-1.076
X233.328 Y83.408 Z-1.178
X232.577 Y83.036 Z-1.399
X233.328 Y83.408 Z-1.178
X233.928 Y83.797 Z-1.076
X234.475 Y84.215 Z-1.045
X235.002 Y84.692 Z-1.081
X235.406 Y85.121 Z-1.189
X235.641 Y85.272 Z-1.323
X236.093 Y85.457 Z-1.677
X236.404 Y85.549 Z-1.951
X236.511 Y85.225 Z-1.842
X236.575 Y84.823 Z-1.783
X236.616 Y83.566 Z-1.862
X235.685 Y82.633 Z-1.001
X236.616 Y83.566 Z-1.862
X237.079 Y83.231 Z-1.512
X237.546 Y83.027 Z-1.316
X238.036 Y82.884 Z-1.185
X238.603 Y82.809 Z-1.134
X239.25 Y82.749 Z-1.113
X239.358 Y82.844 Z-1.005
X239.25 Y82.749 Z-1.113
X239.363 Y82.628 Z-1
G0 Z5
X252.905 Y207.64
Z4
G1 Z-1.002 F850
X253.276 Y207.256 Z-1.373
X252.908 Y206.911 Z-1.005
X253.276 Y207.256 Z-1.373
X253.859 Y207.212 Z-1.396
X254.799 Y207.082 Z-1.496
X255.359 Y206.956 Z-1.607
X255.924 Y206.663 Z-1.886
X256.585 Y206.211 Z-2.327
X257.307 Y205.584 Z-2.944
X257.888 Y206.136 Z-2.386
X258.579 Y206.663 Z-1.864
X259.025 Y206.856 Z-1.679
X259.473 Y206.931 Z-1.611
X259.593 Y206.935 Z-1.609
X261.906 Y206.999 Z-1.583
X264.146 Y207.004 Z-1.614
X265.945 Y206.922 Z-1.726
X266.686 Y206.85 Z-1.797
X267.254 Y206.719 Z-1.912
X267.477 Y206.141 Z-1.611
X267.533 Y205.743 Z-1.509
X267.545 Y204.233 Z-1.366
X267.541 Y203.948 Z-1.352
X267.206 Y203.607 Z-1.011
X267.541 Y203.948 Z-1.352
X267.859 Y203.61 Z-1.014
X267.541 Y203.948 Z-1.352
X267.545 Y204.233 Z-1.366
X267.533 Y205.743 Z-1.509
X267.477 Y206.141 Z-1.611
X267.254 Y206.719 Z-1.912
X268.305 Y207.557 Z-1.005
X267.254 Y206.719 Z-1.912
X266.686 Y206.85 Z-1.797
X265.945 Y206.922 Z-1.726
X264.146 Y207.004 Z-1.614
X261.906 Y206.999 Z-1.583
X259.593 Y206.935 Z-1.609
X259.473 Y206.931 Z-1.611
X259.025 Y206.856 Z-1.679
X258.579 Y206.663 Z-1.864
X257.888 Y206.136 Z-2.386
X257.307 Y205.584 Z-2.944
X257.302 Y203.139 Z-2.856
X257.27 Y199.119 Z-2.788
X257.278 Y198.572 Z-2.797
X257.384 Y197.896 Z-2.9
X258.413 Y197.958 Z-2.02
X258.845 Y197.984 Z-1.742
X259.41 Y198.013 Z-1.594
X261.291 Y198.021 Z-1.504
X263.565 Y197.995 Z-1.528
X264.819 Y197.989 Z-1.663
X264.921 Y197.985 Z-1.686
X265.022 Z-1.716
X265.337 Y197.994 Z-1.851
X265.579 Y197.501 Z-1.618
