%
(1001)
(z0 botom machine -5-5)
(T1  D=12.7 CR=0 - ZMIN=8 - flat end mill)
G90 G94
G17
G21

(Face1)
M9
T1 M6
S6000 M3
G54
M9
G0 X2.749 Y-107.222
Z58.5
Z48.5
G1 Z44.27 F850
G18 G3 X1.479 Z43 I-1.27
G1 X-5.5
X-145.5
G17 G2 Y-96.214 J5.504
G1 X-5.5
G3 Y-85.206 J5.504
G1 X-145.5
G2 Y-74.199 J5.504
G1 X-5.5
G3 Y-63.191 J5.504
G1 X-145.5
G2 Y-52.184 J5.504
G1 X-5.5
G3 Y-41.176 J5.504
G1 X-145.5
G2 Y-30.168 J5.504
G1 X-5.5
G3 Y-19.161 J5.504
G1 X-145.5
G2 Y-8.153 J5.504
G1 X-5.5
G18 G2 X-4.23 Z44.27 K1.27
G0 Z48.5
X2.749 Y-107.222
G1 Z43.27 F850
G3 X1.479 Z42 I-1.27
G1 X-5.5
X-145.5
G17 G2 Y-96.214 J5.504
G1 X-5.5
G3 Y-85.206 J5.504
G1 X-145.5
G2 Y-74.199 J5.504
G1 X-5.5
G3 Y-63.191 J5.504
G1 X-145.5
G2 Y-52.184 J5.504
G1 X-5.5
G3 Y-41.176 J5.504
G1 X-145.5
G2 Y-30.168 J5.504
G1 X-5.5
G3 Y-19.161 J5.504
G1 X-145.5
G2 Y-8.153 J5.504
G1 X-5.5
G18 G2 X-4.23 Z43.27 K1.27
G0 Z48.5
X2.749 Y-107.222
G1 Z42.27 F850
G3 X1.479 Z41 I-1.27
G1 X-5.5
X-145.5
G17 G2 Y-96.214 J5.504
G1 X-5.5
G3 Y-85.206 J5.504
G1 X-145.5
G2 Y-74.199 J5.504
G1 X-5.5
G3 Y-63.191 J5.504
G1 X-145.5
G2 Y-52.184 J5.504
G1 X-5.5
G3 Y-41.176 J5.504
G1 X-145.5
G2 Y-30.168 J5.504
G1 X-5.5
G3 Y-19.161 J5.504
G1 X-145.5
G2 Y-8.153 J5.504
G1 X-5.5
G18 G2 X-4.23 Z42.27 K1.27
G0 Z58.5
G17

(2D Adaptive1)
M9
G0 X-84.649 Y-55.039
Z58.5
Z48.5
Z47.27
G1 Z46 F850
G3 X-96.058 Y-58.961 Z45.338 I-5.705 J-1.961 F283.3
X-84.649 Y-55.039 Z44.676 I5.705 J1.961
X-96.058 Y-58.961 Z44.015 I-5.705 J-1.961
X-84.649 Y-55.039 Z43.353 I5.705 J1.961
X-96.058 Y-58.961 Z42.691 I-5.705 J-1.961
X-84.649 Y-55.039 Z42.029 I5.705 J1.961
X-96.058 Y-58.961 Z41.367 I-5.705 J-1.961
X-84.649 Y-55.039 Z40.706 I5.705 J1.961
X-96.058 Y-58.961 Z40.044 I-5.705 J-1.961
X-84.649 Y-55.039 Z39.382 I5.705 J1.961
X-96.058 Y-58.961 Z38.72 I-5.705 J-1.961
X-84.649 Y-55.039 Z38.058 I5.705 J1.961
X-96.058 Y-58.961 Z37.397 I-5.705 J-1.961
X-84.649 Y-55.039 Z36.735 I5.705 J1.961
X-96.058 Y-58.961 Z36.073 I-5.705 J-1.961
X-84.649 Y-55.039 Z35.411 I5.705 J1.961
X-96.058 Y-58.961 Z34.749 I-5.705 J-1.961
X-84.649 Y-55.039 Z34.087 I5.705 J1.961
X-96.058 Y-58.961 Z33.426 I-5.705 J-1.961
X-84.649 Y-55.039 Z32.764 I5.705 J1.961
X-96.058 Y-58.961 Z32.102 I-5.705 J-1.961
X-84.321 Y-57 Z31.51 I5.705 J1.961
X-96.386 I-6.033
X-84.597 Y-58.805 I6.032
X-84.321 Y-57 I-5.756 J1.805
G1 X-84.317 Y-56.664 F850
X-84.189 Y-55.328
X-84.166 Y-55.248
X-84.13 Y-55.102
X-84.104 Y-54.954
X-84.086 Y-54.801
X-84.076 Y-54.635
X-84.074 Y-54.457
X-84.083 Y-54.267
X-84.103 Y-54.065
X-84.136 Y-53.853
X-84.183 Y-53.632
X-84.245 Y-53.402
X-84.323 Y-53.165
X-84.417 Y-52.923
X-84.529 Y-52.676
X-84.659 Y-52.426
X-84.807 Y-52.175
X-84.974 Y-51.925
X-85.16 Y-51.676
X-85.365 Y-51.431
X-85.589 Y-51.192
X-85.831 Y-50.959
X-86.09 Y-50.735
X-86.368 Y-50.521
X-86.661 Y-50.318
X-86.971 Y-50.129
X-87.296 Y-49.954
X-87.634 Y-49.795
X-87.985 Y-49.652
X-88.347 Y-49.527
X-88.72 Y-49.421
X-89.101 Y-49.334
X-89.491 Y-49.267
X-89.886 Y-49.222
X-90.286 Y-49.197
X-90.69 Y-49.195
X-91.095 Y-49.214
X-91.501 Y-49.255
X-91.907 Y-49.319
X-92.309 Y-49.405
X-92.709 Y-49.513
X-93.103 Y-49.643
X-93.491 Y-49.795
X-93.871 Y-49.968
X-94.242 Y-50.162
X-94.603 Y-50.376
X-94.952 Y-50.61
X-95.289 Y-50.863
X-95.613 Y-51.134
X-95.921 Y-51.423
X-96.214 Y-51.729
X-96.49 Y-52.05
X-96.749 Y-52.386
X-96.989 Y-52.737
X-97.21 Y-53.1
X-97.412 Y-53.474
X-97.592 Y-53.86
X-97.752 Y-54.255
X-97.89 Y-54.658
X-98.007 Y-55.068
X-98.101 Y-55.484
X-98.172 Y-55.905
X-98.22 Y-56.329
X-98.245 Y-56.756
X-98.247 Y-57.183
X-98.226 Y-57.61
X-98.182 Y-58.035
X-98.115 Y-58.457
X-98.025 Y-58.875
X-97.912 Y-59.288
X-97.778 Y-59.694
X-97.621 Y-60.092
X-97.443 Y-60.481
X-97.244 Y-60.86
X-97.025 Y-61.228
X-96.787 Y-61.583
X-96.529 Y-61.925
X-96.253 Y-62.252
X-95.96 Y-62.564
X-95.651 Y-62.86
X-95.325 Y-63.138
X-94.986 Y-63.399
X-94.632 Y-63.64
X-94.266 Y-63.862
X-93.888 Y-64.064
X-93.5 Y-64.245
X-93.103 Y-64.405
X-92.698 Y-64.544
X-92.286 Y-64.66
X-91.868 Y-64.753
X-91.445 Y-64.824
X-91.02 Y-64.871
X-90.592 Y-64.896
X-90.164 Y-64.897
X-89.736 Y-64.875
X-89.31 Y-64.83
X-88.887 Y-64.762
X-88.469 Y-64.672
X-88.056 Y-64.558
X-87.65 Y-64.423
X-87.251 Y-64.265
X-86.862 Y-64.086
X-86.483 Y-63.887
X-86.116 Y-63.667
X-85.761 Y-63.427
X-85.419 Y-63.169
X-85.092 Y-62.892
X-84.78 Y-62.599
X-84.485 Y-62.288
X-84.207 Y-61.962
X-83.947 Y-61.622
X-83.706 Y-61.268
X-83.484 Y-60.901
X-83.283 Y-60.523
X-82.973 Y-59.857
X-82.64 Y-59.026
X-82.414 Y-58.359
X-82.248 Y-57.765
X-82.129 Y-57.226
X-82.044 Y-56.712
X-81.99 Y-56.223
X-81.963 Y-55.753
Y-55.296
X-81.986 Y-54.849
X-82.034 Y-54.411
X-82.104 Y-53.98
X-82.197 Y-53.556
X-82.312 Y-53.139
X-82.449 Y-52.729
X-82.609 Y-52.327
X-82.791 Y-51.933
X-82.995 Y-51.548
X-83.221 Y-51.171
X-83.469 Y-50.805
X-83.738 Y-50.451
X-84.028 Y-50.108
X-84.34 Y-49.779
X-84.671 Y-49.465
X-85.022 Y-49.167
X-85.392 Y-48.885
X-85.78 Y-48.622
X-86.184 Y-48.379
X-86.604 Y-48.156
X-87.039 Y-47.955
X-87.488 Y-47.776
X-87.949 Y-47.62
X-88.421 Y-47.489
X-88.903 Y-47.383
X-89.393 Y-47.303
X-89.889 Y-47.249
X-90.391 Y-47.222
X-90.896 Y-47.223
X-91.403 Y-47.25
X-91.911 Y-47.306
X-92.417 Y-47.389
X-92.919 Y-47.5
X-93.418 Y-47.639
X-93.909 Y-47.805
X-94.393 Y-47.998
X-94.866 Y-48.217
X-95.329 Y-48.463
X-95.779 Y-48.734
X-96.214 Y-49.03
X-96.633 Y-49.35
X-97.036 Y-49.692
X-97.42 Y-50.057
X-97.784 Y-50.442
X-98.127 Y-50.848
X-98.449 Y-51.272
X-98.747 Y-51.713
X-99.021 Y-52.17
X-99.27 Y-52.642
X-99.494 Y-53.127
X-99.691 Y-53.624
X-99.861 Y-54.132
X-100.003 Y-54.648
X-100.117 Y-55.172
X-100.203 Y-55.701
X-100.26 Y-56.234
X-100.288 Y-56.77
X-100.287 Y-57.307
X-100.257 Y-57.844
X-100.197 Y-58.378
X-100.109 Y-58.908
X-99.992 Y-59.433
X-99.847 Y-59.951
X-99.674 Y-60.461
X-99.473 Y-60.96
X-99.246 Y-61.448
X-98.993 Y-61.923
X-98.714 Y-62.384
X-98.41 Y-62.829
X-98.083 Y-63.256
X-97.733 Y-63.666
X-97.362 Y-64.056
X-96.969 Y-64.425
X-96.557 Y-64.773
X-96.127 Y-65.098
X-95.68 Y-65.399
X-95.218 Y-65.675
X-94.741 Y-65.926
X-94.251 Y-66.151
X-93.749 Y-66.349
X-93.238 Y-66.519
X-92.718 Y-66.661
X-92.191 Y-66.775
X-91.658 Y-66.86
X-91.122 Y-66.917
X-90.584 Y-66.944
X-90.044 Y-66.942
X-89.506 Y-66.91
X-88.97 Y-66.85
X-88.438 Y-66.761
X-87.912 Y-66.643
X-87.393 Y-66.496
X-86.883 Y-66.322
X-86.383 Y-66.12
X-85.895 Y-65.891
X-85.419 Y-65.637
X-84.958 Y-65.357
X-84.513 Y-65.052
X-84.086 Y-64.724
X-83.676 Y-64.373
X-83.259 Y-63.974
X-82.855 Y-63.543
X-82.442 Y-63.052
X-82.04 Y-62.517
X-81.661 Y-61.953
X-81.315 Y-61.37
X-81.003 Y-60.775
X-80.727 Y-60.171
X-80.489 Y-59.563
X-80.287 Y-58.955
X-80.122 Y-58.347
X-79.992 Y-57.742
X-79.897 Y-57.141
X-79.836 Y-56.546
X-79.807 Y-55.956
X-79.81 Y-55.373
X-79.845 Y-54.795
X-79.91 Y-54.225
X-80.006 Y-53.662
X-80.131 Y-53.107
X-80.286 Y-52.562
X-80.471 Y-52.026
X-80.683 Y-51.501
X-80.925 Y-50.988
X-81.194 Y-50.488
X-81.49 Y-50.003
X-81.813 Y-49.533
X-82.162 Y-49.079
X-82.537 Y-48.644
X-82.936 Y-48.228
X-83.36 Y-47.832
X-83.805 Y-47.458
X-84.273 Y-47.108
X-84.762 Y-46.781
X-85.269 Y-46.48
X-85.796 Y-46.206
X-86.338 Y-45.959
X-86.896 Y-45.742
X-87.468 Y-45.553
X-88.053 Y-45.396
X-88.648 Y-45.269
X-89.251 Y-45.175
X-89.862 Y-45.113
X-90.478 Y-45.084
X-91.098 Y-45.088
X-91.719 Y-45.127
X-92.34 Y-45.199
X-92.958 Y-45.305
X-93.571 Y-45.445
X-94.178 Y-45.619
X-94.777 Y-45.826
X-95.365 Y-46.065
X-95.942 Y-46.337
X-96.503 Y-46.641
X-97.049 Y-46.975
X-97.577 Y-47.34
X-98.086 Y-47.733
X-98.574 Y-48.154
X-99.039 Y-48.602
X-99.479 Y-49.075
X-99.894 Y-49.572
X-100.282 Y-50.091
X-100.642 Y-50.631
X-100.972 Y-51.191
X-101.272 Y-51.768
X-101.54 Y-52.362
X-101.776 Y-52.969
X-101.979 Y-53.59
X-102.148 Y-54.22
X-102.283 Y-54.859
X-102.383 Y-55.506
X-102.448 Y-56.157
X-102.477 Y-56.81
X-102.471 Y-57.465
X-102.43 Y-58.119
X-102.353 Y-58.77
X-102.241 Y-59.416
X-102.093 Y-60.055
X-101.912 Y-60.686
X-101.696 Y-61.306
X-101.448 Y-61.913
X-101.166 Y-62.507
X-100.853 Y-63.084
X-100.509 Y-63.644
X-100.135 Y-64.184
X-99.732 Y-64.703
X-99.301 Y-65.2
X-98.844 Y-65.672
X-98.363 Y-66.12
X-97.857 Y-66.54
X-97.33 Y-66.933
X-96.782 Y-67.296
X-96.215 Y-67.63
X-95.63 Y-67.932
X-95.03 Y-68.202
X-94.417 Y-68.439
X-93.791 Y-68.642
X-93.155 Y-68.812
X-92.511 Y-68.946
X-91.861 Y-69.046
X-91.206 Y-69.11
X-90.548 Y-69.138
X-89.89 Y-69.131
X-89.234 Y-69.088
X-88.58 Y-69.01
X-87.932 Y-68.896
X-87.291 Y-68.747
X-86.659 Y-68.564
X-86.038 Y-68.347
X-85.429 Y-68.096
X-84.83 Y-67.811
X-84.241 Y-67.49
X-83.659 Y-67.131
X-83.084 Y-66.731
X-82.522 Y-66.293
X-81.976 Y-65.818
X-81.45 Y-65.308
X-80.946 Y-64.764
X-80.469 Y-64.188
X-80.021 Y-63.583
X-79.605 Y-62.954
X-79.224 Y-62.303
X-78.88 Y-61.634
X-78.574 Y-60.952
X-78.307 Y-60.258
X-78.08 Y-59.556
X-77.893 Y-58.849
X-77.746 Y-58.138
X-77.638 Y-57.425
X-77.57 Y-56.712
X-77.54 Y-56.001
X-77.549 Y-55.293
X-77.596 Y-54.59
X-77.681 Y-53.892
X-77.803 Y-53.203
X-77.962 Y-52.523
X-78.158 Y-51.853
X-78.389 Y-51.195
X-78.655 Y-50.551
X-78.956 Y-49.923
X-79.291 Y-49.311
X-79.659 Y-48.717
X-80.059 Y-48.143
X-80.491 Y-47.591
X-80.953 Y-47.062
X-81.444 Y-46.557
X-81.963 Y-46.079
X-82.509 Y-45.628
X-83.081 Y-45.205
X-83.676 Y-44.814
X-84.294 Y-44.453
X-84.933 Y-44.126
X-85.591 Y-43.832
X-86.267 Y-43.574
X-86.958 Y-43.352
X-87.662 Y-43.167
X-88.379 Y-43.02
X-89.105 Y-42.912
X-89.838 Y-42.843
X-90.577 Y-42.813
X-91.319 Y-42.824
X-92.062 Y-42.875
X-92.803 Y-42.966
X-93.54 Y-43.098
X-94.272 Y-43.271
X-94.995 Y-43.483
X-95.707 Y-43.735
X-96.406 Y-44.026
X-97.091 Y-44.355
X-97.758 Y-44.721
X-98.405 Y-45.124
X-99.032 Y-45.563
X-99.634 Y-46.036
X-100.211 Y-46.541
X-100.761 Y-47.078
X-101.282 Y-47.645
X-101.772 Y-48.24
X-102.229 Y-48.862
X-102.653 Y-49.508
X-103.041 Y-50.177
X-103.393 Y-50.867
X-103.708 Y-51.575
X-103.983 Y-52.3
X-104.22 Y-53.04
X-104.416 Y-53.792
X-104.571 Y-54.554
X-104.684 Y-55.324
X-104.756 Y-56.099
X-104.786 Y-56.878
X-104.773 Y-57.657
X-104.718 Y-58.435
X-104.621 Y-59.209
X-104.482 Y-59.977
X-104.302 Y-60.737
X-104.081 Y-61.486
X-103.819 Y-62.222
X-103.518 Y-62.943
X-103.178 Y-63.647
X-102.8 Y-64.331
X-102.386 Y-64.994
X-101.936 Y-65.634
X-101.452 Y-66.249
X-100.935 Y-66.836
X-100.388 Y-67.395
X-99.81 Y-67.923
X-99.205 Y-68.42
X-98.574 Y-68.883
X-97.919 Y-69.311
X-97.241 Y-69.703
X-96.543 Y-70.057
X-95.827 Y-70.374
X-95.094 Y-70.651
X-94.348 Y-70.888
X-93.589 Y-71.084
X-92.822 Y-71.239
X-92.047 Y-71.352
X-91.266 Y-71.422
X-90.484 Y-71.451
X-89.7 Y-71.437
X-88.919 Y-71.38
X-88.142 Y-71.281
X-87.37 Y-71.141
X-86.606 Y-70.958
X-85.848 Y-70.732
X-85.098 Y-70.464
X-84.357 Y-70.153
X-83.627 Y-69.799
X-82.909 Y-69.401
X-82.207 Y-68.961
X-81.524 Y-68.479
X-80.862 Y-67.955
X-80.224 Y-67.393
X-79.613 Y-66.792
X-79.034 Y-66.157
X-78.487 Y-65.488
X-77.977 Y-64.79
X-77.506 Y-64.065
X-77.074 Y-63.316
X-76.685 Y-62.546
X-76.339 Y-61.759
X-76.037 Y-60.956
X-75.779 Y-60.141
X-75.568 Y-59.316
X-75.401 Y-58.485
X-75.281 Y-57.648
X-75.206 Y-56.809
X-75.177 Y-55.97
X-75.194 Y-55.133
X-75.256 Y-54.301
X-75.362 Y-53.474
X-75.513 Y-52.657
X-75.708 Y-51.849
X-75.946 Y-51.055
X-76.226 Y-50.274
X-76.548 Y-49.511
X-76.912 Y-48.765
X-77.315 Y-48.041
X-77.757 Y-47.338
X-78.238 Y-46.66
X-78.755 Y-46.008
X-79.307 Y-45.384
X-79.894 Y-44.789
X-80.513 Y-44.226
X-81.164 Y-43.696
X-81.844 Y-43.201
X-82.551 Y-42.743
X-83.285 Y-42.322
X-84.042 Y-41.941
X-84.821 Y-41.6
X-85.62 Y-41.301
X-86.436 Y-41.045
X-87.268 Y-40.833
X-88.112 Y-40.666
X-88.966 Y-40.545
X-89.829 Y-40.469
X-90.696 Y-40.441
X-91.567 Y-40.46
X-92.437 Y-40.526
X-93.305 Y-40.639
X-94.168 Y-40.8
X-95.023 Y-41.008
X-95.868 Y-41.262
X-96.699 Y-41.563
X-97.515 Y-41.908
X-98.312 Y-42.299
X-99.089 Y-42.733
X-99.842 Y-43.209
X-100.57 Y-43.726
X-101.27 Y-44.283
X-101.94 Y-44.878
X-102.577 Y-45.51
X-103.18 Y-46.176
X-103.747 Y-46.874
X-104.276 Y-47.603
X-104.765 Y-48.361
X-105.213 Y-49.145
X-105.618 Y-49.953
X-105.979 Y-50.782
X-106.295 Y-51.63
X-106.564 Y-52.495
X-106.787 Y-53.374
X-106.961 Y-54.265
X-107.088 Y-55.164
X-107.165 Y-56.069
X-107.193 Y-56.977
X-107.172 Y-57.887
X-107.102 Y-58.794
X-106.982 Y-59.696
X-106.814 Y-60.591
X-106.597 Y-61.476
X-106.333 Y-62.348
X-106.021 Y-63.204
X-105.664 Y-64.043
X-105.262 Y-64.861
X-104.815 Y-65.657
X-104.326 Y-66.427
X-103.796 Y-67.17
X-103.227 Y-67.883
X-102.619 Y-68.564
X-101.976 Y-69.212
X-101.298 Y-69.824
X-100.588 Y-70.398
X-99.847 Y-70.933
X-99.079 Y-71.427
X-98.285 Y-71.879
X-97.468 Y-72.287
X-96.629 Y-72.65
X-95.772 Y-72.967
X-94.9 Y-73.237
X-94.013 Y-73.46
X-93.116 Y-73.634
X-92.211 Y-73.76
X-91.3 Y-73.836
X-90.386 Y-73.863
X-89.471 Y-73.84
X-88.556 Y-73.767
X-87.645 Y-73.645
X-86.738 Y-73.473
X-85.837 Y-73.25
X-84.945 Y-72.978
X-84.065 Y-72.656
X-83.197 Y-72.285
X-82.346 Y-71.864
X-81.513 Y-71.395
X-80.701 Y-70.878
X-79.914 Y-70.314
X-79.154 Y-69.705
X-78.424 Y-69.052
X-77.728 Y-68.358
X-77.069 Y-67.625
X-76.449 Y-66.855
X-75.871 Y-66.053
X-75.338 Y-65.22
X-74.85 Y-64.359
X-74.41 Y-63.474
X-74.02 Y-62.568
X-73.679 Y-61.644
X-73.39 Y-60.705
X-73.153 Y-59.753
X-72.968 Y-58.793
X-72.836 Y-57.825
X-72.756 Y-56.855
X-72.729 Y-55.883
X-72.755 Y-54.913
X-72.834 Y-53.948
X-72.964 Y-52.99
X-73.146 Y-52.041
X-73.379 Y-51.105
X-73.662 Y-50.183
X-73.994 Y-49.278
X-74.375 Y-48.393
X-74.804 Y-47.529
X-75.278 Y-46.69
X-75.798 Y-45.877
X-76.362 Y-45.092
X-76.968 Y-44.339
X-77.615 Y-43.618
X-78.302 Y-42.933
X-79.025 Y-42.285
X-79.784 Y-41.675
X-80.577 Y-41.107
X-81.401 Y-40.581
X-82.254 Y-40.099
X-83.134 Y-39.664
X-84.039 Y-39.276
X-84.966 Y-38.936
X-85.912 Y-38.647
X-86.874 Y-38.409
X-87.851 Y-38.223
X-88.839 Y-38.089
X-89.835 Y-38.009
X-90.836 Y-37.984
X-91.84 Y-38.012
X-92.843 Y-38.095
X-93.842 Y-38.233
X-94.834 Y-38.425
X-95.817 Y-38.671
X-96.787 Y-38.971
X-97.742 Y-39.324
X-98.677 Y-39.728
X-99.591 Y-40.184
X-100.481 Y-40.689
X-101.343 Y-41.243
X-102.175 Y-41.843
X-102.975 Y-42.489
X-103.74 Y-43.178
X-104.467 Y-43.908
X-105.154 Y-44.678
X-105.799 Y-45.485
X-106.401 Y-46.326
X-106.956 Y-47.2
X-107.464 Y-48.104
X-107.922 Y-49.034
X-108.33 Y-49.989
X-108.686 Y-50.966
X-108.988 Y-51.961
X-109.236 Y-52.971
X-109.43 Y-53.994
X-109.567 Y-55.027
X-109.649 Y-56.066
X-109.674 Y-57.109
X-109.642 Y-58.152
X-109.554 Y-59.192
X-109.409 Y-60.227
X-109.209 Y-61.252
X-108.953 Y-62.265
X-108.643 Y-63.264
X-108.279 Y-64.244
X-107.862 Y-65.204
X-107.394 Y-66.139
X-106.875 Y-67.048
X-106.308 Y-67.928
X-105.694 Y-68.776
X-105.035 Y-69.59
X-104.332 Y-70.367
X-103.589 Y-71.104
X-102.806 Y-71.801
X-101.987 Y-72.454
X-101.133 Y-73.061
X-100.248 Y-73.622
X-99.333 Y-74.134
X-98.392 Y-74.595
X-97.427 Y-75.005
X-96.442 Y-75.362
X-95.438 Y-75.666
X-94.419 Y-75.914
X-93.388 Y-76.107
X-92.348 Y-76.243
X-91.3 Y-76.324
X-90.248 Y-76.347
X-89.195 Y-76.313
X-88.142 Y-76.222
X-87.092 Y-76.074
X-86.048 Y-75.868
X-85.013 Y-75.605
X-83.988 Y-75.284
X-82.978 Y-74.907
X-81.985 Y-74.474
X-81.012 Y-73.984
X-80.063 Y-73.441
X-79.14 Y-72.843
X-78.246 Y-72.194
X-77.387 Y-71.495
X-76.563 Y-70.748
X-75.78 Y-69.955
X-75.039 Y-69.119
X-74.343 Y-68.243
X-73.695 Y-67.33
X-73.098 Y-66.383
X-72.553 Y-65.404
X-72.061 Y-64.399
X-71.626 Y-63.369
X-71.247 Y-62.317
X-70.926 Y-61.249
X-70.664 Y-60.165
X-70.462 Y-59.071
X-70.319 Y-57.969
X-70.236 Y-56.863
X-70.214 Y-55.755
X-70.251 Y-54.649
X-70.348 Y-53.548
X-70.505 Y-52.455
X-70.72 Y-51.373
X-70.994 Y-50.305
X-71.325 Y-49.253
X-71.712 Y-48.221
X-72.155 Y-47.212
X-72.652 Y-46.228
X-73.201 Y-45.272
X-73.802 Y-44.347
X-74.453 Y-43.455
X-75.152 Y-42.598
X-75.897 Y-41.78
X-76.687 Y-41.002
X-77.519 Y-40.267
X-78.39 Y-39.578
X-79.3 Y-38.935
X-80.244 Y-38.342
X-81.222 Y-37.799
X-82.229 Y-37.31
X-83.263 Y-36.874
X-84.322 Y-36.495
X-85.402 Y-36.173
X-86.5 Y-35.91
X-87.613 Y-35.705
X-88.738 Y-35.562
X-89.871 Y-35.479
X-91.01 Y-35.458
X-92.151 Y-35.498
X-93.29 Y-35.601
X-94.424 Y-35.765
X-95.55 Y-35.991
X-96.663 Y-36.279
X-97.762 Y-36.626
X-98.842 Y-37.034
X-99.9 Y-37.501
X-100.933 Y-38.024
X-101.938 Y-38.604
X-102.911 Y-39.239
X-103.85 Y-39.926
X-104.751 Y-40.665
X-105.612 Y-41.452
X-106.431 Y-42.285
X-107.203 Y-43.163
X-107.928 Y-44.082
X-108.603 Y-45.04
X-109.225 Y-46.034
X-109.793 Y-47.062
X-110.304 Y-48.12
X-110.759 Y-49.204
X-111.154 Y-50.313
X-111.488 Y-51.442
X-111.761 Y-52.588
X-111.972 Y-53.748
X-112.119 Y-54.919
X-112.203 Y-56.096
X-112.223 Y-57.277
X-112.179 Y-58.457
X-112.071 Y-59.634
X-111.899 Y-60.804
X-111.664 Y-61.963
X-111.367 Y-63.108
X-111.007 Y-64.236
X-110.587 Y-65.343
X-110.108 Y-66.426
X-109.57 Y-67.481
X-108.976 Y-68.506
X-108.327 Y-69.498
X-107.625 Y-70.453
X-106.872 Y-71.369
X-106.071 Y-72.242
X-105.223 Y-73.071
X-104.332 Y-73.854
X-103.399 Y-74.586
X-102.428 Y-75.267
X-101.421 Y-75.895
X-100.382 Y-76.467
X-99.313 Y-76.982
X-98.217 Y-77.438
X-97.099 Y-77.835
X-95.959 Y-78.17
X-94.803 Y-78.443
X-93.633 Y-78.654
X-92.452 Y-78.801
X-91.263 Y-78.883
X-90.069 Y-78.901
X-88.873 Y-78.855
X-87.679 Y-78.743
X-86.489 Y-78.566
X-85.306 Y-78.324
X-84.135 Y-78.017
X-82.977 Y-77.647
X-81.838 Y-77.212
X-80.719 Y-76.714
X-79.624 Y-76.154
X-78.558 Y-75.533
X-77.524 Y-74.854
X-76.524 Y-74.116
X-75.563 Y-73.324
X-74.645 Y-72.478
X-73.771 Y-71.582
X-72.946 Y-70.638
X-72.173 Y-69.65
X-71.453 Y-68.621
X-70.791 Y-67.553
X-70.187 Y-66.451
X-69.643 Y-65.318
X-69.162 Y-64.158
X-68.745 Y-62.974
X-68.393 Y-61.771
X-68.107 Y-60.551
X-67.888 Y-59.319
X-67.736 Y-58.078
X-67.652 Y-56.832
X-67.635 Y-55.584
X-67.686 Y-54.339
X-67.804 Y-53.099
X-67.989 Y-51.868
X-68.24 Y-50.65
X-68.557 Y-49.447
X-68.939 Y-48.264
X-69.384 Y-47.103
X-69.891 Y-45.968
X-70.46 Y-44.862
X-71.087 Y-43.788
X-71.773 Y-42.749
X-72.514 Y-41.748
X-73.309 Y-40.788
X-74.156 Y-39.871
X-75.052 Y-39.001
X-75.995 Y-38.179
X-76.983 Y-37.409
X-78.013 Y-36.692
X-79.081 Y-36.031
X-80.186 Y-35.428
X-81.323 Y-34.885
X-82.491 Y-34.404
X-83.685 Y-33.985
X-84.902 Y-33.632
X-86.139 Y-33.344
X-87.392 Y-33.123
X-88.658 Y-32.97
X-89.932 Y-32.886
X-91.211 Y-32.872
X-92.492 Y-32.926
X-93.77 Y-33.05
X-95.042 Y-33.244
X-96.304 Y-33.506
X-97.551 Y-33.838
X-98.781 Y-34.237
X-99.99 Y-34.702
X-101.173 Y-35.234
X-102.327 Y-35.829
X-103.449 Y-36.488
X-104.535 Y-37.207
X-105.581 Y-37.984
X-106.585 Y-38.819
X-107.544 Y-39.707
X-108.454 Y-40.648
X-109.313 Y-41.637
X-110.117 Y-42.672
X-110.865 Y-43.751
X-111.554 Y-44.869
X-112.182 Y-46.024
X-112.747 Y-47.212
X-113.247 Y-48.43
X-113.68 Y-49.675
X-114.046 Y-50.941
X-114.342 Y-52.227
X-114.569 Y-53.527
X-114.725 Y-54.838
X-114.809 Y-56.157
X-114.822 Y-57.478
X-114.764 Y-58.799
X-114.634 Y-60.116
X-114.432 Y-61.424
X-114.16 Y-62.719
X-113.818 Y-63.998
X-113.407 Y-65.258
X-112.928 Y-66.493
X-112.383 Y-67.701
X-111.773 Y-68.878
X-111.1 Y-70.02
X-110.366 Y-71.124
X-109.573 Y-72.188
X-108.724 Y-73.206
X-107.82 Y-74.178
X-106.865 Y-75.099
X-105.861 Y-75.967
X-104.812 Y-76.779
X-103.72 Y-77.534
X-102.589 Y-78.228
X-101.421 Y-78.86
X-100.221 Y-79.428
X-98.991 Y-79.93
X-97.735 Y-80.365
X-96.457 Y-80.732
X-95.161 Y-81.029
X-93.848 Y-81.255
X-92.524 Y-81.41
X-91.191 Y-81.493
X-89.854 Y-81.504
X-88.515 Y-81.442
X-87.179 Y-81.308
X-85.853 Y-81.101
X-84.54 Y-80.824
X-83.244 Y-80.475
X-81.968 Y-80.058
X-80.717 Y-79.573
X-79.493 Y-79.023
X-78.3 Y-78.407
X-77.141 Y-77.73
X-76.02 Y-76.992
X-74.939 Y-76.197
X-73.901 Y-75.345
X-72.91 Y-74.441
X-71.967 Y-73.486
X-71.075 Y-72.483
X-70.237 Y-71.435
X-69.454 Y-70.344
X-68.729 Y-69.215
X-68.064 Y-68.049
X-67.46 Y-66.85
X-66.919 Y-65.622
X-66.444 Y-64.367
X-66.034 Y-63.089
X-65.692 Y-61.791
X-65.418 Y-60.477
X-65.213 Y-59.151
X-65.079 Y-57.815
X-65.014 Y-56.475
X-65.02 Y-55.133
X-65.097 Y-53.793
X-65.243 Y-52.458
X-65.459 Y-51.134
X-65.744 Y-49.822
X-66.098 Y-48.528
X-66.519 Y-47.253
X-67.006 Y-46.003
X-67.558 Y-44.779
X-68.174 Y-43.587
X-68.851 Y-42.428
X-69.588 Y-41.306
X-70.383 Y-40.225
X-71.233 Y-39.186
X-72.136 Y-38.193
X-73.09 Y-37.249
X-74.092 Y-36.356
X-75.139 Y-35.516
X-76.228 Y-34.732
X-77.357 Y-34.005
X-78.521 Y-33.338
X-79.719 Y-32.733
X-80.947 Y-32.19
X-82.201 Y-31.712
X-83.478 Y-31.3
X-84.775 Y-30.954
X-86.088 Y-30.676
X-87.414 Y-30.467
X-88.748 Y-30.325
X-90.089 Y-30.253
X-91.431 Y-30.249
X-92.771 Y-30.313
X-94.107 Y-30.445
X-95.434 Y-30.645
X-96.749 Y-30.912
X-98.049 Y-31.246
X-99.331 Y-31.644
X-100.591 Y-32.107
X-101.826 Y-32.632
X-103.033 Y-33.22
X-104.208 Y-33.868
X-105.349 Y-34.575
X-106.452 Y-35.339
X-107.515 Y-36.158
X-108.536 Y-37.03
X-109.512 Y-37.951
X-110.441 Y-38.92
X-111.32 Y-39.934
X-112.148 Y-40.99
X-112.922 Y-42.087
X-113.641 Y-43.22
X-114.303 Y-44.388
X-114.905 Y-45.587
X-115.446 Y-46.816
X-115.924 Y-48.07
X-116.339 Y-49.346
X-116.689 Y-50.642
X-116.975 Y-51.953
X-117.195 Y-53.277
X-117.35 Y-54.61
X-117.439 Y-55.95
X-117.461 Y-57.291
X-117.417 Y-58.633
X-117.307 Y-59.971
X-117.131 Y-61.301
X-116.888 Y-62.621
X-116.579 Y-63.927
X-116.205 Y-65.216
X-115.768 Y-66.485
X-115.268 Y-67.731
X-114.708 Y-68.95
X-114.088 Y-70.141
X-113.41 Y-71.299
X-112.676 Y-72.423
X-111.888 Y-73.509
X-111.047 Y-74.555
X-110.155 Y-75.558
X-109.214 Y-76.515
X-108.226 Y-77.424
X-107.194 Y-78.282
X-106.121 Y-79.088
X-105.01 Y-79.841
X-103.863 Y-80.537
X-102.683 Y-81.177
X-101.473 Y-81.758
X-100.236 Y-82.279
X-98.975 Y-82.738
X-97.692 Y-83.134
X-96.392 Y-83.466
X-95.076 Y-83.732
X-93.749 Y-83.933
X-92.414 Y-84.068
X-91.074 Y-84.137
X-89.731 Y-84.141
X-88.391 Y-84.079
X-87.055 Y-83.953
X-85.726 Y-83.762
X-84.408 Y-83.506
X-83.105 Y-83.186
X-81.819 Y-82.803
X-80.553 Y-82.356
X-79.31 Y-81.849
X-78.093 Y-81.283
X-76.905 Y-80.659
X-75.748 Y-79.979
X-74.624 Y-79.245
X-73.537 Y-78.459
X-72.487 Y-77.622
X-71.479 Y-76.737
X-70.514 Y-75.803
X-69.595 Y-74.825
X-68.724 Y-73.804
X-67.903 Y-72.743
X-67.132 Y-71.644
X-66.414 Y-70.51
X-65.749 Y-69.344
X-65.141 Y-68.148
X-64.588 Y-66.924
X-64.094 Y-65.677
X-63.66 Y-64.407
X-63.287 Y-63.117
X-62.977 Y-61.812
X-62.729 Y-60.492
X-62.544 Y-59.163
X-62.423 Y-57.826
X-62.364 Y-56.486
X-62.369 Y-55.143
X-62.437 Y-53.803
X-62.568 Y-52.467
X-62.762 Y-51.139
X-63.02 Y-49.822
X-63.341 Y-48.519
X-63.723 Y-47.232
X-64.167 Y-45.966
X-64.671 Y-44.722
X-65.233 Y-43.503
X-65.851 Y-42.312
X-66.525 Y-41.151
X-67.253 Y-40.023
X-68.033 Y-38.931
X-68.864 Y-37.877
X-69.745 Y-36.864
X-70.673 Y-35.895
X-71.646 Y-34.971
X-72.662 Y-34.094
X-73.718 Y-33.266
X-74.812 Y-32.488
X-75.941 Y-31.762
X-77.103 Y-31.09
X-78.295 Y-30.473
X-79.515 Y-29.913
X-80.759 Y-29.41
X-82.026 Y-28.968
X-83.313 Y-28.586
X-84.617 Y-28.266
X-85.933 Y-28.007
X-87.261 Y-27.81
X-88.596 Y-27.674
X-89.936 Y-27.601
X-91.279 Y-27.589
X-92.62 Y-27.639
X-93.957 Y-27.75
X-95.288 Y-27.924
X-96.61 Y-28.159
X-97.919 Y-28.455
X-99.212 Y-28.812
X-100.488 Y-29.228
X-101.744 Y-29.703
X-102.977 Y-30.234
X-104.183 Y-30.821
X-105.362 Y-31.463
X-106.51 Y-32.158
X-107.625 Y-32.905
X-108.705 Y-33.702
X-109.747 Y-34.549
X-110.748 Y-35.442
X-111.708 Y-36.381
X-112.623 Y-37.362
X-113.494 Y-38.384
X-114.317 Y-39.444
X-115.092 Y-40.54
X-115.816 Y-41.669
X-116.489 Y-42.831
X-117.109 Y-44.021
X-117.673 Y-45.239
X-118.181 Y-46.482
X-118.63 Y-47.746
X-119.022 Y-49.03
X-119.355 Y-50.33
X-119.629 Y-51.644
X-119.843 Y-52.969
X-119.998 Y-54.302
X-120.093 Y-55.641
X-120.128 Y-56.983
X-120.104 Y-58.325
X-120.018 Y-59.664
X-119.871 Y-60.998
X-119.663 Y-62.324
X-119.394 Y-63.639
X-119.066 Y-64.94
X-118.68 Y-66.226
X-118.236 Y-67.492
X-117.736 Y-68.738
X-117.181 Y-69.96
X-116.572 Y-71.156
X-115.91 Y-72.323
X-115.197 Y-73.46
X-114.432 Y-74.564
X-113.618 Y-75.631
X-112.756 Y-76.659
X-111.848 Y-77.648
X-110.897 Y-78.594
X-109.903 Y-79.497
X-108.871 Y-80.354
X-107.8 Y-81.164
X-106.695 Y-81.926
X-105.557 Y-82.637
X-104.389 Y-83.298
X-103.192 Y-83.904
X-101.968 Y-84.456
X-100.721 Y-84.951
X-99.452 Y-85.39
X-98.165 Y-85.77
X-96.862 Y-86.092
X-95.546 Y-86.356
X-94.22 Y-86.56
X-92.885 Y-86.705
X-91.546 Y-86.791
X-90.204 Y-86.818
X-88.862 Y-86.784
X-87.523 Y-86.691
X-86.19 Y-86.537
X-84.865 Y-86.323
X-83.551 Y-86.05
X-82.25 Y-85.72
X-80.965 Y-85.332
X-79.699 Y-84.888
X-78.453 Y-84.389
X-77.23 Y-83.836
X-76.032 Y-83.23
X-74.862 Y-82.573
X-73.722 Y-81.865
X-72.614 Y-81.108
X-71.54 Y-80.302
X-70.503 Y-79.451
X-69.503 Y-78.554
X-68.544 Y-77.616
X-67.626 Y-76.637
X-66.751 Y-75.619
X-65.921 Y-74.564
X-65.137 Y-73.475
X-64.399 Y-72.354
X-63.711 Y-71.201
X-63.074 Y-70.02
X-62.489 Y-68.812
X-61.957 Y-67.58
X-61.479 Y-66.326
X-61.056 Y-65.052
X-60.689 Y-63.761
X-60.378 Y-62.455
X-60.123 Y-61.138
X-59.925 Y-59.81
X-59.785 Y-58.475
X-59.702 Y-57.136
X-59.677 Y-55.794
X-59.711 Y-54.452
X-59.804 Y-53.113
X-59.955 Y-51.78
X-60.164 Y-50.454
X-60.43 Y-49.138
X-60.754 Y-47.836
X-61.133 Y-46.548
X-61.567 Y-45.278
X-62.056 Y-44.028
X-62.598 Y-42.8
X-63.192 Y-41.597
X-63.839 Y-40.421
X-64.536 Y-39.274
X-65.283 Y-38.159
X-66.077 Y-37.077
X-66.918 Y-36.031
X-67.803 Y-35.022
X-68.731 Y-34.052
X-69.7 Y-33.123
X-70.707 Y-32.237
X-71.752 Y-31.394
X-72.832 Y-30.597
X-73.945 Y-29.847
X-75.089 Y-29.146
X-76.263 Y-28.496
X-77.465 Y-27.897
X-78.69 Y-27.35
X-79.939 Y-26.857
X-81.207 Y-26.418
X-82.493 Y-26.034
X-83.794 Y-25.705
X-85.108 Y-25.431
X-86.433 Y-25.214
X-87.765 Y-25.053
X-89.103 Y-24.948
X-90.444 Y-24.902
X-91.787 Y-24.913
X-93.127 Y-24.98
X-94.463 Y-25.105
X-95.793 Y-25.286
X-97.114 Y-25.524
X-98.424 Y-25.816
X-99.721 Y-26.164
X-101.001 Y-26.565
X-102.264 Y-27.02
X-103.507 Y-27.527
X-104.727 Y-28.086
X-105.922 Y-28.697
X-107.09 Y-29.358
X-108.229 Y-30.068
X-109.337 Y-30.825
X-110.413 Y-31.628
X-111.454 Y-32.475
X-112.458 Y-33.365
X-113.425 Y-34.296
X-114.353 Y-35.266
X-115.239 Y-36.274
X-116.083 Y-37.317
X-116.883 Y-38.395
X-117.636 Y-39.506
X-118.343 Y-40.647
X-119.001 Y-41.817
X-119.609 Y-43.014
X-120.167 Y-44.234
X-120.673 Y-45.477
X-121.127 Y-46.74
X-121.529 Y-48.021
X-121.878 Y-49.317
X-122.173 Y-50.626
X-122.413 Y-51.947
X-122.599 Y-53.276
X-122.729 Y-54.612
X-122.803 Y-55.952
X-122.821 Y-57.294
X-122.784 Y-58.636
X-122.69 Y-59.974
X-122.542 Y-61.308
X-122.338 Y-62.635
X-122.079 Y-63.952
X-121.767 Y-65.257
X-121.401 Y-66.549
X-120.982 Y-67.824
X-120.51 Y-69.08
X-119.987 Y-70.316
X-119.413 Y-71.529
X-118.789 Y-72.718
X-118.117 Y-73.879
X-117.397 Y-75.012
X-116.63 Y-76.114
X-115.819 Y-77.183
X-114.964 Y-78.218
X-114.068 Y-79.217
X-113.131 Y-80.178
X-112.156 Y-81.1
X-111.142 Y-81.98
X-110.094 Y-82.817
X-109.011 Y-83.611
X-107.896 Y-84.358
X-106.752 Y-85.06
X-105.58 Y-85.713
X-104.381 Y-86.318
X-103.159 Y-86.872
X-101.915 Y-87.376
X-100.651 Y-87.828
X-99.37 Y-88.228
X-98.074 Y-88.575
X-96.764 Y-88.868
X-95.443 Y-89.106
X-94.114 Y-89.29
X-92.778 Y-89.418
X-91.437 Y-89.492
X-90.095 Y-89.511
X-88.754 Y-89.475
X-87.415 Y-89.384
X-86.08 Y-89.238
X-84.753 Y-89.039
X-83.435 Y-88.785
X-82.129 Y-88.478
X-80.836 Y-88.119
X-79.558 Y-87.706
X-78.299 Y-87.242
X-77.06 Y-86.727
X-75.842 Y-86.163
X-74.648 Y-85.55
X-73.479 Y-84.89
X-72.338 Y-84.183
X-71.226 Y-83.431
X-70.146 Y-82.635
X-69.097 Y-81.797
X-68.083 Y-80.918
X-67.105 Y-79.999
X-66.165 Y-79.041
X-65.264 Y-78.047
X-64.403 Y-77.017
X-63.584 Y-75.953
X-62.808 Y-74.859
X-62.075 Y-73.734
X-61.389 Y-72.581
X-60.748 Y-71.401
X-60.155 Y-70.197
X-59.61 Y-68.971
X-59.114 Y-67.724
X-58.668 Y-66.458
X-58.273 Y-65.175
X-57.93 Y-63.878
X-57.639 Y-62.567
X-57.4 Y-61.246
X-57.215 Y-59.917
X-57.082 Y-58.582
X-57.003 Y-57.242
X-56.977 Y-55.9
X-57.004 Y-54.558
X-57.085 Y-53.218
X-57.219 Y-51.883
X-57.406 Y-50.554
X-57.646 Y-49.233
X-57.939 Y-47.923
X-58.284 Y-46.627
X-58.681 Y-45.344
X-59.129 Y-44.079
X-59.627 Y-42.833
X-60.174 Y-41.607
X-60.769 Y-40.404
X-61.412 Y-39.226
X-62.101 Y-38.074
X-62.835 Y-36.951
X-63.613 Y-35.857
X-64.434 Y-34.795
X-65.297 Y-33.767
X-66.201 Y-32.775
X-67.143 Y-31.819
X-68.123 Y-30.902
X-69.138 Y-30.024
X-70.187 Y-29.187
X-71.269 Y-28.392
X-72.381 Y-27.641
X-73.522 Y-26.934
X-74.69 Y-26.273
X-75.883 Y-25.659
X-77.1 Y-25.092
X-78.338 Y-24.574
X-79.596 Y-24.105
X-80.871 Y-23.688
X-82.162 Y-23.321
X-83.467 Y-23.005
X-84.782 Y-22.74
X-86.108 Y-22.528
X-87.44 Y-22.367
X-88.778 Y-22.259
X-90.119 Y-22.203
X-91.461 Y-22.199
X-92.802 Y-22.248
X-94.141 Y-22.349
X-95.474 Y-22.502
X-96.8 Y-22.707
X-98.118 Y-22.965
X-99.424 Y-23.274
X-100.717 Y-23.633
X-101.995 Y-24.042
X-103.257 Y-24.5
X-104.5 Y-25.007
X-105.722 Y-25.562
X-106.921 Y-26.163
X-108.097 Y-26.811
X-109.247 Y-27.503
X-110.369 Y-28.239
X-111.462 Y-29.019
X-112.523 Y-29.84
X-113.552 Y-30.703
X-114.546 Y-31.604
X-115.505 Y-32.543
X-116.428 Y-33.517
X-117.312 Y-34.527
X-118.157 Y-35.57
X-118.962 Y-36.644
X-119.724 Y-37.749
X-120.444 Y-38.882
X-121.12 Y-40.041
X-121.75 Y-41.226
X-122.335 Y-42.434
X-122.871 Y-43.664
X-123.36 Y-44.914
X-123.801 Y-46.182
X-124.192 Y-47.466
X-124.535 Y-48.764
X-124.828 Y-50.073
X-125.07 Y-51.394
X-125.262 Y-52.722
X-125.403 Y-54.057
X-125.494 Y-55.396
X-125.533 Y-56.737
X-125.521 Y-58.079
X-125.457 Y-59.42
X-125.341 Y-60.757
X-125.173 Y-62.089
X-124.955 Y-63.413
X-124.687 Y-64.728
X-124.368 Y-66.032
X-124 Y-67.323
X-123.584 Y-68.598
X-123.119 Y-69.858
X-122.606 Y-71.098
X-122.047 Y-72.318
X-121.442 Y-73.516
X-120.792 Y-74.69
X-120.097 Y-75.838
X-119.358 Y-76.959
X-118.576 Y-78.05
X-117.753 Y-79.11
X-116.891 Y-80.139
X-115.99 Y-81.134
X-115.052 Y-82.093
X-114.078 Y-83.017
X-113.07 Y-83.903
X-112.028 Y-84.749
X-110.956 Y-85.556
X-109.853 Y-86.322
X-108.722 Y-87.045
X-107.565 Y-87.724
X-106.382 Y-88.357
X-105.175 Y-88.945
X-103.947 Y-89.487
X-102.699 Y-89.981
X-101.434 Y-90.428
X-100.152 Y-90.826
X-98.856 Y-91.176
X-97.548 Y-91.476
X-96.229 Y-91.726
X-94.902 Y-91.926
X-93.568 Y-92.076
X-92.23 Y-92.176
X-90.889 Y-92.224
X-89.547 Y-92.221
X-88.205 Y-92.166
X-86.867 Y-92.061
X-85.534 Y-91.906
X-84.208 Y-91.701
X-82.89 Y-91.446
X-81.583 Y-91.141
X-80.288 Y-90.788
X-79.007 Y-90.387
X-77.742 Y-89.938
X-76.495 Y-89.443
X-75.267 Y-88.901
X-74.06 Y-88.314
X-72.876 Y-87.682
X-71.717 Y-87.006
X-70.584 Y-86.287
X-69.478 Y-85.526
X-68.401 Y-84.725
X-67.354 Y-83.885
X-66.339 Y-83.007
X-65.357 Y-82.092
X-64.409 Y-81.142
X-63.497 Y-80.157
X-62.622 Y-79.14
X-61.785 Y-78.091
X-60.987 Y-77.012
X-60.229 Y-75.904
X-59.514 Y-74.768
X-58.84 Y-73.607
X-58.211 Y-72.422
X-57.625 Y-71.214
X-57.083 Y-69.986
X-56.588 Y-68.739
X-56.138 Y-67.474
X-55.736 Y-66.194
X-55.38 Y-64.9
X-55.073 Y-63.593
X-54.813 Y-62.276
X-54.602 Y-60.951
X-54.441 Y-59.618
X-54.329 Y-58.281
X-54.267 Y-56.94
X-54.255 Y-55.598
X-54.292 Y-54.256
X-54.379 Y-52.917
X-54.514 Y-51.582
X-54.699 Y-50.252
X-54.933 Y-48.931
X-55.215 Y-47.619
X-55.545 Y-46.318
X-55.923 Y-45.03
X-56.348 Y-43.757
X-56.819 Y-42.5
X-57.338 Y-41.262
X-57.902 Y-40.044
X-58.51 Y-38.848
X-59.163 Y-37.675
X-59.858 Y-36.527
X-60.594 Y-35.405
X-61.372 Y-34.311
X-62.189 Y-33.246
X-63.045 Y-32.212
X-63.938 Y-31.21
X-64.867 Y-30.242
X-65.831 Y-29.308
X-66.829 Y-28.41
X-67.859 Y-27.55
X-68.921 Y-26.729
X-70.012 Y-25.947
X-71.131 Y-25.206
X-72.276 Y-24.507
X-73.446 Y-23.85
X-74.64 Y-23.236
X-75.855 Y-22.666
X-77.09 Y-22.141
X-78.344 Y-21.662
X-79.614 Y-21.228
X-80.899 Y-20.841
X-82.198 Y-20.501
X-83.508 Y-20.209
X-84.828 Y-19.965
X-86.155 Y-19.77
X-87.49 Y-19.623
X-88.828 Y-19.525
X-90.169 Y-19.475
X-91.511 Y-19.474
X-92.853 Y-19.521
X-94.191 Y-19.617
X-95.526 Y-19.761
X-96.854 Y-19.953
X-98.175 Y-20.192
X-99.486 Y-20.479
X-100.786 Y-20.813
X-102.073 Y-21.194
X-103.345 Y-21.622
X-104.601 Y-22.095
X-105.839 Y-22.614
X-107.057 Y-23.176
X-108.255 Y-23.782
X-109.43 Y-24.43
X-110.581 Y-25.121
X-111.707 Y-25.852
X-112.806 Y-26.622
X-113.876 Y-27.432
X-114.917 Y-28.279
X-115.927 Y-29.163
X-116.905 Y-30.082
X-117.849 Y-31.036
X-118.759 Y-32.023
X-119.632 Y-33.043
X-120.468 Y-34.093
X-121.266 Y-35.172
X-122.025 Y-36.278
X-122.745 Y-37.411
X-123.423 Y-38.569
X-124.06 Y-39.751
X-124.655 Y-40.954
X-125.206 Y-42.178
X-125.714 Y-43.42
X-126.177 Y-44.68
X-126.595 Y-45.955
X-126.967 Y-47.245
X-127.293 Y-48.547
X-127.572 Y-49.86
X-127.804 Y-51.182
X-127.989 Y-52.511
X-128.127 Y-53.846
X-128.218 Y-55.185
X-128.261 Y-56.526
X-128.257 Y-57.869
X-128.204 Y-59.21
X-128.105 Y-60.548
X-127.958 Y-61.882
X-127.764 Y-63.21
X-127.523 Y-64.531
X-127.235 Y-65.841
X-126.9 Y-67.141
X-126.519 Y-68.428
X-126.093 Y-69.701
X-125.622 Y-70.958
X-125.108 Y-72.197
X-124.549 Y-73.418
X-123.948 Y-74.618
X-123.305 Y-75.796
X-122.621 Y-76.95
X-121.896 Y-78.08
X-121.132 Y-79.184
X-120.329 Y-80.259
X-119.489 Y-81.306
X-118.611 Y-82.321
X-117.698 Y-83.305
X-116.751 Y-84.255
X-115.77 Y-85.172
X-114.758 Y-86.053
X-113.716 Y-86.899
X-112.644 Y-87.707
X-111.544 Y-88.476
X-110.418 Y-89.207
X-109.267 Y-89.897
X-108.093 Y-90.546
X-106.896 Y-91.153
X-105.678 Y-91.718
X-104.441 Y-92.239
X-103.186 Y-92.715
X-101.916 Y-93.147
X-100.63 Y-93.533
X-99.332 Y-93.874
X-98.023 Y-94.169
X-96.704 Y-94.417
X-95.377 Y-94.62
X-94.044 Y-94.776
X-92.706 Y-94.884
X-91.365 Y-94.946
X-90.023 Y-94.96
X-88.681 Y-94.928
X-87.342 Y-94.849
X-86.005 Y-94.722
X-84.675 Y-94.548
X-83.351 Y-94.327
X-82.035 Y-94.06
X-80.73 Y-93.747
X-79.437 Y-93.39
X-78.156 Y-92.987
X-76.891 Y-92.541
X-75.641 Y-92.05
X-74.409 Y-91.517
X-73.197 Y-90.942
X-72.005 Y-90.325
X-70.835 Y-89.667
X-69.688 Y-88.969
X-68.567 Y-88.232
X-67.472 Y-87.457
X-66.404 Y-86.643
X-65.365 Y-85.793
X-64.356 Y-84.908
X-63.378 Y-83.989
X-62.432 Y-83.037
X-61.519 Y-82.054
X-60.64 Y-81.039
X-59.796 Y-79.996
X-58.989 Y-78.924
X-58.218 Y-77.824
X-57.486 Y-76.7
X-56.792 Y-75.551
X-56.139 Y-74.378
X-55.526 Y-73.184
X-54.955 Y-71.969
X-54.427 Y-70.736
X-53.941 Y-69.485
X-53.498 Y-68.218
X-53.098 Y-66.937
X-52.742 Y-65.642
X-52.431 Y-64.337
X-52.165 Y-63.021
X-51.943 Y-61.698
X-51.768 Y-60.367
X-51.637 Y-59.031
X-51.553 Y-57.692
X-51.515 Y-56.35
X-51.523 Y-55.008
X-51.577 Y-53.667
X-51.678 Y-52.329
X-51.825 Y-50.994
X-52.018 Y-49.666
X-52.256 Y-48.345
X-52.538 Y-47.033
X-52.866 Y-45.732
X-53.238 Y-44.442
X-53.653 Y-43.166
X-54.112 Y-41.905
X-54.615 Y-40.66
X-55.159 Y-39.433
X-55.745 Y-38.226
X-56.372 Y-37.039
X-57.041 Y-35.875
X-57.749 Y-34.735
X-58.495 Y-33.62
X-59.28 Y-32.531
X-60.101 Y-31.469
X-60.958 Y-30.436
X-61.85 Y-29.433
X-62.775 Y-28.461
X-63.733 Y-27.521
X-64.722 Y-26.614
X-65.742 Y-25.741
X-66.791 Y-24.904
X-67.868 Y-24.103
X-68.972 Y-23.34
X-70.101 Y-22.615
X-71.255 Y-21.929
X-72.432 Y-21.283
X-73.63 Y-20.678
X-74.847 Y-20.114
X-76.084 Y-19.591
X-77.337 Y-19.111
X-77.571 Y-19.03
X-77.922 Y-18.931
X-78.282 Y-18.87
X-78.647 Y-18.85
X-99.875
X-101.093 Y-18.911
X-101.922 Y-18.998
X-102.883 Y-19.151
X-103.971 Y-19.386
X-105.181 Y-19.717
X-106.455 Y-20.141
X-107.705 Y-20.63
X-108.93 Y-21.176
X-110.132 Y-21.775
X-111.308 Y-22.422
X-112.458 Y-23.113
X-113.582 Y-23.847
X-114.679 Y-24.621
X-115.747 Y-25.432
X-116.787 Y-26.281
X-117.797 Y-27.165
X-118.777 Y-28.083
X-119.724 Y-29.033
X-120.639 Y-30.015
X-121.521 Y-31.027
X-122.369 Y-32.067
X-123.181 Y-33.136
X-123.958 Y-34.23
X-124.698 Y-35.35
X-125.4 Y-36.494
X-126.063 Y-37.661
X-126.687 Y-38.849
X-127.27 Y-40.058
X-127.814 Y-41.285
X-128.316 Y-42.53
X-128.45 Y-42.896
X-128.56 Y-43.265
X-128.628 Y-43.644
X-128.65 Y-44.029
Y-66.708
X-128.586 Y-67.994
X-128.5 Y-68.814
X-128.356 Y-69.711
X-128.133 Y-70.744
X-127.815 Y-71.907
X-127.392 Y-73.181
X-126.9 Y-74.43
X-126.35 Y-75.654
X-125.748 Y-76.853
X-125.097 Y-78.027
X-124.401 Y-79.175
X-123.664 Y-80.296
X-122.887 Y-81.391
X-122.072 Y-82.457
X-121.219 Y-83.494
X-120.332 Y-84.5
X-119.411 Y-85.476
X-118.457 Y-86.421
X-117.472 Y-87.333
X-116.458 Y-88.212
X-115.415 Y-89.056
X-114.344 Y-89.866
X-113.248 Y-90.64
X-112.127 Y-91.378
X-110.982 Y-92.078
X-109.815 Y-92.741
X-108.626 Y-93.364
X-107.418 Y-93.949
X-106.191 Y-94.492
X-105.157 Y-94.91
X-104.757 Y-95.043
X-104.342 Y-95.123
X-103.921 Y-95.15
X-80.07
X-78.782 Y-95.085
X-78.012 Y-95.005
X-77.131 Y-94.864
X-76.119 Y-94.646
X-74.98 Y-94.334
X-73.718 Y-93.914
X-72.469 Y-93.422
X-71.245 Y-92.87
X-70.047 Y-92.266
X-68.875 Y-91.613
X-67.728 Y-90.915
X-66.608 Y-90.175
X-65.515 Y-89.396
X-64.45 Y-88.58
X-63.413 Y-87.728
X-62.405 Y-86.841
X-61.427 Y-85.922
X-60.479 Y-84.972
X-59.563 Y-83.991
X-58.679 Y-82.982
X-57.827 Y-81.944
X-57.01 Y-80.88
X-56.226 Y-79.79
X-55.478 Y-78.675
X-54.766 Y-77.538
X-54.091 Y-76.378
X-53.454 Y-75.196
X-52.856 Y-73.995
X-52.297 Y-72.775
X-51.778 Y-71.537
X-51.298 Y-70.284
X-50.859 Y-69.015
X-50.46 Y-67.734
X-50.103 Y-66.44
X-49.787 Y-65.136
X-49.512 Y-63.822
X-49.28 Y-62.5
X-49.089 Y-61.171
X-48.942 Y-59.837
X-48.836 Y-58.499
X-48.774 Y-57.159
X-48.755 Y-55.817
X-48.78 Y-54.475
X-48.849 Y-53.134
X-48.961 Y-51.797
X-49.115 Y-50.464
X-49.312 Y-49.136
X-49.552 Y-47.815
X-49.833 Y-46.503
X-50.156 Y-45.2
X-50.521 Y-43.909
X-50.926 Y-42.629
X-51.372 Y-41.363
X-51.858 Y-40.112
X-52.384 Y-38.877
X-52.949 Y-37.66
X-53.553 Y-36.461
X-54.196 Y-35.283
X-54.876 Y-34.126
X-55.594 Y-32.992
X-56.348 Y-31.882
X-57.136 Y-30.796
X-57.959 Y-29.735
X-58.815 Y-28.702
X-59.704 Y-27.696
X-60.624 Y-26.719
X-61.575 Y-25.772
X-62.556 Y-24.855
X-63.565 Y-23.97
X-64.601 Y-23.118
X-65.665 Y-22.299
X-66.754 Y-21.514
X-67.867 Y-20.765
X-69.005 Y-20.053
X-70.165 Y-19.378
X-70.407 Y-19.247
X-70.778 Y-19.075
X-71.167 Y-18.951
X-71.568 Y-18.875
X-71.976 Y-18.85
X-78.647
G3 X-79.129 Y-18.964 I0.044 J-1.269
G1 X-79.259 Y-19.023 Z31.518
X-79.386 Y-19.081 Z31.542
X-79.511 Y-19.138 Z31.581
X-79.631 Y-19.192 Z31.636
X-79.744 Y-19.244 Z31.705
X-79.85 Y-19.292 Z31.787
X-79.946 Y-19.336 Z31.882
X-80.033 Y-19.375 Z31.988
X-80.108 Y-19.41 Z32.104
X-80.17 Y-19.438 Z32.229
X-80.22 Y-19.461 Z32.361
X-80.256 Y-19.477 Z32.497
X-80.278 Y-19.487 Z32.638
X-80.285 Y-19.49 Z32.78
G0 Z48.5
X-127.86 Y-65.138
Z34.05
G1 Z32.78 F850
X-127.864 Y-65.145 Z32.638
X-127.877 Y-65.165 Z32.497
X-127.897 Y-65.199 Z32.361
X-127.925 Y-65.246 Z32.229
X-127.96 Y-65.305 Z32.104
X-128.002 Y-65.376 Z31.988
X-128.051 Y-65.458 Z31.882
X-128.105 Y-65.549 Z31.787
X-128.164 Y-65.649 Z31.705
X-128.228 Y-65.756 Z31.636
X-128.295 Y-65.869 Z31.581
X-128.365 Y-65.987 Z31.542
X-128.437 Y-66.107 Z31.518
X-128.509 Y-66.229 Z31.51
G3 X-128.65 Y-66.708 I0.864 J-0.514
G1 Y-73.18
X-128.605 Y-74.08
X-128.55 Y-74.608
X-128.448 Y-75.242
X-128.302 Y-75.918
X-128.087 Y-76.707
X-127.79 Y-77.6
X-127.409 Y-78.565
X-126.912 Y-79.65
X-126.288 Y-80.838
X-125.601 Y-81.991
X-124.859 Y-83.11
X-124.07 Y-84.196
X-123.239 Y-85.249
X-122.368 Y-86.27
X-121.461 Y-87.26
X-120.521 Y-88.218
X-119.549 Y-89.143
X-118.547 Y-90.036
X-117.517 Y-90.897
X-116.46 Y-91.724
X-115.378 Y-92.518
X-114.271 Y-93.277
X-113.141 Y-94.001
X-111.989 Y-94.689
X-111.907 Y-94.735
X-111.529 Y-94.914
X-111.132 Y-95.045
X-110.721 Y-95.124
X-110.304 Y-95.15
X-103.921
G3 X-103.439 Y-95.036 I-0.044 J1.269
X-103.125 Y-92.928 I-0.527 J1.156
G1 X-126.541 Y-72.272
G3 X-128.65 Y-73.18 I-0.84 J-0.952
G1 Y-78.51
X-128.628 Y-78.953
X-128.579 Y-79.419
X-128.501 Y-79.907
X-128.377 Y-80.481
X-128.209 Y-81.095
X-127.97 Y-81.813
X-127.672 Y-82.57
X-127.278 Y-83.431
X-126.773 Y-84.391
X-126.144 Y-85.444
X-125.395 Y-86.558
X-124.588 Y-87.631
X-123.733 Y-88.665
X-122.834 Y-89.662
X-121.898 Y-90.624
X-120.928 Y-91.551
X-119.926 Y-92.444
X-118.895 Y-93.303
X-117.836 Y-94.128
X-117.307 Y-94.515
X-116.956 Y-94.739
X-116.58 Y-94.916
X-116.184 Y-95.046
X-115.776 Y-95.124
X-115.36 Y-95.15
X-110.304
G3 X-109.822 Y-95.036 I-0.044 J1.269
X-109.499 Y-92.937 I-0.527 J1.156
G1 X-126.531 Y-77.61
G3 X-128.536 Y-78.027 I-0.85 J-0.944
X-128.65 Y-78.51 I1.156 J-0.527
G1 Y-82.698
X-128.619 Y-83.31
X-128.579 Y-83.694
X-128.505 Y-84.156
X-128.402 Y-84.632
X-128.251 Y-85.187
X-128.053 Y-85.78
X-127.784 Y-86.464
X-127.457 Y-87.178
X-127.029 Y-87.993
X-126.49 Y-88.895
X-125.832 Y-89.873
X-125.032 Y-90.933
X-124.167 Y-91.959
X-123.253 Y-92.942
X-122.298 Y-93.885
X-121.838 Y-94.3
X-121.456 Y-94.597
X-121.034 Y-94.835
X-120.582 Y-95.009
X-120.11 Y-95.114
X-119.627 Y-95.15
X-115.36
G3 X-114.878 Y-95.036 I-0.044 J1.269
X-114.54 Y-92.951 I-0.527 J1.156
G1 X-126.516 Y-81.812
G3 X-128.65 Y-82.698 I-0.865 J-0.93
G1 Y-86.885
X-128.631 Y-87.256
X-128.591 Y-87.639
X-128.529 Y-88.031
X-128.43 Y-88.489
X-128.293 Y-88.99
X-128.112 Y-89.533
X-127.873 Y-90.14
X-127.571 Y-90.799
X-127.196 Y-91.512
X-126.719 Y-92.312
X-126.211 Y-93.067
X-125.731 Y-93.703
X-125.499 Y-93.978
X-125.165 Y-94.32
X-124.785 Y-94.61
X-124.368 Y-94.843
X-123.921 Y-95.012
X-123.454 Y-95.115
X-122.977 Y-95.15
X-119.627
G3 X-118.821 Y-92.938 I-0.044 J1.269
G1 X-126.53 Y-85.986
G3 X-128.536 Y-86.403 I-0.85 J-0.943
X-128.65 Y-86.885 I1.156 J-0.527
G1 Y-90.692
X-128.634 Y-91.007
X-128.6 Y-91.332
X-128.54 Y-91.706
X-128.459 Y-92.085
X-128.358 Y-92.451
X-128.232 Y-92.83
X-128.104 Y-93.156
X-127.949 Y-93.494
X-127.693 Y-93.9
X-127.378 Y-94.263
X-127.01 Y-94.572
X-126.599 Y-94.82
X-126.154 Y-95.002
X-125.687 Y-95.113
X-125.208 Y-95.15
G3 X-124.726 Y-95.036 I-0.044 J1.269
X-124.201 Y-93.169 I-0.527 J1.156
G1 X-126.329 Y-90.025
G3 X-128.65 Y-90.692 I-1.052 J-0.712
G1 Y-93.28
X-128.641 Y-93.453
X-128.574 Y-93.793
X-128.446 Y-94.115
X-128.261 Y-94.409
X-128.025 Y-94.663
X-127.748 Y-94.871
X-127.437 Y-95.024
X-127.103 Y-95.118
X-126.758 Y-95.15
G3 X-125.075 Y-92.865 I-0.063 J1.809
X-128.565 Y-92.79 I-1.756 J-0.478
X-128.65 Y-93.28 I1.734 J-0.553
G1 Y-93.738
X-128.648 Y-93.928
X-128.624 Y-94.119
X-128.57 Y-94.309
X-128.48 Y-94.499
X-128.439 Y-94.565
X-128.32 Y-94.722
X-128.236 Y-94.808
X-128.152 Y-94.88
X-128.058 Y-94.947
X-127.868 Y-95.048
X-127.678 Y-95.112
X-127.487 Y-95.145
X-127.297 Y-95.15
X-122.977
G3 X-122.494 Y-95.036 I-0.044 J1.269
G1 X-122.365 Y-94.977 Z31.518
X-122.237 Y-94.919 Z31.542
X-122.113 Y-94.862 Z31.581
X-121.993 Y-94.808 Z31.636
X-121.88 Y-94.756 Z31.705
X-121.774 Y-94.708 Z31.787
X-121.677 Y-94.664 Z31.882
X-121.591 Y-94.625 Z31.988
X-121.516 Y-94.59 Z32.104
X-121.453 Y-94.562 Z32.229
X-121.404 Y-94.539 Z32.361
X-121.368 Y-94.523 Z32.497
X-121.346 Y-94.513 Z32.638
X-121.339 Y-94.51 Z32.78
G0 Z48.5
X-98.305 Y-19.64
Z34.05
G1 Z32.78 F850
X-98.312 Y-19.636 Z32.638
X-98.332 Y-19.623 Z32.497
X-98.366 Y-19.603 Z32.361
X-98.413 Y-19.575 Z32.229
X-98.472 Y-19.54 Z32.104
X-98.543 Y-19.498 Z31.988
X-98.625 Y-19.449 Z31.882
X-98.716 Y-19.395 Z31.787
X-98.816 Y-19.336 Z31.705
X-98.923 Y-19.272 Z31.636
X-99.036 Y-19.205 Z31.581
X-99.154 Y-19.135 Z31.542
X-99.274 Y-19.063 Z31.518
X-99.396 Y-18.991 Z31.51
G3 X-99.875 Y-18.85 I-0.514 J-0.864
G1 X-106.73
X-107.281 Y-18.878
X-107.821 Y-18.934
X-108.467 Y-19.037
X-109.155 Y-19.186
X-109.958 Y-19.406
X-110.864 Y-19.707
X-111.846 Y-20.094
X-112.947 Y-20.598
X-114.135 Y-21.223
X-115.289 Y-21.909
X-116.409 Y-22.649
X-117.496 Y-23.435
X-118.551 Y-24.265
X-119.575 Y-25.133
X-120.566 Y-26.037
X-121.526 Y-26.975
X-122.454 Y-27.945
X-123.35 Y-28.945
X-124.213 Y-29.973
X-125.042 Y-31.028
X-125.838 Y-32.109
X-126.599 Y-33.215
X-127.324 Y-34.344
X-128.013 Y-35.496
X-128.234 Y-35.894
X-128.414 Y-36.272
X-128.544 Y-36.669
X-128.623 Y-37.08
X-128.65 Y-37.498
Y-44.029
G3 X-126.42 Y-44.814 I1.269 J0.044
G1 X-105.813 Y-20.949
G3 X-106.73 Y-18.85 I-0.961 J0.83
G1 X-111.682
X-112.243 Y-18.878
X-112.711 Y-18.927
X-113.201 Y-19.005
X-113.778 Y-19.13
X-114.396 Y-19.299
X-115.118 Y-19.539
X-115.882 Y-19.84
X-116.748 Y-20.237
X-117.715 Y-20.745
X-118.776 Y-21.379
X-119.89 Y-22.128
X-120.963 Y-22.934
X-121.998 Y-23.789
X-122.996 Y-24.686
X-123.959 Y-25.621
X-124.887 Y-26.591
X-125.781 Y-27.592
X-126.641 Y-28.622
X-127.467 Y-29.68
X-128.014 Y-30.427
X-128.238 Y-30.778
X-128.416 Y-31.155
X-128.545 Y-31.551
X-128.624 Y-31.96
X-128.65 Y-32.375
Y-37.498
G3 X-128.536 Y-37.98 I1.269 J0.044
X-126.438 Y-38.304 I1.156 J0.527
G1 X-110.783 Y-20.97
G3 X-111.682 Y-18.85 I-0.943 J0.851
G1 X-116.08
X-116.601 Y-18.876
X-116.985 Y-18.916
X-117.447 Y-18.99
X-117.93 Y-19.094
X-118.485 Y-19.246
X-119.085 Y-19.446
X-119.771 Y-19.716
X-120.491 Y-20.046
X-121.312 Y-20.477
X-122.22 Y-21.019
X-123.205 Y-21.682
X-124.272 Y-22.487
X-125.297 Y-23.352
X-126.281 Y-24.266
X-127.224 Y-25.221
X-127.791 Y-25.844
X-128.091 Y-26.228
X-128.332 Y-26.651
X-128.507 Y-27.105
X-128.614 Y-27.579
X-128.65 Y-28.065
Y-32.375
G3 X-126.447 Y-33.192 I1.269 J0.044
G1 X-115.191 Y-20.98
G3 X-116.08 Y-18.85 I-0.934 J0.861
G1 X-120.06
X-120.578 Y-18.876
X-120.961 Y-18.916
X-121.354 Y-18.979
X-121.812 Y-19.078
X-122.316 Y-19.215
X-122.858 Y-19.396
X-123.467 Y-19.636
X-124.128 Y-19.939
X-124.844 Y-20.315
X-125.647 Y-20.794
X-126.454 Y-21.337
X-127.131 Y-21.848
X-127.478 Y-22.141
X-127.82 Y-22.475
X-128.11 Y-22.854
X-128.343 Y-23.272
X-128.512 Y-23.719
X-128.615 Y-24.186
X-128.65 Y-24.663
Y-28.065
G3 X-126.447 Y-28.881 I1.269 J0.044
G1 X-119.171 Y-20.98
G3 X-120.06 Y-18.85 I-0.934 J0.86
G1 X-123.869
X-124.335 Y-18.873
X-124.666 Y-18.908
X-125.046 Y-18.969
X-125.434 Y-19.053
X-125.827 Y-19.16
X-126.226 Y-19.293
X-126.576 Y-19.43
X-126.922 Y-19.589
X-127.295 Y-19.819
X-127.634 Y-20.097
X-127.933 Y-20.419
X-128.184 Y-20.778
X-128.385 Y-21.168
X-128.531 Y-21.582
X-128.62 Y-22.012
X-128.65 Y-22.449
G3 X-126.682 Y-23.465 I1.269 J0.044
G1 X-123.214 Y-21.18
G3 X-123.869 Y-18.85 I-0.699 J1.06
G1 X-126.65
X-126.865 Y-18.861
X-127.222 Y-18.932
X-127.561 Y-19.067
X-127.87 Y-19.261
X-128.138 Y-19.509
X-128.356 Y-19.801
X-128.518 Y-20.128
X-128.617 Y-20.479
X-128.65 Y-20.843
G3 X-128.569 Y-21.333 I1.937 J0.068
X-128.086 Y-22.144 I1.857 J0.558
X-125.35 Y-19.417 I1.368 J1.363
X-126.65 Y-18.85 I-1.368 J-1.363
G1 X-127.297
X-127.487 Y-18.855
X-127.678 Y-18.888
X-127.868 Y-18.952
X-128.058 Y-19.053
X-128.152 Y-19.12
X-128.236 Y-19.192
X-128.32 Y-19.278
X-128.439 Y-19.435
X-128.48 Y-19.501
X-128.57 Y-19.691
X-128.624 Y-19.881
X-128.648 Y-20.072
X-128.65 Y-20.262
Y-24.663
G3 X-128.536 Y-25.145 I1.269 J0.044
G1 X-128.477 Y-25.275 Z31.518
X-128.419 Y-25.402 Z31.542
X-128.362 Y-25.527 Z31.581
X-128.308 Y-25.647 Z31.636
X-128.256 Y-25.76 Z31.705
X-128.208 Y-25.866 Z31.787
X-128.164 Y-25.963 Z31.882
X-128.125 Y-26.049 Z31.988
X-128.09 Y-26.124 Z32.104
X-128.062 Y-26.187 Z32.229
X-128.039 Y-26.236 Z32.361
X-128.023 Y-26.272 Z32.497
X-128.013 Y-26.294 Z32.638
X-128.01 Y-26.301 Z32.78
G0 Z48.5
X-81.64 Y-94.36
Z34.05
G1 Z32.78 F850
X-81.634 Y-94.364 Z32.638
X-81.613 Y-94.377 Z32.497
X-81.579 Y-94.397 Z32.361
X-81.532 Y-94.425 Z32.229
X-81.473 Y-94.46 Z32.104
X-81.402 Y-94.502 Z31.988
X-81.321 Y-94.551 Z31.882
X-81.229 Y-94.605 Z31.787
X-81.13 Y-94.664 Z31.705
X-81.022 Y-94.728 Z31.636
X-80.909 Y-94.795 Z31.581
X-80.792 Y-94.865 Z31.542
X-80.671 Y-94.937 Z31.518
X-80.549 Y-95.009 Z31.51
G3 X-80.07 Y-95.15 I0.514 J0.864
G1 X-73.596
X-72.795 Y-95.11
X-72.272 Y-95.055
X-71.642 Y-94.955
X-70.972 Y-94.81
X-70.19 Y-94.596
X-69.306 Y-94.302
X-68.348 Y-93.924
X-67.268 Y-93.43
X-66.08 Y-92.805
X-64.927 Y-92.118
X-63.808 Y-91.377
X-62.721 Y-90.589
X-61.667 Y-89.759
X-60.644 Y-88.89
X-59.651 Y-87.986
X-58.69 Y-87.05
X-57.76 Y-86.082
X-56.862 Y-85.085
X-55.995 Y-84.06
X-55.16 Y-83.009
X-54.358 Y-81.933
X-53.59 Y-80.833
X-52.855 Y-79.709
X-52.156 Y-78.564
X-51.492 Y-77.397
X-50.864 Y-76.211
X-50.272 Y-75.006
X-49.718 Y-73.784
X-49.2 Y-72.546
X-48.72 Y-71.293
X-48.277 Y-70.026
X-47.873 Y-68.746
X-47.507 Y-67.455
X-47.179 Y-66.153
X-46.891 Y-64.842
X-46.642 Y-63.523
X-46.432 Y-62.198
X-46.262 Y-60.866
X-46.132 Y-59.53
X-46.043 Y-58.191
X-45.995 Y-56.85
X-45.987 Y-55.508
X-46.021 Y-54.166
X-46.095 Y-52.826
X-46.209 Y-51.489
X-46.363 Y-50.155
X-46.557 Y-48.827
X-46.791 Y-47.506
X-47.064 Y-46.192
X-47.377 Y-44.886
X-47.728 Y-43.591
X-48.117 Y-42.307
X-48.545 Y-41.034
X-49.01 Y-39.775
X-49.513 Y-38.531
X-50.054 Y-37.303
X-50.632 Y-36.091
X-51.246 Y-34.898
X-51.897 Y-33.724
X-52.582 Y-32.57
X-53.302 Y-31.438
X-54.056 Y-30.327
X-54.843 Y-29.239
X-55.661 Y-28.176
X-56.511 Y-27.137
X-57.392 Y-26.124
X-58.302 Y-25.138
X-59.241 Y-24.179
X-60.209 Y-23.249
X-61.203 Y-22.348
X-62.224 Y-21.476
X-63.271 Y-20.637
X-64.343 Y-19.829
X-64.872 Y-19.455
X-65.218 Y-19.242
X-65.586 Y-19.072
X-65.973 Y-18.949
X-66.372 Y-18.875
X-66.777 Y-18.85
X-71.976
G3 X-72.458 Y-18.964 I0.044 J-1.269
G1 X-72.588 Y-19.023 Z31.518
X-72.715 Y-19.081 Z31.542
X-72.84 Y-19.138 Z31.581
X-72.96 Y-19.192 Z31.636
X-73.073 Y-19.244 Z31.705
X-73.179 Y-19.292 Z31.787
X-73.275 Y-19.336 Z31.882
X-73.362 Y-19.375 Z31.988
X-73.437 Y-19.41 Z32.104
X-73.499 Y-19.438 Z32.229
X-73.549 Y-19.461 Z32.361
X-73.585 Y-19.477 Z32.497
X-73.607 Y-19.487 Z32.638
X-73.614 Y-19.49 Z32.78
G0 Z48.5
X-75.166 Y-94.36
Z34.05
G1 Z32.78 F850
X-75.159 Y-94.364 Z32.638
X-75.138 Y-94.377 Z32.497
X-75.105 Y-94.397 Z32.361
X-75.058 Y-94.425 Z32.229
X-74.999 Y-94.46 Z32.104
X-74.928 Y-94.502 Z31.988
X-74.846 Y-94.551 Z31.882
X-74.755 Y-94.605 Z31.787
X-74.655 Y-94.664 Z31.705
X-74.548 Y-94.728 Z31.636
X-74.435 Y-94.795 Z31.581
X-74.317 Y-94.865 Z31.542
X-74.196 Y-94.937 Z31.518
X-74.074 Y-95.009 Z31.51
G3 X-73.596 Y-95.15 I0.514 J0.864
G1 X-68.645
X-67.911 Y-95.113
X-67.447 Y-95.065
X-66.964 Y-94.988
X-66.39 Y-94.863
X-65.781 Y-94.697
X-65.066 Y-94.459
X-64.305 Y-94.159
X-63.446 Y-93.766
X-62.483 Y-93.26
X-61.422 Y-92.627
X-60.309 Y-91.878
X-59.236 Y-91.071
X-58.201 Y-90.217
X-57.202 Y-89.321
X-56.237 Y-88.387
X-55.307 Y-87.42
X-54.409 Y-86.422
X-53.545 Y-85.395
X-52.714 Y-84.341
X-51.915 Y-83.263
X-51.15 Y-82.16
X-50.419 Y-81.035
X-49.72 Y-79.888
X-49.056 Y-78.722
X-48.426 Y-77.537
X-47.83 Y-76.334
X-47.269 Y-75.115
X-46.743 Y-73.88
X-46.252 Y-72.631
X-45.797 Y-71.369
X-45.377 Y-70.094
X-44.994 Y-68.808
X-44.646 Y-67.511
X-44.335 Y-66.206
X-44.062 Y-64.892
X-43.825 Y-63.571
X-43.627 Y-62.243
X-43.467 Y-60.911
X-43.344 Y-59.574
X-43.26 Y-58.235
X-43.214 Y-56.893
X-43.207 Y-55.551
X-43.237 Y-54.209
X-43.305 Y-52.869
X-43.411 Y-51.531
X-43.555 Y-50.196
X-43.736 Y-48.867
X-43.955 Y-47.542
X-44.21 Y-46.225
X-44.503 Y-44.915
X-44.832 Y-43.614
X-45.197 Y-42.322
X-45.6 Y-41.042
X-46.038 Y-39.773
X-46.513 Y-38.518
X-47.023 Y-37.276
X-47.568 Y-36.05
X-48.149 Y-34.84
X-48.763 Y-33.646
X-49.411 Y-32.471
X-50.091 Y-31.314
X-50.805 Y-30.177
X-51.549 Y-29.061
X-52.325 Y-27.966
X-53.132 Y-26.893
X-53.968 Y-25.843
X-54.833 Y-24.817
X-55.727 Y-23.815
X-56.648 Y-22.839
X-57.597 Y-21.89
X-58.572 Y-20.968
X-59.573 Y-20.074
X-60.113 Y-19.621
X-60.485 Y-19.351
X-60.892 Y-19.135
X-61.324 Y-18.978
X-61.774 Y-18.882
X-62.233 Y-18.85
X-66.777
G3 X-67.259 Y-18.964 I0.044 J-1.269
G1 X-67.389 Y-19.023 Z31.518
X-67.516 Y-19.081 Z31.542
X-67.641 Y-19.138 Z31.581
X-67.761 Y-19.192 Z31.636
X-67.874 Y-19.244 Z31.705
X-67.98 Y-19.292 Z31.787
X-68.076 Y-19.336 Z31.882
X-68.163 Y-19.375 Z31.988
X-68.238 Y-19.41 Z32.104
X-68.301 Y-19.438 Z32.229
X-68.35 Y-19.461 Z32.361
X-68.386 Y-19.477 Z32.497
X-68.408 Y-19.487 Z32.638
X-68.415 Y-19.49 Z32.78
G0 Z48.5
X-70.215 Y-94.36
Z34.05
G1 Z32.78 F850
X-70.208 Y-94.364 Z32.638
X-70.187 Y-94.377 Z32.497
X-70.153 Y-94.397 Z32.361
X-70.107 Y-94.425 Z32.229
X-70.047 Y-94.46 Z32.104
X-69.977 Y-94.502 Z31.988
X-69.895 Y-94.551 Z31.882
X-69.804 Y-94.605 Z31.787
X-69.704 Y-94.664 Z31.705
X-69.597 Y-94.728 Z31.636
X-69.484 Y-94.795 Z31.581
X-69.366 Y-94.865 Z31.542
X-69.245 Y-94.937 Z31.518
X-69.123 Y-95.009 Z31.51
G3 X-68.645 Y-95.15 I0.514 J0.864
G1 X-64.074
X-63.593 Y-95.126
X-63.209 Y-95.086
X-62.746 Y-95.012
X-62.265 Y-94.908
X-61.709 Y-94.756
X-61.109 Y-94.556
X-60.421 Y-94.285
X-59.7 Y-93.955
X-58.877 Y-93.522
X-57.964 Y-92.978
X-56.97 Y-92.308
X-55.898 Y-91.5
X-54.872 Y-90.635
X-53.888 Y-89.723
X-52.942 Y-88.77
X-52.035 Y-87.781
X-51.163 Y-86.76
X-50.327 Y-85.711
X-49.525 Y-84.635
X-48.756 Y-83.534
X-48.021 Y-82.411
X-47.319 Y-81.267
X-46.65 Y-80.104
X-46.014 Y-78.922
X-45.412 Y-77.723
X-44.842 Y-76.507
X-44.306 Y-75.277
X-43.803 Y-74.033
X-43.334 Y-72.775
X-42.899 Y-71.505
X-42.497 Y-70.225
X-42.131 Y-68.934
X-41.798 Y-67.633
X-41.501 Y-66.324
X-41.24 Y-65.008
X-41.014 Y-63.685
X-40.824 Y-62.356
X-40.67 Y-61.023
X-40.552 Y-59.686
X-40.47 Y-58.346
X-40.424 Y-57.005
X-40.414 Y-55.663
X-40.439 Y-54.321
X-40.501 Y-52.98
X-40.598 Y-51.642
X-40.73 Y-50.306
X-40.898 Y-48.974
X-41.101 Y-47.648
X-41.339 Y-46.327
X-41.612 Y-45.013
X-41.92 Y-43.706
X-42.263 Y-42.409
X-42.641 Y-41.121
X-43.053 Y-39.844
X-43.5 Y-38.578
X-43.981 Y-37.325
X-44.495 Y-36.085
X-45.042 Y-34.86
X-45.622 Y-33.649
X-46.234 Y-32.455
X-46.878 Y-31.277
X-47.553 Y-30.117
X-48.258 Y-28.975
X-48.993 Y-27.852
X-49.758 Y-26.749
X-50.552 Y-25.667
X-51.374 Y-24.606
X-52.224 Y-23.568
X-53.101 Y-22.552
X-54.005 Y-21.56
X-54.936 Y-20.592
X-55.826 Y-19.723
X-55.892 Y-19.666
X-56.27 Y-19.381
X-56.685 Y-19.152
X-57.129 Y-18.985
X-57.592 Y-18.884
X-58.065 Y-18.85
X-62.233
G3 X-62.716 Y-18.964 I0.044 J-1.269
G1 X-62.845 Y-19.023 Z31.518
X-62.973 Y-19.081 Z31.542
X-63.097 Y-19.138 Z31.581
X-63.217 Y-19.192 Z31.636
X-63.33 Y-19.244 Z31.705
X-63.436 Y-19.292 Z31.787
X-63.533 Y-19.336 Z31.882
X-63.619 Y-19.375 Z31.988
X-63.694 Y-19.41 Z32.104
X-63.757 Y-19.438 Z32.229
X-63.806 Y-19.461 Z32.361
X-63.842 Y-19.477 Z32.497
X-63.864 Y-19.487 Z32.638
X-63.871 Y-19.49 Z32.78
G0 Z48.5
X-65.644 Y-94.36
Z34.05
G1 Z32.78 F850
X-65.638 Y-94.364 Z32.638
X-65.617 Y-94.377 Z32.497
X-65.583 Y-94.397 Z32.361
X-65.536 Y-94.425 Z32.229
X-65.477 Y-94.46 Z32.104
X-65.406 Y-94.502 Z31.988
X-65.325 Y-94.551 Z31.882
X-65.233 Y-94.605 Z31.787
X-65.134 Y-94.664 Z31.705
X-65.026 Y-94.728 Z31.636
X-64.913 Y-94.795 Z31.581
X-64.796 Y-94.865 Z31.542
X-64.675 Y-94.937 Z31.518
X-64.553 Y-95.009 Z31.51
G3 X-64.074 Y-95.15 I0.514 J0.864
G1 X-60.056
X-59.617 Y-95.128
X-59.233 Y-95.088
X-58.838 Y-95.025
X-58.38 Y-94.926
X-57.873 Y-94.787
X-57.329 Y-94.606
X-56.716 Y-94.365
X-56.052 Y-94.061
X-55.33 Y-93.681
X-54.52 Y-93.198
X-53.639 Y-92.605
X-52.696 Y-91.893
X-51.67 Y-91.028
X-50.692 Y-90.109
X-49.759 Y-89.144
X-48.867 Y-88.142
X-48.013 Y-87.106
X-47.197 Y-86.04
X-46.417 Y-84.948
X-45.671 Y-83.832
X-44.959 Y-82.695
X-44.281 Y-81.537
X-43.635 Y-80.36
X-43.022 Y-79.166
X-42.441 Y-77.956
X-41.892 Y-76.731
X-41.376 Y-75.492
X-40.892 Y-74.24
X-40.441 Y-72.977
X-40.022 Y-71.701
X-39.635 Y-70.416
X-39.282 Y-69.121
X-38.962 Y-67.818
X-38.676 Y-66.507
X-38.424 Y-65.188
X-38.205 Y-63.864
X-38.021 Y-62.535
X-37.871 Y-61.201
X-37.755 Y-59.864
X-37.673 Y-58.524
X-37.625 Y-57.183
X-37.611 Y-55.841
X-37.63 Y-54.499
X-37.684 Y-53.158
X-37.771 Y-51.818
X-37.892 Y-50.482
X-38.046 Y-49.148
X-38.233 Y-47.819
X-38.454 Y-46.496
X-38.708 Y-45.178
X-38.996 Y-43.867
X-39.316 Y-42.563
X-39.67 Y-41.269
X-40.057 Y-39.984
X-40.477 Y-38.709
X-40.93 Y-37.445
X-41.414 Y-36.193
X-41.93 Y-34.954
X-42.477 Y-33.729
X-43.055 Y-32.517
X-43.663 Y-31.321
X-44.302 Y-30.141
X-44.97 Y-28.976
X-45.666 Y-27.829
X-46.392 Y-26.7
X-47.145 Y-25.589
X-47.926 Y-24.498
X-48.734 Y-23.426
X-49.569 Y-22.375
X-50.43 Y-21.346
X-51.319 Y-20.34
X-51.8 Y-19.846
X-52.126 Y-19.553
X-52.488 Y-19.306
X-52.88 Y-19.109
X-53.295 Y-18.966
X-53.725 Y-18.879
X-54.162 Y-18.85
X-58.065
G3 X-58.547 Y-18.964 I0.044 J-1.269
G1 X-58.676 Y-19.023 Z31.518
X-58.804 Y-19.081 Z31.542
X-58.929 Y-19.138 Z31.581
X-59.048 Y-19.192 Z31.636
X-59.162 Y-19.244 Z31.705
X-59.267 Y-19.292 Z31.787
X-59.364 Y-19.336 Z31.882
X-59.45 Y-19.375 Z31.988
X-59.525 Y-19.41 Z32.104
X-59.588 Y-19.438 Z32.229
X-59.638 Y-19.461 Z32.361
X-59.674 Y-19.477 Z32.497
X-59.695 Y-19.487 Z32.638
X-59.702 Y-19.49 Z32.78
G0 Z48.5
X-61.626 Y-94.36
Z34.05
G1 Z32.78 F850
X-61.619 Y-94.364 Z32.638
X-61.599 Y-94.377 Z32.497
X-61.565 Y-94.397 Z32.361
X-61.518 Y-94.425 Z32.229
X-61.459 Y-94.46 Z32.104
X-61.388 Y-94.502 Z31.988
X-61.307 Y-94.551 Z31.882
X-61.215 Y-94.605 Z31.787
X-61.115 Y-94.664 Z31.705
X-61.008 Y-94.728 Z31.636
X-60.895 Y-94.795 Z31.581
X-60.778 Y-94.865 Z31.542
X-60.657 Y-94.937 Z31.518
X-60.535 Y-95.009 Z31.51
G3 X-60.056 Y-95.15 I0.514 J0.864
G1 X-56.248
X-55.848 Y-95.13
X-55.507 Y-95.094
X-55.126 Y-95.033
X-54.69 Y-94.939
X-54.238 Y-94.816
X-53.701 Y-94.637
X-53.162 Y-94.425
X-52.527 Y-94.134
X-51.879 Y-93.793
X-51.145 Y-93.355
X-50.336 Y-92.811
X-49.483 Y-92.167
X-48.551 Y-91.381
X-47.573 Y-90.461
X-46.645 Y-89.492
X-45.762 Y-88.481
X-44.921 Y-87.435
X-44.12 Y-86.358
X-43.356 Y-85.254
X-42.628 Y-84.127
X-41.935 Y-82.978
X-41.275 Y-81.809
X-40.648 Y-80.622
X-40.054 Y-79.419
X-39.491 Y-78.2
X-38.96 Y-76.968
X-38.461 Y-75.722
X-37.993 Y-74.464
X-37.556 Y-73.195
X-37.151 Y-71.915
X-36.778 Y-70.626
X-36.436 Y-69.328
X-36.127 Y-68.022
X-35.85 Y-66.709
X-35.605 Y-65.389
X-35.393 Y-64.064
X-35.213 Y-62.734
X-35.066 Y-61.4
X-34.95 Y-60.063
X-34.868 Y-58.723
X-34.817 Y-57.382
X-34.799 Y-56.04
X-34.812 Y-54.698
X-34.858 Y-53.356
X-34.936 Y-52.016
X-35.046 Y-50.679
X-35.187 Y-49.344
X-35.361 Y-48.013
X-35.566 Y-46.687
X-35.802 Y-45.366
X-36.071 Y-44.051
X-36.371 Y-42.742
X-36.702 Y-41.442
X-37.066 Y-40.15
X-37.46 Y-38.867
X-37.886 Y-37.594
X-38.343 Y-36.332
X-38.829 Y-35.081
X-39.346 Y-33.843
X-39.893 Y-32.617
X-40.468 Y-31.404
X-41.073 Y-30.206
X-41.706 Y-29.023
X-42.367 Y-27.854
X-43.056 Y-26.702
X-43.771 Y-25.567
X-44.514 Y-24.449
X-45.283 Y-23.349
X-46.078 Y-22.268
X-46.899 Y-21.206
X-47.632 Y-20.328
X-48.029 Y-19.901
X-48.359 Y-19.593
X-48.727 Y-19.332
X-49.128 Y-19.124
X-49.553 Y-18.973
X-49.995 Y-18.881
X-50.445 Y-18.85
X-54.162
G3 X-54.645 Y-18.964 I0.044 J-1.269
G1 X-54.774 Y-19.023 Z31.518
X-54.902 Y-19.081 Z31.542
X-55.026 Y-19.138 Z31.581
X-55.146 Y-19.192 Z31.636
X-55.26 Y-19.244 Z31.705
X-55.365 Y-19.292 Z31.787
X-55.462 Y-19.336 Z31.882
X-55.548 Y-19.375 Z31.988
X-55.623 Y-19.41 Z32.104
X-55.686 Y-19.438 Z32.229
X-55.736 Y-19.461 Z32.361
X-55.771 Y-19.477 Z32.497
X-55.793 Y-19.487 Z32.638
X-55.8 Y-19.49 Z32.78
G0 Z48.5
X-57.818 Y-94.36
Z34.05
G1 Z32.78 F850
X-57.811 Y-94.364 Z32.638
X-57.79 Y-94.377 Z32.497
X-57.756 Y-94.397 Z32.361
X-57.71 Y-94.425 Z32.229
X-57.65 Y-94.46 Z32.104
X-57.58 Y-94.502 Z31.988
X-57.498 Y-94.551 Z31.882
X-57.407 Y-94.605 Z31.787
X-57.307 Y-94.664 Z31.705
X-57.2 Y-94.728 Z31.636
X-57.087 Y-94.795 Z31.581
X-56.969 Y-94.865 Z31.542
X-56.848 Y-94.937 Z31.518
X-56.726 Y-95.009 Z31.51
G3 X-56.248 Y-95.15 I0.514 J0.864
G1 X-52.648
X-52.253 Y-95.13
X-51.935 Y-95.097
X-51.555 Y-95.036
X-51.168 Y-94.953
X-50.716 Y-94.829
X-50.237 Y-94.67
X-49.706 Y-94.46
X-49.128 Y-94.196
X-48.496 Y-93.864
X-47.827 Y-93.464
X-47.075 Y-92.959
X-46.274 Y-92.354
X-45.419 Y-91.632
X-44.484 Y-90.753
X-43.558 Y-89.782
X-42.681 Y-88.766
X-41.85 Y-87.713
X-41.06 Y-86.627
X-40.309 Y-85.515
X-39.596 Y-84.378
X-38.918 Y-83.219
X-38.275 Y-82.041
X-37.664 Y-80.846
X-37.086 Y-79.635
X-36.54 Y-78.409
X-36.025 Y-77.17
X-35.541 Y-75.918
X-35.087 Y-74.654
X-34.665 Y-73.381
X-34.273 Y-72.097
X-33.911 Y-70.804
X-33.581 Y-69.504
X-33.281 Y-68.195
X-33.013 Y-66.88
X-32.775 Y-65.559
X-32.569 Y-64.233
X-32.393 Y-62.902
X-32.249 Y-61.568
X-32.135 Y-60.231
X-32.052 Y-58.891
X-32 Y-57.55
X-31.979 Y-56.208
X-31.988 Y-54.866
X-32.027 Y-53.524
X-32.097 Y-52.184
X-32.198 Y-50.846
X-32.329 Y-49.51
X-32.49 Y-48.177
X-32.681 Y-46.849
X-32.903 Y-45.525
X-33.155 Y-44.207
X-33.437 Y-42.895
X-33.749 Y-41.589
X-34.091 Y-40.292
X-34.463 Y-39.002
X-34.865 Y-37.722
X-35.297 Y-36.451
X-35.758 Y-35.19
X-36.247 Y-33.94
X-36.765 Y-32.702
X-37.312 Y-31.476
X-37.886 Y-30.263
X-38.487 Y-29.063
X-39.116 Y-27.878
X-39.772 Y-26.706
X-40.453 Y-25.55
X-41.161 Y-24.41
X-41.895 Y-23.286
X-42.654 Y-22.18
X-43.445 Y-21.095
X-44.051 Y-20.34
X-44.399 Y-19.95
X-44.731 Y-19.628
X-45.104 Y-19.355
X-45.512 Y-19.138
X-45.946 Y-18.979
X-46.398 Y-18.882
X-46.859 Y-18.85
X-50.445
G3 X-50.927 Y-18.964 I0.044 J-1.269
G1 X-51.056 Y-19.023 Z31.518
X-51.184 Y-19.081 Z31.542
X-51.309 Y-19.138 Z31.581
X-51.428 Y-19.192 Z31.636
X-51.542 Y-19.244 Z31.705
X-51.648 Y-19.292 Z31.787
X-51.744 Y-19.336 Z31.882
X-51.831 Y-19.375 Z31.988
X-51.906 Y-19.41 Z32.104
X-51.968 Y-19.438 Z32.229
X-52.018 Y-19.461 Z32.361
X-52.054 Y-19.477 Z32.497
X-52.075 Y-19.487 Z32.638
X-52.083 Y-19.49 Z32.78
G0 Z48.5
X-54.219 Y-94.36
Z34.05
G1 Z32.78 F850
X-54.212 Y-94.364 Z32.638
X-54.191 Y-94.377 Z32.497
X-54.157 Y-94.397 Z32.361
X-54.111 Y-94.425 Z32.229
X-54.051 Y-94.46 Z32.104
X-53.98 Y-94.502 Z31.988
X-53.899 Y-94.551 Z31.882
X-53.808 Y-94.605 Z31.787
X-53.708 Y-94.664 Z31.705
X-53.601 Y-94.728 Z31.636
X-53.488 Y-94.795 Z31.581
X-53.37 Y-94.865 Z31.542
X-53.249 Y-94.937 Z31.518
X-53.127 Y-95.009 Z31.51
G3 X-52.648 Y-95.15 I0.514 J0.864
G1 X-49.221
X-48.794 Y-95.129
X-48.476 Y-95.095
X-48.12 Y-95.038
X-47.743 Y-94.957
X-47.303 Y-94.837
X-46.858 Y-94.689
X-46.33 Y-94.481
X-45.803 Y-94.239
X-45.184 Y-93.914
X-44.561 Y-93.542
X-43.857 Y-93.068
X-43.091 Y-92.49
X-42.292 Y-91.817
X-41.42 Y-90.996
X-40.493 Y-90.024
X-39.62 Y-89.005
X-38.795 Y-87.946
X-38.014 Y-86.855
X-37.275 Y-85.735
X-36.574 Y-84.59
X-35.909 Y-83.424
X-35.28 Y-82.239
X-34.684 Y-81.036
X-34.12 Y-79.818
X-33.589 Y-78.586
X-33.088 Y-77.34
X-32.618 Y-76.083
X-32.178 Y-74.815
X-31.768 Y-73.537
X-31.388 Y-72.25
X-31.038 Y-70.954
X-30.718 Y-69.651
X-30.427 Y-68.34
X-30.167 Y-67.024
X-29.936 Y-65.702
X-29.735 Y-64.375
X-29.564 Y-63.043
X-29.423 Y-61.709
X-29.311 Y-60.371
X-29.228 Y-59.032
X-29.175 Y-57.691
X-29.151 Y-56.349
X-29.157 Y-55.006
X-29.191 Y-53.665
X-29.255 Y-52.324
X-29.348 Y-50.985
X-29.469 Y-49.649
X-29.62 Y-48.315
X-29.8 Y-46.985
X-30.008 Y-45.659
X-30.245 Y-44.338
X-30.512 Y-43.022
X-30.806 Y-41.713
X-31.13 Y-40.411
X-31.482 Y-39.115
X-31.863 Y-37.828
X-32.272 Y-36.55
X-32.709 Y-35.281
X-33.175 Y-34.022
X-33.667 Y-32.774
X-34.187 Y-31.536
X-34.734 Y-30.311
X-35.307 Y-29.097
X-35.906 Y-27.896
X-36.531 Y-26.708
X-37.182 Y-25.535
X-37.858 Y-24.375
X-38.56 Y-23.231
X-39.291 Y-22.105
X-40.052 Y-21.012
X-40.59 Y-20.323
X-40.886 Y-19.982
X-41.219 Y-19.651
X-41.595 Y-19.371
X-42.008 Y-19.146
X-42.447 Y-18.983
X-42.906 Y-18.883
X-43.374 Y-18.85
X-46.859
G3 X-47.341 Y-18.964 I0.044 J-1.269
G1 X-47.471 Y-19.023 Z31.518
X-47.599 Y-19.081 Z31.542
X-47.723 Y-19.138 Z31.581
X-47.843 Y-19.192 Z31.636
X-47.956 Y-19.244 Z31.705
X-48.062 Y-19.292 Z31.787
X-48.159 Y-19.336 Z31.882
X-48.245 Y-19.375 Z31.988
X-48.32 Y-19.41 Z32.104
X-48.383 Y-19.438 Z32.229
X-48.432 Y-19.461 Z32.361
X-48.468 Y-19.477 Z32.497
X-48.49 Y-19.487 Z32.638
X-48.497 Y-19.49 Z32.78
G0 Z48.5
X-50.791 Y-94.36
Z34.05
G1 Z32.78 F850
X-50.784 Y-94.364 Z32.638
X-50.764 Y-94.377 Z32.497
X-50.73 Y-94.397 Z32.361
X-50.683 Y-94.425 Z32.229
X-50.624 Y-94.46 Z32.104
X-50.553 Y-94.502 Z31.988
X-50.471 Y-94.551 Z31.882
X-50.38 Y-94.605 Z31.787
X-50.28 Y-94.664 Z31.705
X-50.173 Y-94.728 Z31.636
X-50.06 Y-94.795 Z31.581
X-49.942 Y-94.865 Z31.542
X-49.821 Y-94.937 Z31.518
X-49.699 Y-95.009 Z31.51
G3 X-49.221 Y-95.15 I0.514 J0.864
G1 X-45.793
X-45.435 Y-95.132
X-45.117 Y-95.099
X-44.784 Y-95.046
X-44.406 Y-94.964
X-43.997 Y-94.852
X-43.552 Y-94.704
X-43.057 Y-94.509
X-42.537 Y-94.271
X-41.951 Y-93.963
X-41.341 Y-93.599
X-40.676 Y-93.151
X-39.942 Y-92.597
X-39.181 Y-91.956
X-38.356 Y-91.18
X-37.464 Y-90.244
X-36.592 Y-89.224
X-35.771 Y-88.162
X-34.996 Y-87.066
X-34.265 Y-85.94
X-33.574 Y-84.79
X-32.92 Y-83.618
X-32.302 Y-82.426
X-31.718 Y-81.218
X-31.167 Y-79.994
X-30.648 Y-78.756
X-30.159 Y-77.506
X-29.701 Y-76.245
X-29.273 Y-74.973
X-28.875 Y-73.691
X-28.505 Y-72.401
X-28.165 Y-71.102
X-27.853 Y-69.797
X-27.571 Y-68.485
X-27.317 Y-67.167
X-27.093 Y-65.844
X-26.897 Y-64.516
X-26.729 Y-63.184
X-26.59 Y-61.849
X-26.48 Y-60.512
X-26.397 Y-59.172
X-26.343 Y-57.831
X-26.317 Y-56.489
X-26.319 Y-55.147
X-26.349 Y-53.805
X-26.407 Y-52.464
X-26.492 Y-51.125
X-26.606 Y-49.787
X-26.747 Y-48.453
X-26.916 Y-47.121
X-27.112 Y-45.794
X-27.336 Y-44.47
X-27.588 Y-43.152
X-27.867 Y-41.839
X-28.174 Y-40.532
X-28.508 Y-39.232
X-28.869 Y-37.94
X-29.257 Y-36.655
X-29.673 Y-35.379
X-30.115 Y-34.112
X-30.584 Y-32.854
X-31.08 Y-31.607
X-31.601 Y-30.37
X-32.148 Y-29.144
X-32.72 Y-27.93
X-33.317 Y-26.728
X-33.94 Y-25.539
X-34.587 Y-24.364
X-35.261 Y-23.203
X-35.966 Y-22.061
X-36.634 Y-21.063
X-37.137 Y-20.394
X-37.444 Y-20.028
X-37.778 Y-19.684
X-38.159 Y-19.392
X-38.577 Y-19.159
X-39.025 Y-18.989
X-39.493 Y-18.885
X-39.971 Y-18.85
X-43.374
G3 X-43.857 Y-18.964 I0.044 J-1.269
G1 X-43.986 Y-19.023 Z31.518
X-44.114 Y-19.081 Z31.542
X-44.238 Y-19.138 Z31.581
X-44.358 Y-19.192 Z31.636
X-44.472 Y-19.244 Z31.705
X-44.577 Y-19.292 Z31.787
X-44.674 Y-19.336 Z31.882
X-44.76 Y-19.375 Z31.988
X-44.835 Y-19.41 Z32.104
X-44.898 Y-19.438 Z32.229
X-44.947 Y-19.461 Z32.361
X-44.983 Y-19.477 Z32.497
X-45.005 Y-19.487 Z32.638
X-45.012 Y-19.49 Z32.78
G0 Z48.5
X-47.363 Y-94.36
Z34.05
G1 Z32.78 F850
X-47.356 Y-94.364 Z32.638
X-47.336 Y-94.377 Z32.497
X-47.302 Y-94.397 Z32.361
X-47.255 Y-94.425 Z32.229
X-47.196 Y-94.46 Z32.104
X-47.125 Y-94.502 Z31.988
X-47.043 Y-94.551 Z31.882
X-46.952 Y-94.605 Z31.787
X-46.852 Y-94.664 Z31.705
X-46.745 Y-94.728 Z31.636
X-46.632 Y-94.795 Z31.581
X-46.514 Y-94.865 Z31.542
X-46.394 Y-94.937 Z31.518
X-46.272 Y-95.009 Z31.51
G3 X-45.793 Y-95.15 I0.514 J0.864
G1 X-42.537
X-42.142 Y-95.13
X-41.829 Y-95.097
X-41.509 Y-95.046
X-41.132 Y-94.965
X-40.745 Y-94.859
X-40.301 Y-94.712
X-39.837 Y-94.529
X-39.317 Y-94.29
X-38.767 Y-94.001
X-38.16 Y-93.639
X-37.53 Y-93.215
X-36.826 Y-92.683
X-36.087 Y-92.06
X-35.301 Y-91.321
X-34.45 Y-90.429
X-33.578 Y-89.408
X-32.76 Y-88.345
X-31.99 Y-87.245
X-31.266 Y-86.115
X-30.583 Y-84.96
X-29.938 Y-83.783
X-29.33 Y-82.586
X-28.757 Y-81.372
X-28.217 Y-80.144
X-27.708 Y-78.902
X-27.231 Y-77.647
X-26.784 Y-76.382
X-26.366 Y-75.106
X-25.978 Y-73.822
X-25.618 Y-72.529
X-25.287 Y-71.228
X-24.983 Y-69.92
X-24.708 Y-68.607
X-24.461 Y-67.288
X-24.242 Y-65.963
X-24.05 Y-64.635
X-23.887 Y-63.303
X-23.75 Y-61.968
X-23.641 Y-60.63
X-23.56 Y-59.29
X-23.505 Y-57.949
X-23.477 Y-56.607
X-23.476 Y-55.265
X-23.502 Y-53.923
X-23.555 Y-52.582
X-23.635 Y-51.242
X-23.741 Y-49.905
X-23.874 Y-48.569
X-24.033 Y-47.236
X-24.219 Y-45.907
X-24.431 Y-44.582
X-24.67 Y-43.261
X-24.935 Y-41.945
X-25.226 Y-40.635
X-25.544 Y-39.331
X-25.888 Y-38.034
X-26.257 Y-36.744
X-26.653 Y-35.461
X-27.075 Y-34.187
X-27.523 Y-32.922
X-27.996 Y-31.666
X-28.494 Y-30.419
X-29.016 Y-29.183
X-29.564 Y-27.958
X-30.136 Y-26.744
X-30.733 Y-25.541
X-31.355 Y-24.352
X-32.005 Y-23.178
X-32.689 Y-22.023
X-33.296 Y-21.089
X-33.774 Y-20.435
X-34.181 Y-19.937
X-34.19 Y-19.927
X-34.521 Y-19.611
X-34.892 Y-19.344
X-35.296 Y-19.131
X-35.726 Y-18.976
X-36.173 Y-18.882
X-36.629 Y-18.85
X-39.971
G3 X-40.454 Y-18.964 I0.044 J-1.269
G1 X-40.583 Y-19.023 Z31.518
X-40.711 Y-19.081 Z31.542
X-40.836 Y-19.138 Z31.581
X-40.955 Y-19.192 Z31.636
X-41.069 Y-19.244 Z31.705
X-41.174 Y-19.292 Z31.787
X-41.271 Y-19.336 Z31.882
X-41.357 Y-19.375 Z31.988
X-41.432 Y-19.41 Z32.104
X-41.495 Y-19.438 Z32.229
X-41.545 Y-19.461 Z32.361
X-41.58 Y-19.477 Z32.497
X-41.602 Y-19.487 Z32.638
X-41.609 Y-19.49 Z32.78
G0 Z48.5
X-44.107 Y-94.36
Z34.05
G1 Z32.78 F850
X-44.1 Y-94.364 Z32.638
X-44.079 Y-94.377 Z32.497
X-44.046 Y-94.397 Z32.361
X-43.999 Y-94.425 Z32.229
X-43.94 Y-94.46 Z32.104
X-43.869 Y-94.502 Z31.988
X-43.787 Y-94.551 Z31.882
X-43.696 Y-94.605 Z31.787
X-43.596 Y-94.664 Z31.705
X-43.489 Y-94.728 Z31.636
X-43.376 Y-94.795 Z31.581
X-43.258 Y-94.865 Z31.542
X-43.137 Y-94.937 Z31.518
X-43.015 Y-95.009 Z31.51
G3 X-42.537 Y-95.15 I0.514 J0.864
G1 X-39.318
X-38.91 Y-95.13
X-38.607 Y-95.098
X-38.291 Y-95.047
X-37.921 Y-94.967
X-37.545 Y-94.865
X-37.104 Y-94.718
X-36.66 Y-94.543
X-36.142 Y-94.305
X-35.621 Y-94.032
X-35.017 Y-93.671
X-34.415 Y-93.266
X-33.736 Y-92.754
X-33.013 Y-92.144
X-32.26 Y-91.435
X-31.442 Y-90.577
X-30.569 Y-89.557
X-29.753 Y-88.491
X-28.988 Y-87.388
X-28.27 Y-86.255
X-27.594 Y-85.095
X-26.958 Y-83.913
X-26.359 Y-82.712
X-25.795 Y-81.494
X-25.265 Y-80.261
X-24.767 Y-79.015
X-24.3 Y-77.757
X-23.863 Y-76.488
X-23.455 Y-75.209
X-23.076 Y-73.922
X-22.725 Y-72.626
X-22.447 Y-71.505
X-22.393 Y-71.243
X-22.361 Y-70.978
X-22.35 Y-70.711
Y-44.627
X-22.417 Y-43.287
X-22.459 Y-42.617
X-22.579 Y-41.28
X-22.767 Y-39.951
X-23.01 Y-38.631
X-23.298 Y-37.32
X-23.627 Y-36.019
X-23.992 Y-34.727
X-24.389 Y-33.445
X-24.817 Y-32.173
X-25.273 Y-30.911
X-25.757 Y-29.659
X-26.267 Y-28.418
X-26.803 Y-27.187
X-27.364 Y-25.968
X-27.951 Y-24.761
X-28.567 Y-23.569
X-29.218 Y-22.395
X-29.844 Y-21.367
X-30.315 Y-20.68
X-30.744 Y-20.121
X-30.847 Y-20.001
X-31.181 Y-19.664
X-31.559 Y-19.379
X-31.974 Y-19.151
X-32.417 Y-18.985
X-32.879 Y-18.884
X-33.351 Y-18.85
X-36.629
G3 X-37.707 Y-20.714 I0.044 J-1.269
G1 X-24.741 Y-45.177
G3 X-22.35 Y-44.627 I1.122 J0.595
G1 Y-34.729
X-22.407 Y-33.595
X-22.499 Y-32.715
X-22.667 Y-31.665
X-22.937 Y-30.416
X-23.291 Y-29.121
X-23.704 Y-27.844
X-24.168 Y-26.585
X-24.675 Y-25.342
X-25.224 Y-24.117
X-25.815 Y-22.912
X-26.42 Y-21.804
X-26.901 Y-21.027
X-27.311 Y-20.439
X-27.562 Y-20.119
X-27.898 Y-19.75
X-28.285 Y-19.436
X-28.716 Y-19.184
X-29.179 Y-19
X-29.665 Y-18.888
X-30.163 Y-18.85
X-33.351
G3 X-34.365 Y-20.823 I0.044 J-1.269
G1 X-24.677 Y-35.388
G3 X-22.35 Y-34.729 I1.057 J0.703
G1 Y-27.495
X-22.382 Y-26.852
X-22.448 Y-26.219
X-22.562 Y-25.511
X-22.736 Y-24.706
X-22.957 Y-23.895
X-23.233 Y-23.068
X-23.542 Y-22.283
X-23.852 Y-21.605
X-24.136 Y-21.065
X-24.436 Y-20.563
X-24.607 Y-20.308
X-24.891 Y-19.944
X-25.222 Y-19.624
X-25.595 Y-19.353
X-26.002 Y-19.136
X-26.435 Y-18.978
X-26.885 Y-18.882
X-27.345 Y-18.85
X-30.163
G3 X-31.069 Y-20.962 I0.044 J-1.269
G1 X-24.57 Y-28.293
G3 X-22.35 Y-27.495 I0.95 J0.842
G1 Y-22.546
X-22.372 Y-22.115
X-22.403 Y-21.816
X-22.45 Y-21.522
X-22.509 Y-21.25
X-22.588 Y-20.959
X-22.674 Y-20.7
X-22.781 Y-20.43
X-22.996 Y-20.045
X-23.272 Y-19.701
X-23.599 Y-19.406
X-23.97 Y-19.167
X-24.375 Y-18.993
X-24.803 Y-18.886
X-25.243 Y-18.85
G3 X-26.257 Y-20.821 I0.044 J-1.269
G1 X-24.678 Y-23.203
G3 X-22.35 Y-22.546 I1.059 J0.702
G1 Y-20.339
X-22.358 Y-20.189
X-22.424 Y-19.883
X-22.552 Y-19.597
X-22.737 Y-19.345
X-22.97 Y-19.135
X-23.241 Y-18.979
X-23.539 Y-18.883
X-23.851 Y-18.85
G3 X-25.192 Y-20.662 I0.05 J-1.44
X-22.35 Y-20.339 I1.397 J0.374
G1 X-22.352 Y-20.072
X-22.376 Y-19.881
X-22.43 Y-19.691
X-22.52 Y-19.501
X-22.561 Y-19.435
X-22.68 Y-19.278
X-22.764 Y-19.192
X-22.848 Y-19.12
X-22.942 Y-19.053
X-23.132 Y-18.952
X-23.322 Y-18.888
X-23.513 Y-18.855
X-23.703 Y-18.85
X-27.345
G3 X-27.828 Y-18.964 I0.044 J-1.269
G1 X-27.957 Y-19.023 Z31.518
X-28.085 Y-19.081 Z31.542
X-28.209 Y-19.138 Z31.581
X-28.329 Y-19.192 Z31.636
X-28.442 Y-19.244 Z31.705
X-28.548 Y-19.292 Z31.787
X-28.645 Y-19.336 Z31.882
X-28.731 Y-19.375 Z31.988
X-28.806 Y-19.41 Z32.104
X-28.869 Y-19.438 Z32.229
X-28.918 Y-19.461 Z32.361
X-28.954 Y-19.477 Z32.497
X-28.976 Y-19.487 Z32.638
X-28.983 Y-19.49 Z32.78
G0 Z48.5
X-40.889 Y-94.36
Z34.05
G1 Z32.78 F850
X-40.882 Y-94.364 Z32.638
X-40.861 Y-94.377 Z32.497
X-40.827 Y-94.397 Z32.361
X-40.78 Y-94.425 Z32.229
X-40.721 Y-94.46 Z32.104
X-40.65 Y-94.502 Z31.988
X-40.569 Y-94.551 Z31.882
X-40.478 Y-94.605 Z31.787
X-40.378 Y-94.664 Z31.705
X-40.271 Y-94.728 Z31.636
X-40.157 Y-94.795 Z31.581
X-40.04 Y-94.865 Z31.542
X-39.919 Y-94.937 Z31.518
X-39.797 Y-95.009 Z31.51
G3 X-39.318 Y-95.15 I0.514 J0.864
G1 X-36.062
X-35.733 Y-95.134
X-35.44 Y-95.103
X-35.125 Y-95.052
X-34.764 Y-94.975
X-34.391 Y-94.873
X-33.96 Y-94.729
X-33.524 Y-94.557
X-33.016 Y-94.324
X-32.508 Y-94.058
X-31.916 Y-93.704
X-31.327 Y-93.308
X-30.669 Y-92.811
X-29.96 Y-92.214
X-29.232 Y-91.529
X-28.441 Y-90.699
X-27.594 Y-89.708
X-26.779 Y-88.643
X-26.016 Y-87.538
X-25.301 Y-86.402
X-24.631 Y-85.239
X-24.001 Y-84.054
X-23.409 Y-82.85
X-22.853 Y-81.628
X-22.61 Y-81.053
X-22.466 Y-80.638
X-22.379 Y-80.208
X-22.35 Y-79.769
Y-70.711
G3 X-24.739 Y-70.155 I-1.269 J-0.044
G1 X-37.137 Y-93.281
G3 X-36.544 Y-95.036 I1.119 J-0.6
X-36.062 Y-95.15 I0.527 J1.156
G1 X-32.844
X-32.595 Y-95.138
X-32.311 Y-95.108
X-31.995 Y-95.057
X-31.645 Y-94.982
X-31.272 Y-94.88
X-30.854 Y-94.741
X-30.419 Y-94.569
X-29.926 Y-94.344
X-29.42 Y-94.078
X-28.849 Y-93.737
X-28.262 Y-93.342
X-27.624 Y-92.86
X-26.927 Y-92.272
X-26.218 Y-91.605
X-25.449 Y-90.799
X-24.627 Y-89.837
X-23.811 Y-88.771
X-23.05 Y-87.666
X-22.852 Y-87.348
X-22.635 Y-86.941
X-22.478 Y-86.509
X-22.382 Y-86.058
X-22.35 Y-85.599
Y-79.769
G3 X-24.683 Y-79.119 I-1.269 J-0.044
G1 X-33.863 Y-93.187
G3 X-33.326 Y-95.036 I1.064 J-0.694
X-32.844 Y-95.15 I0.527 J1.156
G1 X-29.797
X-29.481 Y-95.134
X-29.205 Y-95.105
X-28.889 Y-95.055
X-28.549 Y-94.981
X-28.176 Y-94.879
X-27.77 Y-94.744
X-27.335 Y-94.573
X-26.858 Y-94.354
X-26.352 Y-94.089
X-25.8 Y-93.759
X-25.213 Y-93.364
X-24.594 Y-92.897
X-23.91 Y-92.32
X-23.298 Y-91.744
X-23.262 Y-91.706
X-22.944 Y-91.317
X-22.689 Y-90.885
X-22.502 Y-90.419
X-22.388 Y-89.93
X-22.35 Y-89.429
Y-85.599
G3 X-24.638 Y-84.885 I-1.269 J-0.044
G1 X-30.771 Y-93.122
G3 X-29.797 Y-95.15 I1.019 J-0.758
G1 X-26.75
X-26.401 Y-95.133
X-26.13 Y-95.104
X-25.814 Y-95.054
X-25.482 Y-94.982
X-25.109 Y-94.88
X-24.736 Y-94.756
X-24.396 Y-94.622
X-24.047 Y-94.462
X-23.63 Y-94.2
X-23.259 Y-93.877
X-22.943 Y-93.5
X-22.688 Y-93.078
X-22.502 Y-92.623
X-22.388 Y-92.144
X-22.35 Y-91.653
G3 X-24.353 Y-90.661 I-1.269 J-0.044
G1 X-27.439 Y-92.844
G3 X-27.232 Y-95.036 I0.733 J-1.037
X-26.75 Y-95.15 I0.527 J1.156
G1 X-24.255
X-24.069 Y-95.141
X-23.725 Y-95.072
X-23.398 Y-94.942
X-23.101 Y-94.755
X-22.843 Y-94.517
X-22.633 Y-94.235
X-22.478 Y-93.92
X-22.382 Y-93.582
X-22.35 Y-93.232
G3 X-24.666 Y-91.515 I-1.842 J-0.064
X-24.255 Y-95.15 I0.475 J-1.787
G1 X-23.703
X-23.513 Y-95.145
X-23.322 Y-95.112
X-23.132 Y-95.048
X-22.942 Y-94.947
X-22.848 Y-94.88
X-22.764 Y-94.808
X-22.68 Y-94.722
X-22.561 Y-94.565
X-22.52 Y-94.499
X-22.43 Y-94.309
X-22.376 Y-94.119
X-22.352 Y-93.928
X-22.35 Y-93.738
Y-89.429
X-22.364 Y-89.344 Z31.518
X-22.377 Y-89.262 Z31.54
X-22.389 Y-89.185 Z31.576
X-22.401 Y-89.116 Z31.625
X-22.422 Y-89.057 Z31.686
X-22.44 Y-89.01 Z31.758
X-22.453 Y-88.975 Z31.837
X-22.461 Y-88.954 Z31.921
X-22.464 Y-88.946 Z32.009
G0 Z48.5
X-84.649 Y-55.039
Z35.28
G1 Z34.01 F850
G3 X-96.058 Y-58.961 Z33.348 I-5.705 J-1.961 F283.3
X-84.649 Y-55.039 Z32.686 I5.705 J1.961
X-96.058 Y-58.961 Z32.025 I-5.705 J-1.961
X-84.649 Y-55.039 Z31.363 I5.705 J1.961
X-96.058 Y-58.961 Z30.701 I-5.705 J-1.961
X-84.649 Y-55.039 Z30.039 I5.705 J1.961
X-96.058 Y-58.961 Z29.377 I-5.705 J-1.961
X-84.649 Y-55.039 Z28.716 I5.705 J1.961
X-96.058 Y-58.961 Z28.054 I-5.705 J-1.961
X-84.649 Y-55.039 Z27.392 I5.705 J1.961
X-96.058 Y-58.961 Z26.73 I-5.705 J-1.961
X-84.649 Y-55.039 Z26.068 I5.705 J1.961
X-96.058 Y-58.961 Z25.407 I-5.705 J-1.961
X-84.649 Y-55.039 Z24.745 I5.705 J1.961
X-96.058 Y-58.961 Z24.083 I-5.705 J-1.961
X-84.649 Y-55.039 Z23.421 I5.705 J1.961
X-96.058 Y-58.961 Z22.759 I-5.705 J-1.961
X-84.649 Y-55.039 Z22.097 I5.705 J1.961
X-96.058 Y-58.961 Z21.436 I-5.705 J-1.961
X-84.649 Y-55.039 Z20.774 I5.705 J1.961
X-96.058 Y-58.961 Z20.112 I-5.705 J-1.961
X-84.321 Y-57 Z19.52 I5.705 J1.961
X-96.386 I-6.033
X-84.597 Y-58.805 I6.032
X-84.321 Y-57 I-5.756 J1.805
G1 X-84.317 Y-56.664 F850
X-84.189 Y-55.328
X-84.166 Y-55.248
X-84.13 Y-55.102
X-84.104 Y-54.954
X-84.086 Y-54.801
X-84.076 Y-54.635
X-84.074 Y-54.457
X-84.083 Y-54.267
X-84.103 Y-54.065
X-84.136 Y-53.853
X-84.183 Y-53.632
X-84.245 Y-53.402
X-84.323 Y-53.165
X-84.417 Y-52.923
X-84.529 Y-52.676
X-84.659 Y-52.426
X-84.807 Y-52.175
X-84.974 Y-51.925
X-85.16 Y-51.676
X-85.365 Y-51.431
X-85.589 Y-51.192
X-85.831 Y-50.959
X-86.09 Y-50.735
X-86.368 Y-50.521
X-86.661 Y-50.318
X-86.971 Y-50.129
X-87.296 Y-49.954
X-87.634 Y-49.795
X-87.985 Y-49.652
X-88.347 Y-49.527
X-88.72 Y-49.421
X-89.101 Y-49.334
X-89.491 Y-49.267
X-89.886 Y-49.222
X-90.286 Y-49.197
X-90.69 Y-49.195
X-91.095 Y-49.214
X-91.501 Y-49.255
X-91.907 Y-49.319
X-92.309 Y-49.405
X-92.709 Y-49.513
X-93.103 Y-49.643
X-93.491 Y-49.795
X-93.871 Y-49.968
X-94.242 Y-50.162
X-94.603 Y-50.376
X-94.952 Y-50.61
X-95.289 Y-50.863
X-95.613 Y-51.134
X-95.921 Y-51.423
X-96.214 Y-51.729
X-96.49 Y-52.05
X-96.749 Y-52.386
X-96.989 Y-52.737
X-97.21 Y-53.1
X-97.412 Y-53.474
X-97.592 Y-53.86
X-97.752 Y-54.255
X-97.89 Y-54.658
X-98.007 Y-55.068
X-98.101 Y-55.484
X-98.172 Y-55.905
X-98.22 Y-56.329
X-98.245 Y-56.756
X-98.247 Y-57.183
X-98.226 Y-57.61
X-98.182 Y-58.035
X-98.115 Y-58.457
X-98.025 Y-58.875
X-97.912 Y-59.288
X-97.778 Y-59.694
X-97.621 Y-60.092
X-97.443 Y-60.481
X-97.244 Y-60.86
X-97.025 Y-61.228
X-96.787 Y-61.583
X-96.529 Y-61.925
X-96.253 Y-62.252
X-95.96 Y-62.564
X-95.651 Y-62.86
X-95.325 Y-63.138
X-94.986 Y-63.399
X-94.632 Y-63.64
X-94.266 Y-63.862
X-93.888 Y-64.064
X-93.5 Y-64.245
X-93.103 Y-64.405
X-92.698 Y-64.544
X-92.286 Y-64.66
X-91.868 Y-64.753
X-91.445 Y-64.824
X-91.02 Y-64.871
X-90.592 Y-64.896
X-90.164 Y-64.897
X-89.736 Y-64.875
X-89.31 Y-64.83
X-88.887 Y-64.762
X-88.469 Y-64.672
X-88.056 Y-64.558
X-87.65 Y-64.423
X-87.251 Y-64.265
X-86.862 Y-64.086
X-86.483 Y-63.887
X-86.116 Y-63.667
X-85.761 Y-63.427
X-85.419 Y-63.169
X-85.092 Y-62.892
X-84.78 Y-62.599
X-84.485 Y-62.288
X-84.207 Y-61.962
X-83.947 Y-61.622
X-83.706 Y-61.268
X-83.484 Y-60.901
X-83.283 Y-60.523
X-82.973 Y-59.857
X-82.64 Y-59.026
X-82.414 Y-58.359
X-82.248 Y-57.765
X-82.129 Y-57.226
X-82.044 Y-56.712
X-81.99 Y-56.223
X-81.963 Y-55.753
Y-55.296
X-81.986 Y-54.849
X-82.034 Y-54.411
X-82.104 Y-53.98
X-82.197 Y-53.556
X-82.312 Y-53.139
X-82.449 Y-52.729
X-82.609 Y-52.327
X-82.791 Y-51.933
X-82.995 Y-51.548
X-83.221 Y-51.171
X-83.469 Y-50.805
X-83.738 Y-50.451
X-84.028 Y-50.108
X-84.34 Y-49.779
X-84.671 Y-49.465
X-85.022 Y-49.167
X-85.392 Y-48.885
X-85.78 Y-48.622
X-86.184 Y-48.379
X-86.604 Y-48.156
X-87.039 Y-47.955
X-87.488 Y-47.776
X-87.949 Y-47.62
X-88.421 Y-47.489
X-88.903 Y-47.383
X-89.393 Y-47.303
X-89.889 Y-47.249
X-90.391 Y-47.222
X-90.896 Y-47.223
X-91.403 Y-47.25
X-91.911 Y-47.306
X-92.417 Y-47.389
X-92.919 Y-47.5
X-93.418 Y-47.639
X-93.909 Y-47.805
X-94.393 Y-47.998
X-94.866 Y-48.217
X-95.329 Y-48.463
X-95.779 Y-48.734
X-96.214 Y-49.03
X-96.633 Y-49.35
X-97.036 Y-49.692
X-97.42 Y-50.057
X-97.784 Y-50.442
X-98.127 Y-50.848
X-98.449 Y-51.272
X-98.747 Y-51.713
X-99.021 Y-52.17
X-99.27 Y-52.642
X-99.494 Y-53.127
X-99.691 Y-53.624
X-99.861 Y-54.132
X-100.003 Y-54.648
X-100.117 Y-55.172
X-100.203 Y-55.701
X-100.26 Y-56.234
X-100.288 Y-56.77
X-100.287 Y-57.307
X-100.257 Y-57.844
X-100.197 Y-58.378
X-100.109 Y-58.908
X-99.992 Y-59.433
X-99.847 Y-59.951
X-99.674 Y-60.461
X-99.473 Y-60.96
X-99.246 Y-61.448
X-98.993 Y-61.923
X-98.714 Y-62.384
X-98.41 Y-62.829
X-98.083 Y-63.256
X-97.733 Y-63.666
X-97.362 Y-64.056
X-96.969 Y-64.425
X-96.557 Y-64.773
X-96.127 Y-65.098
X-95.68 Y-65.399
X-95.218 Y-65.675
X-94.741 Y-65.926
X-94.251 Y-66.151
X-93.749 Y-66.349
X-93.238 Y-66.519
X-92.718 Y-66.661
X-92.191 Y-66.775
X-91.658 Y-66.86
X-91.122 Y-66.917
X-90.584 Y-66.944
X-90.044 Y-66.942
X-89.506 Y-66.91
X-88.97 Y-66.85
X-88.438 Y-66.761
X-87.912 Y-66.643
X-87.393 Y-66.496
X-86.883 Y-66.322
X-86.383 Y-66.12
X-85.895 Y-65.891
X-85.419 Y-65.637
X-84.958 Y-65.357
X-84.513 Y-65.052
X-84.086 Y-64.724
X-83.676 Y-64.373
X-83.259 Y-63.974
X-82.855 Y-63.543
X-82.442 Y-63.052
X-82.04 Y-62.517
X-81.661 Y-61.953
X-81.315 Y-61.37
X-81.003 Y-60.775
X-80.727 Y-60.171
X-80.489 Y-59.563
X-80.287 Y-58.955
X-80.122 Y-58.347
X-79.992 Y-57.742
X-79.897 Y-57.141
X-79.836 Y-56.546
X-79.807 Y-55.956
X-79.81 Y-55.373
X-79.845 Y-54.795
X-79.91 Y-54.225
X-80.006 Y-53.662
X-80.131 Y-53.107
X-80.286 Y-52.562
X-80.471 Y-52.026
X-80.683 Y-51.501
X-80.925 Y-50.988
X-81.194 Y-50.488
X-81.49 Y-50.003
X-81.813 Y-49.533
X-82.162 Y-49.079
X-82.537 Y-48.644
X-82.936 Y-48.228
X-83.36 Y-47.832
X-83.805 Y-47.458
X-84.273 Y-47.108
X-84.762 Y-46.781
X-85.269 Y-46.48
X-85.796 Y-46.206
X-86.338 Y-45.959
X-86.896 Y-45.742
X-87.468 Y-45.553
X-88.053 Y-45.396
X-88.648 Y-45.269
X-89.251 Y-45.175
X-89.862 Y-45.113
X-90.478 Y-45.084
X-91.098 Y-45.088
X-91.719 Y-45.127
X-92.34 Y-45.199
X-92.958 Y-45.305
X-93.571 Y-45.445
X-94.178 Y-45.619
X-94.777 Y-45.826
X-95.365 Y-46.065
X-95.942 Y-46.337
X-96.503 Y-46.641
X-97.049 Y-46.975
X-97.577 Y-47.34
X-98.086 Y-47.733
X-98.574 Y-48.154
X-99.039 Y-48.602
X-99.479 Y-49.075
X-99.894 Y-49.572
X-100.282 Y-50.091
X-100.642 Y-50.631
X-100.972 Y-51.191
X-101.272 Y-51.768
X-101.54 Y-52.362
X-101.776 Y-52.969
X-101.979 Y-53.59
X-102.148 Y-54.22
X-102.283 Y-54.859
X-102.383 Y-55.506
X-102.448 Y-56.157
X-102.477 Y-56.81
X-102.471 Y-57.465
X-102.43 Y-58.119
X-102.353 Y-58.77
X-102.241 Y-59.416
X-102.093 Y-60.055
X-101.912 Y-60.686
X-101.696 Y-61.306
X-101.448 Y-61.913
X-101.166 Y-62.507
X-100.853 Y-63.084
X-100.509 Y-63.644
X-100.135 Y-64.184
X-99.732 Y-64.703
X-99.301 Y-65.2
X-98.844 Y-65.672
X-98.363 Y-66.12
X-97.857 Y-66.54
X-97.33 Y-66.933
X-96.782 Y-67.296
X-96.215 Y-67.63
X-95.63 Y-67.932
X-95.03 Y-68.202
X-94.417 Y-68.439
X-93.791 Y-68.642
X-93.155 Y-68.812
X-92.511 Y-68.946
X-91.861 Y-69.046
X-91.206 Y-69.11
X-90.548 Y-69.138
X-89.89 Y-69.131
X-89.234 Y-69.088
X-88.58 Y-69.01
X-87.932 Y-68.896
X-87.291 Y-68.747
X-86.659 Y-68.564
X-86.038 Y-68.347
X-85.429 Y-68.096
X-84.83 Y-67.811
X-84.241 Y-67.49
X-83.659 Y-67.131
X-83.084 Y-66.731
X-82.522 Y-66.293
X-81.976 Y-65.818
X-81.45 Y-65.308
X-80.946 Y-64.764
X-80.469 Y-64.188
X-80.021 Y-63.583
X-79.605 Y-62.954
X-79.224 Y-62.303
X-78.88 Y-61.634
X-78.574 Y-60.952
X-78.307 Y-60.258
X-78.08 Y-59.556
X-77.893 Y-58.849
X-77.746 Y-58.138
X-77.638 Y-57.425
X-77.57 Y-56.712
X-77.54 Y-56.001
X-77.549 Y-55.293
X-77.596 Y-54.59
X-77.681 Y-53.892
X-77.803 Y-53.203
X-77.962 Y-52.523
X-78.158 Y-51.853
X-78.389 Y-51.195
X-78.655 Y-50.551
X-78.956 Y-49.923
X-79.291 Y-49.311
X-79.659 Y-48.717
X-80.059 Y-48.143
X-80.491 Y-47.591
X-80.953 Y-47.062
X-81.444 Y-46.557
X-81.963 Y-46.079
X-82.509 Y-45.628
X-83.081 Y-45.205
X-83.676 Y-44.814
X-84.294 Y-44.453
X-84.933 Y-44.126
X-85.591 Y-43.832
X-86.267 Y-43.574
X-86.958 Y-43.352
X-87.662 Y-43.167
X-88.379 Y-43.02
X-89.105 Y-42.912
X-89.838 Y-42.843
X-90.577 Y-42.813
X-91.319 Y-42.824
X-92.062 Y-42.875
X-92.803 Y-42.966
X-93.54 Y-43.098
X-94.272 Y-43.271
X-94.995 Y-43.483
X-95.707 Y-43.735
X-96.406 Y-44.026
X-97.091 Y-44.355
X-97.758 Y-44.721
X-98.405 Y-45.124
X-99.032 Y-45.563
X-99.634 Y-46.036
X-100.211 Y-46.541
X-100.761 Y-47.078
X-101.282 Y-47.645
X-101.772 Y-48.24
X-102.229 Y-48.862
X-102.653 Y-49.508
X-103.041 Y-50.177
X-103.393 Y-50.867
X-103.708 Y-51.575
X-103.983 Y-52.3
X-104.22 Y-53.04
X-104.416 Y-53.792
X-104.571 Y-54.554
X-104.684 Y-55.324
X-104.756 Y-56.099
X-104.786 Y-56.878
X-104.773 Y-57.657
X-104.718 Y-58.435
X-104.621 Y-59.209
X-104.482 Y-59.977
X-104.302 Y-60.737
X-104.081 Y-61.486
X-103.819 Y-62.222
X-103.518 Y-62.943
X-103.178 Y-63.647
X-102.8 Y-64.331
X-102.386 Y-64.994
X-101.936 Y-65.634
X-101.452 Y-66.249
X-100.935 Y-66.836
X-100.388 Y-67.395
X-99.81 Y-67.923
X-99.205 Y-68.42
X-98.574 Y-68.883
X-97.919 Y-69.311
X-97.241 Y-69.703
X-96.543 Y-70.057
X-95.827 Y-70.374
X-95.094 Y-70.651
X-94.348 Y-70.888
X-93.589 Y-71.084
X-92.822 Y-71.239
X-92.047 Y-71.352
X-91.266 Y-71.422
X-90.484 Y-71.451
X-89.7 Y-71.437
X-88.919 Y-71.38
X-88.142 Y-71.281
X-87.37 Y-71.141
X-86.606 Y-70.958
X-85.848 Y-70.732
X-85.098 Y-70.464
X-84.357 Y-70.153
X-83.627 Y-69.799
X-82.909 Y-69.401
X-82.207 Y-68.961
X-81.524 Y-68.479
X-80.862 Y-67.955
X-80.224 Y-67.393
X-79.613 Y-66.792
X-79.034 Y-66.157
X-78.487 Y-65.488
X-77.977 Y-64.79
X-77.506 Y-64.065
X-77.074 Y-63.316
X-76.685 Y-62.546
X-76.339 Y-61.759
X-76.037 Y-60.956
X-75.779 Y-60.141
X-75.568 Y-59.316
X-75.401 Y-58.485
X-75.281 Y-57.648
X-75.206 Y-56.809
X-75.177 Y-55.97
X-75.194 Y-55.133
X-75.256 Y-54.301
X-75.362 Y-53.474
X-75.513 Y-52.657
X-75.708 Y-51.849
X-75.946 Y-51.055
X-76.226 Y-50.274
X-76.548 Y-49.511
X-76.912 Y-48.765
X-77.315 Y-48.041
X-77.757 Y-47.338
X-78.238 Y-46.66
X-78.755 Y-46.008
X-79.307 Y-45.384
X-79.894 Y-44.789
X-80.513 Y-44.226
X-81.164 Y-43.696
X-81.844 Y-43.201
X-82.551 Y-42.743
X-83.285 Y-42.322
X-84.042 Y-41.941
X-84.821 Y-41.6
X-85.62 Y-41.301
X-86.436 Y-41.045
X-87.268 Y-40.833
X-88.112 Y-40.666
X-88.966 Y-40.545
X-89.829 Y-40.469
X-90.696 Y-40.441
X-91.567 Y-40.46
X-92.437 Y-40.526
X-93.305 Y-40.639
X-94.168 Y-40.8
X-95.023 Y-41.008
X-95.868 Y-41.262
X-96.699 Y-41.563
X-97.515 Y-41.908
X-98.312 Y-42.299
X-99.089 Y-42.733
X-99.842 Y-43.209
X-100.57 Y-43.726
X-101.27 Y-44.283
X-101.94 Y-44.878
X-102.577 Y-45.51
X-103.18 Y-46.176
X-103.747 Y-46.874
X-104.276 Y-47.603
X-104.765 Y-48.361
X-105.213 Y-49.145
X-105.618 Y-49.953
X-105.979 Y-50.782
X-106.295 Y-51.63
X-106.564 Y-52.495
X-106.787 Y-53.374
X-106.961 Y-54.265
X-107.088 Y-55.164
X-107.165 Y-56.069
X-107.193 Y-56.977
X-107.172 Y-57.887
X-107.102 Y-58.794
X-106.982 Y-59.696
X-106.814 Y-60.591
X-106.597 Y-61.476
X-106.333 Y-62.348
X-106.021 Y-63.204
X-105.664 Y-64.043
X-105.262 Y-64.861
X-104.815 Y-65.657
X-104.326 Y-66.427
X-103.796 Y-67.17
X-103.227 Y-67.883
X-102.619 Y-68.564
X-101.976 Y-69.212
X-101.298 Y-69.824
X-100.588 Y-70.398
X-99.847 Y-70.933
X-99.079 Y-71.427
X-98.285 Y-71.879
X-97.468 Y-72.287
X-96.629 Y-72.65
X-95.772 Y-72.967
X-94.9 Y-73.237
X-94.013 Y-73.46
X-93.116 Y-73.634
X-92.211 Y-73.76
X-91.3 Y-73.836
X-90.386 Y-73.863
X-89.471 Y-73.84
X-88.556 Y-73.767
X-87.645 Y-73.645
X-86.738 Y-73.473
X-85.837 Y-73.25
X-84.945 Y-72.978
X-84.065 Y-72.656
X-83.197 Y-72.285
X-82.346 Y-71.864
X-81.513 Y-71.395
X-80.701 Y-70.878
X-79.914 Y-70.314
X-79.154 Y-69.705
X-78.424 Y-69.052
X-77.728 Y-68.358
X-77.069 Y-67.625
X-76.449 Y-66.855
X-75.871 Y-66.053
X-75.338 Y-65.22
X-74.85 Y-64.359
X-74.41 Y-63.474
X-74.02 Y-62.568
X-73.679 Y-61.644
X-73.39 Y-60.705
X-73.153 Y-59.753
X-72.968 Y-58.793
X-72.836 Y-57.825
X-72.756 Y-56.855
X-72.729 Y-55.883
X-72.755 Y-54.913
X-72.834 Y-53.948
X-72.964 Y-52.99
X-73.146 Y-52.041
X-73.379 Y-51.105
X-73.662 Y-50.183
X-73.994 Y-49.278
X-74.375 Y-48.393
X-74.804 Y-47.529
X-75.278 Y-46.69
X-75.798 Y-45.877
X-76.362 Y-45.092
X-76.968 Y-44.339
X-77.615 Y-43.618
X-78.302 Y-42.933
X-79.025 Y-42.285
X-79.784 Y-41.675
X-80.577 Y-41.107
X-81.401 Y-40.581
X-82.254 Y-40.099
X-83.134 Y-39.664
X-84.039 Y-39.276
X-84.966 Y-38.936
X-85.912 Y-38.647
X-86.874 Y-38.409
X-87.851 Y-38.223
X-88.839 Y-38.089
X-89.835 Y-38.009
X-90.836 Y-37.984
X-91.84 Y-38.012
X-92.843 Y-38.095
X-93.842 Y-38.233
X-94.834 Y-38.425
X-95.817 Y-38.671
X-96.787 Y-38.971
X-97.742 Y-39.324
X-98.677 Y-39.728
X-99.591 Y-40.184
X-100.481 Y-40.689
X-101.343 Y-41.243
X-102.175 Y-41.843
X-102.975 Y-42.489
X-103.74 Y-43.178
X-104.467 Y-43.908
X-105.154 Y-44.678
X-105.799 Y-45.485
X-106.401 Y-46.326
X-106.956 Y-47.2
X-107.464 Y-48.104
X-107.922 Y-49.034
X-108.33 Y-49.989
X-108.686 Y-50.966
X-108.988 Y-51.961
X-109.236 Y-52.971
X-109.43 Y-53.994
X-109.567 Y-55.027
X-109.649 Y-56.066
X-109.674 Y-57.109
X-109.642 Y-58.152
X-109.554 Y-59.192
X-109.409 Y-60.227
X-109.209 Y-61.252
X-108.953 Y-62.265
X-108.643 Y-63.264
X-108.279 Y-64.244
X-107.862 Y-65.204
X-107.394 Y-66.139
X-106.875 Y-67.048
X-106.308 Y-67.928
X-105.694 Y-68.776
X-105.035 Y-69.59
X-104.332 Y-70.367
X-103.589 Y-71.104
X-102.806 Y-71.801
X-101.987 Y-72.454
X-101.133 Y-73.061
X-100.248 Y-73.622
X-99.333 Y-74.134
X-98.392 Y-74.595
X-97.427 Y-75.005
X-96.442 Y-75.362
X-95.438 Y-75.666
X-94.419 Y-75.914
X-93.388 Y-76.107
X-92.348 Y-76.243
X-91.3 Y-76.324
X-90.248 Y-76.347
X-89.195 Y-76.313
X-88.142 Y-76.222
X-87.092 Y-76.074
X-86.048 Y-75.868
X-85.013 Y-75.605
X-83.988 Y-75.284
X-82.978 Y-74.907
X-81.985 Y-74.474
X-81.012 Y-73.984
X-80.063 Y-73.441
X-79.14 Y-72.843
X-78.246 Y-72.194
X-77.387 Y-71.495
X-76.563 Y-70.748
X-75.78 Y-69.955
X-75.039 Y-69.119
X-74.343 Y-68.243
X-73.695 Y-67.33
X-73.098 Y-66.383
X-72.553 Y-65.404
X-72.061 Y-64.399
X-71.626 Y-63.369
X-71.247 Y-62.317
X-70.926 Y-61.249
X-70.664 Y-60.165
X-70.462 Y-59.071
X-70.319 Y-57.969
X-70.236 Y-56.863
X-70.214 Y-55.755
X-70.251 Y-54.649
X-70.348 Y-53.548
X-70.505 Y-52.455
X-70.72 Y-51.373
X-70.994 Y-50.305
X-71.325 Y-49.253
X-71.712 Y-48.221
X-72.155 Y-47.212
X-72.652 Y-46.228
X-73.201 Y-45.272
X-73.802 Y-44.347
X-74.453 Y-43.455
X-75.152 Y-42.598
X-75.897 Y-41.78
X-76.687 Y-41.002
X-77.519 Y-40.267
X-78.39 Y-39.578
X-79.3 Y-38.935
X-80.244 Y-38.342
X-81.222 Y-37.799
X-82.229 Y-37.31
X-83.263 Y-36.874
X-84.322 Y-36.495
X-85.402 Y-36.173
X-86.5 Y-35.91
X-87.613 Y-35.705
X-88.738 Y-35.562
X-89.871 Y-35.479
X-91.01 Y-35.458
X-92.151 Y-35.498
X-93.29 Y-35.601
X-94.424 Y-35.765
X-95.55 Y-35.991
X-96.663 Y-36.279
X-97.762 Y-36.626
X-98.842 Y-37.034
X-99.9 Y-37.501
X-100.933 Y-38.024
X-101.938 Y-38.604
X-102.911 Y-39.239
X-103.85 Y-39.926
X-104.751 Y-40.665
X-105.612 Y-41.452
X-106.431 Y-42.285
X-107.203 Y-43.163
X-107.928 Y-44.082
X-108.603 Y-45.04
X-109.225 Y-46.034
X-109.793 Y-47.062
X-110.304 Y-48.12
X-110.759 Y-49.204
X-111.154 Y-50.313
X-111.488 Y-51.442
X-111.761 Y-52.588
X-111.972 Y-53.748
X-112.119 Y-54.919
X-112.203 Y-56.096
X-112.223 Y-57.277
X-112.179 Y-58.457
X-112.071 Y-59.634
X-111.899 Y-60.804
X-111.664 Y-61.963
X-111.367 Y-63.108
X-111.007 Y-64.236
X-110.587 Y-65.343
X-110.108 Y-66.426
X-109.57 Y-67.481
X-108.976 Y-68.506
X-108.327 Y-69.498
X-107.625 Y-70.453
X-106.872 Y-71.369
X-106.071 Y-72.242
X-105.223 Y-73.071
X-104.332 Y-73.854
X-103.399 Y-74.586
X-102.428 Y-75.267
X-101.421 Y-75.895
X-100.382 Y-76.467
X-99.313 Y-76.982
X-98.217 Y-77.438
X-97.099 Y-77.835
X-95.959 Y-78.17
X-94.803 Y-78.443
X-93.633 Y-78.654
X-92.452 Y-78.801
X-91.263 Y-78.883
X-90.069 Y-78.901
X-88.873 Y-78.855
X-87.679 Y-78.743
X-86.489 Y-78.566
X-85.306 Y-78.324
X-84.135 Y-78.017
X-82.977 Y-77.647
X-81.838 Y-77.212
X-80.719 Y-76.714
X-79.624 Y-76.154
X-78.558 Y-75.533
X-77.524 Y-74.854
X-76.524 Y-74.116
X-75.563 Y-73.324
X-74.645 Y-72.478
X-73.771 Y-71.582
X-72.946 Y-70.638
X-72.173 Y-69.65
X-71.453 Y-68.621
X-70.791 Y-67.553
X-70.187 Y-66.451
X-69.643 Y-65.318
X-69.162 Y-64.158
X-68.745 Y-62.974
X-68.393 Y-61.771
X-68.107 Y-60.551
X-67.888 Y-59.319
X-67.736 Y-58.078
X-67.652 Y-56.832
X-67.635 Y-55.584
X-67.686 Y-54.339
X-67.804 Y-53.099
X-67.989 Y-51.868
X-68.24 Y-50.65
X-68.557 Y-49.447
X-68.939 Y-48.264
X-69.384 Y-47.103
X-69.891 Y-45.968
X-70.46 Y-44.862
X-71.087 Y-43.788
X-71.773 Y-42.749
X-72.514 Y-41.748
X-73.309 Y-40.788
X-74.156 Y-39.871
X-75.052 Y-39.001
X-75.995 Y-38.179
X-76.983 Y-37.409
X-78.013 Y-36.692
X-79.081 Y-36.031
X-80.186 Y-35.428
X-81.323 Y-34.885
X-82.491 Y-34.404
X-83.685 Y-33.985
X-84.902 Y-33.632
X-86.139 Y-33.344
X-87.392 Y-33.123
X-88.658 Y-32.97
X-89.932 Y-32.886
X-91.211 Y-32.872
X-92.492 Y-32.926
X-93.77 Y-33.05
X-95.042 Y-33.244
X-96.304 Y-33.506
X-97.551 Y-33.838
X-98.781 Y-34.237
X-99.99 Y-34.702
X-101.173 Y-35.234
X-102.327 Y-35.829
X-103.449 Y-36.488
X-104.535 Y-37.207
X-105.581 Y-37.984
X-106.585 Y-38.819
X-107.544 Y-39.707
X-108.454 Y-40.648
X-109.313 Y-41.637
X-110.117 Y-42.672
X-110.865 Y-43.751
X-111.554 Y-44.869
X-112.182 Y-46.024
X-112.747 Y-47.212
X-113.247 Y-48.43
X-113.68 Y-49.675
X-114.046 Y-50.941
X-114.342 Y-52.227
X-114.569 Y-53.527
X-114.725 Y-54.838
X-114.809 Y-56.157
X-114.822 Y-57.478
X-114.764 Y-58.799
X-114.634 Y-60.116
X-114.432 Y-61.424
X-114.16 Y-62.719
X-113.818 Y-63.998
X-113.407 Y-65.258
X-112.928 Y-66.493
X-112.383 Y-67.701
X-111.773 Y-68.878
X-111.1 Y-70.02
X-110.366 Y-71.124
X-109.573 Y-72.188
X-108.724 Y-73.206
X-107.82 Y-74.178
X-106.865 Y-75.099
X-105.861 Y-75.967
X-104.812 Y-76.779
X-103.72 Y-77.534
X-102.589 Y-78.228
X-101.421 Y-78.86
X-100.221 Y-79.428
X-98.991 Y-79.93
X-97.735 Y-80.365
X-96.457 Y-80.732
X-95.161 Y-81.029
X-93.848 Y-81.255
X-92.524 Y-81.41
X-91.191 Y-81.493
X-89.854 Y-81.504
X-88.515 Y-81.442
X-87.179 Y-81.308
X-85.853 Y-81.101
X-84.54 Y-80.824
X-83.244 Y-80.475
X-81.968 Y-80.058
X-80.717 Y-79.573
X-79.493 Y-79.023
X-78.3 Y-78.407
X-77.141 Y-77.73
X-76.02 Y-76.992
X-74.939 Y-76.197
X-73.901 Y-75.345
X-72.91 Y-74.441
X-71.967 Y-73.486
X-71.075 Y-72.483
X-70.237 Y-71.435
X-69.454 Y-70.344
X-68.729 Y-69.215
X-68.064 Y-68.049
X-67.46 Y-66.85
X-66.919 Y-65.622
X-66.444 Y-64.367
X-66.034 Y-63.089
X-65.692 Y-61.791
X-65.418 Y-60.477
X-65.213 Y-59.151
X-65.079 Y-57.815
X-65.014 Y-56.475
X-65.02 Y-55.133
X-65.097 Y-53.793
X-65.243 Y-52.458
X-65.459 Y-51.134
X-65.744 Y-49.822
X-66.098 Y-48.528
X-66.519 Y-47.253
X-67.006 Y-46.003
X-67.558 Y-44.779
X-68.174 Y-43.587
X-68.851 Y-42.428
X-69.588 Y-41.306
X-70.383 Y-40.225
X-71.233 Y-39.186
X-72.136 Y-38.193
X-73.09 Y-37.249
X-74.092 Y-36.356
X-75.139 Y-35.516
X-76.228 Y-34.732
X-77.357 Y-34.005
X-78.521 Y-33.338
X-79.719 Y-32.733
X-80.947 Y-32.19
X-82.201 Y-31.712
X-83.478 Y-31.3
X-84.775 Y-30.954
X-86.088 Y-30.676
X-87.414 Y-30.467
X-88.748 Y-30.325
X-90.089 Y-30.253
X-91.431 Y-30.249
X-92.771 Y-30.313
X-94.107 Y-30.445
X-95.434 Y-30.645
X-96.749 Y-30.912
X-98.049 Y-31.246
X-99.331 Y-31.644
X-100.591 Y-32.107
X-101.826 Y-32.632
X-103.033 Y-33.22
X-104.208 Y-33.868
X-105.349 Y-34.575
X-106.452 Y-35.339
X-107.515 Y-36.158
X-108.536 Y-37.03
X-109.512 Y-37.951
X-110.441 Y-38.92
X-111.32 Y-39.934
X-112.148 Y-40.99
X-112.922 Y-42.087
X-113.641 Y-43.22
X-114.303 Y-44.388
X-114.905 Y-45.587
X-115.446 Y-46.816
X-115.924 Y-48.07
X-116.339 Y-49.346
X-116.689 Y-50.642
X-116.975 Y-51.953
X-117.195 Y-53.277
X-117.35 Y-54.61
X-117.439 Y-55.95
X-117.461 Y-57.291
X-117.417 Y-58.633
X-117.307 Y-59.971
X-117.131 Y-61.301
X-116.888 Y-62.621
X-116.579 Y-63.927
X-116.205 Y-65.216
X-115.768 Y-66.485
X-115.268 Y-67.731
X-114.708 Y-68.95
X-114.088 Y-70.141
X-113.41 Y-71.299
X-112.676 Y-72.423
X-111.888 Y-73.509
X-111.047 Y-74.555
X-110.155 Y-75.558
X-109.214 Y-76.515
X-108.226 Y-77.424
X-107.194 Y-78.282
X-106.121 Y-79.088
X-105.01 Y-79.841
X-103.863 Y-80.537
X-102.683 Y-81.177
X-101.473 Y-81.758
X-100.236 Y-82.279
X-98.975 Y-82.738
X-97.692 Y-83.134
X-96.392 Y-83.466
X-95.076 Y-83.732
X-93.749 Y-83.933
X-92.414 Y-84.068
X-91.074 Y-84.137
X-89.731 Y-84.141
X-88.391 Y-84.079
X-87.055 Y-83.953
X-85.726 Y-83.762
X-84.408 Y-83.506
X-83.105 Y-83.186
X-81.819 Y-82.803
X-80.553 Y-82.356
X-79.31 Y-81.849
X-78.093 Y-81.283
X-76.905 Y-80.659
X-75.748 Y-79.979
X-74.624 Y-79.245
X-73.537 Y-78.459
X-72.487 Y-77.622
X-71.479 Y-76.737
X-70.514 Y-75.803
X-69.595 Y-74.825
X-68.724 Y-73.804
X-67.903 Y-72.743
X-67.132 Y-71.644
X-66.414 Y-70.51
X-65.749 Y-69.344
X-65.141 Y-68.148
X-64.588 Y-66.924
X-64.094 Y-65.677
X-63.66 Y-64.407
X-63.287 Y-63.117
X-62.977 Y-61.812
X-62.729 Y-60.492
X-62.544 Y-59.163
X-62.423 Y-57.826
X-62.364 Y-56.486
X-62.369 Y-55.143
X-62.437 Y-53.803
X-62.568 Y-52.467
X-62.762 Y-51.139
X-63.02 Y-49.822
X-63.341 Y-48.519
X-63.723 Y-47.232
X-64.167 Y-45.966
X-64.671 Y-44.722
X-65.233 Y-43.503
X-65.851 Y-42.312
X-66.525 Y-41.151
X-67.253 Y-40.023
X-68.033 Y-38.931
X-68.864 Y-37.877
X-69.745 Y-36.864
X-70.673 Y-35.895
X-71.646 Y-34.971
X-72.662 Y-34.094
X-73.718 Y-33.266
X-74.812 Y-32.488
X-75.941 Y-31.762
X-77.103 Y-31.09
X-78.295 Y-30.473
X-79.515 Y-29.913
X-80.759 Y-29.41
X-82.026 Y-28.968
X-83.313 Y-28.586
X-84.617 Y-28.266
X-85.933 Y-28.007
X-87.261 Y-27.81
X-88.596 Y-27.674
X-89.936 Y-27.601
X-91.279 Y-27.589
X-92.62 Y-27.639
X-93.957 Y-27.75
X-95.288 Y-27.924
X-96.61 Y-28.159
X-97.919 Y-28.455
X-99.212 Y-28.812
X-100.488 Y-29.228
X-101.744 Y-29.703
X-102.977 Y-30.234
X-104.183 Y-30.821
X-105.362 Y-31.463
X-106.51 Y-32.158
X-107.625 Y-32.905
X-108.705 Y-33.702
X-109.747 Y-34.549
X-110.748 Y-35.442
X-111.708 Y-36.381
X-112.623 Y-37.362
X-113.494 Y-38.384
X-114.317 Y-39.444
X-115.092 Y-40.54
X-115.816 Y-41.669
X-116.489 Y-42.831
X-117.109 Y-44.021
X-117.673 Y-45.239
X-118.181 Y-46.482
X-118.63 Y-47.746
X-119.022 Y-49.03
X-119.355 Y-50.33
X-119.629 Y-51.644
X-119.843 Y-52.969
X-119.998 Y-54.302
X-120.093 Y-55.641
X-120.128 Y-56.983
X-120.104 Y-58.325
X-120.018 Y-59.664
X-119.871 Y-60.998
X-119.663 Y-62.324
X-119.394 Y-63.639
X-119.066 Y-64.94
X-118.68 Y-66.226
X-118.236 Y-67.492
X-117.736 Y-68.738
X-117.181 Y-69.96
X-116.572 Y-71.156
X-115.91 Y-72.323
X-115.197 Y-73.46
X-114.432 Y-74.564
X-113.618 Y-75.631
X-112.756 Y-76.659
X-111.848 Y-77.648
X-110.897 Y-78.594
X-109.903 Y-79.497
X-108.871 Y-80.354
X-107.8 Y-81.164
X-106.695 Y-81.926
X-105.557 Y-82.637
X-104.389 Y-83.298
X-103.192 Y-83.904
X-101.968 Y-84.456
X-100.721 Y-84.951
X-99.452 Y-85.39
X-98.165 Y-85.77
X-96.862 Y-86.092
X-95.546 Y-86.356
X-94.22 Y-86.56
X-92.885 Y-86.705
X-91.546 Y-86.791
X-90.204 Y-86.818
X-88.862 Y-86.784
X-87.523 Y-86.691
X-86.19 Y-86.537
X-84.865 Y-86.323
X-83.551 Y-86.05
X-82.25 Y-85.72
X-80.965 Y-85.332
X-79.699 Y-84.888
X-78.453 Y-84.389
X-77.23 Y-83.836
X-76.032 Y-83.23
X-74.862 Y-82.573
X-73.722 Y-81.865
X-72.614 Y-81.108
X-71.54 Y-80.302
X-70.503 Y-79.451
X-69.503 Y-78.554
X-68.544 Y-77.616
X-67.626 Y-76.637
X-66.751 Y-75.619
X-65.921 Y-74.564
X-65.137 Y-73.475
X-64.399 Y-72.354
X-63.711 Y-71.201
X-63.074 Y-70.02
X-62.489 Y-68.812
X-61.957 Y-67.58
X-61.479 Y-66.326
X-61.056 Y-65.052
X-60.689 Y-63.761
X-60.378 Y-62.455
X-60.123 Y-61.138
X-59.925 Y-59.81
X-59.785 Y-58.475
X-59.702 Y-57.136
X-59.677 Y-55.794
X-59.711 Y-54.452
X-59.804 Y-53.113
X-59.955 Y-51.78
X-60.164 Y-50.454
X-60.43 Y-49.138
X-60.754 Y-47.836
X-61.133 Y-46.548
X-61.567 Y-45.278
X-62.056 Y-44.028
X-62.598 Y-42.8
X-63.192 Y-41.597
X-63.839 Y-40.421
X-64.536 Y-39.274
X-65.283 Y-38.159
X-66.077 Y-37.077
X-66.918 Y-36.031
X-67.803 Y-35.022
X-68.731 Y-34.052
X-69.7 Y-33.123
X-70.707 Y-32.237
X-71.752 Y-31.394
X-72.832 Y-30.597
X-73.945 Y-29.847
X-75.089 Y-29.146
X-76.263 Y-28.496
X-77.465 Y-27.897
X-78.69 Y-27.35
X-79.939 Y-26.857
X-81.207 Y-26.418
X-82.493 Y-26.034
X-83.794 Y-25.705
X-85.108 Y-25.431
X-86.433 Y-25.214
X-87.765 Y-25.053
X-89.103 Y-24.948
X-90.444 Y-24.902
X-91.787 Y-24.913
X-93.127 Y-24.98
X-94.463 Y-25.105
X-95.793 Y-25.286
X-97.114 Y-25.524
X-98.424 Y-25.816
X-99.721 Y-26.164
X-101.001 Y-26.565
X-102.264 Y-27.02
X-103.507 Y-27.527
X-104.727 Y-28.086
X-105.922 Y-28.697
X-107.09 Y-29.358
X-108.229 Y-30.068
X-109.337 Y-30.825
X-110.413 Y-31.628
X-111.454 Y-32.475
X-112.458 Y-33.365
X-113.425 Y-34.296
X-114.353 Y-35.266
X-115.239 Y-36.274
X-116.083 Y-37.317
X-116.883 Y-38.395
X-117.636 Y-39.506
X-118.343 Y-40.647
X-119.001 Y-41.817
X-119.609 Y-43.014
X-120.167 Y-44.234
X-120.673 Y-45.477
X-121.127 Y-46.74
X-121.529 Y-48.021
X-121.878 Y-49.317
X-122.173 Y-50.626
X-122.413 Y-51.947
X-122.599 Y-53.276
X-122.729 Y-54.612
X-122.803 Y-55.952
X-122.821 Y-57.294
X-122.784 Y-58.636
X-122.69 Y-59.974
X-122.542 Y-61.308
X-122.338 Y-62.635
X-122.079 Y-63.952
X-121.767 Y-65.257
X-121.401 Y-66.549
X-120.982 Y-67.824
X-120.51 Y-69.08
X-119.987 Y-70.316
X-119.413 Y-71.529
X-118.789 Y-72.718
X-118.117 Y-73.879
X-117.397 Y-75.012
X-116.63 Y-76.114
X-115.819 Y-77.183
X-114.964 Y-78.218
X-114.068 Y-79.217
X-113.131 Y-80.178
X-112.156 Y-81.1
X-111.142 Y-81.98
X-110.094 Y-82.817
X-109.011 Y-83.611
X-107.896 Y-84.358
X-106.752 Y-85.06
X-105.58 Y-85.713
X-104.381 Y-86.318
X-103.159 Y-86.872
X-101.915 Y-87.376
X-100.651 Y-87.828
X-99.37 Y-88.228
X-98.074 Y-88.575
X-96.764 Y-88.868
X-95.443 Y-89.106
X-94.114 Y-89.29
X-92.778 Y-89.418
X-91.437 Y-89.492
X-90.095 Y-89.511
X-88.754 Y-89.475
X-87.415 Y-89.384
X-86.08 Y-89.238
X-84.753 Y-89.039
X-83.435 Y-88.785
X-82.129 Y-88.478
X-80.836 Y-88.119
X-79.558 Y-87.706
X-78.299 Y-87.242
X-77.06 Y-86.727
X-75.842 Y-86.163
X-74.648 Y-85.55
X-73.479 Y-84.89
X-72.338 Y-84.183
X-71.226 Y-83.431
X-70.146 Y-82.635
X-69.097 Y-81.797
X-68.083 Y-80.918
X-67.105 Y-79.999
X-66.165 Y-79.041
X-65.264 Y-78.047
X-64.403 Y-77.017
X-63.584 Y-75.953
X-62.808 Y-74.859
X-62.075 Y-73.734
X-61.389 Y-72.581
X-60.748 Y-71.401
X-60.155 Y-70.197
X-59.61 Y-68.971
X-59.114 Y-67.724
X-58.668 Y-66.458
X-58.273 Y-65.175
X-57.93 Y-63.878
X-57.639 Y-62.567
X-57.4 Y-61.246
X-57.215 Y-59.917
X-57.082 Y-58.582
X-57.003 Y-57.242
X-56.977 Y-55.9
X-57.004 Y-54.558
X-57.085 Y-53.218
X-57.219 Y-51.883
X-57.406 Y-50.554
X-57.646 Y-49.233
X-57.939 Y-47.923
X-58.284 Y-46.627
X-58.681 Y-45.344
X-59.129 Y-44.079
X-59.627 Y-42.833
X-60.174 Y-41.607
X-60.769 Y-40.404
X-61.412 Y-39.226
X-62.101 Y-38.074
X-62.835 Y-36.951
X-63.613 Y-35.857
X-64.434 Y-34.795
X-65.297 Y-33.767
X-66.201 Y-32.775
X-67.143 Y-31.819
X-68.123 Y-30.902
X-69.138 Y-30.024
X-70.187 Y-29.187
X-71.269 Y-28.392
X-72.381 Y-27.641
X-73.522 Y-26.934
X-74.69 Y-26.273
X-75.883 Y-25.659
X-77.1 Y-25.092
X-78.338 Y-24.574
X-79.596 Y-24.105
X-80.871 Y-23.688
X-82.162 Y-23.321
X-83.467 Y-23.005
X-84.782 Y-22.74
X-86.108 Y-22.528
X-87.44 Y-22.367
X-88.778 Y-22.259
X-90.119 Y-22.203
X-91.461 Y-22.199
X-92.802 Y-22.248
X-94.141 Y-22.349
X-95.474 Y-22.502
X-96.8 Y-22.707
X-98.118 Y-22.965
X-99.424 Y-23.274
X-100.717 Y-23.633
X-101.995 Y-24.042
X-103.257 Y-24.5
X-104.5 Y-25.007
X-105.722 Y-25.562
X-106.921 Y-26.163
X-108.097 Y-26.811
X-109.247 Y-27.503
X-110.369 Y-28.239
X-111.462 Y-29.019
X-112.523 Y-29.84
X-113.552 Y-30.703
X-114.546 Y-31.604
X-115.505 Y-32.543
X-116.428 Y-33.517
X-117.312 Y-34.527
X-118.157 Y-35.57
X-118.962 Y-36.644
X-119.724 Y-37.749
X-120.444 Y-38.882
X-121.12 Y-40.041
X-121.75 Y-41.226
X-122.335 Y-42.434
X-122.871 Y-43.664
X-123.36 Y-44.914
X-123.801 Y-46.182
X-124.192 Y-47.466
X-124.535 Y-48.764
X-124.828 Y-50.073
X-125.07 Y-51.394
X-125.262 Y-52.722
X-125.403 Y-54.057
X-125.494 Y-55.396
X-125.533 Y-56.737
X-125.521 Y-58.079
X-125.457 Y-59.42
X-125.341 Y-60.757
X-125.173 Y-62.089
X-124.955 Y-63.413
X-124.687 Y-64.728
X-124.368 Y-66.032
X-124 Y-67.323
X-123.584 Y-68.598
X-123.119 Y-69.858
X-122.606 Y-71.098
X-122.047 Y-72.318
X-121.442 Y-73.516
X-120.792 Y-74.69
X-120.097 Y-75.838
X-119.358 Y-76.959
X-118.576 Y-78.05
X-117.753 Y-79.11
X-116.891 Y-80.139
X-115.99 Y-81.134
X-115.052 Y-82.093
X-114.078 Y-83.017
X-113.07 Y-83.903
X-112.028 Y-84.749
X-110.956 Y-85.556
X-109.853 Y-86.322
X-108.722 Y-87.045
X-107.565 Y-87.724
X-106.382 Y-88.357
X-105.175 Y-88.945
X-103.947 Y-89.487
X-102.699 Y-89.981
X-101.434 Y-90.428
X-100.152 Y-90.826
X-98.856 Y-91.176
X-97.548 Y-91.476
X-96.229 Y-91.726
X-94.902 Y-91.926
X-93.568 Y-92.076
X-92.23 Y-92.176
X-90.889 Y-92.224
X-89.547 Y-92.221
