%
(1001)
(z0 bottom machine -5-5)
(T1  D=12.7 CR=0 - ZMIN=13 - flat end mill)
G90 G94
G17
G21

(Face2)
M9
T1 M6
S6000 M3
G54
M9
G0 X16.48 Y-131.185
Z38.5
Z28.5
G1 Z24.27 F850
G18 G3 X15.21 Z23 I-1.27
G1 X11.142
X-161.142
X-164.933
G17 G2 Y-119.641 J5.772
G1 X14.933
X15
G3 Y-108.096 J5.772
G1 X-165
G2 Y-96.552 J5.772
G1 X15
G3 Y-85.008 J5.772
G1 X-165
G2 Y-73.463 J5.772
G1 X15
G3 Y-61.919 J5.772
G1 X-165
G2 Y-50.375 J5.772
G1 X15
G3 Y-38.83 J5.772
G1 X-165
G2 Y-27.286 J5.772
G1 X15
G3 Y-15.742 J5.772
G1 X-165
G2 Y-4.197 J5.772
G1 X-164.981
X14.981
G3 Y7.347 J5.772
G1 X11.648
X-161.648
G18 G3 X-162.918 Z24.27 K1.27
G0 Z28.5
X-166.48 Y-131.185
G1 Z22.77 F850
G2 X-165.21 Z21.5 I1.27
G1 X-161.142
X11.142
X14.933
G17 G3 Y-119.641 J5.772
G1 X-164.933
X-165
G2 Y-108.096 J5.772
G1 X15
G3 Y-96.552 J5.772
G1 X-165
G2 Y-85.008 J5.772
G1 X15
G3 Y-73.463 J5.772
G1 X-165
G2 Y-61.919 J5.772
G1 X15
G3 Y-50.375 J5.772
G1 X-165
G2 Y-38.83 J5.772
G1 X15
G3 Y-27.286 J5.772
G1 X-165
G2 Y-15.742 J5.772
G1 X15
G3 Y-4.197 J5.772
G1 X14.981
X-164.981
G2 Y7.347 J5.772
G1 X-161.648
X11.648
G18 G2 X12.918 Z22.77 K1.27
G0 Z28.5
X16.48 Y-131.185
G1 Z21.27 F850
G3 X15.21 Z20 I-1.27
G1 X11.142
X-161.142
X-164.933
G17 G2 Y-119.641 J5.772
G1 X14.933
X15
G3 Y-108.096 J5.772
G1 X-165
G2 Y-96.552 J5.772
G1 X15
G3 Y-85.008 J5.772
G1 X-165
G2 Y-73.463 J5.772
G1 X15
G3 Y-61.919 J5.772
G1 X-165
G2 Y-50.375 J5.772
G1 X15
G3 Y-38.83 J5.772
G1 X-165
G2 Y-27.286 J5.772
G1 X15
G3 Y-15.742 J5.772
G1 X-165
G2 Y-4.197 J5.772
G1 X-164.981
X14.981
G3 Y7.347 J5.772
G1 X11.648
X-161.648
G18 G3 X-162.918 Z21.27 K1.27
G0 Z38.5
G17

(2D Adaptive5)
M9
G0 X-95.014 Y-58.177
Z38.5
Z28.5
Z27.32
G1 Z26.05 F850
G3 X-84.945 Y-64.823 Z25.388 I5.035 J-3.323 F283.3
X-95.014 Y-58.177 Z24.726 I-5.035 J3.323
X-84.945 Y-64.823 Z24.065 I5.035 J-3.323
X-95.014 Y-58.177 Z23.403 I-5.035 J3.323
X-84.945 Y-64.823 Z22.741 I5.035 J-3.323
X-95.014 Y-58.177 Z22.079 I-5.035 J3.323
X-84.945 Y-64.823 Z21.417 I5.035 J-3.323
X-95.014 Y-58.177 Z20.756 I-5.035 J3.323
X-84.945 Y-64.823 Z20.094 I5.035 J-3.323
X-95.014 Y-58.177 Z19.432 I-5.035 J3.323
X-84.945 Y-64.823 Z18.77 I5.035 J-3.323
X-95.014 Y-58.177 Z18.108 I-5.035 J3.323
X-84.945 Y-64.823 Z17.447 I5.035 J-3.323
X-95.014 Y-58.177 Z16.785 I-5.035 J3.323
X-84.945 Y-64.823 Z16.123 I5.035 J-3.323
X-83.947 Y-61.5 Z16 I-5.035 J3.323
X-96.012 I-6.033
X-84.223 Y-63.305 I6.033
X-83.947 Y-61.5 I-5.756 J1.805
G1 X-83.943 Y-61.164 F850
X-83.824 Y-59.828
X-83.8 Y-59.747
X-83.764 Y-59.601
X-83.738 Y-59.454
X-83.719 Y-59.302
X-83.709 Y-59.138
X-83.706 Y-58.96
X-83.715 Y-58.771
X-83.734 Y-58.571
X-83.766 Y-58.36
X-83.812 Y-58.14
X-83.873 Y-57.911
X-83.949 Y-57.675
X-84.042 Y-57.434
X-84.153 Y-57.187
X-84.282 Y-56.938
X-84.429 Y-56.688
X-84.594 Y-56.437
X-84.779 Y-56.189
X-84.983 Y-55.944
X-85.205 Y-55.704
X-85.445 Y-55.471
X-85.704 Y-55.247
X-85.98 Y-55.033
X-86.273 Y-54.83
X-86.581 Y-54.64
X-86.904 Y-54.464
X-87.242 Y-54.304
X-87.592 Y-54.16
X-87.953 Y-54.034
X-88.325 Y-53.927
X-88.706 Y-53.839
X-89.095 Y-53.771
X-89.49 Y-53.724
X-89.89 Y-53.698
X-90.293 Y-53.695
X-90.698 Y-53.713
X-91.104 Y-53.753
X-91.509 Y-53.815
X-91.912 Y-53.9
X-92.312 Y-54.007
X-92.706 Y-54.135
X-93.094 Y-54.286
X-93.475 Y-54.458
X-93.847 Y-54.65
X-94.208 Y-54.863
X-94.558 Y-55.096
X-94.896 Y-55.348
X-95.22 Y-55.618
X-95.53 Y-55.906
X-95.823 Y-56.211
X-96.1 Y-56.531
X-96.36 Y-56.867
X-96.602 Y-57.216
X-96.824 Y-57.578
X-97.026 Y-57.952
X-97.208 Y-58.337
X-97.369 Y-58.731
X-97.509 Y-59.134
X-97.626 Y-59.544
X-97.722 Y-59.96
X-97.794 Y-60.38
X-97.844 Y-60.805
X-97.87 Y-61.231
X-97.874 Y-61.658
X-97.854 Y-62.085
X-97.811 Y-62.51
X-97.745 Y-62.933
X-97.657 Y-63.351
X-97.545 Y-63.764
X-97.412 Y-64.17
X-97.257 Y-64.569
X-97.08 Y-64.959
X-96.882 Y-65.338
X-96.665 Y-65.706
X-96.427 Y-66.062
X-96.171 Y-66.405
X-95.896 Y-66.733
X-95.604 Y-67.046
X-95.295 Y-67.343
X-94.971 Y-67.622
X-94.632 Y-67.884
X-94.279 Y-68.127
X-93.914 Y-68.35
X-93.537 Y-68.553
X-93.149 Y-68.735
X-92.753 Y-68.897
X-92.348 Y-69.036
X-91.936 Y-69.153
X-91.518 Y-69.248
X-91.096 Y-69.32
X-90.671 Y-69.369
X-90.243 Y-69.395
X-89.815 Y-69.398
X-89.387 Y-69.377
X-88.961 Y-69.334
X-88.538 Y-69.267
X-88.119 Y-69.177
X-87.706 Y-69.065
X-87.299 Y-68.931
X-86.9 Y-68.775
X-86.51 Y-68.597
X-86.131 Y-68.399
X-85.763 Y-68.18
X-85.407 Y-67.942
X-85.064 Y-67.684
X-84.736 Y-67.409
X-84.424 Y-67.116
X-84.128 Y-66.807
X-83.849 Y-66.482
X-83.588 Y-66.142
X-83.345 Y-65.789
X-83.123 Y-65.423
X-82.92 Y-65.046
X-82.636 Y-64.441
X-82.29 Y-63.583
X-82.057 Y-62.903
X-81.887 Y-62.303
X-81.765 Y-61.759
X-81.678 Y-61.244
X-81.622 Y-60.752
X-81.594 Y-60.28
X-81.592 Y-59.822
X-81.614 Y-59.374
X-81.66 Y-58.935
X-81.729 Y-58.503
X-81.82 Y-58.079
X-81.934 Y-57.662
X-82.071 Y-57.252
X-82.229 Y-56.849
X-82.41 Y-56.455
X-82.612 Y-56.069
X-82.837 Y-55.692
X-83.083 Y-55.326
X-83.351 Y-54.971
X-83.64 Y-54.628
X-83.95 Y-54.298
X-84.28 Y-53.983
X-84.63 Y-53.684
X-84.999 Y-53.401
X-85.385 Y-53.137
X-85.788 Y-52.893
X-86.208 Y-52.669
X-86.642 Y-52.466
X-87.09 Y-52.286
X-87.55 Y-52.129
X-88.021 Y-51.997
X-88.502 Y-51.89
X-88.991 Y-51.808
X-89.487 Y-51.753
X-89.988 Y-51.724
X-90.493 Y-51.723
X-91 Y-51.749
X-91.508 Y-51.802
X-92.014 Y-51.884
X-92.517 Y-51.993
X-93.015 Y-52.13
X-93.507 Y-52.295
X-93.991 Y-52.486
X-94.465 Y-52.704
X-94.928 Y-52.949
X-95.379 Y-53.218
X-95.815 Y-53.513
X-96.235 Y-53.831
X-96.639 Y-54.172
X-97.024 Y-54.535
X-97.389 Y-54.92
X-97.734 Y-55.324
X-98.056 Y-55.747
X-98.356 Y-56.187
X-98.631 Y-56.643
X-98.882 Y-57.114
X-99.107 Y-57.599
X-99.306 Y-58.095
X-99.477 Y-58.602
X-99.621 Y-59.118
X-99.737 Y-59.641
X-99.825 Y-60.17
X-99.883 Y-60.703
X-99.913 Y-61.239
X-99.914 Y-61.776
X-99.885 Y-62.313
X-99.827 Y-62.847
X-99.741 Y-63.378
X-99.626 Y-63.903
X-99.482 Y-64.421
X-99.311 Y-64.931
X-99.112 Y-65.431
X-98.886 Y-65.92
X-98.634 Y-66.396
X-98.357 Y-66.857
X-98.055 Y-67.303
X-97.729 Y-67.732
X-97.38 Y-68.143
X-97.01 Y-68.534
X-96.619 Y-68.904
X-96.208 Y-69.253
X-95.779 Y-69.579
X-95.333 Y-69.882
X-94.871 Y-70.16
X-94.395 Y-70.412
X-93.905 Y-70.638
X-93.405 Y-70.838
X-92.894 Y-71.01
X-92.374 Y-71.154
X-91.847 Y-71.269
X-91.315 Y-71.356
X-90.779 Y-71.414
X-90.241 Y-71.443
X-89.702
X-89.163 Y-71.413
X-88.627 Y-71.354
X-88.095 Y-71.267
X-87.569 Y-71.15
X-87.049 Y-71.005
X-86.538 Y-70.833
X-86.038 Y-70.632
X-85.549 Y-70.405
X-85.072 Y-70.152
X-84.611 Y-69.874
X-84.165 Y-69.57
X-83.736 Y-69.243
X-83.325 Y-68.894
X-82.912 Y-68.501
X-82.509 Y-68.073
X-82.096 Y-67.586
X-81.693 Y-67.054
X-81.313 Y-66.492
X-80.964 Y-65.909
X-80.65 Y-65.314
X-80.372 Y-64.71
X-80.132 Y-64.102
X-79.928 Y-63.493
X-79.76 Y-62.885
X-79.628 Y-62.279
X-79.531 Y-61.677
X-79.468 Y-61.081
X-79.437 Y-60.491
X-79.439 Y-59.907
X-79.471 Y-59.329
X-79.535 Y-58.758
X-79.629 Y-58.195
X-79.753 Y-57.639
X-79.906 Y-57.093
X-80.088 Y-56.557
X-80.3 Y-56.031
X-80.539 Y-55.518
X-80.806 Y-55.017
X-81.101 Y-54.531
X-81.423 Y-54.059
X-81.77 Y-53.605
X-82.144 Y-53.169
X-82.541 Y-52.751
X-82.963 Y-52.355
X-83.408 Y-51.98
X-83.874 Y-51.628
X-84.361 Y-51.3
X-84.868 Y-50.998
X-85.393 Y-50.722
X-85.934 Y-50.474
X-86.492 Y-50.254
X-87.063 Y-50.064
X-87.646 Y-49.905
X-88.24 Y-49.776
X-88.843 Y-49.68
X-89.454 Y-49.616
X-90.069 Y-49.585
X-90.689 Y-49.588
X-91.31 Y-49.624
X-91.93 Y-49.695
X-92.548 Y-49.799
X-93.162 Y-49.937
X-93.77 Y-50.108
X-94.369 Y-50.313
X-94.958 Y-50.551
X-95.535 Y-50.821
X-96.097 Y-51.123
X-96.644 Y-51.456
X-97.173 Y-51.818
X-97.683 Y-52.21
X-98.172 Y-52.629
X-98.638 Y-53.075
X-99.08 Y-53.547
X-99.496 Y-54.042
X-99.886 Y-54.56
X-100.247 Y-55.1
X-100.579 Y-55.658
X-100.881 Y-56.235
X-101.151 Y-56.827
X-101.389 Y-57.434
X-101.594 Y-58.053
X-101.765 Y-58.683
X-101.902 Y-59.322
X-102.004 Y-59.968
X-102.071 Y-60.619
X-102.102 Y-61.272
X-102.098 Y-61.927
X-102.059 Y-62.581
X-101.984 Y-63.232
X-101.874 Y-63.879
X-101.729 Y-64.518
X-101.549 Y-65.149
X-101.336 Y-65.77
X-101.089 Y-66.378
X-100.809 Y-66.973
X-100.498 Y-67.551
X-100.155 Y-68.111
X-99.783 Y-68.653
X-99.382 Y-69.173
X-98.953 Y-69.671
X-98.498 Y-70.146
X-98.017 Y-70.594
X-97.513 Y-71.017
X-96.987 Y-71.411
X-96.44 Y-71.776
X-95.874 Y-72.111
X-95.291 Y-72.415
X-94.692 Y-72.687
X-94.079 Y-72.926
X-93.454 Y-73.131
X-92.818 Y-73.303
X-92.175 Y-73.439
X-91.525 Y-73.541
X-90.87 Y-73.607
X-90.213 Y-73.637
X-89.555 Y-73.632
X-88.898 Y-73.592
X-88.244 Y-73.515
X-87.596 Y-73.404
X-86.954 Y-73.257
X-86.321 Y-73.076
X-85.699 Y-72.861
X-85.09 Y-72.612
X-84.491 Y-72.329
X-83.902 Y-72.01
X-83.32 Y-71.654
X-82.746 Y-71.257
X-82.183 Y-70.821
X-81.636 Y-70.349
X-81.109 Y-69.841
X-80.604 Y-69.299
X-80.125 Y-68.725
X-79.676 Y-68.122
X-79.258 Y-67.494
X-78.875 Y-66.844
X-78.528 Y-66.176
X-78.22 Y-65.494
X-77.951 Y-64.801
X-77.722 Y-64.099
X-77.532 Y-63.392
X-77.383 Y-62.68
X-77.272 Y-61.967
X-77.202 Y-61.254
X-77.17 Y-60.543
X-77.177 Y-59.834
X-77.222 Y-59.131
X-77.304 Y-58.433
X-77.424 Y-57.743
X-77.581 Y-57.062
X-77.774 Y-56.392
X-78.003 Y-55.733
X-78.268 Y-55.088
X-78.567 Y-54.459
X-78.9 Y-53.846
X-79.266 Y-53.251
X-79.664 Y-52.677
X-80.094 Y-52.123
X-80.554 Y-51.593
X-81.043 Y-51.087
X-81.561 Y-50.606
X-82.105 Y-50.154
X-82.675 Y-49.73
X-83.269 Y-49.336
X-83.886 Y-48.974
X-84.523 Y-48.645
X-85.18 Y-48.349
X-85.855 Y-48.089
X-86.545 Y-47.865
X-87.249 Y-47.678
X-87.964 Y-47.529
X-88.69 Y-47.418
X-89.423 Y-47.347
X-90.161 Y-47.315
X-90.903 Y-47.323
X-91.645 Y-47.372
X-92.387 Y-47.461
X-93.124 Y-47.591
X-93.856 Y-47.761
X-94.579 Y-47.97
X-95.292 Y-48.22
X-95.992 Y-48.508
X-96.678 Y-48.835
X-97.346 Y-49.2
X-97.994 Y-49.601
X-98.622 Y-50.037
X-99.226 Y-50.508
X-99.804 Y-51.011
X-100.356 Y-51.546
X-100.878 Y-52.112
X-101.37 Y-52.705
X-101.829 Y-53.325
X-102.255 Y-53.97
X-102.645 Y-54.637
X-103 Y-55.326
X-103.316 Y-56.034
X-103.594 Y-56.758
X-103.833 Y-57.497
X-104.031 Y-58.248
X-104.189 Y-59.01
X-104.305 Y-59.779
X-104.379 Y-60.554
X-104.411 Y-61.332
X-104.401 Y-62.112
X-104.348 Y-62.89
X-104.254 Y-63.664
X-104.117 Y-64.432
X-103.939 Y-65.193
X-103.72 Y-65.942
X-103.461 Y-66.679
X-103.162 Y-67.401
X-102.824 Y-68.106
X-102.449 Y-68.792
X-102.037 Y-69.456
X-101.589 Y-70.097
X-101.107 Y-70.714
X-100.592 Y-71.303
X-100.046 Y-71.863
X-99.471 Y-72.393
X-98.867 Y-72.892
X-98.237 Y-73.357
X-97.583 Y-73.787
X-96.907 Y-74.181
X-96.21 Y-74.538
X-95.495 Y-74.856
X-94.763 Y-75.136
X-94.017 Y-75.375
X-93.26 Y-75.574
X-92.493 Y-75.731
X-91.718 Y-75.846
X-90.938 Y-75.919
X-90.155 Y-75.95
X-89.372 Y-75.939
X-88.591 Y-75.885
X-87.813 Y-75.788
X-87.041 Y-75.65
X-86.276 Y-75.469
X-85.518 Y-75.247
X-84.768 Y-74.981
X-84.027 Y-74.673
X-83.296 Y-74.321
X-82.579 Y-73.926
X-81.876 Y-73.489
X-81.192 Y-73.009
X-80.528 Y-72.488
X-79.889 Y-71.928
X-79.277 Y-71.33
X-78.696 Y-70.696
X-78.148 Y-70.03
X-77.635 Y-69.334
X-77.161 Y-68.61
X-76.727 Y-67.862
X-76.336 Y-67.094
X-75.987 Y-66.307
X-75.682 Y-65.505
X-75.422 Y-64.69
X-75.208 Y-63.866
X-75.039 Y-63.034
X-74.916 Y-62.198
X-74.838 Y-61.359
X-74.807 Y-60.52
X-74.821 Y-59.683
X-74.88 Y-58.85
X-74.984 Y-58.023
X-75.132 Y-57.204
X-75.324 Y-56.396
X-75.559 Y-55.601
X-75.837 Y-54.82
X-76.157 Y-54.055
X-76.518 Y-53.309
X-76.919 Y-52.583
X-77.359 Y-51.879
X-77.837 Y-51.199
X-78.352 Y-50.545
X-78.903 Y-49.92
X-79.488 Y-49.323
X-80.105 Y-48.759
X-80.754 Y-48.227
X-81.432 Y-47.73
X-82.138 Y-47.269
X-82.87 Y-46.847
X-83.625 Y-46.463
X-84.403 Y-46.12
X-85.201 Y-45.818
X-86.016 Y-45.56
X-86.846 Y-45.345
X-87.69 Y-45.176
X-88.544 Y-45.052
X-89.405 Y-44.974
X-90.273 Y-44.942
X-91.143 Y-44.958
X-92.014 Y-45.022
X-92.882 Y-45.132
X-93.745 Y-45.29
X-94.6 Y-45.495
X-95.445 Y-45.747
X-96.277 Y-46.045
X-97.094 Y-46.388
X-97.893 Y-46.776
X-98.671 Y-47.207
X-99.425 Y-47.681
X-100.155 Y-48.196
X-100.856 Y-48.751
X-101.528 Y-49.343
X-102.167 Y-49.973
X-102.772 Y-50.637
X-103.341 Y-51.333
X-103.872 Y-52.061
X-104.364 Y-52.817
X-104.814 Y-53.599
X-105.221 Y-54.405
X-105.585 Y-55.233
X-105.903 Y-56.081
X-106.176 Y-56.945
X-106.401 Y-57.823
X-106.578 Y-58.713
X-106.707 Y-59.611
X-106.788 Y-60.516
X-106.819 Y-61.425
X-106.8 Y-62.334
X-106.733 Y-63.241
X-106.616 Y-64.144
X-106.451 Y-65.039
X-106.237 Y-65.924
X-105.975 Y-66.797
X-105.667 Y-67.655
X-105.312 Y-68.495
X-104.912 Y-69.314
X-104.468 Y-70.111
X-103.982 Y-70.883
X-103.454 Y-71.627
X-102.887 Y-72.342
X-102.282 Y-73.026
X-101.64 Y-73.675
X-100.964 Y-74.289
X-100.256 Y-74.865
X-99.517 Y-75.403
X-98.751 Y-75.899
X-97.958 Y-76.353
X-97.142 Y-76.764
X-96.305 Y-77.13
X-95.449 Y-77.45
X-94.577 Y-77.723
X-93.691 Y-77.948
X-92.795 Y-78.126
X-91.89 Y-78.254
X-90.979 Y-78.333
X-90.065 Y-78.363
X-89.15 Y-78.343
X-88.236 Y-78.273
X-87.324 Y-78.153
X-86.417 Y-77.984
X-85.516 Y-77.765
X-84.624 Y-77.496
X-83.743 Y-77.177
X-82.875 Y-76.808
X-82.023 Y-76.391
X-81.189 Y-75.925
X-80.376 Y-75.411
X-79.588 Y-74.849
X-78.826 Y-74.243
X-78.094 Y-73.593
X-77.397 Y-72.901
X-76.735 Y-72.17
X-76.113 Y-71.403
X-75.533 Y-70.602
X-74.997 Y-69.771
X-74.506 Y-68.912
X-74.064 Y-68.028
X-73.67 Y-67.123
X-73.327 Y-66.2
X-73.035 Y-65.261
X-72.794 Y-64.31
X-72.606 Y-63.35
X-72.471 Y-62.383
X-72.388 Y-61.412
X-72.358 Y-60.44
X-72.381 Y-59.47
X-72.457 Y-58.505
X-72.584 Y-57.546
X-72.763 Y-56.597
X-72.993 Y-55.659
X-73.273 Y-54.737
X-73.602 Y-53.831
X-73.98 Y-52.944
X-74.406 Y-52.079
X-74.878 Y-51.238
X-75.396 Y-50.424
X-75.957 Y-49.638
X-76.561 Y-48.883
X-77.205 Y-48.16
X-77.889 Y-47.473
X-78.611 Y-46.822
X-79.368 Y-46.21
X-80.158 Y-45.64
X-80.98 Y-45.111
X-81.832 Y-44.627
X-82.71 Y-44.189
X-83.613 Y-43.798
X-84.539 Y-43.456
X-85.484 Y-43.164
X-86.445 Y-42.922
X-87.421 Y-42.733
X-88.408 Y-42.597
X-89.404 Y-42.514
X-90.405 Y-42.485
X-91.408 Y-42.51
X-92.411 Y-42.59
X-93.411 Y-42.725
X-94.404 Y-42.914
X-95.387 Y-43.157
X-96.358 Y-43.453
X-97.313 Y-43.803
X-98.25 Y-44.204
X-99.165 Y-44.657
X-100.056 Y-45.159
X-100.92 Y-45.71
X-101.754 Y-46.308
X-102.555 Y-46.951
X-103.322 Y-47.637
X-104.051 Y-48.365
X-104.741 Y-49.133
X-105.389 Y-49.937
X-105.993 Y-50.777
X-106.551 Y-51.649
X-107.062 Y-52.551
X-107.523 Y-53.48
X-107.934 Y-54.433
X-108.292 Y-55.408
X-108.598 Y-56.402
X-108.849 Y-57.412
X-109.046 Y-58.435
X-109.186 Y-59.467
X-109.271 Y-60.506
X-109.299 Y-61.548
X-109.271 Y-62.591
X-109.186 Y-63.632
X-109.045 Y-64.667
X-108.848 Y-65.693
X-108.596 Y-66.707
X-108.288 Y-67.706
X-107.927 Y-68.688
X-107.514 Y-69.648
X-107.048 Y-70.585
X-106.533 Y-71.496
X-105.968 Y-72.378
X-105.357 Y-73.228
X-104.7 Y-74.043
X-104 Y-74.822
X-103.259 Y-75.562
X-102.479 Y-76.261
X-101.661 Y-76.917
X-100.81 Y-77.527
X-99.926 Y-78.091
X-99.013 Y-78.605
X-98.074 Y-79.07
X-97.11 Y-79.483
X-96.126 Y-79.843
X-95.123 Y-80.149
X-94.105 Y-80.401
X-93.075 Y-80.597
X-92.035 Y-80.737
X-90.987 Y-80.82
X-89.936 Y-80.847
X-88.882 Y-80.817
X-87.829 Y-80.729
X-86.78 Y-80.584
X-85.736 Y-80.381
X-84.7 Y-80.122
X-83.675 Y-79.805
X-82.664 Y-79.431
X-81.671 Y-79.001
X-80.697 Y-78.515
X-79.746 Y-77.974
X-78.821 Y-77.38
X-77.926 Y-76.734
X-77.064 Y-76.038
X-76.239 Y-75.294
X-75.453 Y-74.503
X-74.71 Y-73.67
X-74.011 Y-72.797
X-73.361 Y-71.886
X-72.76 Y-70.94
X-72.212 Y-69.964
X-71.718 Y-68.959
X-71.279 Y-67.93
X-70.897 Y-66.88
X-70.572 Y-65.812
X-70.307 Y-64.73
X-70.101 Y-63.636
X-69.955 Y-62.535
X-69.868 Y-61.428
X-69.842 Y-60.321
X-69.876 Y-59.214
X-69.97 Y-58.113
X-70.123 Y-57.019
X-70.335 Y-55.936
X-70.605 Y-54.867
X-70.933 Y-53.814
X-71.317 Y-52.781
X-71.756 Y-51.771
X-72.25 Y-50.785
X-72.797 Y-49.828
X-73.395 Y-48.9
X-74.043 Y-48.006
X-74.739 Y-47.148
X-75.481 Y-46.327
X-76.268 Y-45.547
X-77.097 Y-44.81
X-77.967 Y-44.117
X-78.874 Y-43.472
X-79.817 Y-42.876
X-80.792 Y-42.33
X-81.797 Y-41.838
X-82.83 Y-41.399
X-83.887 Y-41.017
X-84.966 Y-40.691
X-86.063 Y-40.424
X-87.175 Y-40.217
X-88.299 Y-40.07
X-89.432 Y-39.983
X-90.571 Y-39.958
X-91.711 Y-39.995
X-92.85 Y-40.094
X-93.985 Y-40.255
X-95.111 Y-40.478
X-96.225 Y-40.761
X-97.325 Y-41.106
X-98.406 Y-41.51
X-99.466 Y-41.973
X-100.5 Y-42.493
X-101.507 Y-43.07
X-102.482 Y-43.701
X-103.422 Y-44.386
X-104.326 Y-45.121
X-105.189 Y-45.905
X-106.01 Y-46.736
X-106.785 Y-47.611
X-107.513 Y-48.528
X-108.19 Y-49.484
X-108.816 Y-50.476
X-109.387 Y-51.502
X-109.902 Y-52.557
X-110.359 Y-53.641
X-110.758 Y-54.748
X-111.096 Y-55.876
X-111.373 Y-57.021
X-111.587 Y-58.18
X-111.738 Y-59.35
X-111.826 Y-60.527
X-111.849 Y-61.708
X-111.809 Y-62.889
X-111.705 Y-64.066
X-111.537 Y-65.236
X-111.305 Y-66.396
X-111.012 Y-67.542
X-110.656 Y-68.671
X-110.239 Y-69.779
X-109.763 Y-70.863
X-109.229 Y-71.921
X-108.638 Y-72.947
X-107.992 Y-73.941
X-107.293 Y-74.898
X-106.544 Y-75.816
X-105.745 Y-76.693
X-104.9 Y-77.524
X-104.011 Y-78.309
X-103.08 Y-79.045
X-102.112 Y-79.729
X-101.107 Y-80.36
X-100.069 Y-80.935
X-99.002 Y-81.454
X-97.908 Y-81.913
X-96.79 Y-82.313
X-95.652 Y-82.652
X-94.497 Y-82.929
X-93.328 Y-83.143
X-92.147 Y-83.294
X-90.958 Y-83.38
X-89.765 Y-83.402
X-88.569 Y-83.359
X-87.375 Y-83.251
X-86.185 Y-83.078
X-85.002 Y-82.84
X-83.83 Y-82.537
X-82.672 Y-82.17
X-81.531 Y-81.739
X-80.411 Y-81.245
X-79.316 Y-80.689
X-78.248 Y-80.072
X-77.211 Y-79.396
X-76.21 Y-78.662
X-75.247 Y-77.872
X-74.326 Y-77.03
X-73.45 Y-76.137
X-72.622 Y-75.196
X-71.845 Y-74.21
X-71.123 Y-73.183
X-70.457 Y-72.117
X-69.849 Y-71.017
X-69.302 Y-69.886
X-68.817 Y-68.727
X-68.397 Y-67.545
X-68.041 Y-66.342
X-67.751 Y-65.123
X-67.528 Y-63.892
X-67.372 Y-62.651
X-67.283 Y-61.405
X-67.263 Y-60.158
X-67.31 Y-58.912
X-67.424 Y-57.672
X-67.605 Y-56.44
X-67.853 Y-55.221
X-68.166 Y-54.017
X-68.544 Y-52.833
X-68.985 Y-51.671
X-69.489 Y-50.534
X-70.054 Y-49.427
X-70.678 Y-48.351
X-71.36 Y-47.31
X-72.098 Y-46.306
X-72.89 Y-45.344
X-73.734 Y-44.424
X-74.627 Y-43.551
X-75.567 Y-42.727
X-76.553 Y-41.953
X-77.58 Y-41.233
X-78.646 Y-40.569
X-79.749 Y-39.963
X-80.884 Y-39.416
X-82.05 Y-38.931
X-83.242 Y-38.509
X-84.458 Y-38.152
X-85.694 Y-37.86
X-86.946 Y-37.635
X-88.211 Y-37.479
X-89.485 Y-37.391
X-90.764 Y-37.372
X-92.045 Y-37.422
X-93.323 Y-37.542
X-94.595 Y-37.732
X-95.857 Y-37.99
X-97.106 Y-38.318
X-98.337 Y-38.713
X-99.546 Y-39.175
X-100.731 Y-39.702
X-101.887 Y-40.294
X-103.01 Y-40.949
X-104.098 Y-41.664
X-105.147 Y-42.438
X-106.154 Y-43.269
X-107.115 Y-44.155
X-108.028 Y-45.092
X-108.89 Y-46.079
X-109.698 Y-47.111
X-110.449 Y-48.187
X-111.141 Y-49.303
X-111.773 Y-50.456
X-112.341 Y-51.643
X-112.845 Y-52.859
X-113.282 Y-54.102
X-113.652 Y-55.367
X-113.953 Y-56.651
X-114.183 Y-57.951
X-114.343 Y-59.262
X-114.432 Y-60.58
X-114.449 Y-61.901
X-114.395 Y-63.223
X-114.269 Y-64.539
X-114.072 Y-65.848
X-113.804 Y-67.144
X-113.466 Y-68.424
X-113.059 Y-69.685
X-112.584 Y-70.922
X-112.043 Y-72.131
X-111.437 Y-73.31
X-110.767 Y-74.454
X-110.037 Y-75.561
X-109.247 Y-76.627
X-108.401 Y-77.648
X-107.5 Y-78.622
X-106.548 Y-79.546
X-105.547 Y-80.418
X-104.5 Y-81.234
X-103.411 Y-81.992
X-102.282 Y-82.689
X-101.116 Y-83.325
X-99.917 Y-83.897
X-98.689 Y-84.403
X-97.435 Y-84.842
X-96.159 Y-85.212
X-94.863 Y-85.513
X-93.551 Y-85.744
X-92.228 Y-85.903
X-90.896 Y-85.99
X-89.558 Y-86.005
X-88.219 Y-85.948
X-86.884 Y-85.818
X-85.557 Y-85.615
X-84.243 Y-85.342
X-82.946 Y-84.997
X-81.669 Y-84.584
X-80.416 Y-84.103
X-79.19 Y-83.556
X-77.995 Y-82.945
X-76.835 Y-82.271
X-75.711 Y-81.536
X-74.628 Y-80.744
X-73.588 Y-79.896
X-72.593 Y-78.994
X-71.648 Y-78.042
X-70.753 Y-77.042
X-69.911 Y-75.996
X-69.126 Y-74.908
X-68.397 Y-73.781
X-67.729 Y-72.617
X-67.121 Y-71.42
X-66.577 Y-70.193
X-66.098 Y-68.94
X-65.684 Y-67.663
X-65.338 Y-66.366
X-65.06 Y-65.053
X-64.852 Y-63.727
X-64.713 Y-62.392
X-64.645 Y-61.051
X-64.647 Y-59.709
X-64.719 Y-58.369
X-64.862 Y-57.035
X-65.074 Y-55.709
X-65.355 Y-54.397
X-65.705 Y-53.101
X-66.122 Y-51.825
X-66.606 Y-50.573
X-67.154 Y-49.349
X-67.766 Y-48.154
X-68.44 Y-46.993
X-69.173 Y-45.869
X-69.965 Y-44.785
X-70.812 Y-43.744
X-71.712 Y-42.749
X-72.663 Y-41.802
X-73.663 Y-40.906
X-74.707 Y-40.063
X-75.794 Y-39.276
X-76.92 Y-38.546
X-78.083 Y-37.875
X-79.279 Y-37.266
X-80.505 Y-36.72
X-81.758 Y-36.238
X-83.034 Y-35.822
X-84.33 Y-35.473
X-85.642 Y-35.191
X-86.967 Y-34.978
X-88.301 Y-34.833
X-89.641 Y-34.756
X-90.983 Y-34.748
X-92.324 Y-34.809
X-93.66 Y-34.938
X-94.988 Y-35.134
X-96.304 Y-35.397
X-97.605 Y-35.727
X-98.888 Y-36.122
X-100.149 Y-36.581
X-101.385 Y-37.103
X-102.594 Y-37.687
X-103.771 Y-38.332
X-104.914 Y-39.036
X-106.019 Y-39.797
X-107.085 Y-40.613
X-108.108 Y-41.482
X-109.086 Y-42.4
X-110.018 Y-43.367
X-110.9 Y-44.378
X-111.73 Y-45.433
X-112.507 Y-46.527
X-113.229 Y-47.658
X-113.894 Y-48.824
X-114.5 Y-50.022
X-115.044 Y-51.249
X-115.526 Y-52.502
X-115.944 Y-53.777
X-116.298 Y-55.072
X-116.587 Y-56.382
X-116.811 Y-57.706
X-116.969 Y-59.038
X-117.061 Y-60.377
X-117.087 Y-61.719
X-117.047 Y-63.061
X-116.941 Y-64.399
X-116.768 Y-65.73
X-116.528 Y-67.05
X-116.223 Y-68.357
X-115.853 Y-69.647
X-115.419 Y-70.917
X-114.922 Y-72.164
X-114.365 Y-73.385
X-113.748 Y-74.577
X-113.074 Y-75.738
X-112.343 Y-76.863
X-111.557 Y-77.952
X-110.719 Y-79
X-109.83 Y-80.006
X-108.892 Y-80.965
X-107.906 Y-81.876
X-106.877 Y-82.737
X-105.806 Y-83.546
X-104.696 Y-84.302
X-103.551 Y-85.001
X-102.373 Y-85.644
X-101.164 Y-86.228
X-99.929 Y-86.752
X-98.669 Y-87.215
X-97.388 Y-87.615
X-96.088 Y-87.95
X-94.773 Y-88.22
X-93.447 Y-88.424
X-92.112 Y-88.562
X-90.772 Y-88.635
X-89.429 Y-88.642
X-88.089 Y-88.584
X-86.752 Y-88.461
X-85.423 Y-88.273
X-84.105 Y-88.021
X-82.8 Y-87.705
X-81.513 Y-87.324
X-80.246 Y-86.882
X-79.002 Y-86.378
X-77.784 Y-85.814
X-76.594 Y-85.193
X-75.435 Y-84.516
X-74.31 Y-83.785
X-73.22 Y-83.001
X-72.169 Y-82.167
X-71.158 Y-81.284
X-70.191 Y-80.353
X-69.27 Y-79.377
X-68.397 Y-78.358
X-67.572 Y-77.299
X-66.799 Y-76.202
X-66.078 Y-75.07
X-65.411 Y-73.905
X-64.799 Y-72.711
X-64.244 Y-71.489
X-63.747 Y-70.242
X-63.309 Y-68.973
X-62.933 Y-67.685
X-62.62 Y-66.38
X-62.369 Y-65.061
X-62.181 Y-63.732
X-62.056 Y-62.396
X-61.994 Y-61.055
X-61.996 Y-59.713
X-62.061 Y-58.373
X-62.189 Y-57.037
X-62.38 Y-55.708
X-62.634 Y-54.39
X-62.951 Y-53.086
X-63.331 Y-51.799
X-63.772 Y-50.531
X-64.272 Y-49.286
X-64.831 Y-48.065
X-65.447 Y-46.873
X-66.118 Y-45.711
X-66.843 Y-44.581
X-67.621 Y-43.487
X-68.449 Y-42.431
X-69.327 Y-41.416
X-70.253 Y-40.444
X-71.224 Y-39.518
X-72.238 Y-38.638
X-73.292 Y-37.808
X-74.384 Y-37.027
X-75.511 Y-36.299
X-76.672 Y-35.624
X-77.862 Y-35.004
X-79.08 Y-34.441
X-80.323 Y-33.935
X-81.59 Y-33.49
X-82.875 Y-33.105
X-84.178 Y-32.782
X-85.494 Y-32.52
X-86.821 Y-32.319
X-88.156 Y-32.181
X-89.496 Y-32.104
X-90.838 Y-32.089
X-92.18 Y-32.136
X-93.518 Y-32.245
X-94.849 Y-32.415
X-96.171 Y-32.647
X-97.48 Y-32.94
X-98.775 Y-33.294
X-100.052 Y-33.707
X-101.309 Y-34.179
X-102.542 Y-34.707
X-103.751 Y-35.292
X-104.931 Y-35.931
X-106.08 Y-36.624
X-107.197 Y-37.368
X-108.279 Y-38.163
X-109.323 Y-39.007
X-110.326 Y-39.898
X-111.288 Y-40.834
X-112.205 Y-41.813
X-113.078 Y-42.833
X-113.904 Y-43.891
X-114.681 Y-44.986
X-115.408 Y-46.114
X-116.083 Y-47.274
X-116.705 Y-48.463
X-117.272 Y-49.679
X-117.783 Y-50.921
X-118.236 Y-52.184
X-118.63 Y-53.467
X-118.966 Y-54.767
X-119.242 Y-56.08
X-119.46 Y-57.404
X-119.618 Y-58.737
X-119.716 Y-60.076
X-119.754 Y-61.417
X-119.732 Y-62.759
X-119.649 Y-64.099
X-119.506 Y-65.433
X-119.3 Y-66.76
X-119.035 Y-68.075
X-118.71 Y-69.378
X-118.326 Y-70.664
X-117.885 Y-71.931
X-117.387 Y-73.178
X-116.835 Y-74.401
X-116.228 Y-75.598
X-115.569 Y-76.767
X-114.858 Y-77.906
X-114.096 Y-79.011
X-113.285 Y-80.08
X-112.425 Y-81.11
X-111.519 Y-82.101
X-110.57 Y-83.049
X-109.578 Y-83.954
X-108.547 Y-84.814
X-107.479 Y-85.626
X-106.375 Y-86.39
X-105.239 Y-87.104
X-104.072 Y-87.767
X-102.876 Y-88.376
X-101.654 Y-88.931
X-100.408 Y-89.429
X-99.14 Y-89.87
X-97.854 Y-90.253
X-96.551 Y-90.578
X-95.236 Y-90.844
X-93.91 Y-91.052
X-92.576 Y-91.2
X-91.237 Y-91.288
X-89.895 Y-91.318
X-88.553 Y-91.287
X-87.214 Y-91.196
X-85.88 Y-91.045
X-84.555 Y-90.835
X-83.24 Y-90.565
X-81.939 Y-90.237
X-80.653 Y-89.852
X-79.386 Y-89.41
X-78.139 Y-88.913
X-76.915 Y-88.363
X-75.716 Y-87.76
X-74.544 Y-87.105
X-73.402 Y-86.4
X-72.293 Y-85.644
X-71.217 Y-84.841
X-70.178 Y-83.992
X-69.177 Y-83.098
X-68.216 Y-82.161
X-67.296 Y-81.183
X-66.419 Y-80.167
X-65.587 Y-79.114
X-64.801 Y-78.027
X-64.061 Y-76.907
X-63.371 Y-75.756
X-62.731 Y-74.576
X-62.144 Y-73.369
X-61.609 Y-72.138
X-61.129 Y-70.885
X-60.703 Y-69.612
X-60.333 Y-68.322
X-60.02 Y-67.017
X-59.762 Y-65.699
X-59.562 Y-64.372
X-59.419 Y-63.038
X-59.333 Y-61.698
X-59.306 Y-60.357
X-59.337 Y-59.015
X-59.427 Y-57.676
X-59.575 Y-56.342
X-59.782 Y-55.016
X-60.046 Y-53.7
X-60.366 Y-52.396
X-60.743 Y-51.108
X-61.175 Y-49.837
X-61.661 Y-48.586
X-62.2 Y-47.357
X-62.792 Y-46.153
X-63.437 Y-44.975
X-64.132 Y-43.827
X-64.876 Y-42.71
X-65.668 Y-41.627
X-66.507 Y-40.579
X-67.39 Y-39.568
X-68.316 Y-38.597
X-69.283 Y-37.666
X-70.289 Y-36.777
X-71.332 Y-35.933
X-72.41 Y-35.133
X-73.521 Y-34.381
X-74.665 Y-33.678
X-75.837 Y-33.025
X-77.037 Y-32.424
X-78.262 Y-31.875
X-79.509 Y-31.38
X-80.777 Y-30.938
X-82.062 Y-30.551
X-83.363 Y-30.22
X-83.598 Y-30.171
X-83.822 Y-30.131
X-84.049 Y-30.108
X-84.276 Y-30.1
X-93.788
X-95.129 Y-30.167
X-95.798 Y-30.222
X-96.934 Y-30.354
X-98.164 Y-30.564
X-99.469 Y-30.861
X-100.76 Y-31.23
X-102.03 Y-31.663
X-103.278 Y-32.158
X-104.501 Y-32.709
X-105.699 Y-33.316
X-106.868 Y-33.975
X-108.006 Y-34.686
X-109.112 Y-35.446
X-110.185 Y-36.253
X-111.222 Y-37.104
X-112.222 Y-38
X-113.184 Y-38.936
X-114.106 Y-39.911
X-114.986 Y-40.924
X-115.824 Y-41.973
X-116.618 Y-43.055
X-117.366 Y-44.169
X-118.067 Y-45.314
X-118.718 Y-46.488
X-119.319 Y-47.687
X-119.87 Y-48.912
X-120.368 Y-50.158
X-120.815 Y-51.423
X-121.208 Y-52.707
X-121.292 Y-53.029
X-121.352 Y-53.304
X-121.388 Y-53.584
X-121.4 Y-53.865
Y-66.254
X-121.333 Y-67.595
X-121.267 Y-68.263
X-121.13 Y-69.282
X-120.915 Y-70.414
X-120.612 Y-71.641
X-120.221 Y-72.924
X-119.761 Y-74.185
X-119.239 Y-75.422
X-118.66 Y-76.633
X-118.026 Y-77.816
X-117.34 Y-78.969
X-116.603 Y-80.091
X-115.819 Y-81.18
X-114.988 Y-82.234
X-114.112 Y-83.251
X-113.195 Y-84.231
X-112.237 Y-85.171
X-111.241 Y-86.071
X-110.208 Y-86.928
X-109.142 Y-87.743
X-108.042 Y-88.513
X-106.913 Y-89.238
X-105.754 Y-89.915
X-104.569 Y-90.544
X-103.358 Y-91.123
X-102.124 Y-91.651
X-100.869 Y-92.127
X-99.595 Y-92.549
X-98.818 Y-92.772
X-98.519 Y-92.843
X-98.215 Y-92.886
X-97.908 Y-92.9
X-85.028
X-83.687 Y-92.833
X-83.019 Y-92.769
X-82.012 Y-92.636
X-80.89 Y-92.425
X-79.667 Y-92.126
X-78.382 Y-91.737
X-77.12 Y-91.281
X-75.882 Y-90.762
X-74.67 Y-90.187
X-73.484 Y-89.557
X-72.328 Y-88.876
X-71.201 Y-88.146
X-70.107 Y-87.369
X-69.046 Y-86.548
X-68.02 Y-85.682
X-67.03 Y-84.776
X-66.078 Y-83.83
X-65.164 Y-82.847
X-64.29 Y-81.828
X-63.458 Y-80.775
X-62.668 Y-79.69
X-61.921 Y-78.575
X-61.219 Y-77.431
X-60.564 Y-76.26
X-59.955 Y-75.064
X-59.395 Y-73.844
X-58.885 Y-72.602
X-58.425 Y-71.342
X-58.016 Y-70.063
X-57.658 Y-68.77
X-57.352 Y-67.463
X-57.098 Y-66.145
X-56.896 Y-64.818
X-56.746 Y-63.484
X-56.65 Y-62.146
X-56.607 Y-60.804
X-56.617 Y-59.462
X-56.681 Y-58.121
X-56.799 Y-56.785
X-56.971 Y-55.453
X-57.197 Y-54.13
X-57.475 Y-52.817
X-57.806 Y-51.517
X-58.188 Y-50.23
X-58.62 Y-48.959
X-59.102 Y-47.707
X-59.633 Y-46.474
X-60.213 Y-45.264
X-60.841 Y-44.077
X-61.515 Y-42.917
X-62.236 Y-41.785
X-63.001 Y-40.682
X-63.811 Y-39.612
X-64.662 Y-38.574
X-65.555 Y-37.572
X-66.486 Y-36.605
X-67.455 Y-35.676
X-68.459 Y-34.786
X-69.498 Y-33.936
X-70.569 Y-33.128
X-71.672 Y-32.362
X-72.804 Y-31.641
X-73.963 Y-30.965
X-74.872 Y-30.484
X-75.238 Y-30.318
X-75.621 Y-30.197
X-76.016 Y-30.124
X-76.417 Y-30.1
X-84.276
G3 X-85.118 Y-30.459 I0.044 J-1.269
G1 X-121.016 Y-65.389
G3 X-121.4 Y-66.254 I0.886 J-0.91
G1 Y-73.481
X-121.367 Y-74.141
X-121.309 Y-74.692
X-121.21 Y-75.313
X-121.06 Y-76.008
X-120.853 Y-76.763
X-120.567 Y-77.625
X-120.202 Y-78.552
X-119.749 Y-79.539
X-119.186 Y-80.612
X-118.505 Y-81.753
X-117.755 Y-82.866
X-116.951 Y-83.941
X-116.097 Y-84.976
X-115.198 Y-85.973
X-114.258 Y-86.931
X-113.279 Y-87.848
X-112.263 Y-88.726
X-111.214 Y-89.563
X-110.133 Y-90.358
X-109.021 Y-91.11
X-107.881 Y-91.818
X-106.713 Y-92.48
X-106.616 Y-92.531
X-106.256 Y-92.691
X-105.88 Y-92.806
X-105.492 Y-92.877
X-105.099 Y-92.9
X-97.908
G3 X-97.426 Y-92.786 I-0.044 J1.269
X-97.149 Y-90.647 I-0.527 J1.156
G1 X-119.328 Y-72.542
G3 X-121.286 Y-72.999 I-0.803 J-0.984
X-121.4 Y-73.481 I1.156 J-0.527
G1 Y-78.426
X-121.372 Y-78.983
X-121.325 Y-79.428
X-121.252 Y-79.891
X-121.132 Y-80.445
X-120.977 Y-81.011
X-120.754 Y-81.681
X-120.482 Y-82.372
X-120.124 Y-83.154
X-119.669 Y-84.02
X-119.13 Y-84.923
X-118.473 Y-85.899
X-117.685 Y-86.943
X-116.82 Y-87.969
X-115.904 Y-88.95
X-114.943 Y-89.887
X-113.943 Y-90.782
X-112.906 Y-91.634
X-112.117 Y-92.231
X-111.76 Y-92.467
X-111.376 Y-92.654
X-110.971 Y-92.79
X-110.552 Y-92.872
X-110.125 Y-92.9
X-105.099
G3 X-104.306 Y-90.676 I-0.044 J1.269
G1 X-119.293 Y-77.516
G3 X-121.4 Y-78.426 I-0.838 J-0.954
G1 Y-82.61
X-121.374 Y-83.131
X-121.334 Y-83.516
X-121.268 Y-83.927
X-121.169 Y-84.384
X-121.027 Y-84.904
X-120.847 Y-85.446
X-120.602 Y-86.068
X-120.302 Y-86.721
X-119.925 Y-87.44
X-119.448 Y-88.239
X-118.891 Y-89.066
X-118.218 Y-89.959
X-117.411 Y-90.915
X-116.601 Y-91.775
X-116.378 Y-91.988
X-115.989 Y-92.306
X-115.557 Y-92.561
X-115.091 Y-92.748
X-114.602 Y-92.862
X-114.101 Y-92.9
X-110.125
G3 X-109.32 Y-90.687 I-0.044 J1.269
G1 X-119.281 Y-81.711
G3 X-121.4 Y-82.61 I-0.85 J-0.943
G1 Y-86.413
X-121.375 Y-86.919
X-121.34 Y-87.252
X-121.279 Y-87.634
X-121.188 Y-88.055
X-121.064 Y-88.507
X-120.892 Y-89.024
X-120.683 Y-89.556
X-120.411 Y-90.148
X-120.131 Y-90.681
X-119.83 Y-91.185
X-119.658 Y-91.442
X-119.374 Y-91.806
X-119.043 Y-92.126
X-118.67 Y-92.397
X-118.263 Y-92.614
X-117.83 Y-92.772
X-117.379 Y-92.868
X-116.92 Y-92.9
G3 X-116.437 Y-92.786 I-0.044 J1.269
X-115.881 Y-90.968 I-0.527 J1.156
G1 X-119.048 Y-85.795
G3 X-121.4 Y-86.413 I-1.083 J-0.663
G1 Y-90.046
X-121.389 Y-90.266
X-121.366 Y-90.481
X-121.331 Y-90.701
X-121.281 Y-90.932
X-121.224 Y-91.142
X-121.068 Y-91.512
X-120.857 Y-91.852
X-120.595 Y-92.156
X-120.289 Y-92.415
X-119.947 Y-92.623
X-119.576 Y-92.776
X-119.186 Y-92.869
X-118.787 Y-92.9
G3 X-118.304 Y-92.786 I-0.044 J1.269
X-117.86 Y-90.812 I-0.527 J1.156
G1 X-119.16 Y-89.271
G3 X-121.286 Y-89.563 I-0.971 J-0.819
X-121.4 Y-90.046 I1.156 J-0.527
G1 Y-91.358
X-121.395 Y-91.661
X-121.394 Y-91.738
X-121.361 Y-91.929
X-121.297 Y-92.119
X-121.212 Y-92.282
X-121.137 Y-92.391
X-121.044 Y-92.499
X-120.937 Y-92.599
X-120.831 Y-92.68
X-120.64 Y-92.787
X-120.45 Y-92.855
X-120.344 Y-92.879
X-120.206 Y-92.897
X-120.069 Y-92.9
X-114.101
G3 X-113.619 Y-92.786 I-0.044 J1.269
G1 X-113.489 Y-92.727 Z16.008
X-113.361 Y-92.669 Z16.032
X-113.237 Y-92.612 Z16.071
X-113.117 Y-92.558 Z16.126
X-113.004 Y-92.506 Z16.195
X-112.898 Y-92.458 Z16.277
X-112.801 Y-92.414 Z16.372
X-112.715 Y-92.375 Z16.478
X-112.64 Y-92.34 Z16.594
X-112.577 Y-92.312 Z16.719
X-112.528 Y-92.289 Z16.851
X-112.492 Y-92.273 Z16.987
X-112.47 Y-92.263 Z17.128
X-112.463 Y-92.26 Z17.27
G0 Z28.5
X-92.218 Y-30.89
Z18.54
G1 Z17.27 F850
X-92.225 Y-30.886 Z17.128
X-92.245 Y-30.873 Z16.987
X-92.279 Y-30.853 Z16.851
X-92.326 Y-30.825 Z16.719
X-92.385 Y-30.79 Z16.594
X-92.456 Y-30.748 Z16.478
X-92.538 Y-30.699 Z16.372
X-92.629 Y-30.645 Z16.277
X-92.729 Y-30.586 Z16.195
X-92.836 Y-30.522 Z16.126
X-92.949 Y-30.455 Z16.071
X-93.067 Y-30.385 Z16.032
X-93.187 Y-30.313 Z16.008
X-93.31 Y-30.241 Z16
G3 X-93.788 Y-30.1 I-0.514 J-0.864
G1 X-101.406
X-102.309 Y-30.145
X-102.901 Y-30.207
X-103.522 Y-30.306
X-104.25 Y-30.464
X-105.039 Y-30.679
X-105.901 Y-30.966
X-106.863 Y-31.345
X-107.91 Y-31.825
X-109.021 Y-32.409
X-110.173 Y-33.096
X-111.287 Y-33.845
X-112.363 Y-34.648
X-113.4 Y-35.5
X-114.399 Y-36.397
X-115.358 Y-37.335
X-116.278 Y-38.313
X-117.157 Y-39.326
X-117.996 Y-40.374
X-118.792 Y-41.455
X-119.546 Y-42.565
X-120.255 Y-43.705
X-120.92 Y-44.871
X-121.028 Y-45.078
X-121.189 Y-45.439
X-121.306 Y-45.817
X-121.376 Y-46.206
X-121.4 Y-46.6
Y-53.865
G3 X-121.286 Y-54.347 I1.269 J0.044
X-119.155 Y-54.633 I1.156 J0.527
G1 X-100.474 Y-32.182
G3 X-101.406 Y-30.1 I-0.976 J0.812
G1 X-106.738
X-107.229 Y-30.125
X-107.691 Y-30.173
X-108.162 Y-30.248
X-108.722 Y-30.369
X-109.308 Y-30.529
X-109.992 Y-30.757
X-110.697 Y-31.035
X-111.5 Y-31.403
X-112.381 Y-31.866
X-113.299 Y-32.413
X-114.294 Y-33.083
X-115.355 Y-33.884
X-116.381 Y-34.749
X-117.362 Y-35.664
X-118.301 Y-36.624
X-119.197 Y-37.623
X-120.051 Y-38.658
X-120.728 Y-39.55
X-120.964 Y-39.907
X-121.152 Y-40.292
X-121.289 Y-40.698
X-121.372 Y-41.118
X-121.4 Y-41.546
Y-46.6
G3 X-121.286 Y-47.083 I1.269 J0.044
X-119.177 Y-47.394 I1.156 J0.527
G1 X-105.829 Y-32.208
G3 X-106.738 Y-30.1 I-0.954 J0.838
G1 X-110.928
X-111.443 Y-30.126
X-111.827 Y-30.166
X-112.249 Y-30.234
X-112.707 Y-30.332
X-113.24 Y-30.478
X-113.783 Y-30.659
X-114.417 Y-30.909
X-115.072 Y-31.209
X-115.804 Y-31.593
X-116.613 Y-32.076
X-117.448 Y-32.638
X-118.353 Y-33.321
X-119.321 Y-34.138
X-120.227 Y-34.99
X-120.488 Y-35.264
X-120.806 Y-35.653
X-121.061 Y-36.085
X-121.248 Y-36.551
X-121.362 Y-37.041
X-121.4 Y-37.541
Y-41.546
G3 X-119.189 Y-42.353 I1.269 J0.044
G1 X-110.03 Y-32.221
G3 X-110.928 Y-30.1 I-0.942 J0.852
G1 X-114.737
X-115.259 Y-30.126
X-115.597 Y-30.162
X-115.979 Y-30.223
X-116.407 Y-30.315
X-116.858 Y-30.438
X-117.384 Y-30.613
X-117.917 Y-30.823
X-118.525 Y-31.102
X-119.089 Y-31.398
X-119.615 Y-31.712
X-120.038 Y-31.997
X-120.088 Y-32.034
X-120.417 Y-32.319
X-120.707 Y-32.645
X-120.95 Y-33.005
X-121.144 Y-33.395
X-121.286 Y-33.807
X-121.371 Y-34.234
X-121.4 Y-34.669
G3 X-121.286 Y-35.151 I1.269 J0.044
X-119.471 Y-35.709 I1.156 J0.527
G1 X-114.121 Y-32.454
G3 X-114.737 Y-30.1 I-0.66 J1.085
G1 X-118.374
X-118.658 Y-30.114
X-118.901 Y-30.14
X-119.129 Y-30.176
X-119.358 Y-30.225
X-119.595 Y-30.29
X-119.604 Y-30.293
X-119.982 Y-30.453
X-120.33 Y-30.669
X-120.64 Y-30.936
X-120.904 Y-31.248
X-121.117 Y-31.598
X-121.273 Y-31.977
X-121.368 Y-32.375
X-121.4 Y-32.783
G3 X-119.338 Y-33.731 I1.269 J0.044
G1 X-117.625 Y-32.361
G3 X-118.374 Y-30.1 I-0.793 J0.992
G1 X-120.069
X-120.206 Y-30.103
X-120.344 Y-30.121
X-120.45 Y-30.145
X-120.64 Y-30.213
X-120.831 Y-30.32
X-120.937 Y-30.401
X-121.044 Y-30.501
X-121.137 Y-30.609
X-121.212 Y-30.718
X-121.297 Y-30.881
X-121.361 Y-31.071
X-121.394 Y-31.262
X-121.4 Y-31.642
Y-37.541
G3 X-121.286 Y-38.024 I1.269 J0.044
G1 X-121.227 Y-38.153 Z16.008
X-121.169 Y-38.281 Z16.032
X-121.112 Y-38.405 Z16.071
X-121.058 Y-38.525 Z16.126
X-121.006 Y-38.638 Z16.195
X-120.958 Y-38.744 Z16.277
X-120.914 Y-38.841 Z16.372
X-120.875 Y-38.927 Z16.478
X-120.84 Y-39.002 Z16.594
X-120.812 Y-39.065 Z16.719
X-120.789 Y-39.114 Z16.851
X-120.773 Y-39.15 Z16.987
X-120.763 Y-39.172 Z17.128
X-120.76 Y-39.179 Z17.27
G0 Z28.5
X-86.598 Y-92.11
Z18.54
G1 Z17.27 F850
X-86.591 Y-92.114 Z17.128
X-86.571 Y-92.127 Z16.987
X-86.537 Y-92.147 Z16.851
X-86.49 Y-92.175 Z16.719
X-86.431 Y-92.21 Z16.594
X-86.36 Y-92.252 Z16.478
X-86.278 Y-92.301 Z16.372
X-86.187 Y-92.355 Z16.277
X-86.087 Y-92.414 Z16.195
X-85.98 Y-92.478 Z16.126
X-85.867 Y-92.545 Z16.071
X-85.749 Y-92.615 Z16.032
X-85.629 Y-92.687 Z16.008
X-85.506 Y-92.759 Z16
G3 X-85.028 Y-92.9 I0.514 J0.864
G1 X-77.791
X-77.107 Y-92.866
X-76.548 Y-92.807
X-75.929 Y-92.708
X-75.22 Y-92.555
X-74.463 Y-92.348
X-73.596 Y-92.06
X-72.639 Y-91.683
X-71.632 Y-91.221
X-70.538 Y-90.646
X-69.385 Y-89.958
X-68.271 Y-89.21
X-67.195 Y-88.408
X-66.156 Y-87.558
X-65.155 Y-86.664
X-64.192 Y-85.73
X-63.266 Y-84.758
X-62.38 Y-83.75
X-61.533 Y-82.709
X-60.726 Y-81.637
X-59.959 Y-80.535
X-59.234 Y-79.405
X-58.553 Y-78.249
X-57.915 Y-77.068
X-57.323 Y-75.864
X-56.776 Y-74.638
X-56.275 Y-73.393
X-55.82 Y-72.13
X-55.413 Y-70.851
X-55.052 Y-69.558
X-54.739 Y-68.253
X-54.474 Y-66.937
X-54.257 Y-65.613
X-54.089 Y-64.281
X-53.97 Y-62.945
X-53.9 Y-61.604
X-53.88 Y-60.262
X-53.911 Y-58.92
X-53.991 Y-57.581
X-54.122 Y-56.245
X-54.302 Y-54.915
X-54.531 Y-53.592
X-54.808 Y-52.279
X-55.133 Y-50.977
X-55.506 Y-49.688
X-55.925 Y-48.413
X-56.391 Y-47.154
X-56.902 Y-45.913
X-57.459 Y-44.692
X-58.061 Y-43.492
X-58.707 Y-42.316
X-59.397 Y-41.164
X-60.129 Y-40.04
X-60.902 Y-38.943
X-61.716 Y-37.875
X-62.568 Y-36.838
X-63.457 Y-35.833
X-64.382 Y-34.861
X-65.343 Y-33.923
X-66.336 Y-33.021
X-67.362 Y-32.155
X-68.419 Y-31.328
X-69.245 Y-30.729
X-69.594 Y-30.507
X-69.969 Y-30.331
X-70.362 Y-30.203
X-70.769 Y-30.126
X-71.182 Y-30.1
X-76.417
G3 X-77.642 Y-31.34 I0.044 J-1.269
G1 X-79.016 Y-91.602
G3 X-77.791 Y-92.9 I1.27 J-0.029
G1 X-72.84
X-72.228 Y-92.869
X-71.774 Y-92.822
X-71.309 Y-92.748
X-70.75 Y-92.627
X-70.174 Y-92.469
X-69.494 Y-92.243
X-68.791 Y-91.966
X-67.994 Y-91.601
X-67.11 Y-91.136
X-66.179 Y-90.581
X-65.176 Y-89.906
X-64.105 Y-89.098
X-63.079 Y-88.233
X-62.096 Y-87.319
X-61.155 Y-86.361
X-60.256 Y-85.365
X-59.397 Y-84.334
X-58.579 Y-83.27
X-57.801 Y-82.176
X-57.064 Y-81.055
X-56.368 Y-79.907
X-55.714 Y-78.735
X-55.101 Y-77.541
X-54.531 Y-76.326
X-54.004 Y-75.091
X-53.521 Y-73.839
X-53.081 Y-72.571
X-52.686 Y-71.288
X-52.335 Y-69.993
X-52.029 Y-68.686
X-51.768 Y-67.37
X-51.552 Y-66.045
X-51.381 Y-64.714
X-51.256 Y-63.378
X-51.176 Y-62.038
X-51.143 Y-60.696
X-51.156 Y-59.354
X-51.216 Y-58.013
X-51.321 Y-56.675
X-51.472 Y-55.341
X-51.67 Y-54.014
X-51.914 Y-52.694
X-52.202 Y-51.383
X-52.535 Y-50.083
X-52.913 Y-48.795
X-53.334 Y-47.521
X-53.798 Y-46.261
X-54.305 Y-45.019
X-54.854 Y-43.794
X-55.445 Y-42.589
X-56.077 Y-41.405
X-56.749 Y-40.243
X-57.461 Y-39.105
X-58.211 Y-37.993
X-59 Y-36.907
X-59.826 Y-35.849
X-60.687 Y-34.819
X-61.583 Y-33.82
X-62.513 Y-32.852
X-63.475 Y-31.916
X-64.468 Y-31.013
X-64.643 Y-30.867
X-65.015 Y-30.598
X-65.42 Y-30.383
X-65.852 Y-30.227
X-66.3 Y-30.132
X-66.758 Y-30.1
X-71.182
G3 X-72.407 Y-31.334 I0.044 J-1.269
G1 X-74.065 Y-91.596
G3 X-73.322 Y-92.786 I1.27 J-0.035
X-72.84 Y-92.9 I0.527 J1.156
G1 X-68.65
X-68.036 Y-92.869
X-67.652 Y-92.829
X-67.228 Y-92.761
X-66.771 Y-92.663
X-66.235 Y-92.516
X-65.692 Y-92.335
X-65.055 Y-92.084
X-64.396 Y-91.782
X-63.658 Y-91.395
X-62.842 Y-90.908
X-61.994 Y-90.337
X-61.074 Y-89.643
X-60.086 Y-88.809
X-59.108 Y-87.89
X-58.179 Y-86.922
X-57.294 Y-85.912
X-56.454 Y-84.866
X-55.656 Y-83.786
X-54.9 Y-82.677
X-54.185 Y-81.541
X-53.511 Y-80.381
X-52.878 Y-79.197
X-52.286 Y-77.993
X-51.735 Y-76.769
X-51.225 Y-75.528
X-50.756 Y-74.27
X-50.33 Y-72.997
X-49.946 Y-71.711
X-49.603 Y-70.413
X-49.303 Y-69.105
X-49.045 Y-67.788
X-48.83 Y-66.463
X-48.657 Y-65.132
X-48.526 Y-63.797
X-48.439 Y-62.457
X-48.394 Y-61.116
X-48.393 Y-59.774
X-48.434 Y-58.432
X-48.518 Y-57.093
X-48.646 Y-55.757
X-48.817 Y-54.425
X-49.03 Y-53.1
X-49.287 Y-51.783
X-49.586 Y-50.475
X-49.926 Y-49.176
X-50.308 Y-47.89
X-50.731 Y-46.616
X-51.194 Y-45.356
X-51.697 Y-44.112
X-52.239 Y-42.884
X-52.82 Y-41.674
X-53.44 Y-40.484
X-54.097 Y-39.314
X-54.792 Y-38.165
X-55.523 Y-37.039
X-56.29 Y-35.938
X-57.092 Y-34.862
X-57.929 Y-33.812
X-58.799 Y-32.79
X-59.701 Y-31.797
X-60.458 Y-31.026
X-60.525 Y-30.964
X-60.909 Y-30.662
X-61.333 Y-30.42
X-61.788 Y-30.244
X-62.264 Y-30.136
X-62.751 Y-30.1
X-66.758
G3 X-67.983 Y-31.329 I0.044 J-1.269
G1 X-69.875 Y-91.591
G3 X-68.65 Y-92.9 I1.269 J-0.04
G1 X-64.632
X-64.23 Y-92.88
X-63.885 Y-92.844
X-63.503 Y-92.783
X-63.067 Y-92.689
X-62.616 Y-92.565
X-62.082 Y-92.388
X-61.547 Y-92.177
X-60.917 Y-91.888
X-60.279 Y-91.553
X-59.561 Y-91.124
X-58.777 Y-90.597
X-57.97 Y-89.987
X-57.091 Y-89.247
X-56.153 Y-88.364
X-55.227 Y-87.393
X-54.351 Y-86.376
X-53.523 Y-85.32
X-52.74 Y-84.23
X-52 Y-83.11
X-51.303 Y-81.963
X-50.646 Y-80.793
X-50.031 Y-79.6
X-49.456 Y-78.387
X-48.921 Y-77.156
X-48.426 Y-75.909
X-47.972 Y-74.646
X-47.557 Y-73.369
X-47.183 Y-72.08
X-46.849 Y-70.78
X-46.555 Y-69.471
X-46.301 Y-68.153
X-46.087 Y-66.828
X-45.913 Y-65.497
X-45.78 Y-64.162
X-45.687 Y-62.823
X-45.634 Y-61.481
X-45.621 Y-60.139
X-45.648 Y-58.798
X-45.716 Y-57.457
X-45.825 Y-56.119
X-45.973 Y-54.785
X-46.162 Y-53.457
X-46.391 Y-52.134
X-46.661 Y-50.819
X-46.97 Y-49.513
X-47.318 Y-48.217
X-47.705 Y-46.932
X-48.131 Y-45.659
X-48.594 Y-44.399
X-49.095 Y-43.154
X-49.633 Y-41.925
X-50.207 Y-40.711
X-50.817 Y-39.516
X-51.463 Y-38.339
X-52.144 Y-37.183
X-52.859 Y-36.047
X-53.608 Y-34.933
X-54.39 Y-33.843
X-55.205 Y-32.776
X-56.046 Y-31.748
X-56.623 Y-31.115
X-56.691 Y-31.048
X-57.014 Y-30.768
X-57.371 Y-30.533
X-57.755 Y-30.346
X-58.16 Y-30.21
X-58.579 Y-30.128
X-59.005 Y-30.1
X-62.751
G3 X-63.976 Y-31.33 I0.044 J-1.269
G1 X-65.857 Y-91.591
G3 X-65.114 Y-92.786 I1.269 J-0.04
X-64.632 Y-92.9 I0.527 J1.156
G1 X-61.032
X-60.647 Y-92.881
X-60.329 Y-92.847
X-59.955 Y-92.788
X-59.574 Y-92.706
X-59.123 Y-92.582
X-58.665 Y-92.43
X-58.134 Y-92.22
X-57.585 Y-91.969
X-56.959 Y-91.64
X-56.324 Y-91.261
X-55.606 Y-90.778
X-54.849 Y-90.207
X-54.055 Y-89.537
X-53.197 Y-88.729
X-52.288 Y-87.776
X-51.415 Y-86.756
X-50.594 Y-85.694
X-49.822 Y-84.596
X-49.095 Y-83.468
X-48.411 Y-82.313
X-47.77 Y-81.134
X-47.17 Y-79.934
X-46.61 Y-78.714
X-46.089 Y-77.477
X-45.608 Y-76.224
X-45.166 Y-74.957
X-44.762 Y-73.677
X-44.398 Y-72.385
X-44.072 Y-71.083
X-43.785 Y-69.772
X-43.535 Y-68.453
X-43.324 Y-67.128
X-43.152 Y-65.797
X-43.017 Y-64.461
X-42.92 Y-63.123
X-42.861 Y-61.782
X-42.84 Y-60.44
X-42.858 Y-59.098
X-42.913 Y-57.757
X-43.006 Y-56.418
X-43.137 Y-55.082
X-43.306 Y-53.751
X-43.513 Y-52.424
X-43.757 Y-51.105
X-44.04 Y-49.793
X-44.36 Y-48.489
X-44.716 Y-47.195
X-45.11 Y-45.912
X-45.539 Y-44.641
X-46.004 Y-43.382
X-46.505 Y-42.136
X-47.04 Y-40.905
X-47.61 Y-39.69
X-48.213 Y-38.491
X-48.85 Y-37.31
X-49.52 Y-36.147
X-50.223 Y-35.003
X-50.958 Y-33.88
X-51.725 Y-32.779
X-52.402 Y-31.883
X-52.927 Y-31.261
X-53.044 Y-31.137
X-53.373 Y-30.832
X-53.74 Y-30.575
X-54.138 Y-30.37
X-54.56 Y-30.221
X-54.999 Y-30.13
X-55.446 Y-30.1
X-59.005
G3 X-60.23 Y-31.327 I0.044 J-1.269
G1 X-62.257 Y-91.588
G3 X-61.515 Y-92.786 I1.269 J-0.043
X-61.032 Y-92.9 I0.527 J1.156
G1 X-57.604
X-57.237 Y-92.882
X-56.919 Y-92.848
X-56.58 Y-92.794
X-56.203 Y-92.713
X-55.788 Y-92.599
X-55.344 Y-92.451
X-54.846 Y-92.255
X-54.326 Y-92.017
X-53.742 Y-91.71
X-53.134 Y-91.347
X-52.475 Y-90.904
X-51.75 Y-90.357
X-51.013 Y-89.736
X-50.217 Y-88.986
X-49.368 Y-88.096
X-48.496 Y-87.076
X-47.679 Y-86.011
X-46.913 Y-84.909
X-46.195 Y-83.775
X-45.522 Y-82.614
X-44.893 Y-81.428
X-44.305 Y-80.222
X-43.757 Y-78.996
X-43.249 Y-77.754
X-42.78 Y-76.497
X-42.349 Y-75.226
X-41.955 Y-73.942
X-41.599 Y-72.648
X-41.281 Y-71.344
X-41 Y-70.032
X-40.755 Y-68.712
X-40.547 Y-67.386
X-40.376 Y-66.055
X-40.24 Y-64.72
X-40.141 Y-63.381
X-40.078 Y-62.041
X-40.051 Y-60.699
X-40.06 Y-59.357
X-40.105 Y-58.015
X-40.185 Y-56.676
X-40.302 Y-55.339
X-40.454 Y-54.005
X-40.643 Y-52.676
X-40.866 Y-51.353
X-41.126 Y-50.036
X-41.421 Y-48.727
X-41.751 Y-47.426
X-42.116 Y-46.134
X-42.516 Y-44.853
X-42.95 Y-43.583
X-43.417 Y-42.325
X-43.918 Y-41.08
X-44.452 Y-39.848
X-45.019 Y-38.632
X-45.617 Y-37.43
X-46.247 Y-36.245
X-46.909 Y-35.077
X-47.602 Y-33.928
X-48.332 Y-32.802
X-48.925 Y-31.973
X-49.41 Y-31.366
X-49.557 Y-31.202
X-49.888 Y-30.879
X-50.262 Y-30.606
X-50.67 Y-30.388
X-51.104 Y-30.229
X-51.556 Y-30.132
X-52.018 Y-30.1
X-55.446
G3 X-56.671 Y-31.324 I0.044 J-1.269
G1 X-58.829 Y-91.585
G3 X-58.087 Y-92.786 I1.269 J-0.045
X-57.604 Y-92.9 I0.527 J1.156
G1 X-54.348
X-53.936 Y-92.879
X-53.624 Y-92.847
X-53.305 Y-92.796
X-52.929 Y-92.715
X-52.547 Y-92.61
X-52.103 Y-92.462
X-51.648 Y-92.283
X-51.128 Y-92.045
X-50.596 Y-91.765
X-49.989 Y-91.403
X-49.38 Y-90.994
X-48.695 Y-90.476
X-47.983 Y-89.876
X-47.236 Y-89.173
X-46.434 Y-88.332
X-45.589 Y-87.343
X-44.773 Y-86.277
X-44.012 Y-85.172
X-43.3 Y-84.034
X-42.636 Y-82.868
X-42.015 Y-81.678
X-41.438 Y-80.466
X-40.901 Y-79.236
X-40.403 Y-77.99
X-39.944 Y-76.729
X-39.522 Y-75.455
X-39.138 Y-74.169
X-38.79 Y-72.872
X-38.478 Y-71.567
X-38.203 Y-70.253
X-37.962 Y-68.933
X-37.757 Y-67.606
X-37.587 Y-66.275
X-37.452 Y-64.94
X-37.351 Y-63.601
X-37.285 Y-62.261
X-37.253 Y-60.919
X-37.255 Y-59.577
X-37.292 Y-58.235
X-37.362 Y-56.895
X-37.467 Y-55.557
X-37.605 Y-54.222
X-37.778 Y-52.891
X-37.984 Y-51.565
X-38.224 Y-50.244
X-38.497 Y-48.93
X-38.804 Y-47.624
X-39.144 Y-46.325
X-39.518 Y-45.036
X-39.924 Y-43.757
X-40.363 Y-42.489
X-40.834 Y-41.232
X-41.336 Y-39.987
X-41.869 Y-38.755
X-42.434 Y-37.538
X-43.028 Y-36.334
X-43.654 Y-35.147
X-44.313 Y-33.978
X-45.013 Y-32.833
X-45.551 Y-32.046
X-46.01 Y-31.448
X-46.178 Y-31.253
X-46.511 Y-30.916
X-46.889 Y-30.63
X-47.304 Y-30.402
X-47.748 Y-30.235
X-48.211 Y-30.134
X-48.683 Y-30.1
X-52.018
G3 X-53.243 Y-31.32 I0.044 J-1.269
G1 X-55.572 Y-91.582
G3 X-54.83 Y-92.786 I1.269 J-0.049
X-54.348 Y-92.9 I0.527 J1.156
G1 X-51.129
X-50.723 Y-92.88
X-50.427 Y-92.849
X-50.111 Y-92.798
X-49.749 Y-92.72
X-49.376 Y-92.618
X-48.944 Y-92.474
X-48.507 Y-92.302
X-48 Y-92.07
X-47.492 Y-91.803
X-46.906 Y-91.453
X-46.319 Y-91.058
X-45.669 Y-90.568
X-44.971 Y-89.979
X-44.263 Y-89.313
X-43.498 Y-88.511
X-42.69 Y-87.566
X-41.875 Y-86.5
X-41.116 Y-85.393
X-40.409 Y-84.252
X-39.751 Y-83.082
X-39.138 Y-81.888
X-38.569 Y-80.672
X-38.041 Y-79.438
X-37.552 Y-78.188
X-37.101 Y-76.924
X-36.688 Y-75.647
X-36.312 Y-74.359
X-35.971 Y-73.061
X-35.665 Y-71.754
X-35.395 Y-70.439
X-35.159 Y-69.118
X-34.957 Y-67.791
X-34.789 Y-66.46
X-34.654 Y-65.124
X-34.552 Y-63.786
X-34.483 Y-62.446
X-34.447 Y-61.104
X-34.444 Y-59.762
X-34.474 Y-58.42
X-34.536 Y-57.079
X-34.63 Y-55.74
X-34.757 Y-54.404
X-34.916 Y-53.071
X-35.107 Y-51.743
X-35.33 Y-50.419
X-35.585 Y-49.102
X-35.872 Y-47.791
X-36.19 Y-46.487
X-36.541 Y-45.191
X-36.923 Y-43.905
X-37.335 Y-42.627
X-37.779 Y-41.361
X-38.253 Y-40.105
X-38.757 Y-38.861
X-39.291 Y-37.63
X-39.855 Y-36.412
X-40.451 Y-35.209
X-41.081 Y-34.024
X-41.74 Y-32.893
X-42.241 Y-32.13
X-42.68 Y-31.535
X-42.874 Y-31.3
X-43.209 Y-30.95
X-43.591 Y-30.653
X-44.013 Y-30.415
X-44.465 Y-30.241
X-44.937 Y-30.136
X-45.42 Y-30.1
X-48.683
G3 X-49.908 Y-31.318 I0.044 J-1.269
G1 X-52.354 Y-91.579
G3 X-51.129 Y-92.9 I1.269 J-0.052
G1 X-47.873
X-47.584 Y-92.886
X-47.301 Y-92.856
X-46.986 Y-92.806
X-46.638 Y-92.73
X-46.265 Y-92.629
X-45.853 Y-92.491
X-45.417 Y-92.32
X-44.935 Y-92.099
X-44.429 Y-91.833
X-43.875 Y-91.502
X-43.288 Y-91.107
X-42.668 Y-90.639
X-41.987 Y-90.065
X-41.302 Y-89.42
X-40.567 Y-88.65
X-39.789 Y-87.739
X-38.974 Y-86.675
X-38.218 Y-85.567
X-37.515 Y-84.423
X-36.863 Y-83.25
X-36.257 Y-82.053
X-35.695 Y-80.834
X-35.174 Y-79.597
X-34.693 Y-78.344
X-34.251 Y-77.077
X-33.845 Y-75.797
X-33.476 Y-74.507
X-33.142 Y-73.207
X-32.842 Y-71.899
X-32.576 Y-70.583
X-32.344 Y-69.261
X-32.146 Y-67.934
X-31.979 Y-66.602
X-31.845 Y-65.267
X-31.743 Y-63.928
X-31.673 Y-62.588
X-31.635 Y-61.246
X-31.627 Y-59.904
X-31.651 Y-58.562
X-31.706 Y-57.221
X-31.792 Y-55.882
X-31.909 Y-54.545
X-32.057 Y-53.211
X-32.235 Y-51.881
X-32.444 Y-50.555
X-32.683 Y-49.234
X-32.953 Y-47.919
X-33.253 Y-46.611
X-33.583 Y-45.31
X-33.943 Y-44.017
X-34.333 Y-42.733
X-34.752 Y-41.458
X-35.201 Y-40.193
X-35.68 Y-38.939
X-36.187 Y-37.697
X-36.725 Y-36.467
X-37.295 Y-35.252
X-37.902 Y-34.055
X-38.506 Y-32.976
X-38.982 Y-32.223
X-39.406 Y-31.626
X-39.63 Y-31.344
X-39.966 Y-30.982
X-40.352 Y-30.674
X-40.779 Y-30.427
X-41.238 Y-30.247
X-41.72 Y-30.137
X-42.212 Y-30.1
X-45.42
G3 X-46.644 Y-31.318 I0.044 J-1.269
G1 X-49.097 Y-91.579
G3 X-47.873 Y-92.9 I1.269 J-0.052
G1 X-44.826
X-44.485 Y-92.883
X-44.214 Y-92.855
X-43.898 Y-92.804
X-43.564 Y-92.732
X-43.191 Y-92.63
X-42.796 Y-92.499
X-42.361 Y-92.327
X-41.9 Y-92.116
X-41.394 Y-91.85
X-40.865 Y-91.535
X-40.278 Y-91.139
X-39.685 Y-90.692
X-39.023 Y-90.134
X-38.352 Y-89.502
X-37.642 Y-88.757
X-36.887 Y-87.874
X-36.097 Y-86.842
X-35.341 Y-85.734
X-34.64 Y-84.589
X-33.991 Y-83.415
X-33.389 Y-82.215
X-32.832 Y-80.994
X-32.318 Y-79.754
X-31.843 Y-78.499
X-31.406 Y-77.229
X-31.007 Y-75.948
X-30.643 Y-74.656
X-30.313 Y-73.355
X-30.018 Y-72.046
X-29.756 Y-70.73
X-29.528 Y-69.407
X-29.331 Y-68.079
X-29.166 Y-66.747
X-29.032 Y-65.412
X-28.93 Y-64.074
X-28.857 Y-62.734
X-28.816 Y-61.392
X-28.804 Y-60.05
X-28.823 Y-58.708
X-28.871 Y-57.367
X-28.949 Y-56.027
X-29.057 Y-54.689
X-29.194 Y-53.354
X-29.361 Y-52.022
X-29.556 Y-50.694
X-29.781 Y-49.371
X-30.035 Y-48.053
X-30.318 Y-46.741
X-30.629 Y-45.436
X-30.969 Y-44.137
X-31.338 Y-42.847
X-31.736 Y-41.565
X-32.162 Y-40.292
X-32.617 Y-39.029
X-33.1 Y-37.777
X-33.614 Y-36.538
X-34.162 Y-35.312
X-34.749 Y-34.105
X-35.319 Y-33.05
X-35.775 Y-32.304
X-36.188 Y-31.705
X-36.437 Y-31.383
X-36.773 Y-31.01
X-37.161 Y-30.693
X-37.593 Y-30.438
X-38.059 Y-30.252
X-38.548 Y-30.138
X-39.048 Y-30.1
X-42.212
G3 X-43.436 Y-31.314 I0.044 J-1.269
G1 X-46.05 Y-91.576
G3 X-44.826 Y-92.9 I1.269 J-0.055
G1 X-41.779
X-41.436 Y-92.883
X-41.169 Y-92.855
X-40.854 Y-92.805
X-40.53 Y-92.735
X-40.158 Y-92.633
X-39.775 Y-92.505
X-39.339 Y-92.334
X-38.895 Y-92.13
X-38.389 Y-91.864
X-37.88 Y-91.561
X-37.297 Y-91.168
X-36.723 Y-90.736
X-36.08 Y-90.193
X-35.413 Y-89.566
X-34.725 Y-88.844
X-33.99 Y-87.983
X-33.219 Y-86.977
X-32.463 Y-85.869
X-31.764 Y-84.723
X-31.117 Y-83.547
X-30.52 Y-82.345
X-29.967 Y-81.122
X-29.458 Y-79.88
X-28.988 Y-78.623
X-28.775 Y-77.995
X-28.678 Y-77.648
X-28.62 Y-77.293
X-28.6 Y-76.934
Y-46.096
X-28.667 Y-44.755
X-28.735 Y-44.087
X-28.898 Y-42.88
X-29.149 Y-41.561
X-29.464 Y-40.257
X-29.834 Y-38.966
X-30.252 Y-37.691
X-30.715 Y-36.431
X-31.223 Y-35.189
X-31.782 Y-33.969
X-32.288 Y-32.997
X-32.692 Y-32.316
X-33.08 Y-31.736
X-33.423 Y-31.28
X-33.757 Y-30.935
X-34.137 Y-30.643
X-34.556 Y-30.409
X-35.005 Y-30.239
X-35.473 Y-30.135
X-35.951 Y-30.1
X-39.048
G3 X-40.082 Y-32.04 I0.044 J-1.269
G1 X-30.948 Y-46.722
G3 X-28.6 Y-46.096 I1.078 J0.671
G1 Y-38.108
X-28.638 Y-37.346
X-28.706 Y-36.701
X-28.819 Y-35.994
X-28.974 Y-35.273
X-29.177 Y-34.533
X-29.422 Y-33.796
X-29.68 Y-33.141
X-29.941 Y-32.571
X-30.185 Y-32.108
X-30.451 Y-31.661
X-30.521 Y-31.558
X-30.804 Y-31.194
X-31.135 Y-30.874
X-31.508 Y-30.603
X-31.915 Y-30.386
X-32.348 Y-30.228
X-32.799 Y-30.132
X-33.258 Y-30.1
X-35.951
G3 X-36.85 Y-32.22 I0.044 J-1.269
G1 X-30.812 Y-38.914
G3 X-28.6 Y-38.108 I0.943 J0.851
G1 Y-33.335
X-28.62 Y-32.936
X-28.646 Y-32.688
X-28.683 Y-32.457
X-28.738 Y-32.204
X-28.802 Y-31.97
X-28.824 Y-31.903
X-28.984 Y-31.524
X-29.2 Y-31.175
X-29.469 Y-30.863
X-29.782 Y-30.598
X-30.134 Y-30.384
X-30.514 Y-30.228
X-30.914 Y-30.132
X-31.323 Y-30.1
G3 X-32.303 Y-32.121 I0.044 J-1.269
G1 X-30.893 Y-34.042
G3 X-28.6 Y-33.335 I1.024 J0.751
G1 Y-31.642
X-28.603 Y-31.433
X-28.604 Y-31.404
Y-31.361
X-28.614 Y-31.211
X-28.631 Y-31.121
X-28.643 Y-31.064
X-28.657 Y-31.007
G3 X-29.65 Y-30.442 I-0.856 J-0.351
X-29.381 Y-32.245 I0.134 J-0.901
X-28.604 Y-31.361 I-0.134 J0.901
G1 X-28.606 Y-31.262
X-28.625 Y-31.134
X-28.657 Y-31.007
X-28.703 Y-30.881
X-28.805 Y-30.691
X-28.873 Y-30.596
X-28.956 Y-30.501
X-29.038 Y-30.424
X-29.228 Y-30.284
X-29.419 Y-30.189
X-29.539 Y-30.148
X-29.658 Y-30.121
X-29.8 Y-30.103
X-30.181 Y-30.1
X-33.258
G3 X-34.472 Y-31.191 I0.044 J-1.269
G1 X-42.992 Y-91.453
G3 X-42.261 Y-92.786 I1.257 J-0.178
X-41.779 Y-92.9 I0.527 J1.156
G1 X-38.731
X-38.422 Y-92.885
X-38.158 Y-92.857
X-37.846 Y-92.807
X-37.528 Y-92.738
X-37.157 Y-92.637
X-36.782 Y-92.512
X-36.349 Y-92.341
X-35.914 Y-92.142
X-35.413 Y-91.879
X-34.916 Y-91.582
X-34.343 Y-91.197
X-33.777 Y-90.77
X-33.149 Y-90.24
X-32.487 Y-89.617
X-31.816 Y-88.913
X-31.097 Y-88.072
X-30.342 Y-87.086
X-29.586 Y-85.978
X-29.081 Y-85.148
X-28.873 Y-84.748
X-28.722 Y-84.324
X-28.631 Y-83.882
X-28.6 Y-83.433
Y-76.934
G3 X-30.957 Y-76.324 I-1.269 J-0.044
G1 X-39.775 Y-90.976
G3 X-38.731 Y-92.9 I1.088 J-0.655
G1 X-35.684
X-35.438 Y-92.888
X-35.175 Y-92.86
X-34.866 Y-92.811
X-34.552 Y-92.743
X-34.184 Y-92.642
X-33.813 Y-92.519
X-33.384 Y-92.35
X-32.955 Y-92.153
X-32.461 Y-91.894
X-31.968 Y-91.6
X-31.409 Y-91.223
X-30.844 Y-90.797
X-30.229 Y-90.278
X-29.605 Y-89.691
X-29.512 Y-89.593
X-29.194 Y-89.204
X-28.939 Y-88.772
X-28.752 Y-88.306
X-28.638 Y-87.817
X-28.6 Y-87.316
Y-83.433
G3 X-30.906 Y-82.743 I-1.269 J-0.044
G1 X-36.677 Y-90.897
G3 X-36.167 Y-92.786 I1.037 J-0.734
X-35.684 Y-92.9 I0.527 J1.156
G1 X-32.847
X-32.464 Y-92.881
X-32.201 Y-92.853
X-31.898 Y-92.805
X-31.585 Y-92.737
X-31.226 Y-92.639
X-30.886 Y-92.526
X-30.553 Y-92.395
X-30.227 Y-92.246
X-29.828 Y-91.994
X-29.472 Y-91.684
X-29.168 Y-91.323
X-28.924 Y-90.919
X-28.746 Y-90.482
X-28.637 Y-90.023
X-28.6 Y-89.552
G3 X-30.593 Y-88.553 I-1.269 J-0.044
G1 X-33.526 Y-90.587
G3 X-33.329 Y-92.786 I0.724 J-1.044
X-32.847 Y-92.9 I0.527 J1.156
G1 X-30.352
X-30.202 Y-92.893
X-29.88 Y-92.824
X-29.575 Y-92.698
X-29.298 Y-92.519
X-29.058 Y-92.293
X-28.863 Y-92.028
X-28.718 Y-91.732
X-28.63 Y-91.414
X-28.6 Y-91.086
G3 X-30.789 Y-89.516 I-1.7 J-0.059
X-30.352 Y-92.9 I0.497 J-1.656
G1 X-30.181
X-29.8 Y-92.897
X-29.658 Y-92.879
X-29.539 Y-92.852
X-29.419 Y-92.811
X-29.228 Y-92.716
X-29.038 Y-92.576
X-28.956 Y-92.499
X-28.873 Y-92.404
X-28.805 Y-92.309
X-28.703 Y-92.119
X-28.657 Y-91.993
X-28.625 Y-91.866
X-28.606 Y-91.738
X-28.6 Y-91.358
Y-87.316
G3 X-28.714 Y-86.834 I-1.269 J-0.044
G1 X-28.773 Y-86.704 Z16.008
X-28.831 Y-86.576 Z16.032
X-28.888 Y-86.452 Z16.071
X-28.942 Y-86.332 Z16.126
X-28.994 Y-86.219 Z16.195
X-29.042 Y-86.113 Z16.277
X-29.086 Y-86.016 Z16.372
X-29.125 Y-85.93 Z16.478
X-29.16 Y-85.855 Z16.594
X-29.188 Y-85.792 Z16.719
X-29.211 Y-85.743 Z16.851
X-29.227 Y-85.707 Z16.987
X-29.237 Y-85.685 Z17.128
X-29.24 Y-85.678 Z17.27
G0 Z38.5

(2D Contour6)
S8000 M3
M9
X-31.91 Y-62.77
Z38.5
Z28.5
G1 Z24.5 F283.3
Z17.27
G18 G2 X-30.64 Z16 I1.27
G1 X-29.37 F850
G17 G3 X-28.1 Y-61.5 J1.27
G1 Y-29.6
X-121.9
Y-93.4
X-28.1
Y-61.5
Y-29.6
X-121.9
Y-93.4
X-28.1
Y-61.5
G3 X-29.37 Y-60.23 I-1.27
G1 X-30.64
G18 G3 X-31.91 Z17.27 K1.27
G0 Z38.5
G17

(2D Contour5)
S6000 M3
M9
G0 Z41
X-151.35 Y-43.216
Z26
G1 Z23.5 F283.3
Y-11.5 Z22.392
G2 X-140 Y-0.15 Z21.77 I11.35
G1 X-75 Z19.5
X-10 F850
G2 X1.35 Y-11.5 J-11.35
G1 Y-111.5
G2 X-10 Y-122.85 I-11.35
G1 X-140
G2 X-151.35 Y-111.5 J11.35
G1 Y-11.5
G2 X-140 Y-0.15 I11.35
G1 X-10
G2 X1.35 Y-11.5 J-11.35
G1 Y-111.5
G2 X-10 Y-122.85 I-11.35
G1 X-140
G2 X-151.35 Y-111.5 J11.35
G1 Y-11.5
G2 X-140 Y-0.15 I11.35
G1 X-75
X-32.046 Z18 F283.3
X-10 F850
G2 X1.35 Y-11.5 J-11.35
G1 Y-111.5
G2 X-10 Y-122.85 I-11.35
G1 X-140
G2 X-151.35 Y-111.5 J11.35
G1 Y-11.5
G2 X-140 Y-0.15 I11.35
G1 X-75
X-32.046
X-10
G2 X1.35 Y-11.5 J-11.35
G1 Y-111.5
G2 X-10 Y-122.85 I-11.35
G1 X-140
G2 X-151.35 Y-111.5 J11.35
G1 Y-11.5
G2 X-140 Y-0.15 I11.35
G1 X-75
X-32.046
X-10 Z17.23 F283.3
G2 X1.35 Y-11.5 Z16.608 J-11.35
G1 Y-14.58 Z16.5
Y-111.5 F850
G2 X-10 Y-122.85 I-11.35
G1 X-140
G2 X-151.35 Y-111.5 J11.35
G1 Y-11.5
G2 X-140 Y-0.15 I11.35
G1 X-32.046
X-10
G2 X1.35 Y-11.5 J-11.35
G1 Y-111.5
G2 X-10 Y-122.85 I-11.35
G1 X-140
G2 X-151.35 Y-111.5 J11.35
G1 Y-11.5
G2 X-140 Y-0.15 I11.35
G1 X-32.046
X-10
G2 X1.35 Y-11.5 J-11.35
G1 Y-14.58
Y-57.535 Z15 F283.3
Y-111.5 F850
G2 X-10 Y-122.85 I-11.35
G1 X-140
G2 X-151.35 Y-111.5 J11.35
G1 Y-11.5
G2 X-140 Y-0.15 I11.35
G1 X-10
G2 X1.35 Y-11.5 J-11.35
G1 Y-111.5
G2 X-10 Y-122.85 I-11.35
G1 X-140
G2 X-151.35 Y-111.5 J11.35
G1 Y-11.5
G2 X-140 Y-0.15 I11.35
G1 X-10
G2 X1.35 Y-11.5 J-11.35
G1 Y-57.535
Y-100.489 Z13.5 F283.3
Y-111.5 F850
G2 X-10 Y-122.85 I-11.35
G1 X-140
G2 X-151.35 Y-111.5 J11.35
G1 Y-11.5
G2 X-140 Y-0.15 I11.35
G1 X-10
G2 X1.35 Y-11.5 J-11.35
G1 Y-57.535
Y-100.489
Y-111.5
G2 X-10 Y-122.85 I-11.35
G1 X-140
G2 X-151.35 Y-111.5 J11.35
G1 Y-11.5
G2 X-140 Y-0.15 I11.35
G1 X-10
G2 X1.35 Y-11.5 J-11.35
G1 Y-57.535
Y-100.489
Y-111.5 Z13.115 F283.3
G2 X0.872 Y-114.761 Z13 I-11.35
X-10 Y-122.85 I-10.872 J3.261 F850
G1 X-140
G2 X-151.35 Y-111.5 J11.35
G1 Y-11.5
G2 X-140 Y-0.15 I11.35
G1 X-10
G2 X1.35 Y-11.5 J-11.35
G1 Y-100.489
Y-111.5
G2 X-10 Y-122.85 I-11.35
G1 X-140
G2 X-151.35 Y-111.5 J11.35
G1 Y-11.5
G2 X-140 Y-0.15 I11.35
G1 X-10
G2 X1.35 Y-11.5 J-11.35
G1 Y-100.489
Y-111.5
G2 X0.872 Y-114.761 I-11.35
G0 Z41

(2D Adaptive7)
M9
X-146.246 Y-129.831
Z38.5
Z28.5
Z18.54
G1 Z17.27 F850
X-146.244 Y-129.823 Z17.128
X-146.238 Y-129.8 Z16.987
X-146.228 Y-129.762 Z16.851
X-146.215 Y-129.709 Z16.719
X-146.198 Y-129.642 Z16.594
X-146.177 Y-129.562 Z16.478
X-146.154 Y-129.47 Z16.372
X-146.127 Y-129.367 Z16.277
X-146.098 Y-129.255 Z16.195
X-146.068 Y-129.134 Z16.126
X-146.035 Y-129.007 Z16.071
X-146.001 Y-128.874 Z16.032
X-145.966 Y-128.738 Z16.008
X-145.931 Y-128.6 Z16
G3 X-144.936 Y-121.687 I-31.409 J8.045
G1 Y-121.537
X-144.969 Y-121.374
X-145.02 Y-121.176
X-145.202 Y-120.599
X-145.675 Y-119.343
X-146.188 Y-118.103
X-146.647 Y-116.841
X-147.022 Y-115.553
X-147.316 Y-114.243
X-147.545 Y-112.921
X-147.723 Y-111.59
X-147.859 Y-110.255
X-147.963 Y-108.917
X-148.042 Y-107.577
X-148.102 Y-106.236
X-148.147 Y-104.895
X-148.182 Y-103.553
X-148.208 Y-102.211
X-148.227 Y-100.869
X-148.242 Y-99.527
X-148.253 Y-98.185
X-148.261 Y-96.843
X-148.268 Y-95.501
X-148.272 Y-94.159
X-148.278 Y-91.474
X-148.283 Y-87.448
X-148.286 Y-80.737
Y-71.342
Y-20.34
Y-16.314
X-148.269 Y-14.972
X-148.186 Y-13.632
X-147.99 Y-12.304
X-147.651 Y-11.006
X-147.147 Y-9.762
X-146.462 Y-8.607
X-145.601 Y-7.578
X-144.589 Y-6.697
X-143.464 Y-5.965
X-142.262 Y-5.368
X-141.009 Y-4.887
X-139.722 Y-4.505
X-138.414 Y-4.205
X-137.092 Y-3.971
X-135.762 Y-3.79
X-134.427 Y-3.651
X-133.089 Y-3.545
X-131.75 Y-3.464
X-130.409 Y-3.402
X-129.068 Y-3.356
X-127.726 Y-3.321
X-126.384 Y-3.294
X-125.042 Y-3.274
X-123.7 Y-3.259
X-122.358 Y-3.248
X-121.016 Y-3.239
X-119.674 Y-3.233
X-118.331 Y-3.228
X-115.647 Y-3.222
X-111.621 Y-3.217
X-108.936 Y-3.215
X-98.199 Y-3.214
X-57.935
X-14.986
X-13.644 Y-3.226
X-12.303 Y-3.296
X-10.973 Y-3.473
X-9.669 Y-3.79
X-8.417 Y-4.276
X-7.251 Y-4.939
X-6.204 Y-5.779
X-5.303 Y-6.774
X-4.552 Y-7.886
X-3.938 Y-9.08
X-3.443 Y-10.327
X-3.05 Y-11.611
X-2.74 Y-12.916
X-2.498 Y-14.237
X-2.311 Y-15.566
X-2.167 Y-16.9
X-2.057 Y-18.238
X-1.973 Y-19.577
X-1.91 Y-20.918
X-1.861 Y-22.259
X-1.825 Y-23.601
X-1.797 Y-24.943
X-1.777 Y-26.285
X-1.761 Y-27.627
X-1.749 Y-28.969
X-1.74 Y-30.311
X-1.734 Y-31.653
X-1.729 Y-32.995
X-1.722 Y-35.68
X-1.717 Y-39.706
X-1.714 Y-46.417
Y-54.47
Y-105.472
Y-106.814
X-1.735 Y-108.156
X-1.828 Y-109.495
X-2.038 Y-110.82
X-2.393 Y-112.114
X-2.913 Y-113.352
X-3.612 Y-114.497
X-4.489 Y-115.514
X-5.514 Y-116.38
X-6.648 Y-117.098
X-7.856 Y-117.683
X-9.113 Y-118.154
X-10.402 Y-118.527
X-11.712 Y-118.82
X-13.035 Y-119.049
X-14.365 Y-119.225
X-15.7 Y-119.36
X-17.039 Y-119.464
X-18.378 Y-119.543
X-19.719 Y-119.603
X-21.061 Y-119.648
X-22.402 Y-119.682
X-23.744 Y-119.708
X-25.086 Y-119.727
X-26.428 Y-119.742
X-27.77 Y-119.753
X-29.113 Y-119.761
X-30.455 Y-119.768
X-31.797 Y-119.772
X-34.481 Y-119.778
X-38.508 Y-119.783
X-43.876 Y-119.785
X-65.351 Y-119.786
X-94.878
X-135.143
X-136.479 Y-119.663
X-137.759 Y-119.259
X-138.94 Y-118.622
X-140 Y-117.799
X-140.929 Y-116.83
X-141.729 Y-115.752
X-142.405 Y-114.593
X-142.971 Y-113.375
X-143.437 Y-112.117
X-143.818 Y-110.83
X-144.126 Y-109.524
X-144.374 Y-108.205
X-144.571 Y-106.877
X-144.727 Y-105.544
X-144.851 Y-104.208
X-144.948 Y-102.869
X-145.024 Y-101.529
X-145.083 Y-100.188
X-145.129 Y-98.847
X-145.165 Y-97.505
X-145.193 Y-96.163
X-145.214 Y-94.821
X-145.231 Y-93.479
X-145.244 Y-92.137
X-145.254 Y-90.795
X-145.261 Y-89.453
X-145.267 Y-88.111
X-145.272 Y-86.769
X-145.278 Y-84.084
X-145.283 Y-80.058
X-145.285 Y-73.347
X-145.286 Y-62.61
Y-21.003
X-145.284 Y-19.661
X-145.267 Y-18.319
X-145.196 Y-16.979
X-145.006 Y-15.65
X-144.618 Y-14.365
X-144.025 Y-13.161
X-143.254 Y-12.063
X-142.335 Y-11.084
X-141.299 Y-10.23
X-140.175 Y-9.497
X-138.985 Y-8.877
X-137.747 Y-8.359
X-136.475 Y-7.931
X-135.179 Y-7.581
X-133.867 Y-7.297
X-132.545 Y-7.069
X-131.215 Y-6.886
X-129.881 Y-6.74
X-128.544 Y-6.625
X-127.204 Y-6.535
X-125.864 Y-6.463
X-124.523 Y-6.408
X-123.182 Y-6.364
X-121.84 Y-6.33
X-120.498 Y-6.304
X-119.156 Y-6.283
X-117.814 Y-6.267
X-116.472 Y-6.255
X-115.13 Y-6.245
X-113.788 Y-6.238
X-112.446 Y-6.232
X-111.103 Y-6.228
X-108.419 Y-6.222
X-104.393 Y-6.217
X-97.682 Y-6.215
X-93.655 Y-6.214
X-42.654
X-19.837
X-18.495 Y-6.215
X-17.153 Y-6.226
X-15.812 Y-6.279
X-14.478 Y-6.429
X-13.179 Y-6.765
X-11.952 Y-7.309
X-10.826 Y-8.04
X-9.817 Y-8.925
X-8.932 Y-9.934
X-8.169 Y-11.039
X-7.522 Y-12.214
X-6.98 Y-13.442
X-6.531 Y-14.707
X-6.162 Y-15.997
X-5.863 Y-17.306
X-5.621 Y-18.626
X-5.428 Y-19.954
X-5.274 Y-21.287
X-5.152 Y-22.624
X-5.055 Y-23.963
X-4.98 Y-25.303
X-4.92 Y-26.644
X-4.874 Y-27.985
X-4.838 Y-29.327
X-4.81 Y-30.668
X-4.788 Y-32.01
X-4.771 Y-33.353
X-4.758 Y-34.695
X-4.748 Y-36.037
X-4.74 Y-37.379
X-4.734 Y-38.721
X-4.729 Y-40.063
X-4.723 Y-42.747
X-4.718 Y-46.774
X-4.715 Y-53.485
X-4.714 Y-76.301
Y-101.802
X-4.715 Y-103.144
X-4.73 Y-104.486
X-4.791 Y-105.827
X-4.957 Y-107.159
X-5.314 Y-108.453
X-5.879 Y-109.67
X-6.627 Y-110.785
X-7.526 Y-111.781
X-8.547 Y-112.652
X-9.66 Y-113.402
X-10.842 Y-114.038
X-12.074 Y-114.57
X-13.342 Y-115.011
X-14.635 Y-115.371
X-15.944 Y-115.664
X-17.266 Y-115.901
X-18.594 Y-116.09
X-19.928 Y-116.24
X-21.265 Y-116.359
X-22.604 Y-116.453
X-23.944 Y-116.527
X-25.285 Y-116.585
X-26.626 Y-116.63
X-27.968 Y-116.666
X-29.31 Y-116.693
X-30.652 Y-116.714
X-31.994 Y-116.731
X-33.336 Y-116.743
X-34.678 Y-116.753
X-36.02 Y-116.761
X-37.362 Y-116.767
X-38.704 Y-116.771
X-41.389 Y-116.778
X-45.415 Y-116.782
X-52.126 Y-116.785
X-72.258 Y-116.786
X-123.26
X-129.971
X-131.313 Y-116.768
X-132.639 Y-116.563
X-133.916 Y-116.149
X-135.11 Y-115.536
X-136.201 Y-114.754
X-137.176 Y-113.831
X-138.032 Y-112.798
X-138.772 Y-111.678
X-139.404 Y-110.494
X-139.938 Y-109.263
X-140.383 Y-107.997
X-140.752 Y-106.706
X-141.054 Y-105.399
X-141.301 Y-104.079
X-141.501 Y-102.752
X-141.663 Y-101.42
X-141.792 Y-100.084
X-141.896 Y-98.746
X-141.978 Y-97.406
X-142.044 Y-96.065
X-142.096 Y-94.724
X-142.137 Y-93.383
X-142.169 Y-92.041
X-142.195 Y-90.699
X-142.215 Y-89.357
X-142.23 Y-88.015
X-142.243 Y-86.673
X-142.252 Y-85.331
X-142.26 Y-83.989
X-142.266 Y-82.647
X-142.27 Y-81.304
X-142.277 Y-78.62
X-142.282 Y-74.594
X-142.285 Y-69.225
X-142.286 Y-54.461
Y-27.618
Y-24.934
X-142.285 Y-23.592
X-142.277 Y-22.25
X-142.237 Y-20.908
X-142.066 Y-19.577
X-141.709 Y-18.283
X-141.163 Y-17.057
X-140.446 Y-15.923
X-139.582 Y-14.895
X-138.598 Y-13.983
X-137.519 Y-13.184
X-136.367 Y-12.495
X-135.161 Y-11.908
X-133.913 Y-11.412
X-132.636 Y-10.999
X-131.339 Y-10.656
X-130.027 Y-10.374
X-128.704 Y-10.143
X-127.375 Y-9.956
X-126.042 Y-9.805
X-124.705 Y-9.683
X-123.366 Y-9.586
X-122.027 Y-9.508
X-120.686 Y-9.446
X-119.345 Y-9.397
X-118.003 Y-9.358
X-116.661 Y-9.327
X-115.319 Y-9.303
X-113.977 Y-9.283
X-112.635 Y-9.268
X-111.293 Y-9.256
X-109.951 Y-9.247
X-108.609 Y-9.24
X-107.267 Y-9.234
X-104.582 Y-9.226
X-103.24 Y-9.223
X-99.214 Y-9.218
X-92.503 Y-9.215
X-73.713 Y-9.214
X-52.238
X-22.711
X-21.369 Y-9.217
X-20.027 Y-9.236
X-18.688 Y-9.334
X-17.374 Y-9.604
X-16.113 Y-10.064
X-14.934 Y-10.706
X-13.856 Y-11.505
X-12.889 Y-12.436
X-12.038 Y-13.474
X-11.299 Y-14.594
X-10.666 Y-15.777
X-10.129 Y-17.008
X-9.679 Y-18.272
X-9.305 Y-19.561
X-8.996 Y-20.867
X-8.743 Y-22.185
X-8.537 Y-23.512
X-8.371 Y-24.843
X-8.236 Y-26.179
X-8.128 Y-27.517
X-8.042 Y-28.856
X-7.973 Y-30.196
X-7.918 Y-31.537
X-7.875 Y-32.879
X-7.84 Y-34.221
X-7.813 Y-35.562
X-7.792 Y-36.904
X-7.775 Y-38.246
X-7.762 Y-39.589
X-7.751 Y-40.931
X-7.743 Y-42.273
X-7.736 Y-43.615
X-7.731 Y-44.957
X-7.724 Y-47.641
X-7.719 Y-51.668
X-7.715 Y-57.036
X-7.714 Y-69.116
Y-73.142
Y-98.643
X-7.717 Y-99.985
X-7.732 Y-101.327
X-7.815 Y-102.667
X-8.065 Y-103.986
X-8.504 Y-105.254
X-9.128 Y-106.442
X-9.912 Y-107.532
X-10.83 Y-108.51
X-11.857 Y-109.374
X-12.97 Y-110.126
X-14.147 Y-110.77
X-15.373 Y-111.317
X-16.634 Y-111.776
X-17.921 Y-112.157
X-19.225 Y-112.473
X-20.542 Y-112.731
X-21.868 Y-112.942
X-23.199 Y-113.112
X-24.534 Y-113.25
X-25.872 Y-113.361
X-27.211 Y-113.449
X-28.551 Y-113.52
X-29.892 Y-113.576
X-31.234 Y-113.621
X-32.575 Y-113.656
X-33.917 Y-113.684
X-35.259 Y-113.706
X-36.601 Y-113.723
X-37.943 Y-113.737
X-39.285 Y-113.748
X-40.627 Y-113.756
X-41.97 Y-113.763
X-43.312 Y-113.768
X-45.996 Y-113.775
X-48.68 Y-113.78
X-52.707 Y-113.783
X-60.76 Y-113.786
X-75.523
X-125.183
X-126.525 Y-113.784
X-127.865 Y-113.709
X-129.185 Y-113.467
X-130.457 Y-113.036
X-131.652 Y-112.426
X-132.751 Y-111.656
X-133.743 Y-110.751
X-133.829 Y-110.652
X-134.054 Y-110.418
X-134.3 Y-110.206
X-134.567 Y-110.02
X-134.99 Y-109.754
X-135.351 Y-109.501
X-136.133 Y-108.875
X-136.272 Y-108.739
X-137.035 Y-107.977
X-137.276 Y-107.73
X-137.401 Y-107.596
X-137.656 Y-107.315
X-137.735 Y-107.215
X-138.022 Y-106.834
X-138.516 Y-106.072
X-138.799 Y-105.623
X-138.993 Y-105.31
X-139.18 Y-104.98
X-139.561 Y-104.166
X-139.698 Y-103.786
X-139.833 Y-103.405
X-139.964 Y-103.024
X-140.22 Y-102.262
X-140.387 Y-101.5
X-140.445 Y-101.119
X-140.534 Y-100.358
X-140.616 Y-99.596
X-140.635 Y-99.215
X-140.643 Y-98.834
X-140.65 Y-98.453
Y-24.547
X-140.643 Y-24.166
X-140.635 Y-23.785
X-140.616 Y-23.404
X-140.534 Y-22.642
X-140.445 Y-21.881
X-140.387 Y-21.5
X-140.22 Y-20.738
X-139.942 Y-19.908
X-139.833 Y-19.595
X-139.698 Y-19.214
X-139.561 Y-18.833
X-139.18 Y-18.02
X-138.993 Y-17.69
X-138.757 Y-17.309
X-138.516 Y-16.928
X-138.023 Y-16.166
X-137.735 Y-15.785
X-137.656 Y-15.685
X-137.401 Y-15.404
X-137.276 Y-15.269
X-137.035 Y-15.023
X-136.272 Y-14.261
X-136.133 Y-14.126
X-135.35 Y-13.499
X-134.99 Y-13.247
X-134.228 Y-12.767
X-133.558 Y-12.357
X-133.467 Y-12.307
X-133.086 Y-12.132
X-132.705 Y-11.967
X-132.324 Y-11.813
X-131.562 Y-11.546
X-131.181 Y-11.418
X-130.8 Y-11.299
X-130.498 Y-11.214
X-130.039 Y-11.127
X-129.658 Y-11.056
X-128.896 Y-10.97
X-128.515 Y-10.93
X-127.753 Y-10.858
X-126.991 Y-10.852
X-126.611 Y-10.85
X-23.389
X-23.009 Y-10.852
X-22.247 Y-10.858
X-21.485 Y-10.93
X-21.104 Y-10.97
X-20.342 Y-11.056
X-19.961 Y-11.127
X-19.502 Y-11.214
X-19.2 Y-11.299
X-18.819 Y-11.418
X-18.438 Y-11.546
X-17.676 Y-11.813
X-17.276 Y-11.976
X-16.914 Y-12.132
X-16.533 Y-12.307
X-16.441 Y-12.357
X-15.772 Y-12.767
X-15.01 Y-13.246
X-14.65 Y-13.499
X-13.867 Y-14.125
X-13.728 Y-14.261
X-12.966 Y-15.023
X-12.724 Y-15.27
X-12.599 Y-15.404
X-12.344 Y-15.686
X-12.265 Y-15.785
X-11.978 Y-16.166
X-11.484 Y-16.928
X-11.201 Y-17.376
X-11.007 Y-17.69
X-10.82 Y-18.02
X-10.439 Y-18.833
X-10.302 Y-19.214
X-10.167 Y-19.595
X-10.036 Y-19.976
X-9.78 Y-20.738
X-9.613 Y-21.5
X-9.555 Y-21.881
X-9.466 Y-22.642
X-9.384 Y-23.404
X-9.365 Y-23.785
X-9.357 Y-24.166
X-9.35 Y-24.547
Y-98.453
X-9.357 Y-98.834
X-9.365 Y-99.215
X-9.384 Y-99.596
X-9.466 Y-100.358
X-9.555 Y-101.119
X-9.613 Y-101.5
X-9.78 Y-102.262
X-10.058 Y-103.091
X-10.167 Y-103.405
X-10.302 Y-103.786
X-10.439 Y-104.167
X-10.82 Y-104.98
X-11.007 Y-105.31
X-11.243 Y-105.691
X-11.485 Y-106.072
X-11.978 Y-106.834
X-12.265 Y-107.215
X-12.344 Y-107.314
X-12.6 Y-107.596
X-12.724 Y-107.73
X-12.966 Y-107.977
X-13.728 Y-108.739
X-13.867 Y-108.875
X-14.649 Y-109.501
X-15.01 Y-109.754
X-15.772 Y-110.233
X-16.442 Y-110.643
X-16.533 Y-110.693
X-16.914 Y-110.868
X-17.295 Y-111.032
X-17.676 Y-111.187
X-18.438 Y-111.454
X-18.819 Y-111.582
X-19.2 Y-111.701
X-19.501 Y-111.786
X-19.961 Y-111.873
X-20.342 Y-111.944
X-21.104 Y-112.03
X-21.485 Y-112.07
X-22.247 Y-112.142
X-23.009 Y-112.148
X-23.389 Y-112.15
X-126.611
X-126.991 Y-112.148
X-127.753 Y-112.142
X-128.515 Y-112.07
X-128.896 Y-112.03
X-129.658 Y-111.944
X-130.039 Y-111.873
X-130.499 Y-111.786
X-130.8 Y-111.701
X-131.181 Y-111.582
X-131.562 Y-111.454
X-132.324 Y-111.187
X-132.723 Y-111.024
X-133.086 Y-110.868
X-133.467 Y-110.693
X-133.558 Y-110.643
X-134.228 Y-110.233
X-134.567 Y-110.02
G3 X-135.036 Y-109.86 I-0.637 J-1.099
G1 X-135.177 Y-109.841 Z16.008
X-135.316 Y-109.823 Z16.032
X-135.451 Y-109.804 Z16.071
X-135.582 Y-109.787 Z16.126
X-135.705 Y-109.77 Z16.195
X-135.82 Y-109.755 Z16.277
X-135.926 Y-109.741 Z16.372
X-136.02 Y-109.728 Z16.478
X-136.101 Y-109.717 Z16.594
X-136.17 Y-109.708 Z16.719
X-136.224 Y-109.701 Z16.851
X-136.263 Y-109.696 Z16.987
X-136.286 Y-109.693 Z17.128
X-136.294 Y-109.692 Z17.27
G0 Z38.5

(2D Contour7)
S9000 M3
M9
X-6.04 Y-60.23
Z38.5
Z28.5
G1 Z24.5 F283.3
Z17.27
G18 G3 X-7.31 Z16 I-1.27
G1 X-8.58 F850
G17 G3 X-9.85 Y-61.5 J-1.27
G1 Y-98.95
G2 X-22.55 Y-111.65 I-12.7
G1 X-127.45
G2 X-140.15 Y-98.95 J12.7
G1 Y-24.05
G2 X-127.45 Y-11.35 I12.7
G1 X-22.55
G2 X-9.85 Y-24.05 J-12.7
G1 Y-98.95
G2 X-22.55 Y-111.65 I-12.7
G1 X-127.45
G2 X-140.15 Y-98.95 J12.7
G1 Y-24.05
G2 X-127.45 Y-11.35 I12.7
G1 X-22.55
G2 X-9.85 Y-24.05 J-12.7
G1 Y-61.5
G3 X-8.58 Y-62.77 I1.27
G1 X-7.31
G18 G2 X-6.04 Z17.27 K1.27
G0 Z38.5
G17
M9
M30
%
