%
(1001)
(allEngraving_ z0 stock top)
(T1  D=13 CR=0 TAPER=45deg - ZMIN=-3.315 - chamfer mill)
G90 G94
G17
G21

(Harolyn)
M9
T1 M6
S6000 M3
G54
M9
G0 X118.638 Y27.855
Z15
Z5
G1 Z0 F850
X118.956 Y28.183 Z-0.318
X118.638 Y28.501 Z0
X118.956 Y28.183 Z-0.318
X119.393 Y28.19 Z-0.311
X119.826 Y28.192 Z-0.3
X120.049 Y28.195 Z-0.296
X120.277 Y28.201
X120.409 Y28.208 Z-0.299
X120.63 Y28.223 Z-0.309
X120.673 Y28.227 Z-0.312
X120.873 Y28.249 Z-0.328
X121 Y28.267 Z-0.343
X121.127 Y28.288 Z-0.361
X121.261 Y28.314 Z-0.384
X121.394 Y28.344 Z-0.411
X121.529 Y28.378 Z-0.442
X121.689 Y28.423 Z-0.483
X121.915 Y28.493 Z-0.549
X122.055 Y28.539 Z-0.593
X122.38 Y28.653 Z-0.701
X122.462 Y28.684 Z-0.731
X122.548 Y28.72 Z-0.766
X122.632 Y28.761 Z-0.805
X122.716 Y28.805 Z-0.849
X122.802 Y28.855 Z-0.897
X122.887 Y28.908 Z-0.95
X122.971 Y28.966 Z-1.006
X123.1 Y29.061 Z-1.1
X123.226 Y29.165 Z-1.202
X123.476 Y29.38 Z-1.415
X123.85 Y29.702 Z-1.733
X124.251 Y29.346 Z-1.372
X124.38 Y29.239 Z-1.264
X124.533 Y29.123 Z-1.147
X124.628 Y29.057 Z-1.082
X124.773 Y28.964 Z-0.991
X124.994 Y28.835 Z-0.863
X125.134 Y28.759 Z-0.788
X125.254 Y28.698 Z-0.729
X125.359 Y28.649 Z-0.681
X125.498 Y28.591 Z-0.624
X125.608 Y28.55 Z-0.584
X125.739 Y28.505 Z-0.541
X125.875 Y28.462 Z-0.5
X126.019 Y28.42 Z-0.46
X126.066 Y28.407 Z-0.448
X126.2 Y28.378 Z-0.422
X126.469 Y28.326 Z-0.374
X126.643 Y28.295 Z-0.348
X126.789 Y28.273 Z-0.329
X126.948 Y28.252 Z-0.314
X127.102 Y28.237 Z-0.303
X127.252 Y28.226 Z-0.297
X127.461 Y28.215 Z-0.294
X127.673 Y28.208 Z-0.295
X127.993 Y28.201 Z-0.3
X128.555 Y28.188 Z-0.313
X128.867 Y27.86 Z-0.001
X128.555 Y28.188 Z-0.313
X128.868 Y28.501 Z0
X128.555 Y28.188 Z-0.313
X127.993 Y28.201 Z-0.3
X127.673 Y28.208 Z-0.295
X127.461 Y28.215 Z-0.294
X127.252 Y28.226 Z-0.297
X127.102 Y28.237 Z-0.303
X126.948 Y28.252 Z-0.314
X126.789 Y28.273 Z-0.329
X126.643 Y28.295 Z-0.348
X126.469 Y28.326 Z-0.374
X126.2 Y28.378 Z-0.422
X126.066 Y28.407 Z-0.448
X126.019 Y28.42 Z-0.46
X125.875 Y28.462 Z-0.5
X125.739 Y28.505 Z-0.541
X125.608 Y28.55 Z-0.584
X125.498 Y28.591 Z-0.624
X125.359 Y28.649 Z-0.681
X125.254 Y28.698 Z-0.729
X125.134 Y28.759 Z-0.788
X124.994 Y28.835 Z-0.863
X124.773 Y28.964 Z-0.991
X124.628 Y29.057 Z-1.082
X124.533 Y29.123 Z-1.147
X124.38 Y29.239 Z-1.264
X124.251 Y29.346 Z-1.372
X123.85 Y29.702 Z-1.733
X123.861 Y30.115 Z-1.682
X123.871 Y30.468 Z-1.643
X123.884 Y30.948 Z-1.598
X123.893 Y31.326 Z-1.57
X123.901 Y31.762 Z-1.543
X123.906 Y32.296 Z-1.518
X123.903 Y32.83 Z-1.497
X123.895 Y33.356 Z-1.481
X123.886 Y33.952 Z-1.471
X123.877 Y34.495 Z-1.469
X123.864 Y35.284 Z-1.471
X123.863 Y35.426 Z-1.472
Y40.543
X123.865 Y40.685 Z-1.474
X123.874 Y40.827 Z-1.483
X123.889 Y40.969 Z-1.498
X123.909 Y41.111 Z-1.518
X123.936 Y41.252 Z-1.545
X123.968 Y41.394 Z-1.577
X123.936 Y41.536 Z-1.545
X123.909 Y41.678 Z-1.518
X123.889 Y41.82 Z-1.498
X123.874 Y41.962 Z-1.483
X123.865 Y42.104 Z-1.474
X123.863 Y42.246 Z-1.472
Y46.424 Z-1.471
X123.87 Y47.45 Z-1.46
X123.872 Y47.867 Z-1.459
X123.873 Y48.292 Z-1.461
X123.872 Y48.74 Z-1.47
X123.869 Y49.143 Z-1.483
X123.865 Y49.56 Z-1.502
X123.862 Y49.782 Z-1.515
X123.853 Y50.254 Z-1.55
X123.842 Y50.632 Z-1.585
X123.829 Y50.997 Z-1.623
X123.817 Y51.268 Z-1.653
X123.804 Y51.584 Z-1.693
X124.026 Y51.767 Z-1.508
X124.193 Y51.902 Z-1.374
X124.406 Y52.066 Z-1.212
X124.516 Y52.146 Z-1.132
X124.678 Y52.257 Z-1.022
X124.785 Y52.327 Z-0.953
X124.888 Y52.391 Z-0.89
X124.989 Y52.449 Z-0.833
X125.128 Y52.524 Z-0.759
X125.275 Y52.597 Z-0.688
X125.377 Y52.643 Z-0.643
X125.514 Y52.702 Z-0.585
X125.724 Y52.787 Z-0.503
X125.795 Y52.813 Z-0.479
X125.865 Y52.834 Z-0.458
X125.937 Y52.853 Z-0.441
X126.015 Y52.868 Z-0.427
X126.393 Y52.93 Z-0.372
X126.592 Y52.96 Z-0.347
X126.797 Y52.987 Z-0.326
X127.008 Y53.009 Z-0.31
X127.222 Y53.026 Z-0.3
X127.435 Y53.038 Z-0.295
X127.649 Y53.047 Z-0.294
X127.883 Y53.053 Z-0.297
X128.252 Y53.058 Z-0.307
X128.503 Y53.063 Z-0.313
X128.554 Y53.064 Z-0.314
X128.867 Y53.391 Z-0.001
X128.554 Y53.064 Z-0.314
X128.868 Y52.75 Z0
X128.554 Y53.064 Z-0.314
X128.503 Y53.063 Z-0.313
X128.252 Y53.058 Z-0.307
X127.883 Y53.053 Z-0.297
X127.649 Y53.047 Z-0.294
X127.435 Y53.038 Z-0.295
X127.222 Y53.026 Z-0.3
X127.008 Y53.009 Z-0.31
X126.797 Y52.987 Z-0.326
X126.592 Y52.96 Z-0.347
X126.393 Y52.93 Z-0.372
X126.015 Y52.868 Z-0.427
X125.937 Y52.853 Z-0.441
X125.865 Y52.834 Z-0.458
X125.795 Y52.813 Z-0.479
X125.724 Y52.787 Z-0.503
X125.514 Y52.702 Z-0.585
X125.377 Y52.643 Z-0.643
X125.275 Y52.597 Z-0.688
X125.128 Y52.524 Z-0.759
X124.989 Y52.449 Z-0.833
X124.888 Y52.391 Z-0.89
X124.785 Y52.327 Z-0.953
X124.678 Y52.257 Z-1.022
X124.516 Y52.146 Z-1.132
X124.406 Y52.066 Z-1.212
X124.193 Y51.902 Z-1.374
X124.026 Y51.767 Z-1.508
X123.804 Y51.584 Z-1.693
X123.186 Y52.106 Z-1.175
X123.061 Y52.206 Z-1.076
X122.943 Y52.293 Z-0.991
X122.826 Y52.37 Z-0.915
X122.709 Y52.439 Z-0.847
X122.592 Y52.5 Z-0.787
X122.498 Y52.543 Z-0.745
X122.404 Y52.58 Z-0.708
X122.358 Y52.598 Z-0.692
X122.124 Y52.684 Z-0.608
X121.979 Y52.736 Z-0.559
X121.771 Y52.805 Z-0.493
X121.654 Y52.841 Z-0.459
X121.528 Y52.876 Z-0.426
X121.419 Y52.904 Z-0.401
X121.274 Y52.936 Z-0.371
X121.185 Y52.954 Z-0.356
X121.028 Y52.98 Z-0.333
X120.906 Y52.997 Z-0.32
X120.769 Y53.012 Z-0.308
X120.565 Y53.029 Z-0.297
X120.347 Y53.04 Z-0.292
X120.135 Y53.047 Z-0.293
X119.83 Y53.051 Z-0.299
X118.954 Y53.065 Z-0.316
X118.638 Y53.393 Z0
X118.954 Y53.065 Z-0.316
X118.638 Y52.75 Z0
X118.954 Y53.065 Z-0.316
X119.83 Y53.051 Z-0.299
X120.135 Y53.047 Z-0.293
X120.347 Y53.04 Z-0.292
X120.565 Y53.029 Z-0.297
X120.769 Y53.012 Z-0.308
X120.906 Y52.997 Z-0.32
X121.028 Y52.98 Z-0.333
X121.185 Y52.954 Z-0.356
X121.274 Y52.936 Z-0.371
X121.419 Y52.904 Z-0.401
X121.528 Y52.876 Z-0.426
X121.654 Y52.841 Z-0.459
X121.771 Y52.805 Z-0.493
X121.979 Y52.736 Z-0.559
X122.124 Y52.684 Z-0.608
X122.358 Y52.598 Z-0.692
X122.404 Y52.58 Z-0.708
X122.498 Y52.543 Z-0.745
X122.592 Y52.5 Z-0.787
X122.709 Y52.439 Z-0.847
X122.826 Y52.37 Z-0.915
X122.943 Y52.293 Z-0.991
X123.061 Y52.206 Z-1.076
X123.186 Y52.106 Z-1.175
X123.804 Y51.584 Z-1.693
X123.817 Y51.268 Z-1.653
X123.829 Y50.997 Z-1.623
X123.842 Y50.632 Z-1.585
X123.853 Y50.254 Z-1.55
X123.862 Y49.782 Z-1.515
X123.865 Y49.56 Z-1.502
X123.869 Y49.143 Z-1.483
X123.872 Y48.74 Z-1.47
X123.873 Y48.292 Z-1.461
X123.872 Y47.867 Z-1.459
X123.87 Y47.45 Z-1.46
X123.863 Y46.424 Z-1.471
Y42.246 Z-1.472
X123.865 Y42.104 Z-1.474
X123.874 Y41.962 Z-1.483
X123.889 Y41.82 Z-1.498
X123.909 Y41.678 Z-1.518
X123.936 Y41.536 Z-1.545
X123.968 Y41.394 Z-1.577
X124.211 Z-1.365
X124.436 Z-1.179
X124.646 Z-1.017
X124.746 Z-0.945
X124.843 Z-0.879
X124.938 Z-0.819
X125.03 Z-0.766
X125.121 Z-0.719
X125.21 Z-0.68
X125.298 Z-0.648
X125.385 Z-0.624
X125.428 Z-0.616
X125.515 Z-0.604
X126.25 Y41.395 Z-0.581
X127.636 Z-0.541
X128.677 Z-0.516
X129.531 Z-0.501
X130.617 Z-0.487
X131.8 Z-0.479
X133.865 Y41.394 Z-0.473
X135.037 Y41.395 Z-0.476
X136.155 Z-0.482
X136.983 Y41.396 Z-0.491
X137.652 Z-0.502
X138.526 Z-0.523
X139.399 Y41.395 Z-0.55
X140.849 Y41.394 Z-0.602
X140.936 Z-0.61
X141.023 Z-0.626
X141.109 Z-0.65
X141.197 Z-0.682
X141.286 Z-0.721
X141.376 Z-0.768
X141.468 Z-0.821
X141.562 Z-0.881
X141.659 Z-0.947
X141.758 Z-1.019
X141.967 Z-1.18
X142.191 Z-1.366
X142.434 Z-1.576
X142.466 Y41.536 Z-1.544
X142.492 Y41.678 Z-1.518
X142.513 Y41.82 Z-1.497
X142.527 Y41.962 Z-1.483
X142.536 Y42.104 Z-1.474
X142.539 Y42.246 Z-1.471
Y45.798
X142.537 Y46.27
X142.531 Y47.329 Z-1.476
X142.527 Y47.839 Z-1.482
X142.52 Y48.438 Z-1.494
X142.514 Y48.891 Z-1.507
X142.505 Y49.44 Z-1.529
X142.49 Y50.228 Z-1.569
X142.475 Y51.021 Z-1.615
X142.473 Y51.241 Z-1.631
Y51.394 Z-1.649
X142.472 Y51.598 Z-1.678
X142.622 Y51.725 Z-1.552
X142.741 Y51.823 Z-1.455
X142.895 Y51.944 Z-1.334
X143.06 Y52.068 Z-1.212
X143.146 Y52.129 Z-1.151
X143.28 Y52.221 Z-1.06
X143.387 Y52.29 Z-0.992
X143.542 Y52.385 Z-0.899
X143.69 Y52.469 Z-0.816
X143.806 Y52.53 Z-0.756
X143.95 Y52.603 Z-0.684
X144.141 Y52.695 Z-0.595
X144.266 Y52.752 Z-0.539
X144.344 Y52.782 Z-0.51
X144.422 Y52.808 Z-0.486
X144.502 Y52.83 Z-0.465
X144.625 Y52.856 Z-0.441
X144.88 Y52.908 Z-0.394
X145.061 Y52.942 Z-0.364
X145.248 Y52.972 Z-0.338
X145.438 Y52.997 Z-0.317
X145.622 Y53.015 Z-0.304
X145.801 Y53.028 Z-0.296
X145.975 Y53.037 Z-0.292
X146.223 Y53.045
X146.474 Y53.049 Z-0.297
X146.86 Y53.054 Z-0.305
X147.448 Y53.065 Z-0.316
X147.764 Y53.393 Z0
X147.448 Y53.065 Z-0.316
X147.764 Y52.75 Z0
X147.448 Y53.065 Z-0.316
X146.86 Y53.054 Z-0.305
X146.474 Y53.049 Z-0.297
X146.223 Y53.045 Z-0.292
X145.975 Y53.037
X145.801 Y53.028 Z-0.296
X145.622 Y53.015 Z-0.304
X145.438 Y52.997 Z-0.317
X145.248 Y52.972 Z-0.338
X145.061 Y52.942 Z-0.364
X144.88 Y52.908 Z-0.394
X144.625 Y52.856 Z-0.441
X144.502 Y52.83 Z-0.465
X144.422 Y52.808 Z-0.486
X144.344 Y52.782 Z-0.51
X144.266 Y52.752 Z-0.539
X144.141 Y52.695 Z-0.595
X143.95 Y52.603 Z-0.684
X143.806 Y52.53 Z-0.756
X143.69 Y52.469 Z-0.816
X143.542 Y52.385 Z-0.899
X143.387 Y52.29 Z-0.992
X143.28 Y52.221 Z-1.06
X143.146 Y52.129 Z-1.151
X143.06 Y52.068 Z-1.212
X142.895 Y51.944 Z-1.334
X142.741 Y51.823 Z-1.455
X142.622 Y51.725 Z-1.552
X142.472 Y51.598 Z-1.678
X142.263 Y51.772 Z-1.504
X142.125 Y51.882 Z-1.394
X141.971 Y52 Z-1.278
X141.808 Y52.117 Z-1.162
X141.699 Y52.193 Z-1.087
X141.591 Y52.263 Z-1.018
X141.429 Y52.361 Z-0.921
X141.281 Y52.445 Z-0.839
X141.186 Y52.496 Z-0.789
X141.034 Y52.572 Z-0.715
X140.877 Y52.646 Z-0.643
X140.707 Y52.722 Z-0.568
X140.65 Y52.747 Z-0.545
X140.592 Y52.769 Z-0.523
X140.496 Y52.801 Z-0.493
X140.37 Y52.832 Z-0.463
X140.077 Y52.896 Z-0.405
X139.904 Y52.931 Z-0.374
X139.722 Y52.963 Z-0.346
X139.555 Y52.987 Z-0.326
X139.445 Y53.001 Z-0.315
X139.259 Y53.018 Z-0.303
X139.095 Y53.03 Z-0.296
X138.928 Y53.038 Z-0.293
X138.684 Y53.045 Z-0.294
X138.148 Y53.055 Z-0.305
X137.629 Y53.065 Z-0.315
X137.314 Y53.392 Z0
X137.629 Y53.065 Z-0.315
X137.314 Y52.75 Z0
X137.629 Y53.065 Z-0.315
X138.148 Y53.055 Z-0.305
X138.684 Y53.045 Z-0.294
X138.928 Y53.038 Z-0.293
X139.095 Y53.03 Z-0.296
X139.259 Y53.018 Z-0.303
X139.445 Y53.001 Z-0.315
X139.555 Y52.987 Z-0.326
X139.722 Y52.963 Z-0.346
X139.904 Y52.931 Z-0.374
X140.077 Y52.896 Z-0.405
X140.37 Y52.832 Z-0.463
X140.496 Y52.801 Z-0.493
X140.592 Y52.769 Z-0.523
X140.65 Y52.747 Z-0.545
X140.707 Y52.722 Z-0.568
X140.877 Y52.646 Z-0.643
X141.034 Y52.572 Z-0.715
X141.186 Y52.496 Z-0.789
X141.281 Y52.445 Z-0.839
X141.429 Y52.361 Z-0.921
X141.591 Y52.263 Z-1.018
X141.699 Y52.193 Z-1.087
X141.808 Y52.117 Z-1.162
X141.971 Y52 Z-1.278
X142.125 Y51.882 Z-1.394
X142.263 Y51.772 Z-1.504
X142.472 Y51.598 Z-1.678
X142.473 Y51.394 Z-1.649
Y51.241 Z-1.631
X142.475 Y51.021 Z-1.615
X142.49 Y50.228 Z-1.569
X142.505 Y49.44 Z-1.529
X142.514 Y48.891 Z-1.507
X142.52 Y48.438 Z-1.494
X142.527 Y47.839 Z-1.482
X142.531 Y47.329 Z-1.476
X142.537 Y46.27 Z-1.471
X142.539 Y45.798
Y42.246
X142.536 Y42.104 Z-1.474
X142.527 Y41.962 Z-1.483
X142.513 Y41.82 Z-1.497
X142.492 Y41.678 Z-1.518
X142.466 Y41.536 Z-1.544
X142.434 Y41.394 Z-1.576
X142.466 Y41.252 Z-1.544
X142.492 Y41.111 Z-1.518
X142.513 Y40.969 Z-1.497
X142.527 Y40.827 Z-1.483
X142.536 Y40.685 Z-1.474
X142.539 Y40.543 Z-1.471
Y35.775
X142.534 Y35.177 Z-1.467
X142.526 Y34.383 Z-1.464
X142.521 Y33.841 Z-1.466
X142.517 Y33.291 Z-1.474
X142.514 Y32.74 Z-1.489
X142.512 Y32.249 Z-1.509
Y31.907 Z-1.527
X142.513 Y31.529 Z-1.552
X142.517 Y31.051 Z-1.588
X142.528 Y30.483 Z-1.64
X142.536 Y30.13 Z-1.675
X142.539 Y29.862 Z-1.708
X142.538 Y29.704 Z-1.73
X142.416 Y29.6 Z-1.627
X142.238 Y29.454 Z-1.481
X142.086 Y29.335 Z-1.363
X141.944 Y29.228 Z-1.257
X141.806 Y29.13 Z-1.159
X141.642 Y29.019 Z-1.05
X141.482 Y28.919 Z-0.951
X141.351 Y28.842 Z-0.876
X141.184 Y28.751 Z-0.786
X141.019 Y28.666 Z-0.702
X140.818 Y28.568 Z-0.607
X140.698 Y28.512 Z-0.553
X140.636 Y28.487 Z-0.528
X140.558 Y28.459 Z-0.502
X140.481 Y28.436 Z-0.48
X140.404 Y28.418 Z-0.462
X140.247 Y28.384 Z-0.432
X139.996 Y28.333 Z-0.385
X139.813 Y28.299 Z-0.356
X139.704 Y28.282 Z-0.341
X139.532 Y28.258 Z-0.322
X139.345 Y28.238 Z-0.307
X139.197 Y28.226 Z-0.299
X138.984 Y28.214 Z-0.293
X138.812 Y28.207
X137.629 Y28.186 Z-0.315
X137.315 Y27.858 Z-0.001
X137.629 Y28.186 Z-0.315
X137.314 Y28.501 Z0
X137.629 Y28.186 Z-0.315
X138.812 Y28.207 Z-0.293
X138.984 Y28.214
X139.197 Y28.226 Z-0.299
X139.345 Y28.238 Z-0.307
X139.532 Y28.258 Z-0.322
X139.704 Y28.282 Z-0.341
X139.813 Y28.299 Z-0.356
X139.996 Y28.333 Z-0.385
X140.247 Y28.384 Z-0.432
X140.404 Y28.418 Z-0.462
X140.481 Y28.436 Z-0.48
X140.558 Y28.459 Z-0.502
X140.636 Y28.487 Z-0.528
X140.698 Y28.512 Z-0.553
X140.818 Y28.568 Z-0.607
X141.019 Y28.666 Z-0.702
X141.184 Y28.751 Z-0.786
X141.351 Y28.842 Z-0.876
X141.482 Y28.919 Z-0.951
X141.642 Y29.019 Z-1.05
X141.806 Y29.13 Z-1.159
X141.944 Y29.228 Z-1.257
X142.086 Y29.335 Z-1.363
X142.238 Y29.454 Z-1.481
X142.416 Y29.6 Z-1.627
X142.538 Y29.704 Z-1.73
X143.126 Y29.194 Z-1.22
X143.24 Y29.098 Z-1.125
X143.348 Y29.015 Z-1.042
X143.457 Y28.937 Z-0.966
X143.565 Y28.868 Z-0.897
X143.675 Y28.805 Z-0.835
X143.783 Y28.749 Z-0.78
X143.892 Y28.7 Z-0.732
X144.042 Y28.642 Z-0.676
X144.329 Y28.535 Z-0.571
X144.457 Y28.49 Z-0.528
X144.602 Y28.442 Z-0.482
X144.765 Y28.393 Z-0.435
X144.854 Y28.368 Z-0.413
X144.984 Y28.336 Z-0.383
X145.108 Y28.309 Z-0.358
X145.228 Y28.287 Z-0.339
X145.346 Y28.269 Z-0.323
X145.461 Y28.254 Z-0.31
X145.639 Y28.236 Z-0.297
X145.773 Y28.225 Z-0.29
X145.897 Y28.218 Z-0.287
X146.106 Y28.21 Z-0.286
X146.308 Y28.206 Z-0.289
X146.95 Y28.197 Z-0.304
X147.45 Y28.187 Z-0.314
X147.764 Y28.501 Z0
X147.45 Y28.187 Z-0.314
X147.764 Y27.858 Z0
G0 Z5
X151.636 Y42.669
G1 Z0 F850
X152.297 Y42.291 Z-0.656
X152.169 Y41.587 Z-0.517
X152.125 Y41.357 Z-0.476
X152.02 Y40.804 Z-0.379
X152.254 Y40.349 Z-0.001
X152.02 Y40.804 Z-0.379
X151.637 Y40.515 Z-0.001
X152.02 Y40.804 Z-0.379
X152.125 Y41.357 Z-0.476
X152.169 Y41.587 Z-0.517
X152.297 Y42.291 Z-0.656
X152.75 Y42.811 Z-0.428
X152.809 Y42.874 Z-0.402
X152.87 Y42.932 Z-0.382
X152.934 Y42.985 Z-0.367
X153.001 Y43.034 Z-0.358
X153.07 Y43.077 Z-0.355
X153.181 Y43.142 Z-0.354
X153.422 Y43.28 Z-0.352
X153.612 Y43.385 Z-0.355
X153.753 Y43.46 Z-0.359
X153.948 Y43.556 Z-0.368
X154.094 Y43.624 Z-0.378
X154.347 Y43.735 Z-0.398
X154.601 Y43.839 Z-0.419
X154.785 Y43.905 Z-0.439
X154.993 Y43.974 Z-0.46
X155.137 Y44.018 Z-0.474
X155.363 Y44.082 Z-0.496
X155.533 Y44.125 Z-0.514
X155.76 Y44.177 Z-0.541
X155.983 Y44.222 Z-0.571
X156.289 Y44.265 Z-0.601
X156.47 Y44.287 Z-0.619
X156.553 Y44.294 Z-0.63
X156.794 Y44.308 Z-0.661
X156.948 Y44.314 Z-0.678
X157.101 Y44.316 Z-0.693
X157.26 Z-0.708
X157.509 Y44.309 Z-0.729
X157.681 Y44.301 Z-0.745
X157.914 Y44.285 Z-0.768
X158.163 Y44.254 Z-0.789
X158.366 Y44.223 Z-0.81
X158.571 Y44.187 Z-0.834
X158.737 Y44.152 Z-0.857
X158.841 Y44.128 Z-0.872
X159.049 Y44.074 Z-0.905
X159.216 Y44.024 Z-0.934
X159.424 Y43.953 Z-0.971
X159.6 Y43.884 Z-1.003
X159.629 Y43.872 Z-1.008
X159.826 Y43.783 Z-1.043
X159.865 Y43.764 Z-1.05
X160.012 Y43.687 Z-1.074
X160.189 Y43.587 Z-1.101
X160.219 Y43.569 Z-1.106
X160.437 Y43.433 Z-1.138
X160.68 Y43.272 Z-1.172
X160.97 Y43.071 Z-1.211
X161.04 Y43.019 Z-1.221
X161.135 Y42.945 Z-1.239
X161.231 Y42.844 Z-1.253
X161.303 Y42.761 Z-1.267
X161.403 Y42.641 Z-1.29
X161.553 Y42.455 Z-1.321
X161.678 Y42.292 Z-1.346
X161.779 Y42.147 Z-1.362
X161.855 Y42.027 Z-1.37
X161.92 Y41.911 Z-1.372
X161.992 Y41.763 Z-1.37
X162.071 Y41.583 Z-1.364
X162.143 Y41.399 Z-1.355
X162.197 Y41.246 Z-1.349
X162.281 Y40.989 Z-1.342
X162.304 Y40.872 Z-1.329
X162.332 Y40.719 Z-1.313
X162.368 Y40.506 Z-1.296
X162.397 Y40.313 Z-1.284
X162.428 Y40.071 Z-1.273
X162.46 Y39.776 Z-1.263
X162.482 Y39.54 Z-1.26
X162.507 Y39.203 Z-1.258
X162.534 Y38.716 Z-1.26
X162.544 Y38.491 Z-1.261
Y38.359 Z-1.267
X162.539 Y38.227 Z-1.279
X162.527 Y38.095 Z-1.296
X162.508 Y37.952 Z-1.321
X162.282 Z-1.111
X162.078 Z-0.927
X161.893 Z-0.766
X161.722 Z-0.626
X161.642 Z-0.564
X161.563 Z-0.507
X161.487 Z-0.456
X161.413 Z-0.41
X161.34 Z-0.371
X161.268 Z-0.339
X161.196 Z-0.314
X161.125 Z-0.298
X161.034 Y37.948 Z-0.286
X160.943 Y37.937 Z-0.282
X160.647 Y37.881 Z-0.287
X159.846 Y37.729 Z-0.301
X159.24 Y37.608 Z-0.313
X158.894 Y37.536 Z-0.321
X158.392 Y37.426 Z-0.335
X157.951 Y37.323 Z-0.35
X157.639 Y37.246 Z-0.362
X157.329 Y37.165 Z-0.376
X157.02 Y37.081 Z-0.391
X156.712 Y36.992 Z-0.408
X156.411 Y36.901 Z-0.427
X156.13 Y36.811 Z-0.446
X155.851 Y36.718 Z-0.466
X155.573 Y36.622 Z-0.486
X155.023 Y36.425 Z-0.53
X154.284 Y36.15 Z-0.59
X154.136 Y36.092 Z-0.604
X154.06 Y36.058 Z-0.616
X153.985 Y36.019 Z-0.633
X153.763 Y35.89 Z-0.693
X153.554 Y35.744 Z-0.734
X153.306 Y35.562 Z-0.785
X153.169 Y35.454 Z-0.814
X153.016 Y35.326 Z-0.849
X152.897 Y35.219 Z-0.875
X152.792 Y35.116 Z-0.899
X152.727 Y35.048 Z-0.914
X152.63 Y34.936 Z-0.935
X152.587 Y34.883 Z-0.945
X152.484 Y34.746 Z-0.968
X152.381 Y34.595 Z-0.995
X152.27 Y34.415 Z-1.026
X152.178 Y34.252 Z-1.057
X152.072 Y34.048 Z-1.099
X152.046 Y33.995 Z-1.111
X151.994 Y33.858 Z-1.129
X151.944 Y33.718 Z-1.149
X151.87 Y33.496 Z-1.182
X151.83 Y33.363 Z-1.202
X151.801 Y33.262 Z-1.218
X151.747 Y33.052 Z-1.248
X151.709 Y32.875 Z-1.27
X151.679 Y32.701 Z-1.286
X151.653 Y32.514 Z-1.298
X151.643 Y32.414 Z-1.303
X151.637 Y32.307 Z-1.312
X151.633 Y32.194 Z-1.321
X151.631 Y31.977 Z-1.339
X151.634 Y31.728 Z-1.359
X151.641 Y31.519 Z-1.378
X151.661 Y31.349 Z-1.384
X151.679 Y31.215 Z-1.391
X151.708 Y31.032 Z-1.402
X151.74 Y30.873 Z-1.413
X151.781 Y30.701 Z-1.426
X151.806 Y30.613 Z-1.432
X151.852 Y30.476 Z-1.439
X151.871 Y30.429 Z-1.44
X151.916 Y30.329
X151.982 Y30.204 Z-1.435
X152.077 Y30.046 Z-1.426
X152.14 Y29.95 Z-1.42
X152.256 Y29.784 Z-1.409
X152.375 Y29.625 Z-1.4
X152.498 Y29.505 Z-1.369
X152.659 Y29.354 Z-1.331
X152.749 Y29.271 Z-1.309
X152.845 Y29.189 Z-1.288
X152.942 Y29.115 Z-1.27
X153.032 Y29.053 Z-1.258
X153.205 Y28.945 Z-1.232
X153.304 Y28.889 Z-1.213
X153.407 Y28.835 Z-1.193
X153.523 Y28.779 Z-1.167
X153.645 Y28.725 Z-1.14
X153.734 Y28.689 Z-1.119
X153.862 Y28.641 Z-1.09
X153.912 Y28.624 Z-1.079
X154.044 Y28.58 Z-1.05
X154.192 Y28.536 Z-1.019
X154.343 Y28.497 Z-0.99
X154.498 Y28.462 Z-0.963
X154.644 Y28.433 Z-0.942
X154.782 Y28.41 Z-0.924
X154.919 Y28.39 Z-0.908
X155.142 Y28.369 Z-0.884
X155.313 Y28.359 Z-0.866
X155.439 Y28.356 Z-0.853
X155.558 Y28.357 Z-0.838
X155.689 Y28.363 Z-0.821
X155.933 Y28.379 Z-0.785
X156.04 Y28.397 Z-0.763
X156.116 Y28.414 Z-0.75
X156.248 Y28.448 Z-0.727
X156.328 Y28.471 Z-0.71
X156.46 Y28.515 Z-0.678
X156.658 Y28.586 Z-0.626
X156.809 Y28.645 Z-0.585
X157.057 Y28.75 Z-0.517
X157.2 Y28.813 Z-0.481
X157.431 Y28.921 Z-0.427
X157.556 Y28.983 Z-0.4
X157.697 Y29.055 Z-0.372
X157.915 Y29.174 Z-0.335
X158.14 Y29.305 Z-0.302
X158.355 Y29.436 Z-0.276
X158.564 Y29.567 Z-0.253
X158.867 Y29.761 Z-0.223
X159.027 Y29.876 Z-0.218
X159.367 Y30.129 Z-0.213
X159.596 Y30.301 Z-0.212
X159.823 Y30.478 Z-0.214
X160.052 Y30.662 Z-0.222
X160.279 Y30.853 Z-0.236
X160.501 Y31.047 Z-0.256
X160.711 Y31.239 Z-0.28
X160.781 Y31.298 Z-0.293
X160.838 Y31.34 Z-0.308
X160.904 Y31.383 Z-0.331
X160.968 Y31.419 Z-0.356
X161.043 Y31.456 Z-0.389
X161.114 Y31.487 Z-0.425
X161.197 Y31.517 Z-0.469
X161.276 Y31.542 Z-0.514
X161.362 Y31.565 Z-0.567
X161.449 Y31.583 Z-0.622
X161.549 Y31.601 Z-0.689
X161.644 Y31.615 Z-0.755
X161.751 Y31.626 Z-0.832
X161.851 Y31.633 Z-0.906
X161.955 Y31.638 Z-0.985
X162.063 Y31.639 Z-1.068
X162.26 Z-1.227
X162.488 Z-1.421
X162.509 Y31.73 Z-1.397
X162.534 Y31.859 Z-1.367
X162.552 Y31.973 Z-1.345
X162.566 Y32.094 Z-1.327
X162.576 Y32.207 Z-1.314
X162.582 Y32.335 Z-1.305
X162.584 Y32.448 Z-1.301
X162.581 Y32.681 Z-1.3
X162.574 Y33.382
X162.57 Y34.751 Z-1.307
X162.562 Y35.826 Z-1.309
X162.555 Y36.492 Z-1.308
X162.56 Y36.902 Z-1.297
X162.564 Y37.349 Z-1.283
Y37.433 Z-1.281
X162.557 Y37.578 Z-1.283
X162.546 Y37.699 Z-1.29
X162.53 Y37.826 Z-1.303
X162.508 Y37.952 Z-1.321
X162.53 Y37.826 Z-1.303
X162.546 Y37.699 Z-1.29
X162.557 Y37.578 Z-1.283
X162.564 Y37.433 Z-1.281
Y37.349 Z-1.283
X162.56 Y36.902 Z-1.297
X162.555 Y36.492 Z-1.308
X162.562 Y35.826 Z-1.309
X162.57 Y34.751 Z-1.307
X162.574 Y33.382 Z-1.3
X162.581 Y32.681
X162.584 Y32.448 Z-1.301
X162.582 Y32.335 Z-1.305
X162.576 Y32.207 Z-1.314
X162.566 Y32.094 Z-1.327
X162.552 Y31.973 Z-1.345
X162.534 Y31.859 Z-1.367
X162.509 Y31.73 Z-1.397
X162.488 Y31.639 Z-1.421
X162.524 Y31.504 Z-1.392
X162.551 Y31.385 Z-1.371
X162.572 Y31.272 Z-1.355
X162.591 Y31.146 Z-1.343
X162.604 Y31.033 Z-1.336
X162.614 Y30.922 Z-1.334
X162.63 Y30.576 Z-1.342
X162.668 Y29.847 Z-1.369
X162.694 Y29.342 Z-1.393
X162.339 Y28.975 Z-1.041
X161.895 Y28.51 Z-0.602
X161.353 Y27.938 Z-0.067
X161.287 Y27.867 Z-0.001
X161.353 Y27.938 Z-0.067
X161.895 Y28.51 Z-0.602
X162.339 Y28.975 Z-1.041
X162.694 Y29.342 Z-1.393
X162.938 Y29.129 Z-1.172
X163.059 Y29.03 Z-1.07
X163.179 Y28.941 Z-0.977
X163.296 Y28.862 Z-0.896
X163.414 Y28.79 Z-0.822
X163.535 Y28.725 Z-0.754
X163.763 Y28.607 Z-0.631
X163.852 Y28.562 Z-0.588
X163.968 Y28.507 Z-0.536
X164.063 Y28.466 Z-0.497
X164.162 Y28.427 Z-0.46
X164.251 Y28.395 Z-0.431
X164.351 Y28.364 Z-0.402
X164.443 Y28.339 Z-0.38
X164.528 Y28.319 Z-0.362
X164.648 Y28.297 Z-0.343
X164.733 Y28.284 Z-0.333
X164.829 Y28.272 Z-0.325
X164.958 Y28.26 Z-0.318
X165.131 Y28.249 Z-0.314
X165.263 Y28.243 Z-0.313
X165.875 Y28.227 Z-0.329
X166.105 Y28.22 Z-0.336
X166.441 Y28.555 Z0
X166.105 Y28.22 Z-0.336
X166.441 Y27.863 Z0
G0 Z5
X168.369 Y28.429
G1 Z0 F850
X168.659 Y28.163 Z-0.29
X168.37 Y27.86 Z-0.001
X168.659 Y28.163 Z-0.29
X168.896 Y28.178 Z-0.294
X169.903 Y28.24 Z-0.316
X169.965 Y28.244 Z-0.317
X170.191 Y28.256 Z-0.322
X170.375 Y28.27 Z-0.33
X170.506 Y28.282 Z-0.339
X170.645 Y28.3 Z-0.353
X170.789 Y28.322 Z-0.372
X170.892 Y28.342 Z-0.389
X171.032 Y28.373 Z-0.418
X171.178 Y28.409 Z-0.451
X171.41 Y28.475 Z-0.513
X171.519 Y28.507 Z-0.544
X171.62 Y28.544 Z-0.579
X171.719 Y28.587 Z-0.621
X171.821 Y28.638 Z-0.671
X171.921 Y28.695 Z-0.727
X172.034 Y28.768 Z-0.799
X172.2 Y28.882 Z-0.912
X172.459 Y29.065 Z-1.093
X172.648 Y29.203 Z-1.229
X172.826 Y29.339 Z-1.364
X173.005 Y29.481 Z-1.506
X173.227 Y29.291 Z-1.318
X173.389 Y29.161 Z-1.189
X173.546 Y29.043 Z-1.072
X173.66 Y28.962 Z-0.992
X173.769 Y28.889 Z-0.92
X173.912 Y28.8 Z-0.832
X174.033 Y28.731 Z-0.764
X174.172 Y28.659 Z-0.694
X174.274 Y28.61 Z-0.645
X174.42 Y28.544 Z-0.582
X174.537 Y28.494 Z-0.533
X174.626 Y28.459 Z-0.499
X174.716 Y28.43 Z-0.471
X174.781 Y28.413 Z-0.455
X174.845 Y28.398 Z-0.442
X175.212 Y28.327 Z-0.377
X175.406 Y28.292 Z-0.346
X175.606 Y28.259 Z-0.318
X175.809 Y28.231 Z-0.294
X176.012 Y28.208 Z-0.277
X176.211 Y28.19 Z-0.266
X176.404 Y28.177 Z-0.259
X176.594 Y28.168 Z-0.256
X176.871 Y28.158
X177.159 Y28.15 Z-0.259
X177.725 Y28.139 Z-0.27
X177.995 Y27.858 Z0
X177.725 Y28.139 Z-0.27
X177.995 Y28.409 Z0
X177.725 Y28.139 Z-0.27
X177.159 Y28.15 Z-0.259
X176.871 Y28.158 Z-0.256
X176.594 Y28.168
X176.404 Y28.177 Z-0.259
X176.211 Y28.19 Z-0.266
X176.012 Y28.208 Z-0.277
X175.809 Y28.231 Z-0.294
X175.606 Y28.259 Z-0.318
X175.406 Y28.292 Z-0.346
X175.212 Y28.327 Z-0.377
X174.845 Y28.398 Z-0.442
X174.781 Y28.413 Z-0.455
X174.716 Y28.43 Z-0.471
X174.626 Y28.459 Z-0.499
X174.537 Y28.494 Z-0.533
X174.42 Y28.544 Z-0.582
X174.274 Y28.61 Z-0.645
X174.172 Y28.659 Z-0.694
X174.033 Y28.731 Z-0.764
X173.912 Y28.8 Z-0.832
X173.769 Y28.889 Z-0.92
X173.66 Y28.962 Z-0.992
X173.546 Y29.043 Z-1.072
X173.389 Y29.161 Z-1.189
X173.227 Y29.291 Z-1.318
X173.005 Y29.481 Z-1.506
X173.009 Y29.592 Z-1.488
X173.015 Y29.745 Z-1.467
X173.02 Y29.967 Z-1.442
Y30.187 Z-1.421
X173.018 Y30.384 Z-1.407
X173.01 Y30.734 Z-1.386
X173.002 Y31.126 Z-1.365
X172.996 Y31.53 Z-1.344
X172.994 Y31.913 Z-1.327
X172.993 Y32.174 Z-1.316
X172.995 Y32.842 Z-1.297
X172.999 Y33.395 Z-1.284
X173.007 Y34.553 Z-1.269
X173.01 Y35.087 Z-1.265
X173.015 Y35.614
X173.021 Y36.11 Z-1.268
X173.029 Y36.563 Z-1.275
X173.039 Y36.925 Z-1.283
X173.051 Y37.254 Z-1.292
X173.074 Y37.722 Z-1.308
X173.101 Y38.182 Z-1.329
X173.129 Y38.637 Z-1.356
X173.156 Y39.092 Z-1.389
X173.175 Y39.426 Z-1.415
X173.187 Y39.643 Z-1.436
X173.203 Y39.799 Z-1.459
X173.22 Y39.934 Z-1.482
X173.183 Y40.02 Z-1.451
X173.137 Y40.136 Z-1.412
X173.099 Y40.242 Z-1.381
X173.058 Y40.37 Z-1.35
X173.027 Y40.476 Z-1.329
X172.995 Y40.603 Z-1.308
X172.972 Y40.71 Z-1.296
X172.95 Y40.838 Z-1.287
X172.931 Y40.971 Z-1.284
X172.921 Y41.074 Z-1.286
X172.907 Y41.29 Z-1.3
X172.891 Y41.55 Z-1.322
X172.843 Y42.232 Z-1.384
X172.797 Y42.789 Z-1.44
X172.78 Y42.918 Z-1.46
X172.758 Y43.047 Z-1.485
X173 Y43.369 Z-1.249
X173.194 Y43.634 Z-1.061
X173.443 Y43.985 Z-0.819
X173.677 Y44.322 Z-0.592
X174.005 Y44.806 Z-0.273
X174.084 Y44.927 Z-0.194
X174.118 Y44.975 Z-0.157
X174.166 Y45.041 Z-0.1
X174.193 Y45.082 Z-0.063
X174.24 Y45.141 Z0
X174.193 Y45.082 Z-0.063
X174.166 Y45.041 Z-0.1
X174.118 Y44.975 Z-0.157
X174.084 Y44.927 Z-0.194
X174.005 Y44.806 Z-0.273
X173.677 Y44.322 Z-0.592
X173.443 Y43.985 Z-0.819
X173.194 Y43.634 Z-1.061
X173 Y43.369 Z-1.249
X172.758 Y43.047 Z-1.485
X172.698 Y43.075 Z-1.441
X172.559 Y43.136 Z-1.344
X172.416 Y43.194 Z-1.25
X172.284 Y43.241 Z-1.17
X172.153 Y43.283 Z-1.097
X172.013 Y43.32 Z-1.025
X171.732 Y43.388 Z-0.89
X171.517 Y43.436 Z-0.792
X171.355 Y43.47 Z-0.726
X171.212 Y43.496 Z-0.671
X171.143 Y43.506 Z-0.647
X171.018 Y43.523 Z-0.605
X170.898 Y43.535 Z-0.569
X170.781 Y43.544 Z-0.537
X170.645 Y43.55 Z-0.505
X170.5 Y43.552 Z-0.475
X170.366 Y43.55 Z-0.452
X170.191 Y43.542 Z-0.428
X170.022 Y43.531 Z-0.409
X169.786 Y43.511 Z-0.39
X169.537 Y43.49 Z-0.372
X169.128 Y43.461 Z-0.343
X168.683 Y43.432 Z-0.314
X168.369 Y43.709 Z0
X168.683 Y43.432 Z-0.314
X168.369 Y43.119 Z0
X168.683 Y43.432 Z-0.314
X169.128 Y43.461 Z-0.343
X169.537 Y43.49 Z-0.372
X169.786 Y43.511 Z-0.39
X170.022 Y43.531 Z-0.409
X170.191 Y43.542 Z-0.428
X170.366 Y43.55 Z-0.452
X170.5 Y43.552 Z-0.475
X170.645 Y43.55 Z-0.505
X170.781 Y43.544 Z-0.537
X170.898 Y43.535 Z-0.569
X171.018 Y43.523 Z-0.605
X171.143 Y43.506 Z-0.647
X171.212 Y43.496 Z-0.671
X171.355 Y43.47 Z-0.726
X171.517 Y43.436 Z-0.792
X171.732 Y43.388 Z-0.89
X172.013 Y43.32 Z-1.025
X172.153 Y43.283 Z-1.097
X172.284 Y43.241 Z-1.17
X172.416 Y43.194 Z-1.25
X172.559 Y43.136 Z-1.344
X172.698 Y43.075 Z-1.441
X172.758 Y43.047 Z-1.485
X172.78 Y42.918 Z-1.46
X172.797 Y42.789 Z-1.44
X172.843 Y42.232 Z-1.384
X172.891 Y41.55 Z-1.322
X172.907 Y41.29 Z-1.3
X172.921 Y41.074 Z-1.286
X172.931 Y40.971 Z-1.284
X172.95 Y40.838 Z-1.287
X172.972 Y40.71 Z-1.296
X172.995 Y40.603 Z-1.308
X173.027 Y40.476 Z-1.329
X173.058 Y40.37 Z-1.35
X173.099 Y40.242 Z-1.381
X173.137 Y40.136 Z-1.412
X173.183 Y40.02 Z-1.451
X173.22 Y39.934 Z-1.482
X173.356 Y39.969 Z-1.362
X173.54 Y40.021 Z-1.202
X173.734 Y40.084 Z-1.036
X173.926 Y40.154 Z-0.876
X174.085 Y40.221 Z-0.749
X174.239 Y40.294 Z-0.631
X174.375 Y40.37 Z-0.532
X174.395 Y40.382 Z-0.519
X174.496 Y40.447 Z-0.452
X174.564 Y40.496 Z-0.411
X174.608 Y40.531 Z-0.386
X174.668 Y40.581 Z-0.356
X174.707 Y40.617 Z-0.338
X174.759 Y40.669 Z-0.318
X174.794 Y40.707 Z-0.306
X174.843 Y40.766 Z-0.295
X174.952 Y40.901 Z-0.278
X175.038 Y41.002 Z-0.269
X175.176 Y41.157 Z-0.26
X175.319 Y41.312 Z-0.256
X175.489 Y41.491 Z-0.259
X175.68 Y41.692 Z-0.268
X175.753 Y41.767 Z-0.274
X175.907 Y41.908 Z-0.302
X176.053 Y42.04 Z-0.331
X176.204 Y42.174 Z-0.365
X176.362 Y42.312 Z-0.405
X176.465 Y42.398 Z-0.433
X176.627 Y42.526 Z-0.482
X176.719 Y42.595 Z-0.512
X176.812 Y42.661 Z-0.543
X176.904 Y42.725 Z-0.576
X177.04 Y42.814 Z-0.626
X177.171 Y42.894 Z-0.675
X177.359 Y43.002 Z-0.747
X177.539 Y43.097 Z-0.816
X177.669 Y43.161 Z-0.865
X177.872 Y43.254 Z-0.937
X178.034 Y43.321 Z-0.991
X178.126 Y43.353 Z-1.023
X178.198 Y43.376 Z-1.05
X178.336 Y43.418 Z-1.1
X178.572 Y43.484 Z-1.185
X178.721 Y43.522 Z-1.24
X178.794 Y43.533 Z-1.262
X178.958 Y43.555 Z-1.311
X179.074 Y43.566 Z-1.347
X179.179 Y43.573 Z-1.378
X179.287 Y43.575 Z-1.409
X179.385 Y43.571 Z-1.434
X179.526 Y43.557 Z-1.468
X179.686 Y43.535 Z-1.505
X179.864 Y43.703 Z-1.35
X180.097 Y43.904 Z-1.145
X180.303 Y44.073 Z-0.964
X180.445 Y44.184 Z-0.838
X180.588 Y44.287 Z-0.712
X180.771 Y44.41 Z-0.548
X180.991 Y44.552 Z-0.35
X181.075 Y44.604 Z-0.275
X181.196 Y44.684 Z-0.163
X181.229 Y44.701 Z-0.131
X181.334 Y44.775 Z-0.011
X181.343 Y44.781 Z-0.001
X181.334 Y44.775 Z-0.011
X181.229 Y44.701 Z-0.131
X181.196 Y44.684 Z-0.163
X181.075 Y44.604 Z-0.275
X180.991 Y44.552 Z-0.35
X180.771 Y44.41 Z-0.548
X180.588 Y44.287 Z-0.712
X180.445 Y44.184 Z-0.838
X180.303 Y44.073 Z-0.964
X180.097 Y43.904 Z-1.145
X179.864 Y43.703 Z-1.35
X179.686 Y43.535 Z-1.505
X179.769 Y43.391 Z-1.406
X179.906 Y43.144 Z-1.243
X180.039 Y42.896 Z-1.087
X180.122 Y42.737 Z-0.99
X180.162 Y42.652 Z-0.943
X180.23 Y42.492 Z-0.863
X180.363 Y42.167 Z-0.709
X180.438 Y41.976 Z-0.624
X180.507 Y41.789 Z-0.547
X180.57 Y41.604 Z-0.477
X180.621 Y41.441 Z-0.42
X180.651 Y41.335 Z-0.387
X180.697 Y41.164 Z-0.336
X180.758 Y40.912 Z-0.269
X180.763 Y40.892 Z-0.264
X180.599 Y40.628 Z0
X180.763 Y40.892 Z-0.264
X181.021 Y40.628 Z0
G0 Z5
X185.749 Y39.449
G1 Z-1.232 F850
X185.704 Y39.291 Z-1.254
X185.659 Y39.117 Z-1.278
X185.611 Y38.919 Z-1.304
X185.57 Y38.736 Z-1.328
X185.54 Y38.582 Z-1.346
X185.509 Y38.407 Z-1.365
X185.484 Y38.242 Z-1.381
X185.46 Y38.056 Z-1.396
X185.427 Y37.754 Z-1.413
X185.418 Y37.608 Z-1.422
X185.411 Y37.408 Z-1.438
X185.403 Y37.053 Z-1.462
X185.4 Y36.747 Z-1.48
Y36.382 Z-1.501
X185.433 Y35.878 Z-1.506
X185.459 Y35.55 Z-1.51
X185.49 Y35.234 Z-1.516
X185.526 Y34.918 Z-1.523
X185.568 Y34.611 Z-1.528
X185.622 Y34.285 Z-1.534
X185.674 Y34.025 Z-1.538
X185.726 Y33.797 Z-1.54
X185.766 Y33.641 Z-1.539
X185.844 Y33.37 Z-1.537
X185.91 Y33.172 Z-1.532
X185.968 Y33.012 Z-1.525
X186.068 Y32.759 Z-1.512
X186.161 Y32.546 Z-1.497
X186.221 Y32.414 Z-1.486
X186.357 Y32.133 Z-1.463
X186.496 Y31.861 Z-1.438
X186.511 Y31.834 Z-1.435
X186.653 Y31.57 Z-1.408
X186.906 Y31.12 Z-1.361
X187.112 Y30.764 Z-1.323
X187.256 Y30.575 Z-1.272
X187.339 Y30.471 Z-1.246
X187.44 Y30.357 Z-1.223
X187.603 Y30.183 Z-1.193
X187.774 Y30.004 Z-1.16
X187.963 Y29.811 Z-1.123
X188.132 Y29.646 Z-1.089
X188.325 Y29.466 Z-1.05
X188.525 Y29.292 Z-1.01
X188.736 Y29.121 Z-0.966
X188.909 Y28.994 Z-0.93
X188.956 Y28.961 Z-0.919
X189.085 Y28.875 Z-0.892
X189.242 Y28.778 Z-0.856
X189.438 Y28.668 Z-0.814
X189.673 Y28.55 Z-0.764
X189.894 Y28.454 Z-0.72
X189.954 Y28.429 Z-0.708
X190.125 Y28.364 Z-0.678
X190.284 Y28.31 Z-0.65
X190.494 Y28.245 Z-0.618
X190.757 Y28.175 Z-0.582
X191.02 Y28.115 Z-0.552
X191.277 Y28.065 Z-0.528
X191.532 Y28.022 Z-0.507
X191.685 Y27.999 Z-0.497
X191.906 Y27.968 Z-0.484
X192.149 Y27.956 Z-0.453
X192.531 Y27.943 Z-0.408
X193.016 Y27.933 Z-0.353
X193.096 Y27.935 Z-0.346
X193.153 Y27.94 Z-0.344
X193.503 Y27.979 Z-0.34
X193.681 Y28.002 Z-0.337
X193.889 Y28.031 Z-0.335
X194.164 Y28.077 Z-0.33
X194.406 Y28.126 Z-0.327
X194.589 Y28.169 Z-0.326
X194.695 Y28.197
X194.952 Y28.273 Z-0.328
X195.137 Y28.338 Z-0.33
X195.32 Y28.412 Z-0.335
X195.444 Y28.467 Z-0.341
X195.5 Y28.493 Z-0.342
X195.678 Y28.583 Z-0.353
X195.849 Y28.678 Z-0.364
X196.017 Y28.78 Z-0.377
X196.147 Y28.864 Z-0.39
X196.336 Y28.994 Z-0.408
X196.489 Y29.105 Z-0.424
X196.599 Y29.187 Z-0.437
X196.788 Y29.335 Z-0.459
X196.932 Y29.451 Z-0.476
X197.21 Y29.681 Z-0.509
X197.267 Y29.731 Z-0.517
X197.314 Y29.777 Z-0.527
X197.473 Y29.95 Z-0.576
X197.811 Y30.328 Z-0.685
X197.953 Y30.529 Z-0.713
X198.104 Y30.747 Z-0.746
X198.241 Y30.95 Z-0.778
X198.331 Y31.087 Z-0.8
X198.505 Y31.364 Z-0.847
X198.644 Y31.599 Z-0.888
X198.774 Y31.832 Z-0.931
X198.897 Y32.071 Z-0.976
X198.953 Y32.186 Z-1
X199.034 Y32.361 Z-1.033
X199.122 Y32.568 Z-1.073
X199.181 Y32.713 Z-1.101
X199.222 Y32.824 Z-1.121
X199.273 Y32.966 Z-1.148
X199.31 Y33.08 Z-1.167
X199.351 Y33.211 Z-1.19
X199.419 Y33.454 Z-1.228
X199.477 Y33.698 Z-1.262
X199.528 Y33.95 Z-1.292
X199.572 Y34.211 Z-1.32
X199.61 Y34.482 Z-1.345
X199.642 Y34.761 Z-1.368
X199.671 Y35.051 Z-1.388
X199.69 Y35.289 Z-1.402
X199.706 Y35.586 Z-1.424
X199.72 Y35.978 Z-1.451
X199.73 Y36.43 Z-1.48
X199.734 Y36.855 Z-1.51
X199.717 Y37.102 Z-1.511
X199.676 Y37.556 Z-1.517
X199.65 Y37.796 Z-1.522
X199.619 Y38.041 Z-1.528
X199.584 Y38.276 Z-1.534
X199.544 Y38.512 Z-1.54
X199.496 Y38.754 Z-1.545
X199.447 Y38.973 Z-1.548
X199.396 Y39.177
X199.343 Y39.365 Z-1.546
X199.287 Y39.544 Z-1.541
X199.245 Y39.667 Z-1.534
X199.174 Y39.859 Z-1.522
X199.094 Y40.057 Z-1.503
X199.01 Y40.254 Z-1.482
X198.904 Y40.485 Z-1.451
X198.803 Y40.697 Z-1.42
X198.748 Y40.798 Z-1.407
X198.598 Y41.061 Z-1.376
X198.427 Y41.351 Z-1.339
X198.239 Y41.655 Z-1.302
X198.079 Y41.902 Z-1.274
X197.91 Y42.098 Z-1.221
X197.825 Y42.194 Z-1.196
X197.653 Y42.382 Z-1.149
X197.515 Y42.525 Z-1.115
X197.447 Y42.594 Z-1.099
X197.257 Y42.776 Z-1.059
X197.078 Y42.939 Z-1.024
X197.048 Y42.965 Z-1.019
X196.874 Y43.112 Z-0.988
X196.682 Y43.264 Z-0.956
X196.5 Y43.399 Z-0.925
X196.362 Y43.497 Z-0.9
X196.11 Y43.663 Z-0.853
X195.937 Y43.769 Z-0.817
X195.795 Y43.852 Z-0.784
X195.711 Y43.898 Z-0.767
X195.621 Y43.939 Z-0.752
X195.498 Y43.992 Z-0.735
X195.265 Y44.086 Z-0.698
X195.098 Y44.15 Z-0.67
X194.832 Y44.242 Z-0.625
X194.693 Y44.288 Z-0.602
X194.528 Y44.338 Z-0.576
X194.265 Y44.409 Z-0.537
X194.098 Y44.448 Z-0.514
X193.997 Y44.47 Z-0.502
X193.791 Y44.51 Z-0.48
X193.612 Y44.54 Z-0.465
X193.441 Y44.564 Z-0.453
X193.187 Y44.595 Z-0.44
X192.907 Y44.622 Z-0.43
X192.616 Y44.629 Z-0.409
X192.206 Y44.633 Z-0.381
X192.122 Y44.631 Z-0.378
X191.917 Y44.617 Z-0.377
X191.651 Y44.595 Z-0.375
X191.407 Y44.569 Z-0.373
X191.157 Y44.536
X191.014 Y44.512 Z-0.374
X190.775 Y44.465 Z-0.377
X190.644 Y44.434 Z-0.379
X190.579 Y44.418 Z-0.382
X190.399 Y44.366 Z-0.387
X190.258 Y44.32 Z-0.392
X190.121 Y44.272 Z-0.399
X189.894 Y44.185 Z-0.41
X189.686 Y44.097 Z-0.422
X189.506 Y44.017 Z-0.431
X189.226 Y43.885 Z-0.446
X189.146 Y43.844 Z-0.453
X188.84 Y43.668 Z-0.492
X188.634 Y43.545 Z-0.52
X188.482 Y43.451 Z-0.543
X188.324 Y43.334 Z-0.557
X188.203 Y43.241 Z-0.57
X188.069 Y43.134 Z-0.588
X187.924 Y43.012 Z-0.61
X187.803 Y42.905 Z-0.632
X187.699 Y42.807 Z-0.653
X187.598 Y42.708 Z-0.676
X187.488 Y42.595 Z-0.702
X187.326 Y42.42 Z-0.743
X187.234 Y42.312 Z-0.767
X187.145 Y42.206 Z-0.791
X187.003 Y42.027 Z-0.827
X186.896 Y41.883 Z-0.853
X186.805 Y41.753 Z-0.876
X186.782 Y41.714 Z-0.884
X186.639 Y41.473 Z-0.931
X186.539 Y41.296 Z-0.962
X186.389 Y41.018 Z-1.009
X186.299 Y40.843 Z-1.037
X186.145 Y40.53 Z-1.088
X186.022 Y40.265 Z-1.134
X185.987 Y40.172 Z-1.143
X185.872 Y39.841 Z-1.181
X185.812 Y39.656 Z-1.205
X185.758 Y39.479 Z-1.228
X185.749 Y39.449 Z-1.232
G0 Z5
X203.946 Y28.429
G1 Z0 F850
X204.238 Y28.16 Z-0.292
X203.946 Y27.857 Z0
X204.238 Y28.16 Z-0.292
X205.311 Y28.223 Z-0.316
X205.556 Y28.235 Z-0.321
X205.694 Y28.245 Z-0.327
X205.839 Y28.259 Z-0.336
X205.994 Y28.279 Z-0.352
X206.101 Y28.296 Z-0.366
X206.246 Y28.325 Z-0.391
X206.321 Y28.343 Z-0.407
X206.44 Y28.375 Z-0.436
X206.542 Y28.407 Z-0.466
X206.679 Y28.455 Z-0.511
X206.823 Y28.512 Z-0.565
X206.98 Y28.58 Z-0.629
X207.198 Y28.68 Z-0.725
X207.313 Y28.737 Z-0.781
X207.422 Y28.8 Z-0.842
X207.532 Y28.87 Z-0.911
X207.641 Y28.948 Z-0.987
X207.752 Y29.034 Z-1.072
X207.86 Y29.126 Z-1.163
X208.247 Y29.478 Z-1.51
X208.669 Y29.103 Z-1.13
X208.747 Y29.038 Z-1.065
X208.858 Y28.954 Z-0.979
X208.992 Y28.862 Z-0.886
X209.071 Y28.812 Z-0.837
X209.15 Y28.765 Z-0.791
X209.23 Y28.723 Z-0.749
X209.359 Y28.662 Z-0.69
X209.574 Y28.572 Z-0.602
X209.732 Y28.51 Z-0.543
X209.874 Y28.459 Z-0.494
X209.964 Y28.43 Z-0.466
X210.064 Y28.401 Z-0.439
X210.192 Y28.368 Z-0.408
X210.285 Y28.348 Z-0.39
X210.428 Y28.322 Z-0.366
X210.531 Y28.307 Z-0.354
X210.682 Y28.289 Z-0.34
X210.824 Y28.276 Z-0.331
X211.022 Y28.263 Z-0.325
X211.232 Y28.251 Z-0.321
X211.872 Y28.202 Z-0.302
X212.255 Y28.171 Z-0.292
X212.547 Y27.862 Z0
X212.255 Y28.171 Z-0.292
X212.546 Y28.434 Z-0.001
X212.255 Y28.171 Z-0.292
X211.872 Y28.202 Z-0.302
X211.232 Y28.251 Z-0.321
X211.022 Y28.263 Z-0.325
X210.824 Y28.276 Z-0.331
X210.682 Y28.289 Z-0.34
X210.531 Y28.307 Z-0.354
X210.428 Y28.322 Z-0.366
X210.285 Y28.348 Z-0.39
X210.192 Y28.368 Z-0.408
X210.064 Y28.401 Z-0.439
X209.964 Y28.43 Z-0.466
X209.874 Y28.459 Z-0.494
X209.732 Y28.51 Z-0.543
X209.574 Y28.572 Z-0.602
X209.359 Y28.662 Z-0.69
X209.23 Y28.723 Z-0.749
X209.15 Y28.765 Z-0.791
X209.071 Y28.812 Z-0.837
X208.992 Y28.862 Z-0.886
X208.858 Y28.954 Z-0.979
X208.747 Y29.038 Z-1.065
X208.669 Y29.103 Z-1.13
X208.247 Y29.478 Z-1.51
X208.246 Y30.237 Z-1.436
Y30.534 Z-1.41
Y31.09 Z-1.366
Y31.391 Z-1.348
Y31.957 Z-1.319
Y32.246 Z-1.307
X208.247 Y32.805 Z-1.292
Y33.365 Z-1.284
Y33.815 Z-1.282
Y34.357 Z-1.283
Y35.43 Z-1.293
Y35.83 Z-1.298
Y45.183
X208.253 Y47.13 Z-1.314
X208.261 Y48.352 Z-1.328
X208.263 Y48.764 Z-1.333
X208.264 Y49.586 Z-1.353
X208.272 Y50.812 Z-1.389
X208.274 Y51.09 Z-1.397
X208.281 Y51.329 Z-1.401
X208.283 Y51.494 Z-1.406
X208.282 Y51.66 Z-1.414
X208.277 Y51.827 Z-1.426
X208.268 Y51.995 Z-1.443
X208.256 Y52.155 Z-1.462
X208.243 Y52.277 Z-1.481
X208.227 Y52.412 Z-1.504
X208.205 Y52.56 Z-1.533
X208.427 Y52.846 Z-1.325
X208.533 Y52.983 Z-1.226
X208.933 Y53.513 Z-0.853
X209.316 Y54.03 Z-0.498
X209.743 Y54.612 Z-0.102
X209.848 Y54.663 Z0
X209.743 Y54.612 Z-0.102
X209.757 Y54.727 Z-0.001
X209.743 Y54.612 Z-0.102
X209.316 Y54.03 Z-0.498
X208.933 Y53.513 Z-0.853
X208.533 Y52.983 Z-1.226
X208.427 Y52.846 Z-1.325
X208.205 Y52.56 Z-1.533
X207.987 Y52.665 Z-1.37
X207.696 Y52.801 Z-1.161
X207.56 Y52.86 Z-1.069
X207.46 Y52.9 Z-1.006
X207.334 Y52.944 Z-0.932
X207.238 Y52.974 Z-0.88
X207.142 Y53 Z-0.833
X207.026 Y53.026 Z-0.781
X206.854 Y53.056 Z-0.716
X206.64 Y53.088 Z-0.641
X206.445 Y53.113 Z-0.579
X206.347 Y53.124 Z-0.551
X206.227 Y53.134 Z-0.519
X206.088 Y53.142 Z-0.488
X205.976 Y53.145 Z-0.466
X205.824 Y53.146 Z-0.441
X205.68 Y53.143 Z-0.423
X205.493 Y53.134 Z-0.404
X205.303 Y53.122 Z-0.39
X204.813 Y53.091 Z-0.36
X204.275 Y53.06 Z-0.329
X203.947 Y53.355 Z-0.001
X204.275 Y53.06 Z-0.329
X203.946 Y52.732 Z0
G0 Z5
X214.192 Y44.126
G1 Z0 F850
X214.457 Y44.39 Z-0.265
X214.192 Y44.671 Z0
X214.457 Y44.39 Z-0.265
X214.674 Y44.384 Z-0.258
X214.754 Y44.378 Z-0.259
X214.793 Y44.373 Z-0.262
X215.155 Y44.319 Z-0.297
X215.317 Y44.292 Z-0.316
X215.543 Y44.251 Z-0.347
X215.682 Y44.222 Z-0.371
X215.823 Y44.189 Z-0.399
X215.969 Y44.151 Z-0.433
X216.121 Y44.106 Z-0.473
X216.286 Y44.051 Z-0.525
X216.45 Y43.989 Z-0.583
X216.621 Y43.917 Z-0.652
X216.799 Y43.835 Z-0.731
X216.958 Y43.756 Z-0.808
X217.127 Y43.666 Z-0.895
X217.293 Y43.573 Z-0.986
X217.461 Y43.477 Z-1.085
X217.653 Y43.362 Z-1.202
X217.927 Y43.193 Z-1.376
X218.141 Y43.056 Z-1.516
X218.289 Y43.199 Z-1.375
X218.448 Y43.342 Z-1.235
X218.575 Y43.451 Z-1.128
X218.669 Y43.529 Z-1.052
X218.787 Y43.621 Z-0.962
X218.907 Y43.71 Z-0.876
X219.01 Y43.78 Z-0.807
X219.115 Y43.847 Z-0.743
X219.257 Y43.929 Z-0.663
X219.383 Y43.994 Z-0.601
X219.498 Y44.048 Z-0.549
X219.624 Y44.102 Z-0.498
X219.766 Y44.158 Z-0.446
X219.851 Y44.189 Z-0.417
X219.983 Y44.225 Z-0.384
X220.191 Y44.275 Z-0.339
X220.304 Y44.3 Z-0.318
X220.427 Y44.323 Z-0.298
X220.551 Y44.342 Z-0.282
X220.672 Y44.357 Z-0.271
X220.787 Y44.367 Z-0.264
X220.948 Y44.376 Z-0.26
X221.145 Y44.383 Z-0.259
X221.291 Y44.386 Z-0.26
X222.075 Y44.398 Z-0.273
X222.347 Y44.679 Z-0.001
X222.075 Y44.398 Z-0.273
X222.348 Y44.126 Z0
X222.075 Y44.398 Z-0.273
X221.291 Y44.386 Z-0.26
X221.145 Y44.383 Z-0.259
X220.948 Y44.376 Z-0.26
X220.787 Y44.367 Z-0.264
X220.672 Y44.357 Z-0.271
X220.551 Y44.342 Z-0.282
X220.427 Y44.323 Z-0.298
X220.304 Y44.3 Z-0.318
X220.191 Y44.275 Z-0.339
X219.983 Y44.225 Z-0.384
X219.851 Y44.189 Z-0.417
X219.766 Y44.158 Z-0.446
X219.624 Y44.102 Z-0.498
X219.498 Y44.048 Z-0.549
X219.383 Y43.994 Z-0.601
X219.257 Y43.929 Z-0.663
X219.115 Y43.847 Z-0.743
X219.01 Y43.78 Z-0.807
X218.907 Y43.71 Z-0.876
X218.787 Y43.621 Z-0.962
X218.669 Y43.529 Z-1.052
X218.575 Y43.451 Z-1.128
X218.448 Y43.342 Z-1.235
X218.289 Y43.199 Z-1.375
X218.141 Y43.056 Z-1.516
X218.158 Y42.98 Z-1.501
X218.187 Y42.859 Z-1.48
X218.243 Y42.664 Z-1.455
X218.309 Y42.445 Z-1.429
X218.395 Y42.175 Z-1.402
X218.45 Y42.014 Z-1.389
X218.536 Y41.778 Z-1.375
X218.596 Y41.619 Z-1.368
X218.717 Y41.311 Z-1.358
X218.751 Y41.229 Z-1.356
X219.419 Y39.564 Z-1.314
X220.023 Y38.029 Z-1.295
X220.569 Y36.655 Z-1.284
X220.938 Y35.735 Z-1.279
X221.363 Y34.684
X221.914 Y33.336 Z-1.285
X222.468 Y31.989 Z-1.297
X223.022 Y30.64 Z-1.313
X223.173 Y30.273 Z-1.318
X223.217 Y30.171 Z-1.321
X223.264 Y30.07 Z-1.329
X223.316 Y29.97 Z-1.34
X223.376 Y29.864 Z-1.357
X223.44 Y29.759 Z-1.379
X223.509 Y29.655 Z-1.405
X223.568 Y29.573 Z-1.43
X223.63 Y29.492 Z-1.457
X223.599 Y26.955 Z-0.506
X223.598 Y26.898 Z-0.485
X223.591 Y26.815 Z-0.459
X223.58 Y26.735 Z-0.437
X223.564 Y26.656 Z-0.42
X223.544 Y26.579 Z-0.407
X223.524 Y26.516 Z-0.4
X223.312 Y25.985 Z-0.384
X222.966 Y25.136 Z-0.361
X222.746 Y24.607 Z-0.35
X222.521 Y24.077 Z-0.342
X222.291 Y23.551 Z-0.338
X222.052 Y23.024 Z-0.34
X221.805 Y22.499 Z-0.347
X221.678 Y22.237 Z-0.354
X221.521 Y21.923 Z-0.364
X221.285 Y21.459 Z-0.382
X221.086 Y21.079 Z-0.4
X220.637 Y20.237 Z-0.443
X220.575 Y20.125 Z-0.452
X220.531 Y20.057 Z-0.462
X220.498 Y20.009 Z-0.471
X220.335 Y19.807 Z-0.494
X220.192 Y19.638 Z-0.515
X220.096 Y19.53 Z-0.529
X219.996 Y19.423 Z-0.544
X219.866 Y19.295 Z-0.562
X219.748 Y19.19 Z-0.578
X219.675 Y19.13 Z-0.587
X219.536 Y19.026 Z-0.603
X219.413 Y18.945 Z-0.618
X219.303 Y18.878 Z-0.633
X219.162 Y18.8 Z-0.653
X219.039 Y18.736 Z-0.673
X218.944 Y18.69 Z-0.69
X218.806 Y18.627 Z-0.715
X218.642 Y18.569 Z-0.736
X218.431 Y18.499 Z-0.764
X218.223 Y18.438 Z-0.792
X218.103 Y18.405 Z-0.806
X217.99 Y18.38 Z-0.821
X217.918 Y18.368 Z-0.831
X217.777 Y18.354 Z-0.855
X217.629 Y18.346 Z-0.877
X217.469 Y18.345 Z-0.899
X217.303 Y18.35 Z-0.923
X217.174 Y18.359 Z-0.943
X217.013 Y18.376 Z-0.972
X216.866 Y18.396 Z-1.002
X216.807 Y18.408 Z-1.012
X216.673 Y18.44 Z-1.036
X216.571 Y18.468 Z-1.054
X216.457 Y18.505 Z-1.072
X216.303 Y18.562 Z-1.094
X216.115 Y18.457 Z-0.944
X215.819 Y18.304 Z-0.704
X215.594 Y18.193 Z-0.522
X215.36 Y18.083 Z-0.329
X215.099 Y17.967 Z-0.112
X214.965 Y17.91 Z0
X215.099 Y17.967 Z-0.112
X215.36 Y18.083 Z-0.329
X215.594 Y18.193 Z-0.522
X215.819 Y18.304 Z-0.704
X216.115 Y18.457 Z-0.944
X216.303 Y18.562 Z-1.094
X216.267 Y18.652 Z-1.034
X216.189 Y18.871 Z-0.896
X216.084 Y19.18 Z-0.706
X216.007 Y19.422 Z-0.563
X215.941 Y19.649 Z-0.434
X215.899 Y19.806 Z-0.348
X215.832 Y20.085 Z-0.203
X215.787 Y20.287 Z-0.102
X215.833 Y20.389 Z-0.001
X215.787 Y20.287 Z-0.102
X215.711 Y20.389 Z0
X215.787 Y20.287 Z-0.102
X215.832 Y20.085 Z-0.203
X215.899 Y19.806 Z-0.348
X215.941 Y19.649 Z-0.434
X216.007 Y19.422 Z-0.563
X216.084 Y19.18 Z-0.706
X216.189 Y18.871 Z-0.896
X216.267 Y18.652 Z-1.034
X216.303 Y18.562 Z-1.094
X216.457 Y18.505 Z-1.072
X216.571 Y18.468 Z-1.054
X216.673 Y18.44 Z-1.036
X216.807 Y18.408 Z-1.012
X216.866 Y18.396 Z-1.002
X217.013 Y18.376 Z-0.972
X217.174 Y18.359 Z-0.943
X217.303 Y18.35 Z-0.923
X217.469 Y18.345 Z-0.899
X217.629 Y18.346 Z-0.877
X217.777 Y18.354 Z-0.855
X217.918 Y18.368 Z-0.831
X217.99 Y18.38 Z-0.821
X218.103 Y18.405 Z-0.806
X218.223 Y18.438 Z-0.792
X218.431 Y18.499 Z-0.764
X218.642 Y18.569 Z-0.736
X218.806 Y18.627 Z-0.715
X218.944 Y18.69 Z-0.69
X219.039 Y18.736 Z-0.673
X219.162 Y18.8 Z-0.653
X219.303 Y18.878 Z-0.633
X219.413 Y18.945 Z-0.618
X219.536 Y19.026 Z-0.603
X219.675 Y19.13 Z-0.587
X219.748 Y19.19 Z-0.578
X219.866 Y19.295 Z-0.562
X219.996 Y19.423 Z-0.544
X220.096 Y19.53 Z-0.529
X220.192 Y19.638 Z-0.515
X220.335 Y19.807 Z-0.494
X220.498 Y20.009 Z-0.471
X220.531 Y20.057 Z-0.462
X220.575 Y20.125 Z-0.452
X220.637 Y20.237 Z-0.443
X221.086 Y21.079 Z-0.4
X221.285 Y21.459 Z-0.382
X221.521 Y21.923 Z-0.364
X221.678 Y22.237 Z-0.354
X221.805 Y22.499 Z-0.347
X222.052 Y23.024 Z-0.34
X222.291 Y23.551 Z-0.338
X222.521 Y24.077 Z-0.342
X222.746 Y24.607 Z-0.35
X222.966 Y25.136 Z-0.361
X223.312 Y25.985 Z-0.384
X223.524 Y26.516 Z-0.4
X223.544 Y26.579 Z-0.407
X223.564 Y26.656 Z-0.42
X223.58 Y26.735 Z-0.437
X223.591 Y26.815 Z-0.459
X223.598 Y26.898 Z-0.485
X223.599 Y26.955 Z-0.506
X223.63 Y29.492 Z-1.457
X223.771 Y29.535 Z-1.344
X223.925 Y29.586 Z-1.221
X224.068 Y29.64 Z-1.111
X224.202 Y29.697 Z-1.009
X224.329 Y29.756 Z-0.915
X224.449 Y29.819 Z-0.829
X224.561 Y29.885 Z-0.752
X224.665 Y29.955 Z-0.682
X224.762 Y30.027 Z-0.621
X224.852 Y30.103 Z-0.568
X224.934 Y30.181 Z-0.523
X225.008 Y30.263 Z-0.486
X225.075 Y30.348 Z-0.457
X225.133 Y30.434 Z-0.437
X225.184 Y30.522 Z-0.424
X225.228 Y30.613 Z-0.42
X225.772 Y31.869 Z-0.408
X226.271 Y33.019 Z-0.402
X226.701 Y34.015 Z-0.401
X227.249 Y35.296 Z-0.407
X227.586 Y36.094 Z-0.416
X227.845 Y36.704 Z-0.429
X228.335 Y37.867 Z-0.459
X228.695 Y38.724 Z-0.487
X228.997 Y39.442 Z-0.515
X229.256 Y40.052 Z-0.541
X229.599 Y40.853 Z-0.581
X229.689 Y41.059 Z-0.59
X229.824 Y41.372 Z-0.608
X229.947 Y41.666 Z-0.63
X230.036 Y41.886 Z-0.649
X230.112 Y42.08 Z-0.67
X230.227 Y42.393 Z-0.709
X230.339 Y42.709 Z-0.754
X230.375 Y42.826 Z-0.775
X230.403 Y42.935 Z-0.8
X230.426 Y43.047 Z-0.831
X230.442 Y43.161 Z-0.868
X230.453 Y43.258 Z-0.904
X230.459 Y43.354 Z-0.942
X230.462 Y43.538 Z-1.023
X230.617 Y43.624 Z-0.936
X230.859 Y43.748 Z-0.814
X231.013 Y43.824 Z-0.74
X231.188 Y43.905 Z-0.661
X231.353 Y43.974 Z-0.594
X231.488 Y44.026 Z-0.545
X231.65 Y44.083 Z-0.491
X231.77 Y44.122 Z-0.455
X231.958 Y44.181 Z-0.401
X232.094 Y44.218 Z-0.37
X232.274 Y44.262 Z-0.332
X232.416 Y44.294 Z-0.307
X232.555 Y44.32 Z-0.287
X232.667 Y44.338 Z-0.275
X232.779 Y44.352 Z-0.267
X232.916 Y44.366 Z-0.262
X233.118 Y44.382 Z-0.258
X233.17 Y44.384 Z-0.259
X233.29 Y44.388 Z-0.263
X233.552 Y44.669 Z-0.001
X233.29 Y44.388 Z-0.263
X233.553 Y44.126 Z0
X233.29 Y44.388 Z-0.263
X233.17 Y44.384 Z-0.259
X233.118 Y44.382 Z-0.258
X232.916 Y44.366 Z-0.262
X232.779 Y44.352 Z-0.267
X232.667 Y44.338 Z-0.275
X232.555 Y44.32 Z-0.287
X232.416 Y44.294 Z-0.307
X232.274 Y44.262 Z-0.332
X232.094 Y44.218 Z-0.37
X231.958 Y44.181 Z-0.401
X231.77 Y44.122 Z-0.455
X231.65 Y44.083 Z-0.491
X231.488 Y44.026 Z-0.545
X231.353 Y43.974 Z-0.594
X231.188 Y43.905 Z-0.661
X231.013 Y43.824 Z-0.74
X230.859 Y43.748 Z-0.814
X230.617 Y43.624 Z-0.936
X230.462 Y43.538 Z-1.023
X230.265 Y43.659 Z-0.904
X230.105 Y43.752 Z-0.813
X230.056 Y43.78 Z-0.786
X229.941 Y43.841 Z-0.726
X229.822 Y43.901 Z-0.668
X229.681 Y43.965 Z-0.606
X229.551 Y44.017 Z-0.556
X229.425 Y44.062 Z-0.513
X229.3 Y44.101 Z-0.477
X229.199 Y44.128 Z-0.452
X229.093 Y44.153 Z-0.429
X228.977 Y44.177 Z-0.409
X228.833 Y44.201 Z-0.389
X228.718 Y44.217 Z-0.376
X228.55 Y44.236 Z-0.363
X228.324 Y44.256 Z-0.352
X228.169 Y44.268 Z-0.346
X227.365 Y44.347 Z-0.306
X227.308 Y44.353 Z-0.304
X227.005 Y44.092 Z-0.001
X227.308 Y44.353 Z-0.304
X227.005 Y44.673 Z0
G0 Z5
X235.276 Y27.86
G1 Z0 F850
X235.544 Y28.141 Z-0.268
X235.276 Y28.409 Z0
X235.544 Y28.141 Z-0.268
X236.109 Y28.154 Z-0.256
X236.415 Y28.16 Z-0.249
X236.664 Y28.164 Z-0.244
X236.838 Y28.171
X236.944 Y28.177 Z-0.246
X237.111 Y28.19 Z-0.254
X237.207 Y28.201 Z-0.262
X237.305 Y28.214 Z-0.272
X237.404 Y28.23 Z-0.285
X237.511 Y28.25 Z-0.303
X237.617 Y28.274 Z-0.324
X237.733 Y28.304 Z-0.352
X237.847 Y28.339 Z-0.384
X237.96 Y28.377 Z-0.42
X238.07 Y28.417 Z-0.458
X238.144 Y28.447 Z-0.486
X238.304 Y28.513 Z-0.55
X238.559 Y28.627 Z-0.661
X238.698 Y28.693 Z-0.725
X238.791 Y28.742 Z-0.773
X238.882 Y28.795 Z-0.825
X238.975 Y28.855 Z-0.884
X239.067 Y28.919 Z-0.948
X239.159 Y28.99 Z-1.017
X239.25 Y29.065 Z-1.091
X239.361 Y29.163 Z-1.188
X239.648 Y29.425 Z-1.451
X239.759 Y29.329 Z-1.357
X239.887 Y29.225 Z-1.254
X240.031 Y29.112 Z-1.143
X240.163 Y29.014 Z-1.046
X240.286 Y28.928 Z-0.962
X240.408 Y28.847 Z-0.883
X240.547 Y28.759 Z-0.797
X240.756 Y28.633 Z-0.673
X240.828 Y28.592 Z-0.633
X240.901 Y28.554 Z-0.596
X241.004 Y28.507 Z-0.552
X241.108 Y28.468 Z-0.514
X241.242 Y28.427 Z-0.476
X241.468 Y28.362 Z-0.415
X241.631 Y28.318 Z-0.376
X241.801 Y28.278 Z-0.339
X241.958 Y28.245 Z-0.311
X242.068 Y28.226 Z-0.295
X242.219 Y28.205 Z-0.278
X242.344 Y28.191 Z-0.268
X242.482 Y28.179 Z-0.26
X242.637 Y28.169 Z-0.256
X242.858 Y28.16 Z-0.254
X243.168 Y28.152 Z-0.257
X243.863 Y28.139 Z-0.27
X244.132 Y27.858 Z-0.001
X243.863 Y28.139 Z-0.27
X244.133 Y28.409 Z0
X243.863 Y28.139 Z-0.27
X243.168 Y28.152 Z-0.257
X242.858 Y28.16 Z-0.254
X242.637 Y28.169 Z-0.256
X242.482 Y28.179 Z-0.26
X242.344 Y28.191 Z-0.268
X242.219 Y28.205 Z-0.278
X242.068 Y28.226 Z-0.295
X241.958 Y28.245 Z-0.311
X241.801 Y28.278 Z-0.339
X241.631 Y28.318 Z-0.376
X241.468 Y28.362 Z-0.415
X241.242 Y28.427 Z-0.476
X241.108 Y28.468 Z-0.514
X241.004 Y28.507 Z-0.552
X240.901 Y28.554 Z-0.596
X240.828 Y28.592 Z-0.633
X240.756 Y28.633 Z-0.673
X240.547 Y28.759 Z-0.797
X240.408 Y28.847 Z-0.883
X240.286 Y28.928 Z-0.962
X240.163 Y29.014 Z-1.046
X240.031 Y29.112 Z-1.143
X239.887 Y29.225 Z-1.254
X239.759 Y29.329 Z-1.357
X239.648 Y29.425 Z-1.451
X239.647 Y29.456 Z-1.448
X239.644 Y29.637 Z-1.43
X239.646 Y29.803 Z-1.417
X239.672 Y30.655 Z-1.376
X239.692 Y31.401 Z-1.345
X239.702 Y31.952 Z-1.327
X239.708 Y32.477 Z-1.314
X239.715 Y33.256 Z-1.299
X239.717 Y34.02 Z-1.292
Y34.565 Z-1.29
X239.714 Y35.312
X239.707 Y36.378 Z-1.294
X239.701 Y37.16 Z-1.295
X239.703 Y37.811 Z-1.298
X239.706 Y38.122 Z-1.302
X239.712 Y38.485 Z-1.31
X239.722 Y38.827 Z-1.322
X239.732 Y39.151 Z-1.336
X239.754 Y39.668 Z-1.365
X239.779 Y40.168 Z-1.4
X239.791 Y40.401 Z-1.418
X239.8 Y40.504 Z-1.429
X239.812 Y40.606 Z-1.444
X239.833 Y40.739 Z-1.467
X239.808 Y40.81 Z-1.444
X239.772 Y40.92 Z-1.412
X239.743 Y41.021 Z-1.386
X239.717 Y41.122 Z-1.363
X239.695 Y41.224 Z-1.344
X239.676 Y41.325 Z-1.327
X239.66 Y41.427 Z-1.315
X239.648 Y41.529 Z-1.305
X239.639 Y41.631 Z-1.299
X239.632 Y41.761 Z-1.297
X239.631 Y41.83
X239.627 Y41.989 Z-1.304
X239.618 Y42.187 Z-1.316
X239.608 Y42.343 Z-1.328
X239.591 Y42.516 Z-1.347
X239.57 Y42.685 Z-1.371
X239.55 Y42.81 Z-1.393
X239.525 Y42.943 Z-1.42
X239.495 Y43.084 Z-1.452
X239.295 Y43.165 Z-1.315
X239.102 Y43.237 Z-1.189
X238.921 Y43.299 Z-1.077
X238.772 Y43.349 Z-0.988
X238.63 Y43.391 Z-0.907
X238.488 Y43.426 Z-0.835
X238.352 Y43.451 Z-0.774
X238.22 Y43.467 Z-0.723
X238.131 Y43.473 Z-0.693
X237.989 Y43.482 Z-0.65
X237.757 Y43.496 Z-0.585
X237.586 Y43.502 Z-0.541
X237.411 Y43.504 Z-0.502
X237.244 Y43.501 Z-0.47
X237.086 Y43.495 Z-0.444
X236.918 Y43.484 Z-0.421
X236.721 Y43.468 Z-0.399
X236.518 Y43.45 Z-0.382
X236.178 Y43.42 Z-0.357
X235.692 Y43.385 Z-0.322
X235.591 Y43.379 Z-0.315
X235.277 Y43.655 Z-0.001
X235.591 Y43.379 Z-0.315
X235.276 Y43.064 Z0
X235.591 Y43.379 Z-0.315
X235.692 Y43.385 Z-0.322
X236.178 Y43.42 Z-0.357
X236.518 Y43.45 Z-0.382
X236.721 Y43.468 Z-0.399
X236.918 Y43.484 Z-0.421
X237.086 Y43.495 Z-0.444
X237.244 Y43.501 Z-0.47
X237.411 Y43.504 Z-0.502
X237.586 Y43.502 Z-0.541
X237.757 Y43.496 Z-0.585
X237.989 Y43.482 Z-0.65
X238.131 Y43.473 Z-0.693
X238.22 Y43.467 Z-0.723
X238.352 Y43.451 Z-0.774
X238.488 Y43.426 Z-0.835
X238.63 Y43.391 Z-0.907
X238.772 Y43.349 Z-0.988
X238.921 Y43.299 Z-1.077
X239.102 Y43.237 Z-1.189
X239.295 Y43.165 Z-1.315
X239.495 Y43.084 Z-1.452
X239.734 Y43.409 Z-1.218
X240.016 Y43.803 Z-0.942
X240.37 Y44.308 Z-0.596
X240.871 Y45.026 Z-0.11
X240.904 Y45.067 Z-0.074
X240.969 Y45.12 Z-0.001
X240.904 Y45.067 Z-0.074
X240.871 Y45.026 Z-0.11
X240.37 Y44.308 Z-0.596
X240.016 Y43.803 Z-0.942
X239.734 Y43.409 Z-1.218
X239.495 Y43.084 Z-1.452
X239.525 Y42.943 Z-1.42
X239.55 Y42.81 Z-1.393
X239.57 Y42.685 Z-1.371
X239.591 Y42.516 Z-1.347
X239.608 Y42.343 Z-1.328
X239.618 Y42.187 Z-1.316
X239.627 Y41.989 Z-1.304
X239.631 Y41.83 Z-1.297
X239.632 Y41.761
X239.639 Y41.631 Z-1.299
X239.648 Y41.529 Z-1.305
X239.66 Y41.427 Z-1.315
X239.676 Y41.325 Z-1.327
X239.695 Y41.224 Z-1.344
X239.717 Y41.122 Z-1.363
X239.743 Y41.021 Z-1.386
X239.772 Y40.92 Z-1.412
X239.808 Y40.81 Z-1.444
X239.833 Y40.739 Z-1.467
X239.913 Y40.752 Z-1.397
X240.137 Y40.79 Z-1.205
X240.344 Y40.833 Z-1.032
X240.533 Y40.881 Z-0.878
X240.689 Y40.929 Z-0.755
X240.779 Y40.959 Z-0.686
X240.863 Y40.992 Z-0.624
X240.992 Y41.047 Z-0.532
X241.079 Y41.09 Z-0.474
X241.152 Y41.129 Z-0.428
X241.205 Y41.16 Z-0.397
X241.27 Y41.203 Z-0.36
X241.316 Y41.236 Z-0.337
X241.381 Y41.287 Z-0.308
X241.422 Y41.323 Z-0.292
X241.473 Y41.371 Z-0.276
X241.544 Y41.448 Z-0.261
X241.646 Y41.558 Z-0.247
X241.732 Y41.646 Z-0.238
X241.903 Y41.813 Z-0.226
X242.074 Y41.971 Z-0.221
X242.246 Y42.123
X242.417 Y42.269 Z-0.225
X242.668 Y42.48 Z-0.234
X242.72 Y42.52 Z-0.238
X243.058 Y42.765 Z-0.28
X243.292 Y42.929 Z-0.312
X243.536 Y43.095 Z-0.35
X243.664 Y43.179 Z-0.372
X243.793 Y43.26 Z-0.396
X243.928 Y43.343 Z-0.424
X244.067 Y43.424 Z-0.455
X244.209 Y43.504 Z-0.489
X244.353 Y43.582 Z-0.527
X244.506 Y43.659 Z-0.569
X244.72 Y43.758 Z-0.626
X244.831 Y43.804 Z-0.655
X244.936 Y43.844 Z-0.679
X245.019 Y43.871 Z-0.696
X245.125 Y43.903 Z-0.716
X245.333 Y43.957 Z-0.751
X245.648 Y44.013 Z-0.784
X245.926 Y44.058 Z-0.813
X246.034 Y44.071 Z-0.826
X246.121 Y44.079 Z-0.838
X246.254 Y44.09 Z-0.855
X246.453 Y44.101 Z-0.877
X246.604 Y44.105 Z-0.892
X246.727 Y44.107 Z-0.904
X246.975 Y44.103 Z-0.927
X247.144 Y44.095 Z-0.944
X247.388 Y44.079 Z-0.972
X247.534 Y44.061 Z-0.987
X247.719 Y44.032 Z-1.007
X247.922 Y43.995 Z-1.032
X248.107 Y43.956 Z-1.058
X248.304 Y43.909 Z-1.087
X248.499 Y43.857 Z-1.115
X248.64 Y43.815 Z-1.136
X248.846 Y43.746 Z-1.163
X248.967 Y43.702 Z-1.177
X249.138 Y43.634 Z-1.193
X249.239 Y43.587 Z-1.205
X249.446 Y43.478 Z-1.235
X249.631 Y43.375 Z-1.261
X249.829 Y43.259 Z-1.289
X250.044 Y43.126 Z-1.322
X250.067 Y43.11 Z-1.325
X250.25 Y42.97 Z-1.345
X250.336 Y42.9 Z-1.356
X250.487 Y42.771 Z-1.378
X250.597 Y42.67 Z-1.394
X250.674 Y42.595 Z-1.406
X250.773 Y42.489 Z-1.421
X250.848 Y42.402 Z-1.43
X250.929 Y42.296 Z-1.438
X251.004 Y42.19 Z-1.443
X251.078 Y42.077 Z-1.448
X251.19 Y41.897 Z-1.454
X251.299 Y41.71 Z-1.461
X251.344 Y41.605 Z-1.451
X251.412 Y41.442 Z-1.437
X251.466 Y41.292 Z-1.43
X251.504 Y41.171
X251.586 Y40.877 Z-1.432
X251.625 Y40.723 Z-1.431
X251.679 Y40.495 Z-1.427
X251.727 Y40.259 Z-1.419
X251.752 Y40.119 Z-1.413
X251.783 Y39.913 Z-1.402
X251.811 Y39.706 Z-1.391
X251.841 Y39.408 Z-1.376
X251.859 Y39.174 Z-1.366
X251.877 Y38.849 Z-1.353
X251.889 Y38.511 Z-1.344
X251.892 Y38.321 Z-1.339
X251.894 Y37.858 Z-1.331
X251.885 Y36.438 Z-1.322
X251.874 Y35.223 Z-1.318
X251.859 Y34.004
X251.845 Y33.187 Z-1.321
X251.828 Y32.431 Z-1.325
X251.817 Y31.975 Z-1.33
X251.808 Y31.547 Z-1.339
X251.803 Y31.198 Z-1.351
X251.802 Y30.853 Z-1.368
X251.805 Y30.531 Z-1.388
X251.809 Y30.341 Z-1.402
X251.819 Y30.017 Z-1.432
X251.834 Y29.68 Z-1.468
X251.847 Y29.452 Z-1.495
X251.393 Y29.012 Z-1.072
X250.904 Y28.532 Z-0.618
X250.316 Y27.946 Z-0.073
X250.237 Y27.868 Z0
X250.316 Y27.946 Z-0.073
X250.904 Y28.532 Z-0.618
X251.393 Y29.012 Z-1.072
X251.847 Y29.452 Z-1.495
X252.036 Y29.299 Z-1.338
X252.426 Y28.984 Z-1.016
X252.553 Y28.888 Z-0.917
X252.679 Y28.802 Z-0.83
X252.744 Y28.762 Z-0.789
X252.806 Y28.727 Z-0.753
X252.868 Y28.693 Z-0.718
X252.931 Y28.662 Z-0.687
X253.139 Y28.569 Z-0.596
X253.369 Y28.472 Z-0.502
X253.518 Y28.414 Z-0.447
X253.641 Y28.37 Z-0.405
X253.734 Y28.34 Z-0.376
X253.799 Y28.32 Z-0.358
X253.928 Y28.285 Z-0.326
X254.027 Y28.263 Z-0.305
X254.152 Y28.239 Z-0.284
X254.241 Y28.224 Z-0.272
X254.386 Y28.206 Z-0.258
X254.551 Y28.19 Z-0.248
X254.705 Y28.18 Z-0.244
X254.924 Y28.169 Z-0.243
X255.221 Y28.161 Z-0.249
X255.806 Y28.145 Z-0.265
X256.071 Y28.409 Z0
X255.806 Y28.145 Z-0.265
X256.07 Y27.864 Z-0.001
G0 Z15

(ColleyOrchard)
M9
X83.081 Y92.727
Z15
Z5
G1 Z0 F850
X83.456 Y93.12 Z-0.393
X83.83 Y92.728 Z-0.001
X83.456 Y93.12 Z-0.393
X83.458 Y93.456 Z-0.41
X83.463 Y93.937 Z-0.436
X83.473 Y94.422 Z-0.468
X83.48 Y94.677 Z-0.487
X83.5 Y95.159 Z-0.528
X83.513 Y95.407 Z-0.552
X83.529 Y95.657 Z-0.579
X83.537 Y95.774 Z-0.593
X83.541 Y95.842 Z-0.602
X83.542 Y95.91 Z-0.615
X83.54 Y96.009 Z-0.638
X83.534 Y96.09 Z-0.66
X83.525 Y96.172 Z-0.687
X83.501 Y96.315 Z-0.742
X83.472 Y96.442 Z-0.8
X83.429 Y96.592 Z-0.878
X83.384 Y96.725 Z-0.955
X83.287 Y96.972 Z-1.112
X83.64 Y97.185 Z-0.829
X84.329 Y97.597 Z-0.287
X84.698 Y97.816 Z0
X84.329 Y97.597 Z-0.287
X83.64 Y97.185 Z-0.829
X83.287 Y96.972 Z-1.112
X82.808 Y97.164 Z-1.028
X82.411 Y97.321 Z-0.963
X82.168 Y97.415 Z-0.926
X81.839 Y97.539 Z-0.88
X81.504 Y97.657 Z-0.838
X81.171 Y97.769 Z-0.803
X80.843 Y97.871 Z-0.772
X80.519 Y97.967 Z-0.746
X80.201 Y98.056 Z-0.721
X79.808 Y98.161 Z-0.691
X79.508 Y98.236 Z-0.667
X79.094 Y98.321 Z-0.648
X78.713 Y98.392 Z-0.626
X78.377 Y98.449 Z-0.608
X78.052 Y98.497 Z-0.59
X77.714 Y98.54 Z-0.574
X77.388 Y98.575 Z-0.563
X77.148 Y98.596 Z-0.556
X76.873 Y98.616 Z-0.551
X76.544 Y98.636 Z-0.548
X76.17 Y98.655
X75.58 Y98.656 Z-0.528
X75.489 Y98.653 Z-0.527
X74.755 Y98.612 Z-0.537
X74.378 Y98.587 Z-0.541
X74 Y98.557 Z-0.545
X73.62 Y98.522 Z-0.549
X73.24 Y98.478 Z-0.554
X73.07 Y98.456 Z-0.557
X72.737 Y98.408 Z-0.561
X72.407 Y98.352 Z-0.566
X72.081 Y98.287 Z-0.571
X71.718 Y98.203 Z-0.578
X71.339 Y98.101 Z-0.587
X71.001 Y97.997 Z-0.598
X70.961 Y97.984 Z-0.6
X70.628 Y97.867 Z-0.615
X70.484 Y97.813 Z-0.624
X70.167 Y97.686 Z-0.644
X69.851 Y97.55 Z-0.668
X69.505 Y97.39 Z-0.7
X69.155 Y97.219 Z-0.736
X68.808 Y97.041 Z-0.778
X68.346 Y96.793 Z-0.84
X68.138 Y96.658 Z-0.853
X67.673 Y96.348 Z-0.886
X67.435 Y96.186 Z-0.903
X67.2 Y96.022 Z-0.92
X66.899 Y95.808 Z-0.938
X66.826 Y95.753 Z-0.943
X66.754 Y95.695 Z-0.953
X66.67 Y95.619 Z-0.968
X66.555 Y95.51 Z-0.992
X66.364 Y95.324 Z-1.031
X66.122 Y95.08 Z-1.075
X66.003 Y94.957 Z-1.095
X65.834 Y94.775 Z-1.122
X65.607 Y94.517 Z-1.153
X65.508 Y94.399 Z-1.166
X65.338 Y94.191 Z-1.185
X65.113 Y93.9 Z-1.208
X65.03 Y93.788 Z-1.217
X64.85 Y93.537 Z-1.235
X64.616 Y93.193 Z-1.26
X64.409 Y92.873 Z-1.286
X64.259 Y92.626 Z-1.31
X64.165 Y92.469 Z-1.326
X64.021 Y92.219 Z-1.355
X63.946 Y92.056 Z-1.361
X63.782 Y91.684 Z-1.381
X63.619 Y91.283 Z-1.411
X63.506 Y90.983 Z-1.437
X63.47 Y90.883 Z-1.446
X63.354 Y90.541 Z-1.478
X63.33 Y90.466 Z-1.486
X63.215 Y90.079 Z-1.522
X63.184 Y89.968 Z-1.534
X63.11 Y89.678 Z-1.558
X63.067 Y89.49 Z-1.574
X63.018 Y89.257 Z-1.591
X62.957 Y88.915 Z-1.61
X62.936 Y88.782 Z-1.617
X62.895 Y88.486 Z-1.629
X62.852 Y88.116 Z-1.641
X62.842 Y88.023 Z-1.643
X62.813 Y87.71 Z-1.649
X62.782 Y87.331 Z-1.654
X62.754 Y86.921 Z-1.657
X62.75 Y86.832 Z-1.659
X62.747 Y86.63 Z-1.67
X62.746 Y86.141 Z-1.697
X62.778 Y85.596
X62.817 Y85.078 Z-1.7
X62.842 Y84.799 Z-1.702
X62.871 Y84.528 Z-1.704
X62.903 Y84.263 Z-1.706
X62.94 Y84.005 Z-1.708
X62.981 Y83.753 Z-1.709
X63.042 Y83.432 Z-1.71
X63.1 Y83.169
X63.131 Y83.045
X63.198 Y82.793 Z-1.706
X63.293 Y82.483 Z-1.701
X63.38 Y82.227 Z-1.695
X63.419 Y82.118 Z-1.693
X63.509 Y81.875 Z-1.686
X63.618 Y81.602 Z-1.679
X63.735 Y81.323 Z-1.671
X63.855 Y81.05 Z-1.663
X64.061 Y80.597 Z-1.651
X64.254 Y80.185 Z-1.641
X64.489 Y79.777 Z-1.596
X64.557 Y79.663 Z-1.585
X64.634 Y79.546 Z-1.579
X64.952 Y79.085 Z-1.56
X65.11 Y78.864 Z-1.549
X65.267 Y78.65 Z-1.537
X65.432 Y78.432 Z-1.523
X65.612 Y78.205 Z-1.506
X65.8 Y77.979 Z-1.487
X65.894 Y77.871 Z-1.478
X66.054 Y77.694 Z-1.459
X66.221 Y77.52 Z-1.438
X66.423 Y77.321 Z-1.412
X66.65 Y77.111 Z-1.383
X66.886 Y76.906 Z-1.354
X67.084 Y76.743 Z-1.332
X67.187 Y76.661 Z-1.321
X67.407 Y76.492 Z-1.298
X67.635 Y76.324 Z-1.277
X67.87 Y76.158 Z-1.257
X68.111 Y75.992 Z-1.239
X68.358 Y75.827 Z-1.222
X68.544 Y75.706 Z-1.21
X69.039 Y75.435 Z-1.149
X69.628 Y75.121 Z-1.08
X69.805 Y75.031 Z-1.059
X69.923 Y74.977 Z-1.052
X70.364 Y74.786 Z-1.025
X70.613 Y74.682 Z-1.009
X70.865 Y74.58 Z-0.991
X71.121 Y74.481 Z-0.972
X71.388 Y74.383 Z-0.952
X71.678 Y74.284 Z-0.929
X71.969 Y74.192 Z-0.905
X72.265 Y74.107 Z-0.88
X72.566 Y74.03 Z-0.855
X72.745 Y73.988 Z-0.84
X73.028 Y73.928 Z-0.818
X73.311 Y73.875 Z-0.799
X73.591 Y73.829 Z-0.783
X73.868 Y73.79 Z-0.768
X74.152 Y73.755 Z-0.755
X74.482 Y73.721 Z-0.743
X74.815 Y73.692 Z-0.732
X75.227 Y73.661 Z-0.721
X75.797 Y73.626 Z-0.711
X76.309 Y73.617 Z-0.684
X76.369 Y73.618 Z-0.683
X76.845 Y73.636 Z-0.68
X77.196 Y73.653 Z-0.675
X77.54 Y73.675 Z-0.668
X77.88 Y73.703 Z-0.659
X78.241 Y73.741 Z-0.646
X78.565 Y73.782 Z-0.634
X78.891 Y73.829 Z-0.621
X79.104 Y73.863 Z-0.613
X79.524 Y73.937 Z-0.6
X79.956 Y74.02 Z-0.589
X80.489 Y74.145 Z-0.564
X80.953 Y74.259 Z-0.543
X81.35 Y74.361 Z-0.524
X81.421 Y74.381 Z-0.521
X81.748 Y74.486 Z-0.518
X82.093 Y74.603 Z-0.512
X82.436 Y74.728 Z-0.504
X82.749 Y74.851 Z-0.498
X82.95 Y74.934 Z-0.496
X83.121 Y75.008 Z-0.495
X83.293 Y75.086 Z-0.496
X83.463 Y75.166 Z-0.499
X83.633 Y75.249 Z-0.503
X83.873 Y75.37 Z-0.512
X84.275 Y74.992 Z0
X83.873 Y75.37 Z-0.512
X84.029 Y75.551 Z-0.435
X84.268 Y75.833 Z-0.32
X84.517 Y76.13 Z-0.207
X84.765 Y76.427 Z-0.1
X84.885 Y76.451 Z0
X84.765 Y76.427 Z-0.1
X84.775 Y76.555 Z0
G0 Z5
X89.538 Y78.399
G1 Z-1.523 F850
X89.659 Y78.104 Z-1.505
X89.714 Y77.979 Z-1.497
X89.817 Y77.757 Z-1.48
X89.929 Y77.529 Z-1.459
X90.064 Y77.268 Z-1.435
X90.207 Y77.004 Z-1.408
X90.351 Y76.745 Z-1.381
X90.64 Y76.243 Z-1.327
X90.666 Y76.198 Z-1.323
X90.808 Y76.01 Z-1.272
X90.891 Y75.906 Z-1.247
X90.942 Y75.847 Z-1.234
X91.071 Y75.707 Z-1.209
X91.336 Y75.428 Z-1.158
X91.517 Y75.244 Z-1.123
X91.706 Y75.06 Z-1.085
X91.774 Y74.995 Z-1.072
X91.947 Y74.839 Z-1.037
X92.118 Y74.692 Z-1.002
X92.327 Y74.527 Z-0.958
X92.512 Y74.394 Z-0.918
X92.639 Y74.309 Z-0.892
X92.823 Y74.196 Z-0.851
X93.045 Y74.073 Z-0.802
X93.245 Y73.976 Z-0.76
X93.305 Y73.948 Z-0.747
X93.508 Y73.862 Z-0.707
X93.571 Y73.838 Z-0.696
X93.778 Y73.763 Z-0.66
X93.919 Y73.717 Z-0.638
X94.097 Y73.664 Z-0.611
X94.311 Y73.608 Z-0.582
X94.427 Y73.581 Z-0.569
X94.609 Y73.541 Z-0.549
X94.86 Y73.493 Z-0.525
X95.109 Y73.452 Z-0.505
X95.459 Y73.402 Z-0.484
X95.702 Y73.39 Z-0.453
X96.084 Y73.376 Z-0.408
X96.331 Y73.371 Z-0.381
X96.592 Y73.367 Z-0.351
X96.649 Y73.369 Z-0.346
X96.706 Y73.374 Z-0.344
X97.061 Y73.414 Z-0.34
X97.242 Y73.437 Z-0.337
X97.442 Y73.465 Z-0.334
X97.717 Y73.511 Z-0.33
X97.792 Y73.526 Z-0.329
X97.986 Y73.566 Z-0.327
X98.249 Y73.631 Z-0.326
X98.349 Y73.659
X98.534 Y73.717 Z-0.328
X98.754 Y73.796 Z-0.332
X98.904 Y73.859 Z-0.336
X99.054 Y73.927 Z-0.342
X99.083 Y73.942 Z-0.344
X99.257 Y74.031 Z-0.354
X99.469 Y74.152 Z-0.37
X99.59 Y74.227 Z-0.379
X99.749 Y74.331 Z-0.394
X99.927 Y74.455 Z-0.412
X100.152 Y74.621 Z-0.437
X100.349 Y74.775 Z-0.46
X100.489 Y74.888 Z-0.476
X100.763 Y75.115 Z-0.508
X100.821 Y75.165 Z-0.517
X100.869 Y75.212 Z-0.527
X100.915 Y75.261 Z-0.541
X101.231 Y75.612 Z-0.642
X101.365 Y75.763 Z-0.686
X101.529 Y75.994 Z-0.718
X101.699 Y76.242 Z-0.756
X101.884 Y76.521 Z-0.8
X101.946 Y76.618 Z-0.816
X102.083 Y76.839 Z-0.854
X102.221 Y77.075 Z-0.896
X102.371 Y77.349 Z-0.948
X102.472 Y77.548 Z-0.985
X102.506 Y77.619 Z-0.999
X102.59 Y77.8 Z-1.034
X102.627 Y77.885 Z-1.051
X102.694 Y78.048 Z-1.082
X102.734 Y78.147 Z-1.101
X102.791 Y78.301 Z-1.129
X102.827 Y78.402 Z-1.149
X102.905 Y78.645 Z-1.191
X102.972 Y78.887 Z-1.228
X103.031 Y79.132 Z-1.262
X103.081 Y79.382 Z-1.292
X103.125 Y79.645 Z-1.32
X103.163 Y79.916 Z-1.345
X103.203 Y80.268 Z-1.373
X103.224 Y80.495 Z-1.389
X103.249 Y80.815 Z-1.408
X103.267 Y81.233 Z-1.438
X103.28 Y81.668 Z-1.467
X103.287 Y82.111 Z-1.497
X103.288 Y82.289 Z-1.51
X103.267 Y82.571 Z-1.511
X103.229 Y82.993 Z-1.518
X103.198 Y83.273 Z-1.523
X103.168 Y83.501 Z-1.528
X103.13 Y83.754 Z-1.534
X103.091 Y83.981 Z-1.541
X103.042 Y84.223 Z-1.545
X102.992 Y84.439 Z-1.548
X102.933 Y84.67 Z-1.547
X102.876 Y84.865 Z-1.544
X102.84 Y84.98 Z-1.541
X102.78 Y85.154 Z-1.532
X102.712 Y85.334 Z-1.518
X102.636 Y85.52 Z-1.501
X102.551 Y85.714 Z-1.479
X102.457 Y85.919 Z-1.451
X102.356 Y86.131 Z-1.42
X102.306 Y86.223 Z-1.408
X102.224 Y86.368 Z-1.391
X102.059 Y86.651 Z-1.356
X101.874 Y86.958 Z-1.317
X101.684 Y87.257 Z-1.282
X101.632 Y87.336 Z-1.274
X101.566 Y87.414 Z-1.252
X101.378 Y87.628 Z-1.196
X101.31 Y87.702 Z-1.177
X101.172 Y87.851 Z-1.14
X101 Y88.028 Z-1.099
X100.89 Y88.135 Z-1.075
X100.746 Y88.269 Z-1.046
X100.604 Y88.396 Z-1.019
X100.427 Y88.546 Z-0.988
X100.237 Y88.697 Z-0.956
X100.038 Y88.844 Z-0.922
X99.854 Y88.973 Z-0.889
X99.621 Y89.123 Z-0.844
X99.468 Y89.217 Z-0.812
X99.348 Y89.286 Z-0.784
X99.264 Y89.332 Z-0.767
X99.175 Y89.373 Z-0.752
X99.046 Y89.428 Z-0.734
X98.787 Y89.532 Z-0.693
X98.512 Y89.633 Z-0.646
X98.245 Y89.722 Z-0.602
X98.079 Y89.772 Z-0.575
X97.819 Y89.842 Z-0.537
X97.779 Y89.852 Z-0.531
X97.549 Y89.904 Z-0.502
X97.47 Y89.92 Z-0.493
X97.274 Y89.956 Z-0.474
X97.166 Y89.974 Z-0.465
X96.994 Y89.998 Z-0.453
X96.741 Y90.029 Z-0.44
X96.583 Y90.045 Z-0.434
X96.442 Y90.057 Z-0.429
X96.081 Y90.064 Z-0.403
X95.76 Y90.067 Z-0.381
X95.672 Y90.064 Z-0.378
X95.271 Y90.035 Z-0.376
X95.074 Y90.016 Z-0.374
X94.823 Y89.986 Z-0.373
X94.584 Y89.949
X94.438 Y89.922 Z-0.375
X94.307 Y89.894 Z-0.377
X94.132 Y89.851 Z-0.382
X93.953 Y89.8 Z-0.387
X93.812 Y89.754 Z-0.392
X93.673 Y89.706 Z-0.399
X93.554 Y89.661 Z-0.405
X93.321 Y89.566 Z-0.417
X93.098 Y89.468 Z-0.429
X92.88 Y89.367 Z-0.441
X92.779 Y89.319 Z-0.446
X92.689 Y89.272 Z-0.454
X92.345 Y89.073 Z-0.498
X92.167 Y88.966 Z-0.523
X92.035 Y88.885 Z-0.543
X91.862 Y88.757 Z-0.558
X91.672 Y88.608 Z-0.581
X91.545 Y88.504 Z-0.599
X91.437 Y88.411 Z-0.617
X91.333 Y88.317 Z-0.636
X91.208 Y88.198 Z-0.663
X91.057 Y88.046 Z-0.698
X90.95 Y87.932 Z-0.725
X90.78 Y87.739 Z-0.769
X90.7 Y87.642 Z-0.79
X90.624 Y87.547 Z-0.81
X90.482 Y87.361 Z-0.845
X90.415 Y87.27 Z-0.861
X90.333 Y87.146 Z-0.884
X90.25 Y87.008 Z-0.912
X90.168 Y86.866 Z-0.938
X90.025 Y86.609 Z-0.983
X89.926 Y86.421 Z-1.014
X89.776 Y86.124 Z-1.062
X89.688 Y85.942 Z-1.092
X89.575 Y85.699 Z-1.134
X89.539 Y85.6 Z-1.144
X89.475 Y85.421 Z-1.164
X89.413 Y85.239 Z-1.185
X89.355 Y85.056 Z-1.209
X89.301 Y84.876 Z-1.233
X89.25 Y84.697 Z-1.258
X89.204 Y84.52 Z-1.282
X89.162 Y84.344 Z-1.305
X89.124 Y84.171 Z-1.328
X89.09 Y84 Z-1.348
X89.061 Y83.832 Z-1.366
X89.036 Y83.667 Z-1.381
X89.032 Y83.639 Z-1.384
X89.013 Y83.49 Z-1.395
X88.981 Y83.188 Z-1.413
X88.98 Y83.177 Z-1.414
X88.97 Y83.012 Z-1.425
X88.959 Y82.668 Z-1.45
X88.954 Y82.304 Z-1.473
X88.953 Y81.818 Z-1.501
X88.986 Y81.313 Z-1.506
X88.99 Y81.257
X89.016 Y80.947 Z-1.511
X89.047 Y80.633 Z-1.517
X89.079 Y80.356 Z-1.522
X89.099 Y80.199 Z-1.526
X89.137 Y79.943 Z-1.531
X89.185 Y79.669 Z-1.535
X89.242 Y79.39 Z-1.538
X89.279 Y79.231 Z-1.54
X89.336 Y79.013 Z-1.539
X89.414 Y78.753 Z-1.535
X89.464 Y78.604 Z-1.532
X89.538 Y78.399 Z-1.523
G0 Z5
X179.156 Y85.228
G1 Z-1.647 F850
X179.183 Y84.89 Z-1.652
X179.216 Y84.547 Z-1.658
X179.255 Y84.198 Z-1.665
X179.264 Y84.126 Z-1.667
X179.303 Y83.85 Z-1.673
X179.359 Y83.503 Z-1.679
X179.387 Y83.344 Z-1.683
X179.437 Y83.098 Z-1.686
X179.503 Y82.809 Z-1.688
X179.579 Y82.512 Z-1.687
X179.617 Y82.377
X179.689 Y82.133 Z-1.685
X179.791 Y81.815 Z-1.679
X179.902 Y81.494 Z-1.672
X180.015 Y81.186 Z-1.664
X180.143 Y80.849 Z-1.654
X180.364 Y80.293 Z-1.637
X180.54 Y79.862 Z-1.623
X180.666 Y79.611 Z-1.597
X180.735 Y79.486 Z-1.59
X180.998 Y79.034 Z-1.568
X181.129 Y78.812 Z-1.555
X181.262 Y78.595 Z-1.543
X181.412 Y78.359 Z-1.528
X181.567 Y78.124 Z-1.511
X181.71 Y77.917 Z-1.494
X181.776 Y77.824 Z-1.487
X181.906 Y77.649 Z-1.471
X182.088 Y77.42 Z-1.445
X182.178 Y77.312 Z-1.433
X182.322 Y77.147 Z-1.411
X182.484 Y76.971 Z-1.386
X182.7 Y76.752 Z-1.354
X182.919 Y76.543 Z-1.323
X183.104 Y76.375 Z-1.299
X183.178 Y76.31 Z-1.29
X183.373 Y76.143 Z-1.267
X183.585 Y75.969 Z-1.244
X183.808 Y75.791 Z-1.222
X184.13 Y75.544 Z-1.195
X184.283 Y75.447 Z-1.17
X184.704 Y75.187 Z-1.105
X185.028 Y74.992 Z-1.056
X185.387 Y74.782 Z-1
X185.452 Y74.746 Z-0.991
X185.574 Y74.685 Z-0.979
X185.798 Y74.583 Z-0.963
X186.025 Y74.483 Z-0.946
X186.259 Y74.382 Z-0.926
X186.503 Y74.283 Z-0.904
X186.746 Y74.19 Z-0.879
X186.992 Y74.103 Z-0.853
X187.241 Y74.02 Z-0.824
X187.497 Y73.943 Z-0.795
X187.757 Y73.872 Z-0.765
X188.025 Y73.806 Z-0.735
X188.297 Y73.747 Z-0.707
X188.573 Y73.694 Z-0.68
X188.855 Y73.648 Z-0.657
X189.14 Y73.608 Z-0.636
X189.43 Y73.574 Z-0.619
X189.567 Y73.559 Z-0.611
X189.821 Y73.535 Z-0.599
X190.264 Y73.501 Z-0.584
X190.574 Y73.498 Z-0.558
X191.068 Y73.5 Z-0.52
X191.554 Y73.507 Z-0.485
X191.681 Y73.513 Z-0.48
X192.3 Y73.563 Z-0.465
X192.752 Y73.607 Z-0.454
X193.1 Y73.647 Z-0.448
X193.207 Y73.662 Z-0.445
X193.559 Y73.714 Z-0.441
X193.666 Y73.733 Z-0.439
X194.01 Y73.798
X194.126 Y73.823 Z-0.438
X194.452 Y73.9 Z-0.443
X194.586 Y73.936 Z-0.444
X194.882 Y74.022 Z-0.452
X195.034 Y74.072 Z-0.455
X195.301 Y74.163 Z-0.465
X195.47 Y74.227 Z-0.469
X195.709 Y74.321 Z-0.477
X196.108 Y74.495 Z-0.485
X196.504 Y74.684 Z-0.488
X196.929 Y74.904 Z-0.483
X197.002 Y74.948 Z-0.486
X197.278 Y75.129 Z-0.505
X197.652 Y75.386 Z-0.526
X197.931 Y75.587 Z-0.54
X198.117 Y75.726 Z-0.55
X198.395 Y75.941 Z-0.568
X198.488 Y76.016 Z-0.574
X198.759 Y76.243 Z-0.597
X198.854 Y76.325 Z-0.605
X199.04 Y76.491 Z-0.626
X199.218 Y76.658 Z-0.65
X199.396 Y76.831 Z-0.678
X199.566 Y77.002 Z-0.708
X199.804 Y77.252 Z-0.758
X199.899 Y77.354 Z-0.779
X200.064 Y77.535 Z-0.818
X200.279 Y77.836 Z-0.845
X200.469 Y78.109 Z-0.872
X200.723 Y78.484 Z-0.913
X200.966 Y78.851 Z-0.952
X201.011 Y78.92 Z-0.96
X201.06 Y79.005 Z-0.974
X201.321 Y79.478 Z-1.053
X201.493 Y79.799 Z-1.104
X201.692 Y80.188 Z-1.162
X201.842 Y80.498 Z-1.206
X201.877 Y80.57 Z-1.217
X201.967 Y80.769 Z-1.242
X202.075 Y81.016 Z-1.274
X202.201 Y81.326 Z-1.313
X202.333 Y81.683 Z-1.354
X202.45 Y82.044 Z-1.392
X202.498 Y82.212 Z-1.406
X202.566 Y82.471 Z-1.43
X202.644 Y82.801 Z-1.458
X202.718 Y83.171 Z-1.486
X202.785 Y83.57 Z-1.513
X202.801 Y83.685 Z-1.519
X202.841 Y83.978 Z-1.538
X202.89 Y84.4 Z-1.561
X202.932 Y84.831 Z-1.583
X202.975 Y85.37 Z-1.607
X202.999 Y85.723 Z-1.621
X203.01 Y86.054 Z-1.643
X203.018 Y86.355 Z-1.662
X203.031 Y86.98 Z-1.704
X202.993 Y87.545 Z-1.7
X202.966 Y87.884
X202.936 Y88.202 Z-1.702
X202.901 Y88.526 Z-1.704
X202.861 Y88.848 Z-1.708
X202.807 Y89.22 Z-1.713
X202.744 Y89.58 Z-1.719
X202.674 Y89.928 Z-1.725
X202.595 Y90.26 Z-1.73
X202.51 Y90.579 Z-1.732
X202.416 Y90.887 Z-1.731
X202.316 Y91.18 Z-1.726
X202.209 Y91.464 Z-1.715
X202.089 Y91.755 Z-1.698
X201.955 Y92.052 Z-1.675
X201.808 Y92.357 Z-1.646
X201.609 Y92.746 Z-1.601
X201.474 Y93.001 Z-1.567
X201.412 Y93.11 Z-1.554
X201.346 Y93.217 Z-1.544
X201.212 Y93.423 Z-1.528
X200.937 Y93.837 Z-1.493
X200.793 Y94.048 Z-1.475
X200.614 Y94.304 Z-1.454
X200.369 Y94.642 Z-1.428
X200.244 Y94.811 Z-1.417
X200.073 Y94.984 Z-1.375
X199.955 Y95.103 Z-1.348
X199.752 Y95.301 Z-1.305
X199.545 Y95.495 Z-1.265
X199.333 Y95.687 Z-1.228
X199.1 Y95.888 Z-1.194
X198.901 Y96.051 Z-1.167
X198.69 Y96.218 Z-1.143
X198.436 Y96.409 Z-1.116
X198.26 Y96.536 Z-1.098
X198.047 Y96.684 Z-1.078
X197.766 Y96.87 Z-1.051
X197.41 Y97.092 Z-1.015
X197.094 Y97.278 Z-0.979
X196.758 Y97.464 Z-0.935
X196.677 Y97.503 Z-0.925
X196.596 Y97.539 Z-0.918
X196.367 Y97.634 Z-0.904
X196.043 Y97.76 Z-0.878
X195.656 Y97.899 Z-0.841
X195.285 Y98.02 Z-0.802
X195.16 Y98.058 Z-0.787
X194.889 Y98.137 Z-0.759
X194.653 Y98.2 Z-0.732
X194.395 Y98.265 Z-0.706
X194.065 Y98.338 Z-0.675
X193.869 Y98.377 Z-0.656
X193.605 Y98.425 Z-0.636
X193.343 Y98.466 Z-0.618
X193.083 Y98.501 Z-0.603
X192.762 Y98.539 Z-0.589
X192.568 Y98.559 Z-0.581
X192.313 Y98.582 Z-0.574
X191.865 Y98.616 Z-0.565
X191.557 Y98.636 Z-0.561
X191.454 Y98.642 Z-0.56
X191.022 Y98.641 Z-0.535
X190.548 Y98.637 Z-0.509
X190.501 Y98.636 Z-0.508
X189.827 Y98.594 Z-0.499
X189.6 Y98.578 Z-0.496
X189.14 Y98.538 Z-0.492
X188.909 Y98.513 Z-0.49
X188.676 Y98.486
X188.443 Y98.454
X188.208 Y98.418 Z-0.493
X187.973 Y98.376 Z-0.496
X187.737 Y98.329 Z-0.502
X187.503 Y98.277 Z-0.508
X187.292 Y98.224 Z-0.516
X187.041 Y98.155 Z-0.527
X186.972 Y98.135 Z-0.53
X186.814 Y98.086 Z-0.536
X186.564 Y98.005 Z-0.549
X186.154 Y97.856 Z-0.566
X185.734 Y97.684 Z-0.578
X185.325 Y97.5 Z-0.583
X185.063 Y97.375
X185.001 Y97.34 Z-0.587
X184.636 Y97.119 Z-0.612
X184.27 Y96.884 Z-0.633
X183.912 Y96.643 Z-0.653
X183.898 Y96.633 Z-0.654
X183.715 Y96.501 Z-0.665
X183.531 Y96.367 Z-0.678
X183.345 Y96.224 Z-0.692
X183.16 Y96.077 Z-0.71
X183.002 Y95.946 Z-0.727
X182.82 Y95.79 Z-0.75
X182.642 Y95.629 Z-0.776
X182.465 Y95.466 Z-0.806
X182.294 Y95.301 Z-0.838
X182.106 Y95.113 Z-0.879
X181.91 Y94.912 Z-0.924
X181.668 Y94.586 Z-0.947
X181.407 Y94.223 Z-0.977
X181.162 Y93.871 Z-1.008
X181.003 Y93.636 Z-1.028
X180.952 Y93.553 Z-1.04
X180.707 Y93.128 Z-1.102
X180.543 Y92.833 Z-1.143
X180.345 Y92.462 Z-1.191
X180.174 Y92.12 Z-1.233
X180.112 Y91.99 Z-1.247
X180 Y91.744 Z-1.275
X179.868 Y91.427 Z-1.309
X179.798 Y91.244 Z-1.326
X179.717 Y91.023 Z-1.347
X179.7 Y90.97 Z-1.351
X179.616 Y90.705 Z-1.375
X179.533 Y90.408 Z-1.398
X179.475 Y90.167 Z-1.414
X179.45 Y90.055 Z-1.423
X179.42 Y89.908 Z-1.432
X179.369 Y89.641 Z-1.449
X179.315 Y89.312 Z-1.469
X179.262 Y88.926 Z-1.489
X179.227 Y88.615 Z-1.503
X179.203 Y88.371 Z-1.513
X179.179 Y88.117 Z-1.524
X179.142 Y87.645 Z-1.54
X179.135 Y87.506 Z-1.547
X179.126 Y87.189 Z-1.567
X179.112 Y86.55 Z-1.607
X179.106 Y86.044 Z-1.639
X179.117 Y85.852 Z-1.64
X179.134 Y85.55 Z-1.643
X179.156 Y85.228 Z-1.647
G0 Z5
X107.5 Y73.862
G1 Z0 F850
X107.792 Y73.594 Z-0.292
X107.5 Y73.291 Z0
X107.792 Y73.594 Z-0.292
X108.771 Y73.651 Z-0.314
X108.98 Y73.662 Z-0.318
X109.178 Y73.674 Z-0.324
X109.318 Y73.685 Z-0.331
X109.468 Y73.702 Z-0.343
X109.574 Y73.717 Z-0.355
X109.713 Y73.741 Z-0.375
X109.804 Y73.76 Z-0.392
X109.874 Y73.777 Z-0.407
X109.993 Y73.809 Z-0.436
X110.093 Y73.84 Z-0.465
X110.189 Y73.873 Z-0.496
X110.314 Y73.92 Z-0.541
X110.461 Y73.982 Z-0.599
X110.739 Y74.108 Z-0.72
X110.866 Y74.171 Z-0.781
X110.975 Y74.233 Z-0.841
X111.086 Y74.304 Z-0.911
X111.195 Y74.381 Z-0.987
X111.305 Y74.467 Z-1.071
X111.413 Y74.559 Z-1.162
X111.8 Y74.912 Z-1.51
X112.222 Y74.537 Z-1.13
X112.301 Y74.472 Z-1.065
X112.412 Y74.387 Z-0.979
X112.545 Y74.296 Z-0.886
X112.624 Y74.245 Z-0.837
X112.703 Y74.199 Z-0.791
X112.783 Y74.157 Z-0.749
X112.912 Y74.096 Z-0.69
X113.127 Y74.006 Z-0.602
X113.285 Y73.944 Z-0.543
X113.427 Y73.893 Z-0.494
X113.517 Y73.864 Z-0.466
X113.617 Y73.835 Z-0.439
X113.747 Y73.802 Z-0.408
X113.838 Y73.782 Z-0.39
X113.982 Y73.756 Z-0.366
X114.084 Y73.74 Z-0.354
X114.235 Y73.722 Z-0.34
X114.377 Y73.71 Z-0.331
X114.575 Y73.696 Z-0.325
X114.785 Y73.684 Z-0.321
X115.426 Y73.636 Z-0.302
X115.808 Y73.605 Z-0.292
X116.1 Y73.296 Z0
X115.808 Y73.605 Z-0.292
X116.099 Y73.868 Z-0.001
X115.808 Y73.605 Z-0.292
X115.426 Y73.636 Z-0.302
X114.785 Y73.684 Z-0.321
X114.575 Y73.696 Z-0.325
X114.377 Y73.71 Z-0.331
X114.235 Y73.722 Z-0.34
X114.084 Y73.74 Z-0.354
X113.982 Y73.756 Z-0.366
X113.838 Y73.782 Z-0.39
X113.747 Y73.802 Z-0.408
X113.617 Y73.835 Z-0.439
X113.517 Y73.864 Z-0.466
X113.427 Y73.893 Z-0.494
X113.285 Y73.944 Z-0.543
X113.127 Y74.006 Z-0.602
X112.912 Y74.096 Z-0.69
X112.783 Y74.157 Z-0.749
X112.703 Y74.199 Z-0.791
X112.624 Y74.245 Z-0.837
X112.545 Y74.296 Z-0.886
X112.412 Y74.387 Z-0.979
X112.301 Y74.472 Z-1.065
X112.222 Y74.537 Z-1.13
X111.8 Y74.912 Z-1.51
X111.799 Y75.671 Z-1.436
Y75.968 Z-1.41
Y76.49 Z-1.369
Y76.825 Z-1.348
Y77.379 Z-1.319
X111.8 Y77.68 Z-1.308
Y78.239 Z-1.292
Y78.798 Z-1.284
Y79.514 Z-1.281
Y80.056 Z-1.285
X111.801 Y80.861 Z-1.293
X111.8 Y81.261 Z-1.297
Y90.618
X111.806 Y92.564 Z-1.314
X111.814 Y93.786 Z-1.328
X111.816 Y94.198 Z-1.333
X111.818 Y95.015 Z-1.354
X111.822 Y95.837 Z-1.376
X111.827 Y96.508 Z-1.397
X111.834 Y96.729 Z-1.4
X111.836 Y96.928 Z-1.406
X111.835 Y97.094 Z-1.414
X111.83 Y97.261 Z-1.426
X111.821 Y97.429 Z-1.443
X111.809 Y97.589 Z-1.462
X111.791 Y97.758 Z-1.489
X111.769 Y97.921 Z-1.518
X111.758 Y97.994 Z-1.533
X111.98 Y98.28 Z-1.325
X112.086 Y98.417 Z-1.226
X112.486 Y98.947 Z-0.853
X112.87 Y99.464 Z-0.497
X113.296 Y100.046 Z-0.103
X113.401 Y100.097 Z0
X113.296 Y100.046 Z-0.103
X113.31 Y100.16 Z-0.001
X113.296 Y100.046 Z-0.103
X112.87 Y99.464 Z-0.497
X112.486 Y98.947 Z-0.853
X112.086 Y98.417 Z-1.226
X111.98 Y98.28 Z-1.325
X111.758 Y97.994 Z-1.533
X111.538 Y98.1 Z-1.369
X111.25 Y98.234 Z-1.161
X111.113 Y98.294 Z-1.069
X111.013 Y98.333 Z-1.006
X110.887 Y98.378 Z-0.932
X110.791 Y98.408 Z-0.88
X110.695 Y98.434 Z-0.833
X110.579 Y98.46 Z-0.781
X110.407 Y98.49 Z-0.716
X110.193 Y98.521 Z-0.641
X109.998 Y98.547 Z-0.579
X109.9 Y98.557 Z-0.551
X109.782 Y98.568 Z-0.519
X109.638 Y98.576 Z-0.487
X109.529 Y98.579 Z-0.466
X109.376 Y98.58 Z-0.441
X109.233 Y98.577 Z-0.423
X109.047 Y98.568 Z-0.404
X108.856 Y98.556 Z-0.39
X108.366 Y98.525 Z-0.36
X107.829 Y98.494 Z-0.329
X107.501 Y98.789 Z-0.001
X107.829 Y98.494 Z-0.329
X107.5 Y98.166 Z0
G0 Z5
X118.413 Y73.862
G1 Z0 F850
X118.705 Y73.594 Z-0.292
X118.413 Y73.291 Z0
X118.705 Y73.594 Z-0.292
X119.684 Y73.651 Z-0.314
X119.893 Y73.662 Z-0.318
X120.091 Y73.674 Z-0.324
X120.231 Y73.685 Z-0.331
X120.381 Y73.702 Z-0.343
X120.487 Y73.717 Z-0.355
X120.626 Y73.741 Z-0.375
X120.717 Y73.76 Z-0.392
X120.787 Y73.777 Z-0.407
X120.906 Y73.809 Z-0.436
X121.008 Y73.841 Z-0.466
X121.145 Y73.889 Z-0.511
X121.289 Y73.946 Z-0.565
X121.399 Y73.993 Z-0.609
X121.607 Y74.086 Z-0.699
X121.779 Y74.171 Z-0.781
X121.888 Y74.233 Z-0.841
X121.999 Y74.304 Z-0.911
X122.108 Y74.381 Z-0.987
X122.218 Y74.467 Z-1.071
X122.327 Y74.56 Z-1.163
X122.713 Y74.912 Z-1.51
X123.135 Y74.536 Z-1.13
X123.214 Y74.471 Z-1.064
X123.325 Y74.387 Z-0.978
X123.458 Y74.296 Z-0.886
X123.537 Y74.245 Z-0.837
X123.616 Y74.199 Z-0.791
X123.696 Y74.157 Z-0.749
X123.825 Y74.096 Z-0.69
X124.031 Y74.01 Z-0.606
X124.198 Y73.944 Z-0.543
X124.34 Y73.893 Z-0.494
X124.43 Y73.864 Z-0.466
X124.53 Y73.835 Z-0.439
X124.622 Y73.811 Z-0.416
X124.747 Y73.783 Z-0.39
X124.838 Y73.765 Z-0.375
X124.973 Y73.744 Z-0.357
X125.073 Y73.731 Z-0.346
X125.22 Y73.716 Z-0.335
X125.377 Y73.703 Z-0.328
X125.552 Y73.693 Z-0.324
X125.698 Y73.684 Z-0.321
X126.339 Y73.636 Z-0.302
X126.721 Y73.605 Z-0.292
X127.012 Y73.296 Z-0.001
X126.721 Y73.605 Z-0.292
X127.012 Y73.868 Z-0.001
X126.721 Y73.605 Z-0.292
X126.339 Y73.636 Z-0.302
X125.698 Y73.684 Z-0.321
X125.552 Y73.693 Z-0.324
X125.377 Y73.703 Z-0.328
X125.22 Y73.716 Z-0.335
X125.073 Y73.731 Z-0.346
X124.973 Y73.744 Z-0.357
X124.838 Y73.765 Z-0.375
X124.747 Y73.783 Z-0.39
X124.622 Y73.811 Z-0.416
X124.53 Y73.835 Z-0.439
X124.43 Y73.864 Z-0.466
X124.34 Y73.893 Z-0.494
X124.198 Y73.944 Z-0.543
X124.031 Y74.01 Z-0.606
X123.825 Y74.096 Z-0.69
X123.696 Y74.157 Z-0.749
X123.616 Y74.199 Z-0.791
X123.537 Y74.245 Z-0.837
X123.458 Y74.296 Z-0.886
X123.325 Y74.387 Z-0.978
X123.214 Y74.471 Z-1.064
X123.135 Y74.536 Z-1.13
X122.713 Y74.912 Z-1.51
Y75.376 Z-1.464
Y75.928 Z-1.414
X122.712 Y76.478 Z-1.37
Y77.039 Z-1.335
Y77.385 Z-1.319
Y77.87 Z-1.301
X122.713 Y78.239 Z-1.292
Y78.793 Z-1.284
X122.714 Y79.352 Z-1.281
Y80.056 Z-1.284
Y81.001 Z-1.295
X122.713 Y90.518 Z-1.297
X122.716 Y91.747 Z-1.307
X122.721 Y92.969 Z-1.318
X122.73 Y94.134 Z-1.333
X122.731 Y95.015 Z-1.354
X122.735 Y95.833 Z-1.376
X122.74 Y96.508 Z-1.397
X122.747 Y96.729 Z-1.4
X122.749 Y96.928 Z-1.406
X122.748 Y97.094 Z-1.414
X122.743 Y97.261 Z-1.426
X122.734 Y97.429 Z-1.443
X122.722 Y97.589 Z-1.462
X122.709 Y97.711 Z-1.481
X122.693 Y97.845 Z-1.504
X122.671 Y97.994 Z-1.533
X122.896 Y98.283 Z-1.322
X122.999 Y98.417 Z-1.227
X123.399 Y98.946 Z-0.854
X123.782 Y99.463 Z-0.498
X124.209 Y100.046 Z-0.103
X124.223 Y100.16 Z-0.001
X124.209 Y100.046 Z-0.103
X124.314 Y100.097 Z0
X124.209 Y100.046 Z-0.103
X123.782 Y99.463 Z-0.498
X123.399 Y98.946 Z-0.854
X122.999 Y98.417 Z-1.227
X122.896 Y98.283 Z-1.322
X122.671 Y97.994 Z-1.533
X122.451 Y98.1 Z-1.369
X122.163 Y98.234 Z-1.161
X122.026 Y98.294 Z-1.069
X121.926 Y98.333 Z-1.006
X121.8 Y98.378 Z-0.932
X121.704 Y98.408 Z-0.88
X121.608 Y98.434 Z-0.833
X121.492 Y98.46 Z-0.781
X121.32 Y98.49 Z-0.716
X121.114 Y98.52 Z-0.644
X120.953 Y98.542 Z-0.592
X120.813 Y98.557 Z-0.551
X120.695 Y98.568 Z-0.519
X120.551 Y98.576 Z-0.487
X120.442 Y98.579 Z-0.466
X120.289 Y98.58 Z-0.441
X120.146 Y98.577 Z-0.423
X119.96 Y98.568 Z-0.404
X119.769 Y98.556 Z-0.39
X119.279 Y98.525 Z-0.359
X118.742 Y98.494 Z-0.329
X118.414 Y98.789 Z-0.001
X118.742 Y98.494 Z-0.329
X118.413 Y98.166 Z0
G0 Z5
X143.743 Y74.599
G1 Z0 F850
X143.38 Y74.918 Z-0.453
X143.522 Y75.079 Z-0.378
X143.773 Y75.372 Z-0.247
X143.941 Y75.573 Z-0.162
X144.191 Y75.877 Z-0.037
X144.235 Y75.888 Z0
X144.191 Y75.877 Z-0.037
X144.195 Y75.923 Z0
X144.191 Y75.877 Z-0.037
X143.941 Y75.573 Z-0.162
X143.773 Y75.372 Z-0.247
X143.522 Y75.079 Z-0.378
X143.38 Y74.918 Z-0.453
X143.21 Y74.83 Z-0.456
X142.981 Y74.716 Z-0.462
X142.742 Y74.603 Z-0.47
X142.499 Y74.495 Z-0.478
X142.197 Y74.368 Z-0.487
X141.977 Y74.28 Z-0.49
X141.89 Y74.249 Z-0.493
X141.607 Y74.156 Z-0.504
X141.288 Y74.057 Z-0.514
X141.054 Y73.99 Z-0.523
X140.823 Y73.929 Z-0.534
X140.584 Y73.87 Z-0.548
X140.345 Y73.825 Z-0.558
X140.088 Y73.781 Z-0.573
X139.821 Y73.742 Z-0.592
X139.538 Y73.705 Z-0.611
X139.305 Y73.68 Z-0.626
X139.178 Y73.667 Z-0.634
X139.053 Y73.662 Z-0.646
X138.801 Y73.657 Z-0.67
X138.544 Z-0.692
X138.211 Y73.662 Z-0.719
X137.959 Y73.671 Z-0.739
X137.605 Y73.69 Z-0.771
X137.507 Y73.697 Z-0.78
X137.266 Y73.729 Z-0.794
X137.022 Y73.766 Z-0.812
X136.982 Y73.772 Z-0.816
X136.73 Y73.817 Z-0.839
X136.474 Y73.87 Z-0.867
X136.211 Y73.933 Z-0.9
X135.954 Y74.005 Z-0.937
X135.696 Y74.088 Z-0.977
X135.452 Y74.177 Z-1.017
X135.255 Y74.257 Z-1.051
X135.118 Y74.317 Z-1.074
X134.926 Y74.409 Z-1.106
X134.743 Y74.503 Z-1.134
X134.541 Y74.619 Z-1.161
X134.335 Y74.747 Z-1.186
X134.155 Y74.867 Z-1.204
X133.963 Y75.003 Z-1.221
X133.773 Y75.144 Z-1.235
X133.601 Y75.276 Z-1.246
X133.488 Y75.368 Z-1.255
X133.396 Y75.452 Z-1.267
X133.304 Y75.544 Z-1.286
X132.945 Y75.926 Z-1.364
X132.714 Y76.179 Z-1.415
X132.504 Y76.481 Z-1.427
X132.437 Y76.58 Z-1.431
X132.281 Y76.816 Z-1.442
X132.123 Y77.067 Z-1.455
X131.997 Y77.276 Z-1.467
X131.943 Y77.371 Z-1.473
X131.818 Y77.599 Z-1.486
X131.708 Y77.814 Z-1.498
X131.629 Y77.986 Z-1.508
X131.544 Y78.182 Z-1.517
X131.462 Y78.394 Z-1.524
X131.407 Y78.556 Z-1.529
X131.344 Y78.765 Z-1.532
X131.273 Y79.04
X131.245 Y79.165 Z-1.533
X131.2 Y79.387 Z-1.532
X131.156 Y79.642 Z-1.528
X131.116 Y79.922 Z-1.525
X131.082 Y80.203 Z-1.521
X131.054 Y80.486 Z-1.518
X131.031 Y80.748 Z-1.516
X130.998 Y81.209 Z-1.512
X130.986 Y81.408 Z-1.511
X130.983 Y81.789 Z-1.49
X130.984 Y81.886 Z-1.486
X130.988 Y81.999 Z-1.485
X130.997 Y82.108 Z-1.487
X131.008 Y82.216 Z-1.492
X131.023 Y82.321 Z-1.5
X131.042 Y82.426 Z-1.511
X131.063 Y82.525 Z-1.524
X131.087 Y82.623 Z-1.539
X131.344 Y82.617 Z-1.304
X131.691 Y82.608 Z-1.003
X131.9 Y82.602 Z-0.834
X131.999 Y82.6 Z-0.759
X132.095 Y82.597 Z-0.691
X132.189 Y82.595 Z-0.629
X132.281 Y82.592 Z-0.575
X132.371 Y82.59 Z-0.529
X132.459 Y82.587 Z-0.491
X132.547 Y82.585 Z-0.463
X132.634 Y82.583 Z-0.445
X132.72 Y82.581 Z-0.437
X132.992 Y82.575 Z-0.432
X134.562 Y82.548 Z-0.404
X135.612 Y82.533 Z-0.39
X136.399 Y82.526 Z-0.383
X137.516 Y82.52 Z-0.376
X138.755 Z-0.37
X139.248 Y82.523 Z-0.368
X139.81 Y82.533
X140.264 Y82.546 Z-0.369
X140.663 Y82.563 Z-0.373
X141.06 Y82.585 Z-0.379
X141.618 Y82.621 Z-0.389
X141.783 Y82.634 Z-0.393
X141.858 Y82.644 Z-0.399
X141.932 Y82.659 Z-0.411
X142.006 Y82.679 Z-0.426
X142.08 Y82.702 Z-0.446
X142.154 Y82.731 Z-0.47
X142.228 Y82.763 Z-0.499
X142.302 Y82.801 Z-0.532
X142.375 Y82.843 Z-0.57
X142.448 Y82.889 Z-0.612
X142.545 Y82.957 Z-0.675
X142.641 Y83.033 Z-0.746
X142.705 Y83.091 Z-0.797
X142.792 Y83.177 Z-0.873
X142.878 Y83.269 Z-0.955
X143.204 Y83.636 Z-1.281
X143.357 Y83.811 Z-1.434
X143.646 Y83.577 Z-1.159
X143.752 Y83.493 Z-1.058
X144.071 Y83.219 Z-0.73
X144.536 Y82.829 Z-0.251
X144.78 Y82.627 Z-0.001
X144.536 Y82.829 Z-0.251
X144.071 Y83.219 Z-0.73
X143.752 Y83.493 Z-1.058
X143.646 Y83.577 Z-1.159
X143.357 Y83.811 Z-1.434
X143.348 Y84.127 Z-1.425
X143.338 Y84.368 Z-1.416
X143.318 Y84.644 Z-1.41
X143.305 Y84.8 Z-1.406
X143.274 Y85.087 Z-1.395
X143.256 Y85.23 Z-1.389
X143.231 Y85.397 Z-1.38
X143.207 Y85.539 Z-1.372
X143.174 Y85.705 Z-1.36
X143.136 Y85.869 Z-1.347
X143.091 Y86.031 Z-1.331
X143.037 Y86.202 Z-1.311
X142.985 Y86.35 Z-1.293
X142.925 Y86.506 Z-1.272
X142.857 Y86.667 Z-1.25
X142.741 Y86.921 Z-1.213
X142.663 Y87.08 Z-1.189
X142.532 Y87.336 Z-1.15
X142.372 Y87.636 Z-1.103
X142.258 Y87.844 Z-1.071
X142.224 Y87.903 Z-1.063
X142.183 Y87.953 Z-1.048
X141.967 Y88.199 Z-0.984
X141.876 Y88.3 Z-0.958
X141.729 Y88.458 Z-0.919
X141.572 Y88.617 Z-0.88
X141.421 Y88.759 Z-0.848
X141.321 Y88.847 Z-0.828
X141.226 Y88.926 Z-0.811
X141.108 Y89.019 Z-0.792
X140.951 Y89.131 Z-0.769
X140.836 Y89.207 Z-0.753
X140.648 Y89.322 Z-0.727
X140.477 Y89.415 Z-0.703
X140.375 Y89.466 Z-0.687
X140.134 Y89.579 Z-0.647
X140.063 Y89.609 Z-0.634
X140.006 Y89.631 Z-0.627
X139.81 Y89.698 Z-0.602
X139.604 Y89.764 Z-0.573
X139.386 Y89.827 Z-0.543
X139.161 Y89.886 Z-0.512
X138.928 Y89.938 Z-0.484
X138.807 Y89.962 Z-0.47
X138.664 Y89.987 Z-0.457
X138.444 Y90.018 Z-0.441
X138.225 Y90.044 Z-0.431
X138.038 Y90.061 Z-0.425
X137.754 Y90.062 Z-0.4
X137.329 Y90.054 Z-0.367
X137.241 Y90.048 Z-0.363
X137.136 Y90.037 Z-0.362
X136.922 Y90.013 Z-0.358
X136.595 Y89.97 Z-0.351
X136.429 Y89.943 Z-0.347
X136.262 Y89.912 Z-0.342
X136.095 Y89.877 Z-0.338
X135.927 Y89.836 Z-0.333
X135.759 Y89.788 Z-0.329
X135.592 Y89.735 Z-0.327
X135.424 Y89.674 Z-0.326
X135.256 Y89.607 Z-0.327
X135.088 Y89.532 Z-0.333
X134.924 Y89.45 Z-0.341
X134.765 Y89.366 Z-0.353
X134.608 Y89.275 Z-0.367
X134.456 Y89.184 Z-0.384
X134.307 Y89.089 Z-0.403
X134.16 Y88.992 Z-0.424
X133.955 Y88.852 Z-0.457
X133.831 Y88.76 Z-0.474
X133.479 Y88.491 Z-0.525
X133.421 Y88.444 Z-0.535
X133.366 Y88.394 Z-0.548
X133.181 Y88.204 Z-0.611
X133.014 Y88.024 Z-0.667
X132.855 Y87.847 Z-0.72
X132.725 Y87.697 Z-0.763
X132.585 Y87.526 Z-0.807
X132.48 Y87.389 Z-0.84
X132.443 Y87.339 Z-0.851
X132.316 Y87.16 Z-0.889
X132.291 Y87.122 Z-0.896
X132.179 Y86.95 Z-0.93
X132.079 Y86.784 Z-0.961
X131.932 Y86.526 Z-1.01
X131.815 Y86.303 Z-1.053
X131.77 Y86.214 Z-1.072
X131.68 Y86.028 Z-1.111
X131.65 Y85.942 Z-1.12
X131.537 Y85.598 Z-1.16
X131.463 Y85.353 Z-1.192
X131.397 Y85.12 Z-1.225
X131.338 Y84.893 Z-1.257
X131.281 Y84.652 Z-1.291
X131.231 Y84.418 Z-1.324
X131.189 Y84.198 Z-1.353
X131.15 Y83.969 Z-1.38
X131.122 Y83.774 Z-1.401
X131.098 Y83.591 Z-1.417
X131.078 Y83.411 Z-1.431
X131.062 Y83.224 Z-1.445
X131.058 Y83.128 Z-1.454
X131.056 Y83.032 Z-1.466
X131.059 Y82.933 Z-1.48
X131.064 Y82.834 Z-1.496
X131.074 Y82.731 Z-1.516
X131.087 Y82.623 Z-1.539
G0 Z5
X146.621 Y90.105
G1 Z0 F850
X146.886 Y89.824 Z-0.265
X146.621 Y89.56 Z0
X146.886 Y89.824 Z-0.265
X147.103 Y89.818 Z-0.258
X147.183 Y89.812 Z-0.259
X147.323 Y89.792 Z-0.271
X147.585 Y89.753 Z-0.297
X147.746 Y89.726 Z-0.316
X147.973 Y89.685 Z-0.348
X148.109 Y89.656 Z-0.371
X148.252 Y89.623 Z-0.399
X148.398 Y89.584 Z-0.433
X148.55 Y89.54 Z-0.473
X148.715 Y89.485 Z-0.525
X148.879 Y89.423 Z-0.583
X149.05 Y89.351 Z-0.652
X149.228 Y89.269 Z-0.731
X149.387 Y89.189 Z-0.808
X149.556 Y89.1 Z-0.895
X149.722 Y89.007 Z-0.986
X149.89 Y88.91 Z-1.085
X150.082 Y88.796 Z-1.202
X150.356 Y88.626 Z-1.376
X150.57 Y88.49 Z-1.516
X150.718 Y88.633 Z-1.375
X150.877 Y88.776 Z-1.235
X150.987 Y88.871 Z-1.142
X151.097 Y88.962 Z-1.053
X151.217 Y89.056 Z-0.961
X151.336 Y89.143 Z-0.876
X151.439 Y89.214 Z-0.807
X151.544 Y89.281 Z-0.743
X151.615 Y89.323 Z-0.702
X151.749 Y89.396 Z-0.631
X151.84 Y89.442 Z-0.588
X151.965 Y89.499 Z-0.533
X152.082 Y89.548 Z-0.487
X152.195 Y89.592 Z-0.446
X152.28 Y89.623 Z-0.417
X152.412 Y89.659 Z-0.384
X152.62 Y89.71 Z-0.339
X152.777 Y89.743 Z-0.31
X152.9 Y89.764 Z-0.292
X153.023 Y89.782 Z-0.278
X153.144 Y89.795 Z-0.268
X153.272 Y89.805 Z-0.262
X153.429 Y89.812 Z-0.259
X153.665 Y89.819 Z-0.26
X154.162 Y89.826 Z-0.267
X154.504 Y89.832 Z-0.273
X154.777 Y89.56 Z0
X154.504 Y89.832 Z-0.273
X154.776 Y90.113 Z-0.001
X154.504 Y89.832 Z-0.273
X154.162 Y89.826 Z-0.267
X153.665 Y89.819 Z-0.26
X153.429 Y89.812 Z-0.259
X153.272 Y89.805 Z-0.262
X153.144 Y89.795 Z-0.268
X153.023 Y89.782 Z-0.278
X152.9 Y89.764 Z-0.292
X152.777 Y89.743 Z-0.31
X152.62 Y89.71 Z-0.339
X152.412 Y89.659 Z-0.384
X152.28 Y89.623 Z-0.417
X152.195 Y89.592 Z-0.446
X152.082 Y89.548 Z-0.487
X151.965 Y89.499 Z-0.533
X151.84 Y89.442 Z-0.588
X151.749 Y89.396 Z-0.631
X151.615 Y89.323 Z-0.702
X151.544 Y89.281 Z-0.743
X151.439 Y89.214 Z-0.807
X151.336 Y89.143 Z-0.876
X151.217 Y89.056 Z-0.961
X151.097 Y88.962 Z-1.053
X150.987 Y88.871 Z-1.142
X150.877 Y88.776 Z-1.235
X150.718 Y88.633 Z-1.375
X150.57 Y88.49 Z-1.516
X150.585 Y88.422 Z-1.502
X150.615 Y88.3 Z-1.481
X150.688 Y88.045 Z-1.448
X150.738 Y87.879 Z-1.429
X150.806 Y87.662 Z-1.406
X150.869 Y87.476 Z-1.391
X150.945 Y87.264 Z-1.377
X151.025 Y87.054 Z-1.368
X151.362 Y86.209 Z-1.344
X151.837 Y85.026 Z-1.315
X151.911 Y84.839 Z-1.312
X152.451 Y83.466 Z-1.296
X152.813 Y82.55 Z-1.287
X153.18 Y81.632 Z-1.281
X153.518 Y80.795 Z-1.278
X154.066 Y79.445 Z-1.282
X154.48 Y78.436 Z-1.288
X154.758 Y77.759 Z-1.294
X155.589 Y75.738 Z-1.317
X155.646 Y75.605 Z-1.321
X155.693 Y75.504 Z-1.329
X155.745 Y75.404 Z-1.34
X155.805 Y75.297 Z-1.357
X155.869 Y75.192 Z-1.379
X155.938 Y75.089 Z-1.405
X155.997 Y75.007 Z-1.43
X156.059 Y74.926 Z-1.457
X156.028 Y72.389 Z-0.506
X156.027 Y72.332 Z-0.485
X156.02 Y72.249 Z-0.459
X156.009 Y72.169 Z-0.437
X155.993 Y72.09 Z-0.42
X155.973 Y72.013 Z-0.407
X155.953 Y71.95 Z-0.4
X155.824 Y71.625 Z-0.389
X155.395 Y70.57 Z-0.361
X155.175 Y70.04 Z-0.35
X154.95 Y69.511 Z-0.342
X154.72 Y68.985 Z-0.338
X154.481 Y68.458 Z-0.34
X154.234 Y67.933 Z-0.347
X154.107 Y67.67 Z-0.354
X153.95 Y67.357 Z-0.364
X153.714 Y66.893 Z-0.382
X153.515 Y66.513 Z-0.4
X153.067 Y65.671 Z-0.443
X153.003 Y65.558 Z-0.451
X152.959 Y65.491 Z-0.462
X152.925 Y65.442 Z-0.471
X152.763 Y65.241 Z-0.495
X152.621 Y65.072 Z-0.515
X152.524 Y64.963 Z-0.529
X152.425 Y64.857 Z-0.544
X152.295 Y64.729 Z-0.562
X152.177 Y64.624 Z-0.578
X152.104 Y64.564 Z-0.587
X151.966 Y64.462 Z-0.603
X151.845 Y64.381 Z-0.618
X151.732 Y64.312 Z-0.633
X151.592 Y64.234 Z-0.653
X151.468 Y64.17 Z-0.673
X151.373 Y64.124 Z-0.69
X151.235 Y64.061 Z-0.715
X151.071 Y64.002 Z-0.736
X150.86 Y63.933 Z-0.764
X150.652 Y63.871 Z-0.792
X150.533 Y63.839 Z-0.806
X150.419 Y63.813 Z-0.821
X150.347 Y63.802 Z-0.831
X150.287 Y63.795 Z-0.841
X150.141 Y63.784 Z-0.865
X150.011 Y63.779 Z-0.883
X149.881 Z-0.901
X149.729 Y63.784 Z-0.923
X149.572 Y63.795 Z-0.948
X149.435 Y63.81 Z-0.973
X149.295 Y63.83 Z-1.002
X149.236 Y63.842 Z-1.012
X149.102 Y63.874 Z-1.036
X149 Y63.902 Z-1.054
X148.886 Y63.939 Z-1.072
X148.731 Y63.996 Z-1.094
X148.696 Y64.086 Z-1.034
X148.618 Y64.304 Z-0.896
X148.512 Y64.615 Z-0.705
X148.439 Y64.844 Z-0.569
X148.39 Y65.011 Z-0.474
X148.328 Y65.239 Z-0.349
X148.263 Y65.51 Z-0.208
X148.216 Y65.721 Z-0.102
X148.262 Y65.823 Z0
X148.216 Y65.721 Z-0.102
X148.14 Y65.823 Z0
X148.216 Y65.721 Z-0.102
X148.263 Y65.51 Z-0.208
X148.328 Y65.239 Z-0.349
X148.39 Y65.011 Z-0.474
X148.439 Y64.844 Z-0.569
X148.512 Y64.615 Z-0.705
X148.618 Y64.304 Z-0.896
X148.696 Y64.086 Z-1.034
X148.731 Y63.996 Z-1.094
X148.544 Y63.891 Z-0.944
X148.248 Y63.739 Z-0.705
X148.02 Y63.626 Z-0.519
X147.852 Y63.546 Z-0.381
X147.662 Y63.461 Z-0.225
X147.393 Y63.344 Z0
X147.662 Y63.461 Z-0.225
X147.852 Y63.546 Z-0.381
X148.02 Y63.626 Z-0.519
X148.248 Y63.739 Z-0.705
X148.544 Y63.891 Z-0.944
X148.731 Y63.996 Z-1.094
X148.886 Y63.939 Z-1.072
X149 Y63.902 Z-1.054
X149.102 Y63.874 Z-1.036
X149.236 Y63.842 Z-1.012
X149.295 Y63.83 Z-1.002
X149.435 Y63.81 Z-0.973
X149.572 Y63.795 Z-0.948
X149.729 Y63.784 Z-0.923
X149.881 Y63.779 Z-0.901
X150.011 Z-0.883
X150.141 Y63.784 Z-0.865
X150.287 Y63.795 Z-0.841
X150.347 Y63.802 Z-0.831
X150.419 Y63.813 Z-0.821
X150.533 Y63.839 Z-0.806
X150.652 Y63.871 Z-0.792
X150.86 Y63.933 Z-0.764
X151.071 Y64.002 Z-0.736
X151.235 Y64.061 Z-0.715
X151.373 Y64.124 Z-0.69
X151.468 Y64.17 Z-0.673
X151.592 Y64.234 Z-0.653
X151.732 Y64.312 Z-0.633
X151.845 Y64.381 Z-0.618
X151.966 Y64.462 Z-0.603
X152.104 Y64.564 Z-0.587
X152.177 Y64.624 Z-0.578
X152.295 Y64.729 Z-0.562
X152.425 Y64.857 Z-0.544
X152.524 Y64.963 Z-0.529
X152.621 Y65.072 Z-0.515
X152.763 Y65.241 Z-0.495
X152.925 Y65.442 Z-0.471
X152.959 Y65.491 Z-0.462
X153.003 Y65.558 Z-0.451
X153.067 Y65.671 Z-0.443
X153.515 Y66.513 Z-0.4
X153.714 Y66.893 Z-0.382
X153.95 Y67.357 Z-0.364
X154.107 Y67.67 Z-0.354
X154.234 Y67.933 Z-0.347
X154.481 Y68.458 Z-0.34
X154.72 Y68.985 Z-0.338
X154.95 Y69.511 Z-0.342
X155.175 Y70.04 Z-0.35
X155.395 Y70.57 Z-0.361
X155.824 Y71.625 Z-0.389
X155.953 Y71.95 Z-0.4
X155.973 Y72.013 Z-0.407
X155.993 Y72.09 Z-0.42
X156.009 Y72.169 Z-0.437
X156.02 Y72.249 Z-0.459
X156.027 Y72.332 Z-0.485
X156.028 Y72.389 Z-0.506
X156.059 Y74.926 Z-1.457
X156.205 Y74.97 Z-1.34
X156.354 Y75.02 Z-1.222
X156.496 Y75.073 Z-1.112
X156.63 Y75.13 Z-1.01
X156.757 Y75.189 Z-0.916
X156.876 Y75.252 Z-0.83
X156.988 Y75.318 Z-0.753
X157.092 Y75.387 Z-0.683
X157.192 Y75.462 Z-0.62
X157.282 Y75.538 Z-0.567
X157.364 Y75.616 Z-0.522
X157.438 Y75.698 Z-0.485
X157.505 Y75.783 Z-0.457
X157.563 Y75.868 Z-0.437
X157.613 Y75.956 Z-0.424
X157.657 Y76.047 Z-0.42
X158.209 Y77.321 Z-0.408
X158.7 Y78.454 Z-0.402
X159.131 Y79.451 Z-0.401
X159.68 Y80.733 Z-0.407
X160.042 Y81.591 Z-0.417
X160.53 Y82.746 Z-0.444
X160.786 Y83.354 Z-0.461
X161.169 Y84.267 Z-0.491
X161.556 Y85.183 Z-0.528
X161.848 Y85.867 Z-0.559
X162.153 Y86.573 Z-0.595
X162.28 Y86.871 Z-0.613
X162.347 Y87.029 Z-0.624
X162.443 Y87.264 Z-0.644
X162.536 Y87.502 Z-0.668
X162.603 Y87.682 Z-0.69
X162.714 Y87.991 Z-0.732
X162.768 Y88.143 Z-0.754
X162.805 Y88.26 Z-0.775
X162.832 Y88.369 Z-0.8
X162.855 Y88.481 Z-0.831
X162.872 Y88.598 Z-0.869
X162.882 Y88.692 Z-0.904
X162.888 Y88.788 Z-0.942
X162.891 Y88.971 Z-1.023
X163.045 Y89.057 Z-0.937
X163.248 Y89.162 Z-0.833
X163.452 Y89.263 Z-0.734
X163.591 Y89.327 Z-0.672
X163.742 Y89.392 Z-0.609
X163.876 Y89.445 Z-0.559
X164.048 Y89.506 Z-0.501
X164.251 Y89.573 Z-0.44
X164.385 Y89.615 Z-0.402
X164.523 Y89.651 Z-0.37
X164.703 Y89.696 Z-0.332
X164.845 Y89.728 Z-0.307
X164.984 Y89.754 Z-0.287
X165.096 Y89.772 Z-0.275
X165.208 Y89.786 Z-0.267
X165.345 Y89.8 Z-0.262
X165.548 Y89.816 Z-0.258
X165.598 Y89.818 Z-0.259
X165.719 Y89.822 Z-0.263
X165.982 Y90.103 Z0
X165.719 Y89.822 Z-0.263
X165.982 Y89.56 Z0
X165.719 Y89.822 Z-0.263
X165.598 Y89.818 Z-0.259
X165.548 Y89.816 Z-0.258
X165.345 Y89.8 Z-0.262
X165.208 Y89.786 Z-0.267
X165.096 Y89.772 Z-0.275
X164.984 Y89.754 Z-0.287
X164.845 Y89.728 Z-0.307
X164.703 Y89.696 Z-0.332
X164.523 Y89.651 Z-0.37
X164.385 Y89.615 Z-0.402
X164.251 Y89.573 Z-0.44
X164.048 Y89.506 Z-0.501
X163.876 Y89.445 Z-0.559
X163.742 Y89.392 Z-0.609
X163.591 Y89.327 Z-0.672
X163.452 Y89.263 Z-0.734
X163.248 Y89.162 Z-0.833
X163.045 Y89.057 Z-0.937
X162.891 Y88.971 Z-1.023
X162.694 Y89.093 Z-0.904
X162.533 Y89.187 Z-0.812
X162.374 Y89.273 Z-0.728
X162.239 Y89.34 Z-0.663
X162.12 Y89.394 Z-0.611
X162.051 Y89.423 Z-0.583
X161.919 Y89.473 Z-0.535
X161.855 Y89.496 Z-0.514
X161.729 Y89.534 Z-0.477
X161.623 Y89.563 Z-0.451
X161.521 Y89.587 Z-0.429
X161.406 Y89.611 Z-0.409
X161.326 Y89.625 Z-0.397
X161.17 Y89.648 Z-0.379
X161.061 Y89.661 Z-0.369
X160.899 Y89.678 Z-0.359
X160.673 Y89.696 Z-0.349
X160.598 Y89.702 Z-0.346
X159.794 Y89.781 Z-0.306
X159.737 Y89.787 Z-0.304
X159.434 Y89.525 Z-0.001
X159.737 Y89.787 Z-0.304
X159.434 Y90.107 Z0
G0 Z5
X206.706 Y73.863
G1 Z0 F850
X206.996 Y73.597 Z-0.29
X206.707 Y73.294 Z-0.001
X206.996 Y73.597 Z-0.29
X207.233 Y73.612 Z-0.294
X208.24 Y73.674 Z-0.316
X208.527 Y73.69 Z-0.322
X208.712 Y73.703 Z-0.33
X208.843 Y73.716 Z-0.339
X208.981 Y73.733 Z-0.353
X209.126 Y73.756 Z-0.372
X209.229 Y73.776 Z-0.389
X209.369 Y73.807 Z-0.418
X209.515 Y73.843 Z-0.451
X209.746 Y73.908 Z-0.513
X209.856 Y73.941 Z-0.544
X209.957 Y73.978 Z-0.579
X210.056 Y74.021 Z-0.621
X210.158 Y74.072 Z-0.671
X210.258 Y74.129 Z-0.727
X210.371 Y74.202 Z-0.799
X210.537 Y74.316 Z-0.912
X210.796 Y74.499 Z-1.093
X210.985 Y74.636 Z-1.229
X211.163 Y74.772 Z-1.364
X211.342 Y74.915 Z-1.506
X211.564 Y74.725 Z-1.318
X211.726 Y74.595 Z-1.188
X211.883 Y74.477 Z-1.072
X211.997 Y74.396 Z-0.992
X212.106 Y74.323 Z-0.92
X212.249 Y74.234 Z-0.832
X212.37 Y74.165 Z-0.764
X212.507 Y74.094 Z-0.694
X212.612 Y74.043 Z-0.645
X212.757 Y73.978 Z-0.582
X212.891 Y73.921 Z-0.527
X212.971 Y73.89 Z-0.497
X213.053 Y73.864 Z-0.471
X213.116 Y73.847 Z-0.455
X213.179 Y73.833 Z-0.442
X213.548 Y73.761 Z-0.377
X213.743 Y73.726 Z-0.346
X213.943 Y73.693 Z-0.318
X214.146 Y73.664 Z-0.294
X214.35 Y73.641 Z-0.277
X214.547 Y73.624 Z-0.266
X214.741 Y73.611 Z-0.259
X214.931 Y73.602 Z-0.256
X215.208 Y73.592
X215.496 Y73.584 Z-0.259
X216.062 Y73.573 Z-0.27
X216.332 Y73.292 Z0
X216.062 Y73.573 Z-0.27
X216.332 Y73.843 Z0
X216.062 Y73.573 Z-0.27
X215.496 Y73.584 Z-0.259
X215.208 Y73.592 Z-0.256
X214.931 Y73.602
X214.741 Y73.611 Z-0.259
X214.547 Y73.624 Z-0.266
X214.35 Y73.641 Z-0.277
X214.146 Y73.664 Z-0.294
X213.943 Y73.693 Z-0.318
X213.743 Y73.726 Z-0.346
X213.548 Y73.761 Z-0.377
X213.179 Y73.833 Z-0.442
X213.116 Y73.847 Z-0.455
X213.053 Y73.864 Z-0.471
X212.971 Y73.89 Z-0.497
X212.891 Y73.921 Z-0.527
X212.757 Y73.978 Z-0.582
X212.612 Y74.043 Z-0.645
X212.507 Y74.094 Z-0.694
X212.37 Y74.165 Z-0.764
X212.249 Y74.234 Z-0.832
X212.106 Y74.323 Z-0.92
X211.997 Y74.396 Z-0.992
X211.883 Y74.477 Z-1.072
X211.726 Y74.595 Z-1.188
X211.564 Y74.725 Z-1.318
X211.342 Y74.915 Z-1.506
X211.348 Y75.061 Z-1.482
X211.352 Y75.203 Z-1.464
X211.357 Y75.424 Z-1.439
Y75.622 Z-1.421
X211.355 Y75.854 Z-1.404
X211.349 Y76.091 Z-1.39
X211.338 Y76.597 Z-1.362
X211.332 Y77.169 Z-1.334
X211.33 Y77.722 Z-1.313
X211.331 Y78.142 Z-1.3
X211.335 Y78.67 Z-1.287
X211.341 Y79.465 Z-1.274
X211.345 Y80.259 Z-1.267
X211.35 Y80.881 Z-1.264
X211.358 Y81.576 Z-1.268
X211.369 Y82.098 Z-1.277
X211.385 Y82.609 Z-1.291
X211.4 Y82.939 Z-1.3
X211.425 Y83.4 Z-1.319
X211.453 Y83.854 Z-1.343
X211.471 Y84.163 Z-1.362
X211.498 Y84.62 Z-1.396
X211.517 Y84.96 Z-1.423
X211.526 Y85.093 Z-1.438
X211.55 Y85.311 Z-1.472
X211.557 Y85.368 Z-1.482
X211.518 Y85.458 Z-1.449
X211.483 Y85.548 Z-1.419
X211.436 Y85.676 Z-1.381
X211.401 Y85.782 Z-1.355
X211.364 Y85.909 Z-1.329
X211.337 Y86.016 Z-1.311
X211.309 Y86.143 Z-1.296
X211.29 Y86.25 Z-1.288
X211.268 Y86.405 Z-1.284
X211.258 Y86.507 Z-1.286
X211.244 Y86.724 Z-1.3
X211.213 Y87.201 Z-1.341
X211.147 Y88.093 Z-1.425
X211.134 Y88.223 Z-1.44
X211.117 Y88.352 Z-1.46
X211.095 Y88.481 Z-1.485
X211.035 Y88.509 Z-1.441
X210.896 Y88.57 Z-1.344
X210.753 Y88.627 Z-1.25
X210.621 Y88.675 Z-1.17
X210.49 Y88.716 Z-1.097
X210.35 Y88.754 Z-1.025
X210.069 Y88.822 Z-0.89
X209.854 Y88.869 Z-0.792
X209.693 Y88.903 Z-0.726
X209.549 Y88.929 Z-0.671
X209.48 Y88.94 Z-0.647
X209.355 Y88.957 Z-0.605
X209.236 Y88.969 Z-0.569
X209.117 Y88.978 Z-0.537
X208.982 Y88.984 Z-0.505
X208.836 Y88.986 Z-0.475
X208.703 Y88.983 Z-0.452
X208.527 Y88.976 Z-0.428
X208.359 Y88.965 Z-0.409
X208.123 Y88.945 Z-0.39
X207.874 Y88.924 Z-0.372
X207.328 Y88.886 Z-0.334
X207.02 Y88.866 Z-0.314
X206.706 Y89.143 Z0
X207.02 Y88.866 Z-0.314
X206.706 Y88.553 Z0
X207.02 Y88.866 Z-0.314
X207.328 Y88.886 Z-0.334
X207.874 Y88.924 Z-0.372
X208.123 Y88.945 Z-0.39
X208.359 Y88.965 Z-0.409
X208.527 Y88.976 Z-0.428
X208.703 Y88.983 Z-0.452
X208.836 Y88.986 Z-0.475
X208.982 Y88.984 Z-0.505
X209.117 Y88.978 Z-0.537
X209.236 Y88.969 Z-0.569
X209.355 Y88.957 Z-0.605
X209.48 Y88.94 Z-0.647
X209.549 Y88.929 Z-0.671
X209.693 Y88.903 Z-0.726
X209.854 Y88.869 Z-0.792
X210.069 Y88.822 Z-0.89
X210.35 Y88.754 Z-1.025
X210.49 Y88.716 Z-1.097
X210.621 Y88.675 Z-1.17
X210.753 Y88.627 Z-1.25
X210.896 Y88.57 Z-1.344
X211.035 Y88.509 Z-1.441
X211.095 Y88.481 Z-1.485
X211.336 Y88.802 Z-1.25
X211.53 Y89.067 Z-1.062
X211.78 Y89.419 Z-0.819
X212.089 Y89.866 Z-0.518
X212.354 Y90.258 Z-0.261
X212.406 Y90.338 Z-0.209
X212.447 Y90.399 Z-0.165
X212.494 Y90.463 Z-0.111
X212.531 Y90.517 Z-0.061
X212.577 Y90.574 Z-0.001
X212.531 Y90.517 Z-0.061
X212.494 Y90.463 Z-0.111
X212.447 Y90.399 Z-0.165
X212.406 Y90.338 Z-0.209
X212.354 Y90.258 Z-0.261
X212.089 Y89.866 Z-0.518
X211.78 Y89.419 Z-0.819
X211.53 Y89.067 Z-1.062
X211.336 Y88.802 Z-1.25
X211.095 Y88.481 Z-1.485
X211.117 Y88.352 Z-1.46
X211.134 Y88.223 Z-1.44
X211.147 Y88.093 Z-1.425
X211.213 Y87.201 Z-1.341
X211.244 Y86.724 Z-1.3
X211.258 Y86.507 Z-1.286
X211.268 Y86.405 Z-1.284
X211.29 Y86.25 Z-1.288
X211.309 Y86.143 Z-1.296
X211.337 Y86.016 Z-1.311
X211.364 Y85.909 Z-1.329
X211.401 Y85.782 Z-1.355
X211.436 Y85.676 Z-1.381
X211.483 Y85.548 Z-1.419
X211.518 Y85.458 Z-1.449
X211.557 Y85.368 Z-1.482
X211.693 Y85.403 Z-1.362
X211.876 Y85.455 Z-1.202
X212.091 Y85.524 Z-1.019
X212.248 Y85.582 Z-0.888
X212.422 Y85.655 Z-0.749
X212.575 Y85.728 Z-0.631
X212.712 Y85.804 Z-0.533
X212.732 Y85.815 Z-0.519
X212.833 Y85.881 Z-0.452
X212.901 Y85.93 Z-0.411
X212.945 Y85.965 Z-0.386
X213.005 Y86.015 Z-0.356
X213.044 Y86.051 Z-0.338
X213.096 Y86.103 Z-0.318
X213.131 Y86.141 Z-0.306
X213.18 Y86.2 Z-0.295
X213.287 Y86.331 Z-0.279
X213.375 Y86.435 Z-0.269
X213.513 Y86.591 Z-0.26
X213.674 Y86.765 Z-0.256
X213.826 Y86.925 Z-0.259
X214.017 Y87.126 Z-0.268
X214.09 Y87.201 Z-0.274
X214.244 Y87.342 Z-0.302
X214.389 Y87.473 Z-0.331
X214.541 Y87.608 Z-0.365
X214.7 Y87.746 Z-0.405
X214.802 Y87.831 Z-0.433
X214.965 Y87.96 Z-0.482
X215.056 Y88.028 Z-0.512
X215.149 Y88.095 Z-0.543
X215.272 Y88.179 Z-0.587
X215.403 Y88.263 Z-0.635
X215.519 Y88.334 Z-0.679
X215.703 Y88.439 Z-0.75
X215.876 Y88.531 Z-0.816
X216.017 Y88.6 Z-0.868
X216.208 Y88.688 Z-0.936
X216.371 Y88.755 Z-0.991
X216.463 Y88.787 Z-1.023
X216.684 Y88.855 Z-1.104
X216.909 Y88.918 Z-1.185
X217.057 Y88.955 Z-1.24
X217.131 Y88.967 Z-1.262
