%
(1001)
(PRIVATELANE_ z0 stock top)
(T7  D=16 CR=0 TAPER=45deg - ZMIN=-3.315 - chamfer mill)
G90 G94
G17
G21
G28 G91 Z0
G90

(PRIVATELANE)
M9
T7 M6
S6000 M3
G54
M9
G0 X17.973 Y261.084
Z15
Z5
G1 Z0 F850
X18.667 Y260.364 Z-0.695
X17.973 Y259.727 Z-0.001
X18.667 Y260.364 Z-0.695
X19.06 Y260.341 Z-0.704
X19.121 Y260.338 Z-0.705
X19.389 Y260.327 Z-0.707
X19.578 Y260.317 Z-0.71
X19.768 Y260.304 Z-0.716
X19.968 Y260.287 Z-0.726
X20.179 Y260.264 Z-0.741
X20.332 Y260.245 Z-0.756
X20.514 Y260.218 Z-0.779
X20.742 Y260.176 Z-0.815
X20.864 Y260.151 Z-0.837
X21.093 Y260.098 Z-0.884
X21.372 Y260.028 Z-0.946
X21.553 Y259.98 Z-0.991
X21.627 Y259.956 Z-1.012
X21.7 Y259.93 Z-1.036
X21.785 Y259.898 Z-1.066
X21.861 Y259.867 Z-1.096
X21.936 Y259.833 Z-1.129
X22.012 Y259.796 Z-1.164
X22.088 Y259.757 Z-1.202
X22.164 Y259.715 Z-1.242
X22.249 Y259.665 Z-1.291
X22.325 Y259.619 Z-1.337
X22.471 Y259.521 Z-1.432
X22.588 Y259.436 Z-1.515
X22.88 Y259.215 Z-1.733
X23.193 Y258.977 Z-1.968
X23.535 Y258.71 Z-2.232
X23.783 Y258.511 Z-2.429
X24.127 Y258.229 Z-2.712
X24.332 Y258.056 Z-2.886
X24.593 Y257.833 Z-3.112
X25.583 Y258.801 Z-2.152
X25.783 Y258.989 Z-1.966
X25.907 Y259.098 Z-1.859
X26.031 Y259.2 Z-1.759
X26.156 Y259.296 Z-1.664
X26.28 Y259.385 Z-1.576
X26.404 Y259.469 Z-1.494
X26.536 Y259.55 Z-1.415
X26.66 Y259.621 Z-1.347
X26.784 Y259.685 Z-1.284
X26.909 Y259.743 Z-1.228
X27.033 Y259.795 Z-1.179
X27.158 Y259.84 Z-1.135
X27.283 Y259.879 Z-1.098
X27.408 Y259.912 Z-1.067
X27.538 Y259.94 Z-1.042
X27.663 Y259.961 Z-1.024
X27.84 Y259.981 Z-1.006
X28.426 Y260.043 Z-0.956
X28.796 Y260.079 Z-0.929
X29.166 Y260.109 Z-0.906
X29.419 Y260.126 Z-0.895
X29.791 Y260.146 Z-0.883
X30.046 Y260.157 Z-0.878
X30.606 Y260.178 Z-0.872
X30.722 Y260.18 Z-0.873
X31.124 Y260.175 Z-0.888
X31.537 Y260.167 Z-0.905
X31.843 Y260.156 Z-0.921
X32.105 Y260.144 Z-0.938
X32.385 Y260.126 Z-0.959
X32.647 Y260.104 Z-0.984
X32.879 Y260.08 Z-1.01
X33.118 Y260.051 Z-1.041
X33.365 Y260.014 Z-1.078
X33.614 Y259.971 Z-1.12
X33.873 Y259.919 Z-1.17
X34.133 Y259.859 Z-1.227
X34.381 Y259.795 Z-1.285
X34.619 Y259.729 Z-1.346
X34.842 Y259.661 Z-1.406
X35.064 Y259.589 Z-1.466
X35.283 Y259.514 Z-1.528
X35.496 Y259.437 Z-1.589
X35.704 Y259.359 Z-1.648
X36.103 Y259.199 Z-1.761
X36.295 Y259.116 Z-1.815
X36.389 Y259.07 Z-1.845
X36.483 Y259.022 Z-1.877
X36.577 Y258.97 Z-1.911
X36.671 Y258.914 Z-1.948
X36.801 Y258.831 Z-2.003
X37.17 Y258.581 Z-2.165
X37.407 Y258.416 Z-2.27
X37.795 Y258.134 Z-2.445
X38.032 Y257.956 Z-2.555
X38.234 Y257.768 Z-2.638
X38.356 Y257.65 Z-2.689
X38.508 Y257.496 Z-2.753
X38.611 Y257.384 Z-2.797
X38.672 Y257.314 Z-2.822
X38.731 Y257.24 Z-2.844
X38.786 Y257.162 Z-2.865
X38.864 Y257.047 Z-2.89
X38.941 Y256.923 Z-2.915
X39.076 Y256.69 Z-2.96
X39.128 Y256.595 Z-2.978
X39.249 Y256.294 Z-3.003
X39.317 Y256.106 Z-3.019
X39.368 Y255.955 Z-3.031
X39.405 Y255.83 Z-3.039
X39.43 Y255.733 Z-3.042
X39.454 Y255.619
X39.481 Y255.464 Z-3.04
X39.509 Y255.266 Z-3.034
X39.536 Y255.03 Z-3.025
X39.561 Y254.753 Z-3.016
X39.568 Y254.658 Z-3.013
X39.569 Y254.513 Z-2.999
X39.567 Y254.252 Z-2.975
X39.562 Y253.963 Z-2.951
X39.546 Y253.529 Z-2.914
X39.535 Y253.309 Z-2.894
X39.521 Y253.101 Z-2.874
X39.508 Y252.947 Z-2.86
X39.482 Y252.733 Z-2.841
X39.439 Y252.451 Z-2.812
X39.422 Y252.352 Z-2.801
X39.39 Y252.186 Z-2.778
X39.341 Y251.974 Z-2.744
X39.316 Y251.878 Z-2.727
X39.267 Y251.71 Z-2.693
X39.195 Y251.485 Z-2.643
X39.129 Y251.3 Z-2.6
X39.031 Y251.05 Z-2.538
X38.964 Y250.889 Z-2.499
X38.858 Y250.65 Z-2.438
X38.739 Y250.4 Z-2.376
X38.607 Y250.142 Z-2.314
X38.479 Y249.907 Z-2.26
X38.328 Y249.643 Z-2.204
X38.27 Y249.547 Z-2.185
X38.155 Y249.397 Z-2.135
X37.978 Y249.175 Z-2.065
X37.798 Y248.961 Z-1.999
X37.593 Y248.727 Z-1.931
X37.386 Y248.504 Z-1.866
X37.292 Y248.405 Z-1.836
X37.134 Y248.245 Z-1.79
X36.975 Y248.088 Z-1.742
X36.775 Y247.9 Z-1.683
X36.515 Y247.666 Z-1.601
X36.445 Y247.607 Z-1.58
X36.375 Y247.55 Z-1.561
X36.273 Y247.476 Z-1.535
X36.147 Y247.393 Z-1.509
X35.956 Y247.276 Z-1.471
X35.676 Y247.118 Z-1.409
X35.476 Y247.013 Z-1.362
X35.257 Y246.905 Z-1.311
X34.994 Y246.786 Z-1.249
X34.897 Y246.745 Z-1.226
X34.687 Y246.661 Z-1.179
X34.436 Y246.569 Z-1.126
X34.256 Y246.51 Z-1.09
X34.03 Y246.442 Z-1.049
X33.804 Y246.381 Z-1.013
X33.586 Y246.331 Z-0.983
X33.369 Y246.287 Z-0.958
X33.153 Y246.248 Z-0.937
X32.855 Y246.204 Z-0.915
X32.755 Y246.191 Z-0.909
X32.569 Y246.168 Z-0.899
X32.34 Y246.155 Z-0.88
X32.08 Y246.146 Z-0.858
X31.899 Y246.144 Z-0.841
X31.667 Y246.146 Z-0.818
X31.429 Y246.152 Z-0.793
X31.305 Y246.161 Z-0.783
X31.15 Y246.176 Z-0.773
X30.9 Y246.204 Z-0.76
X30.709 Y246.231 Z-0.753
X30.389 Y246.46 Z-0.571
X30.081 Y246.682 Z-0.402
X29.946 Y246.781 Z-0.33
X29.83 Y247.14 Z-0.001
X29.946 Y246.781 Z-0.33
X29.543 Y246.83 Z0
X29.946 Y246.781 Z-0.33
X30.081 Y246.682 Z-0.402
X30.389 Y246.46 Z-0.571
X30.709 Y246.231 Z-0.753
X30.263 Y245.649 Z-0.095
X30.198 Y245.565 Z-0.001
X30.263 Y245.649 Z-0.095
X30.709 Y246.231 Z-0.753
X30.9 Y246.204 Z-0.76
X31.15 Y246.176 Z-0.773
X31.305 Y246.161 Z-0.783
X31.429 Y246.152 Z-0.793
X31.667 Y246.146 Z-0.818
X31.899 Y246.144 Z-0.841
X32.08 Y246.146 Z-0.858
X32.34 Y246.155 Z-0.88
X32.569 Y246.168 Z-0.899
X32.755 Y246.191 Z-0.909
X32.855 Y246.204 Z-0.915
X33.153 Y246.248 Z-0.937
X33.369 Y246.287 Z-0.958
X33.586 Y246.331 Z-0.983
X33.804 Y246.381 Z-1.013
X34.03 Y246.442 Z-1.049
X34.256 Y246.51 Z-1.09
X34.436 Y246.569 Z-1.126
X34.687 Y246.661 Z-1.179
X34.897 Y246.745 Z-1.226
X34.994 Y246.786 Z-1.249
X35.257 Y246.905 Z-1.311
X35.476 Y247.013 Z-1.362
X35.676 Y247.118 Z-1.409
X35.956 Y247.276 Z-1.471
X36.147 Y247.393 Z-1.509
X36.273 Y247.476 Z-1.535
X36.375 Y247.55 Z-1.561
X36.445 Y247.607 Z-1.58
X36.515 Y247.666 Z-1.601
X36.775 Y247.9 Z-1.683
X36.975 Y248.088 Z-1.742
X37.134 Y248.245 Z-1.79
X37.292 Y248.405 Z-1.836
X37.386 Y248.504 Z-1.866
X37.593 Y248.727 Z-1.931
X37.798 Y248.961 Z-1.999
X37.978 Y249.175 Z-2.065
X38.155 Y249.397 Z-2.135
X38.27 Y249.547 Z-2.185
X38.328 Y249.643 Z-2.204
X38.479 Y249.907 Z-2.26
X38.607 Y250.142 Z-2.314
X38.739 Y250.4 Z-2.376
X38.858 Y250.65 Z-2.438
X38.964 Y250.889 Z-2.499
X39.031 Y251.05 Z-2.538
X39.129 Y251.3 Z-2.6
X39.195 Y251.485 Z-2.643
X39.267 Y251.71 Z-2.693
X39.316 Y251.878 Z-2.727
X39.341 Y251.974 Z-2.744
X39.39 Y252.186 Z-2.778
X39.422 Y252.352 Z-2.801
X39.439 Y252.451 Z-2.812
X39.482 Y252.733 Z-2.841
X39.508 Y252.947 Z-2.86
X39.521 Y253.101 Z-2.874
X39.535 Y253.309 Z-2.894
X39.546 Y253.529 Z-2.914
X39.562 Y253.963 Z-2.951
X39.567 Y254.252 Z-2.975
X39.569 Y254.513 Z-2.999
X39.568 Y254.658 Z-3.013
X39.561 Y254.753 Z-3.016
X39.536 Y255.03 Z-3.025
X39.509 Y255.266 Z-3.034
X39.481 Y255.464 Z-3.04
X39.454 Y255.619 Z-3.042
X39.43 Y255.733
X39.405 Y255.83 Z-3.039
X39.368 Y255.955 Z-3.031
X39.317 Y256.106 Z-3.019
X39.249 Y256.294 Z-3.003
X39.128 Y256.595 Z-2.978
X39.076 Y256.69 Z-2.96
X38.941 Y256.923 Z-2.915
X38.864 Y257.047 Z-2.89
X38.786 Y257.162 Z-2.865
X38.731 Y257.24 Z-2.844
X38.672 Y257.314 Z-2.822
X38.611 Y257.384 Z-2.797
X38.508 Y257.496 Z-2.753
X38.356 Y257.65 Z-2.689
X38.234 Y257.768 Z-2.638
X38.032 Y257.956 Z-2.555
X37.795 Y258.134 Z-2.445
X37.407 Y258.416 Z-2.27
X37.17 Y258.581 Z-2.165
X36.801 Y258.831 Z-2.003
X36.671 Y258.914 Z-1.948
X36.577 Y258.97 Z-1.911
X36.483 Y259.022 Z-1.877
X36.389 Y259.07 Z-1.845
X36.295 Y259.116 Z-1.815
X36.103 Y259.199 Z-1.761
X35.704 Y259.359 Z-1.648
X35.496 Y259.437 Z-1.589
X35.283 Y259.514 Z-1.528
X35.064 Y259.589 Z-1.466
X34.842 Y259.661 Z-1.406
X34.619 Y259.729 Z-1.346
X34.381 Y259.795 Z-1.285
X34.133 Y259.859 Z-1.227
X33.873 Y259.919 Z-1.17
X33.614 Y259.971 Z-1.12
X33.365 Y260.014 Z-1.078
X33.118 Y260.051 Z-1.041
X32.879 Y260.08 Z-1.01
X32.647 Y260.104 Z-0.984
X32.385 Y260.126 Z-0.959
X32.105 Y260.144 Z-0.938
X31.843 Y260.156 Z-0.921
X31.537 Y260.167 Z-0.905
X31.124 Y260.175 Z-0.888
X30.722 Y260.18 Z-0.873
X30.606 Y260.178 Z-0.872
X30.046 Y260.157 Z-0.878
X29.791 Y260.146 Z-0.883
X29.419 Y260.126 Z-0.895
X29.166 Y260.109 Z-0.906
X28.796 Y260.079 Z-0.929
X28.426 Y260.043 Z-0.956
X27.84 Y259.981 Z-1.006
X27.663 Y259.961 Z-1.024
X27.538 Y259.94 Z-1.042
X27.408 Y259.912 Z-1.067
X27.283 Y259.879 Z-1.098
X27.158 Y259.84 Z-1.135
X27.033 Y259.795 Z-1.179
X26.909 Y259.743 Z-1.228
X26.784 Y259.685 Z-1.284
X26.66 Y259.621 Z-1.347
X26.536 Y259.55 Z-1.415
X26.404 Y259.469 Z-1.494
X26.28 Y259.385 Z-1.576
X26.156 Y259.296 Z-1.664
X26.031 Y259.2 Z-1.759
X25.907 Y259.098 Z-1.859
X25.783 Y258.989 Z-1.966
X25.583 Y258.801 Z-2.152
X24.593 Y257.833 Z-3.112
X24.608 Y257.488 Z-3.087
X24.618 Y257.108 Z-3.065
X24.624 Y256.743 Z-3.048
X24.626 Y256.437 Z-3.037
Y255.919 Z-3.023
Y254.995 Z-2.998
X24.63 Y253.568 Z-2.96
X24.633 Y252.582 Z-2.938
X24.635 Y251.449 Z-2.917
X24.637 Y250.175 Z-2.901
X24.636 Y248.905 Z-2.89
X24.633 Y247.29 Z-2.881
X24.638 Y246.389 Z-2.886
X24.648 Y244.706 Z-2.899
X24.656 Y243.016 Z-2.916
X24.661 Y241.751 Z-2.934
X24.664 Y240.318 Z-2.959
X24.665 Y238.041 Z-3.006
X24.667 Y237.373 Z-3.018
X24.668 Y237.006 Z-3.023
X24.665 Y236.507 Z-3.031
X24.662 Y235.996 Z-3.042
X24.659 Y235.537 Z-3.059
X24.654 Y235.104 Z-3.08
X24.651 Y234.732 Z-3.105
X24.647 Y234.396 Z-3.132
X24.643 Y234.067 Z-3.164
X24.313 Y233.771 Z-2.871
X23.905 Y233.41 Z-2.517
X23.331 Y232.905 Z-2.021
X23.192 Y232.788 Z-1.906
X23.047 Y232.673 Z-1.793
X22.899 Y232.563 Z-1.686
X22.678 Y232.416 Z-1.543
X22.532 Y232.324 Z-1.453
X22.384 Y232.236 Z-1.368
X22.249 Y232.159 Z-1.295
X22.165 Y232.115 Z-1.251
X21.994 Y232.031 Z-1.171
X21.875 Y231.977 Z-1.12
X21.757 Y231.929 Z-1.073
X21.629 Y231.881 Z-1.028
X21.479 Y231.829 Z-0.979
X21.327 Y231.781 Z-0.934
X21.234 Y231.755 Z-0.91
X21.142 Y231.733 Z-0.89
X21.05 Y231.715 Z-0.874
X20.964 Y231.701 Z-0.862
X20.447 Y231.632 Z-0.804
X20.173 Y231.599 Z-0.777
X19.891 Y231.568 Z-0.752
X19.61 Y231.541 Z-0.732
X19.337 Y231.519 Z-0.716
X19.04 Y231.499 Z-0.703
X18.799 Y231.485 Z-0.694
X18.663 Y231.478 Z-0.69
X18.121 Y231.984 Z-0.148
X17.973 Y232.124 Z0
X18.121 Y231.984 Z-0.148
X18.663 Y231.478 Z-0.69
X17.973 Y230.772 Z-0.001
X18.663 Y231.478 Z-0.69
X18.799 Y231.485 Z-0.694
X19.04 Y231.499 Z-0.703
X19.337 Y231.519 Z-0.716
X19.61 Y231.541 Z-0.732
X19.891 Y231.568 Z-0.752
X20.173 Y231.599 Z-0.777
X20.447 Y231.632 Z-0.804
X20.964 Y231.701 Z-0.862
X21.05 Y231.715 Z-0.874
X21.142 Y231.733 Z-0.89
X21.234 Y231.755 Z-0.91
X21.327 Y231.781 Z-0.934
X21.479 Y231.829 Z-0.979
X21.629 Y231.881 Z-1.028
X21.757 Y231.929 Z-1.073
X21.875 Y231.977 Z-1.12
X21.994 Y232.031 Z-1.171
X22.165 Y232.115 Z-1.251
X22.249 Y232.159 Z-1.295
X22.384 Y232.236 Z-1.368
X22.532 Y232.324 Z-1.453
X22.678 Y232.416 Z-1.543
X22.899 Y232.563 Z-1.686
X23.047 Y232.673 Z-1.793
X23.192 Y232.788 Z-1.906
X23.331 Y232.905 Z-2.021
X23.905 Y233.41 Z-2.517
X24.313 Y233.771 Z-2.871
X24.643 Y234.067 Z-3.164
X25.049 Y233.706 Z-2.797
X25.474 Y233.332 Z-2.416
X25.799 Y233.046 Z-2.127
X25.926 Y232.935 Z-2.017
X26.053 Y232.831 Z-1.914
X26.189 Y232.726 Z-1.81
X26.409 Y232.57 Z-1.656
X26.603 Y232.439 Z-1.527
X26.74 Y232.352 Z-1.442
X26.904 Y232.254 Z-1.346
X27.031 Y232.184 Z-1.277
X27.145 Y232.125 Z-1.219
X27.286 Y232.058 Z-1.154
X27.422 Y231.999 Z-1.096
X27.559 Y231.945 Z-1.044
X27.693 Y231.896 Z-0.997
X27.844 Y231.847 Z-0.95
X27.965 Y231.809 Z-0.915
X28.055 Y231.785 Z-0.891
X28.146 Y231.764 Z-0.872
X28.241 Y231.747 Z-0.856
X28.347 Y231.732 Z-0.843
X28.831 Y231.676 Z-0.797
X29.327 Y231.622 Z-0.756
X29.665 Y231.589 Z-0.732
X30.003 Y231.561 Z-0.713
X30.34 Y231.536 Z-0.699
X30.828 Y231.506 Z-0.686
X31.255 Y231.484 Z-0.678
X31.385 Y231.478 Z-0.677
X31.819 Y231.889 Z-0.244
X32.062 Y232.121 Z0
X31.819 Y231.889 Z-0.244
X31.385 Y231.478 Z-0.677
X32.062 Y230.776 Z-0.001
G0 Z5
X45.329 Y261.084
G1 Z0 F850
X46.027 Y260.361 Z-0.698
X45.606 Y259.981 Z-0.278
X45.329 Y259.727 Z-0.001
X45.606 Y259.981 Z-0.278
X46.027 Y260.361 Z-0.698
X46.148 Y260.352 Z-0.703
X46.513 Y260.323 Z-0.721
X46.915 Y260.284 Z-0.747
X47.188 Y260.253 Z-0.769
X47.461 Y260.218 Z-0.796
X47.847 Y260.163 Z-0.839
X48.224 Y260.106 Z-0.886
X48.346 Y260.084 Z-0.905
X48.466 Y260.056 Z-0.93
X48.544 Y260.034 Z-0.95
X48.636 Y260.005 Z-0.977
X48.747 Y259.968 Z-1.012
X48.913 Y259.907 Z-1.068
X49.066 Y259.846 Z-1.127
X49.204 Y259.784 Z-1.186
X49.328 Y259.723 Z-1.244
X49.446 Y259.661 Z-1.303
X49.588 Y259.58 Z-1.382
X49.733 Y259.493 Z-1.466
X49.884 Y259.395 Z-1.561
X50.093 Y259.253 Z-1.7
X50.179 Y259.191 Z-1.761
X50.299 Y259.098 Z-1.851
X50.42 Y259 Z-1.947
X50.903 Y258.587 Z-2.352
X50.982 Y258.519 Z-2.42
X51.599 Y258.001 Z-2.946
X51.89 Y257.753 Z-3.199
X51.917 Y257.252 Z-3.161
X51.938 Y256.738 Z-3.128
X51.952 Y256.235 Z-3.102
X51.962 Y255.744 Z-3.082
X51.967 Y255.265 Z-3.067
X51.968 Y254.583 Z-3.05
X51.965 Y253.897 Z-3.038
X51.96 Y252.707 Z-3.017
X51.946 Y249.605 Z-2.961
X51.933 Y247.66 Z-2.93
X51.917 Y245.719 Z-2.903
X51.901 Y244.001 Z-2.882
X51.906 Y242.195 Z-2.9
X51.911 Y241.28 Z-2.914
X51.917 Y240.358 Z-2.933
X51.925 Y239.442 Z-2.957
X51.939 Y238.227 Z-2.995
X51.973 Y235.415 Z-3.092
X51.976 Y235.059 Z-3.113
X51.979 Y234.694 Z-3.14
X51.98 Y234.317 Z-3.174
X51.981 Y234.114 Z-3.196
X52.279 Y233.85 Z-2.933
X52.658 Y233.52 Z-2.605
X53.132 Y233.112 Z-2.201
X53.535 Y232.77 Z-1.864
X53.68 Y232.657 Z-1.751
X53.824 Y232.551 Z-1.647
X53.969 Y232.454 Z-1.552
X54.165 Y232.335 Z-1.435
X54.346 Y232.234 Z-1.336
X54.519 Y232.143 Z-1.247
X54.704 Y232.053 Z-1.16
X54.845 Y231.991 Z-1.101
X54.983 Y231.936 Z-1.048
X55.11 Y231.89 Z-1.005
X55.214 Y231.855 Z-0.972
X55.383 Y231.804 Z-0.925
X55.525 Y231.764 Z-0.888
X55.582 Y231.75 Z-0.874
X55.693 Y231.725 Z-0.852
X55.872 Y231.697 Z-0.828
X56.329 Y231.634 Z-0.776
X56.611 Y231.597 Z-0.748
X56.884 Y231.566 Z-0.725
X57.164 Y231.538 Z-0.707
X57.444 Y231.515 Z-0.693
X57.724 Y231.496 Z-0.683
X58.128 Y231.474 Z-0.675
X58.803 Y230.775 Z0
X58.128 Y231.474 Z-0.675
X58.529 Y231.855 Z-0.274
X58.803 Y232.12 Z0
X58.529 Y231.855 Z-0.274
X58.128 Y231.474 Z-0.675
X57.724 Y231.496 Z-0.683
X57.444 Y231.515 Z-0.693
X57.164 Y231.538 Z-0.707
X56.884 Y231.566 Z-0.725
X56.611 Y231.597 Z-0.748
X56.329 Y231.634 Z-0.776
X55.872 Y231.697 Z-0.828
X55.693 Y231.725 Z-0.852
X55.582 Y231.75 Z-0.874
X55.525 Y231.764 Z-0.888
X55.383 Y231.804 Z-0.925
X55.214 Y231.855 Z-0.972
X55.11 Y231.89 Z-1.005
X54.983 Y231.936 Z-1.048
X54.845 Y231.991 Z-1.101
X54.704 Y232.053 Z-1.16
X54.519 Y232.143 Z-1.247
X54.346 Y232.234 Z-1.336
X54.165 Y232.335 Z-1.435
X53.969 Y232.454 Z-1.552
X53.824 Y232.551 Z-1.647
X53.68 Y232.657 Z-1.751
X53.535 Y232.77 Z-1.864
X53.132 Y233.112 Z-2.201
X52.658 Y233.52 Z-2.605
X52.279 Y233.85 Z-2.933
X51.981 Y234.114 Z-3.196
X51.613 Y233.788 Z-2.871
X51.26 Y233.481 Z-2.567
X50.875 Y233.152 Z-2.241
X50.382 Y232.738 Z-1.831
X50.289 Y232.664 Z-1.759
X50.145 Y232.557 Z-1.653
X49.943 Y232.421 Z-1.519
X49.809 Y232.336 Z-1.436
X49.706 Y232.273 Z-1.374
X49.582 Y232.201 Z-1.304
X49.418 Y232.112 Z-1.218
X49.34 Y232.073 Z-1.18
X49.182 Y231.999 Z-1.109
X49.044 Y231.941 Z-1.053
X48.902 Y231.887 Z-1.002
X48.745 Y231.833 Z-0.951
X48.654 Y231.804 Z-0.924
X48.538 Y231.77 Z-0.893
X48.445 Y231.748 Z-0.873
X48.352 Y231.73 Z-0.856
X48.249 Y231.714 Z-0.843
X47.749 Y231.65 Z-0.792
X47.478 Y231.617 Z-0.767
X47.208 Y231.587 Z-0.745
X46.939 Y231.56 Z-0.727
X46.678 Y231.537 Z-0.714
X46.408 Y231.516 Z-0.702
X46.018 Y231.49 Z-0.689
X45.329 Y230.776 Z-0.001
X46.018 Y231.49 Z-0.689
X45.342 Y232.115 Z-0.014
X45.329 Y232.127 Z0
X45.342 Y232.115 Z-0.014
X46.018 Y231.49 Z-0.689
X46.408 Y231.516 Z-0.702
X46.678 Y231.537 Z-0.714
X46.939 Y231.56 Z-0.727
X47.208 Y231.587 Z-0.745
X47.478 Y231.617 Z-0.767
X47.749 Y231.65 Z-0.792
X48.249 Y231.714 Z-0.843
X48.352 Y231.73 Z-0.856
X48.445 Y231.748 Z-0.873
X48.538 Y231.77 Z-0.893
X48.654 Y231.804 Z-0.924
X48.745 Y231.833 Z-0.951
X48.902 Y231.887 Z-1.002
X49.044 Y231.941 Z-1.053
X49.182 Y231.999 Z-1.109
X49.34 Y232.073 Z-1.18
X49.418 Y232.112 Z-1.218
X49.582 Y232.201 Z-1.304
X49.706 Y232.273 Z-1.374
X49.809 Y232.336 Z-1.436
X49.943 Y232.421 Z-1.519
X50.145 Y232.557 Z-1.653
X50.289 Y232.664 Z-1.759
X50.382 Y232.738 Z-1.831
X50.875 Y233.152 Z-2.241
X51.26 Y233.481 Z-2.567
X51.613 Y233.788 Z-2.871
X51.981 Y234.114 Z-3.196
X51.98 Y234.317 Z-3.174
X51.979 Y234.694 Z-3.14
X51.976 Y235.059 Z-3.113
X51.973 Y235.415 Z-3.092
X51.939 Y238.227 Z-2.995
X51.925 Y239.442 Z-2.957
X51.917 Y240.358 Z-2.933
X51.911 Y241.28 Z-2.914
X51.906 Y242.195 Z-2.9
X51.901 Y244.001 Z-2.882
X51.917 Y245.719 Z-2.903
X51.933 Y247.66 Z-2.93
X51.946 Y249.605 Z-2.961
X51.96 Y252.707 Z-3.017
X51.965 Y253.897 Z-3.038
X51.968 Y254.583 Z-3.05
X51.967 Y255.265 Z-3.067
X51.962 Y255.744 Z-3.082
X51.952 Y256.235 Z-3.102
X51.938 Y256.738 Z-3.128
X51.917 Y257.252 Z-3.161
X51.89 Y257.753 Z-3.199
X52.949 Y258.804 Z-2.163
X53.084 Y258.933 Z-2.035
X53.218 Y259.056 Z-1.915
X53.353 Y259.17 Z-1.802
X53.488 Y259.278 Z-1.697
X53.623 Y259.378 Z-1.599
X53.758 Y259.47 Z-1.508
X53.893 Y259.555 Z-1.425
X54.028 Y259.633 Z-1.349
X54.163 Y259.703 Z-1.281
X54.299 Y259.766 Z-1.22
X54.434 Y259.821 Z-1.167
X54.57 Y259.869 Z-1.121
X54.706 Y259.909 Z-1.082
X54.842 Y259.943 Z-1.051
X54.978 Y259.968 Z-1.027
X55.114 Y259.986 Z-1.011
X55.25 Y259.997 Z-1.002
X56.057 Y260.037 Z-0.973
X56.751 Y260.065 Z-0.955
X57.109 Y260.076 Z-0.949
X57.793 Y260.092 Z-0.943
X58.088 Y260.096
X58.532 Y260.091 Z-0.954
X58.987 Y260.083 Z-0.968
X59.459 Y260.068 Z-0.99
X59.694 Y260.057 Z-1.004
X59.94 Y260.042 Z-1.022
X60.188 Y260.024 Z-1.044
X60.442 Y260.001 Z-1.071
X60.703 Y259.973 Z-1.103
X60.966 Y259.939 Z-1.14
X61.244 Y259.897 Z-1.186
X61.512 Y259.85 Z-1.237
X61.78 Y259.796 Z-1.294
X62.051 Y259.737 Z-1.356
X62.385 Y259.653 Z-1.439
X62.598 Y259.596 Z-1.495
X62.811 Y259.536 Z-1.551
X63.221 Y259.412 Z-1.666
X63.497 Y259.323 Z-1.743
X63.8 Y259.222 Z-1.828
X63.982 Y259.158 Z-1.878
X64.072 Y259.123 Z-1.904
X64.161 Y259.086 Z-1.933
X64.332 Y259.008 Z-1.992
X64.552 Y258.891 Z-2.078
X64.745 Y258.779 Z-2.157
X64.964 Y258.647 Z-2.247
X65.148 Y258.532 Z-2.32
X65.447 Y258.335 Z-2.442
X65.614 Y258.221 Z-2.51
X65.807 Y258.084 Z-2.591
X66.079 Y257.885 Z-2.71
X66.155 Y257.814 Z-2.737
X66.28 Y257.694 Z-2.783
X66.44 Y257.533 Z-2.843
X66.507 Y257.459 Z-2.868
X66.584 Y257.37 Z-2.895
X66.628 Y257.313 Z-2.908
X66.69 Y257.224 Z-2.925
X66.769 Y257.101 Z-2.945
X66.868 Y256.938 Z-2.969
X66.989 Y256.721 Z-3.002
X67.053 Y256.573 Z-3.012
X67.147 Y256.342 Z-3.028
X67.213 Y256.162 Z-3.041
X67.263 Y256.017 Z-3.049
X67.291 Y255.918 Z-3.053
X67.313 Y255.832 Z-3.054
X67.339 Y255.711 Z-3.051
X67.366 Y255.554 Z-3.046
X67.394 Y255.367 Z-3.038
X67.417 Y255.18 Z-3.029
X67.448 Y254.88 Z-3.016
X67.452 Y254.686 Z-2.998
X67.455 Y254.503 Z-2.981
X67.453 Y254.17 Z-2.949
X67.445 Y253.887 Z-2.921
X67.431 Y253.646 Z-2.892
X67.414 Y253.456 Z-2.863
X67.403 Y253.377 Z-2.85
X67.391 Y253.298 Z-2.836
X67.373 Y253.212 Z-2.82
X67.342 Y253.08 Z-2.795
X67.321 Y253.001 Z-2.78
X67.247 Y252.743 Z-2.724
X67.151 Y252.435 Z-2.652
X67.049 Y252.129 Z-2.578
X67.002 Y251.993 Z-2.546
X66.9 Y251.784 Z-2.469
X66.778 Y251.54 Z-2.381
X66.632 Y251.262 Z-2.281
X66.475 Y250.981 Z-2.182
X66.36 Y250.786 Z-2.113
X66.307 Y250.699 Z-2.083
X66.129 Y250.424 Z-1.985
X66.001 Y250.24 Z-1.919
X65.932 Y250.145 Z-1.885
X65.796 Y249.969 Z-1.819
X65.678 Y249.827 Z-1.766
X65.501 Y249.625 Z-1.688
X65.281 Y249.396 Z-1.598
X65.121 Y249.24 Z-1.537
X65.04 Y249.164 Z-1.508
X64.841 Y248.985 Z-1.438
X64.63 Y248.805 Z-1.367
X64.414 Y248.63 Z-1.299
X64.211 Y248.472 Z-1.239
X64.006 Y248.317 Z-1.18
X63.617 Y248.033 Z-1.073
X63.388 Y247.87 Z-1.013
X63.312 Y247.813 Z-0.995
X63.238 Y247.754 Z-0.98
X63.178 Y247.703 Z-0.971
X63.107 Y247.645 Z-0.968
X63.061 Y247.606 Z-0.97
X62.99 Y247.544 Z-0.976
X62.916 Y247.475 Z-0.987
X62.85 Y247.408 Z-1.001
X62.78 Y247.332 Z-1.02
X62.718 Y247.259 Z-1.042
X62.652 Y247.176 Z-1.07
X62.594 Y247.097 Z-1.1
X62.525 Y246.995 Z-1.142
X62.471 Y246.91 Z-1.18
X62.405 Y246.798 Z-1.235
X62.355 Y246.707 Z-1.282
X62.292 Y246.583 Z-1.349
X62.246 Y246.485 Z-1.406
X62.179 Y246.331 Z-1.5
X62.136 Y246.225 Z-1.567
X62.074 Y246.061 Z-1.675
X62.034 Y245.948 Z-1.753
X61.966 Y245.735 Z-1.904
X61.928 Y245.612 Z-1.995
X61.86 Y245.364 Z-2.183
X61.749 Y244.955 Z-2.501
X61.613 Y244.496 Z-2.868
X61.606 Y244.472 Z-2.888
X61.234 Y244.591 Z-2.643
X60.902 Y244.705 Z-2.428
X60.585 Y244.821 Z-2.227
X60.283 Y244.937 Z-2.039
X60.02 Y245.043 Z-1.877
X59.764 Y245.149 Z-1.722
X59.515 Y245.256 Z-1.573
X59.071 Y245.453 Z-1.311
X58.654 Y245.645 Z-1.067
X58.358 Y245.784 Z-0.896
X58.193 Y245.874 Z-0.809
X57.588 Y246.224 Z-0.495
X57.46 Y246.301 Z-0.431
X57.319 Y246.539 Z-0.21
X57.179 Y246.767 Z0
X57.319 Y246.539 Z-0.21
X57.46 Y246.301 Z-0.431
X57.269 Y246.286 Z-0.263
X56.968 Y246.266 Z-0.001
X57.269 Y246.286 Z-0.263
X57.46 Y246.301 Z-0.431
X57.588 Y246.224 Z-0.495
X58.193 Y245.874 Z-0.809
X58.358 Y245.784 Z-0.896
X58.654 Y245.645 Z-1.067
X59.071 Y245.453 Z-1.311
X59.515 Y245.256 Z-1.573
X59.764 Y245.149 Z-1.722
X60.02 Y245.043 Z-1.877
X60.283 Y244.937 Z-2.039
X60.585 Y244.821 Z-2.227
X60.902 Y244.705 Z-2.428
X61.234 Y244.591 Z-2.643
X61.606 Y244.472 Z-2.888
X63.834 Y241.1 Z-2.895
X64.32 Y240.362 Z-2.898
X65.775 Y238.153 Z-2.908
X66.747 Y236.682 Z-2.923
X67.722 Y235.201 Z-2.943
X68.65 Y233.786 Z-2.965
X68.053 Y232.659 Z-1.856
X67.054 Y230.771 Z-0.001
X68.053 Y232.659 Z-1.856
X68.65 Y233.786 Z-2.965
X69.861 Y233.161 Z-2.311
X70.278 Y232.944 Z-2.086
X70.514 Y232.828 Z-1.966
X70.938 Y232.625 Z-1.756
X71.261 Y232.474 Z-1.601
X71.499 Y232.367 Z-1.491
X71.735 Y232.264 Z-1.386
X71.998 Y232.155 Z-1.273
X72.221 Y232.067 Z-1.184
X72.461 Y231.978 Z-1.092
X72.86 Y231.837 Z-0.948
X73.127 Y231.746 Z-0.856
X73.197 Y231.726 Z-0.835
X73.291 Y231.703 Z-0.811
X73.456 Y231.671 Z-0.778
X73.71 Y231.628 Z-0.733
X73.962 Y231.59 Z-0.694
X74.143 Y231.567 Z-0.669
X74.252 Y231.555 Z-0.656
X74.431 Y231.54 Z-0.638
X74.52 Y231.535 Z-0.631
X74.707 Y231.701 Z-0.443
X74.951 Y231.927 Z-0.199
X75.15 Y232.118 Z0
X74.951 Y231.927 Z-0.199
X74.707 Y231.701 Z-0.443
X74.52 Y231.535 Z-0.631
X75.15 Y230.915 Z0
G0 Z5
X77.826 Y230.771
G1 Z0 F850
X78.502 Y231.461 Z-0.676
X78.328 Y231.629 Z-0.502
X77.873 Y232.07 Z-0.047
X77.826 Y232.116 Z0
X77.873 Y232.07 Z-0.047
X78.328 Y231.629 Z-0.502
X78.502 Y231.461 Z-0.676
X78.944 Y231.48 Z-0.685
X79.259 Y231.498 Z-0.697
X79.579 Y231.521 Z-0.713
X79.763 Y231.537 Z-0.726
X80.071 Y231.569 Z-0.751
X80.4 Y231.611 Z-0.786
X80.724 Y231.658 Z-0.826
X81.042 Y231.709 Z-0.871
X81.346 Y231.759 Z-0.915
X81.477 Y231.785 Z-0.939
X81.608 Y231.819 Z-0.97
X81.739 Y231.86 Z-1.008
X81.87 Y231.909 Z-1.054
X82 Y231.966 Z-1.108
X82.13 Y232.03 Z-1.169
X82.26 Y232.101 Z-1.238
X82.343 Y232.149 Z-1.285
X82.61 Y232.307 Z-1.436
X82.83 Y232.443 Z-1.568
X83.012 Y232.56 Z-1.682
X83.162 Y232.662 Z-1.78
X83.318 Y232.772 Z-1.887
X83.473 Y232.885 Z-1.997
X83.64 Y233.013 Z-2.121
X83.792 Y233.134 Z-2.239
X83.949 Y233.262 Z-2.364
X84.164 Y233.446 Z-2.543
X84.371 Y233.629 Z-2.722
X84.58 Y233.821 Z-2.909
X84.785 Y234.013 Z-3.097
X85.018 Y233.816 Z-2.897
X85.278 Y233.597 Z-2.679
X85.667 Y233.274 Z-2.359
X86.104 Y232.918 Z-2.007
X86.478 Y232.617 Z-1.711
X86.566 Y232.551 Z-1.646
X86.654 Y232.488 Z-1.585
X86.743 Y232.429 Z-1.526
X86.85 Y232.361 Z-1.459
X86.938 Y232.308 Z-1.408
X87.105 Y232.215 Z-1.319
X87.244 Y232.142 Z-1.248
X87.405 Y232.062 Z-1.171
X87.54 Y232 Z-1.112
X87.623 Y231.964 Z-1.078
X87.771 Y231.905 Z-1.024
X87.884 Y231.864 Z-0.986
X88.014 Y231.822 Z-0.948
X88.13 Y231.789 Z-0.917
X88.235 Y231.761 Z-0.892
X88.41 Y231.719 Z-0.856
X88.507 Y231.698 Z-0.838
X88.592 Y231.681 Z-0.824
X88.726 Y231.662 Z-0.809
X89.125 Y231.619 Z-0.778
X89.523 Y231.579 Z-0.751
X89.801 Y231.555 Z-0.734
X90.213 Y231.524 Z-0.713
X90.611 Y231.499 Z-0.699
X91.03 Y231.478 Z-0.688
X91.144 Y231.584 Z-0.574
X91.718 Y232.125 Z0
X91.144 Y231.584 Z-0.574
X91.03 Y231.478 Z-0.688
X91.718 Y230.773 Z0
X91.03 Y231.478 Z-0.688
X90.611 Y231.499 Z-0.699
X90.213 Y231.524 Z-0.713
X89.801 Y231.555 Z-0.734
X89.523 Y231.579 Z-0.751
X89.125 Y231.619 Z-0.778
X88.726 Y231.662 Z-0.809
X88.592 Y231.681 Z-0.824
X88.507 Y231.698 Z-0.838
X88.41 Y231.719 Z-0.856
X88.235 Y231.761 Z-0.892
X88.13 Y231.789 Z-0.917
X88.014 Y231.822 Z-0.948
X87.884 Y231.864 Z-0.986
X87.771 Y231.905 Z-1.024
X87.623 Y231.964 Z-1.078
X87.54 Y232 Z-1.112
X87.405 Y232.062 Z-1.171
X87.244 Y232.142 Z-1.248
X87.105 Y232.215 Z-1.319
X86.938 Y232.308 Z-1.408
X86.85 Y232.361 Z-1.459
X86.743 Y232.429 Z-1.526
X86.654 Y232.488 Z-1.585
X86.566 Y232.551 Z-1.646
X86.478 Y232.617 Z-1.711
X86.104 Y232.918 Z-2.007
X85.667 Y233.274 Z-2.359
X85.278 Y233.597 Z-2.679
X85.018 Y233.816 Z-2.897
X84.785 Y234.013 Z-3.097
X84.784 Y234.058 Z-3.093
X84.776 Y234.27 Z-3.072
X84.763 Y234.625 Z-3.045
X84.753 Y235.057 Z-3.019
X84.748 Y235.475 Z-2.999
Y235.901 Z-2.984
X84.752 Y236.45 Z-2.969
X84.762 Y237.142 Z-2.957
X84.773 Y238.577 Z-2.929
X84.777 Y239.498 Z-2.915
X84.779 Y240.873 Z-2.899
X84.778 Y242.115 Z-2.89
X84.776 Y243.608 Z-2.884
X84.773 Y245.416 Z-2.882
X84.765 Y247.997 Z-2.888
X84.757 Y249.811 Z-2.895
X84.749 Y251.248 Z-2.903
X84.745 Y252.335 Z-2.914
X84.744 Y253.149 Z-2.924
X84.746 Y254.166 Z-2.942
X84.754 Y254.745 Z-2.951
X84.765 Y255.493 Z-2.965
X84.771 Y256.003 Z-2.98
X84.775 Y256.483 Z-2.996
X84.776 Y257.064 Z-3.022
X84.773 Y257.474 Z-3.044
X84.768 Y257.872 Z-3.068
X84.929 Y258.021 Z-2.921
X85.194 Y258.26 Z-2.682
X85.425 Y258.462 Z-2.481
X85.659 Y258.66 Z-2.285
X85.852 Y258.816 Z-2.129
X85.993 Y258.925 Z-2.021
X86.133 Y259.031 Z-1.916
X86.268 Y259.128 Z-1.82
X86.426 Y259.237 Z-1.712
X86.559 Y259.326 Z-1.625
X86.714 Y259.423 Z-1.529
X86.833 Y259.495 Z-1.459
X87.004 Y259.592 Z-1.363
X87.195 Y259.696 Z-1.261
X87.425 Y259.815 Z-1.145
X87.559 Y259.882 Z-1.08
X87.632 Y259.915 Z-1.048
X87.735 Y259.958 Z-1.007
X87.838 Y259.996 Z-0.97
X87.945 Y260.031 Z-0.937
X88.048 Y260.059 Z-0.911
X88.152 Y260.083 Z-0.89
X88.272 Y260.104 Z-0.871
X88.723 Y260.17 Z-0.814
X89.187 Y260.234 Z-0.762
X89.507 Y260.272 Z-0.733
X89.812 Y260.303 Z-0.712
X89.988 Y260.319 Z-0.702
X90.3 Y260.342 Z-0.689
X90.605 Y260.362 Z-0.68
X90.905 Y260.378 Z-0.675
X91.045 Y260.385 Z-0.673
X91.718 Y261.083 Z0
X91.045 Y260.385 Z-0.673
X91.218 Y260.221 Z-0.5
X91.718 Y259.74 Z0
X91.218 Y260.221 Z-0.5
X91.045 Y260.385 Z-0.673
X90.905 Y260.378 Z-0.675
X90.605 Y260.362 Z-0.68
X90.3 Y260.342 Z-0.689
X89.988 Y260.319 Z-0.702
X89.812 Y260.303 Z-0.712
X89.507 Y260.272 Z-0.733
X89.187 Y260.234 Z-0.762
X88.723 Y260.17 Z-0.814
X88.272 Y260.104 Z-0.871
X88.152 Y260.083 Z-0.89
X88.048 Y260.059 Z-0.911
X87.945 Y260.031 Z-0.937
X87.838 Y259.996 Z-0.97
X87.735 Y259.958 Z-1.007
X87.632 Y259.915 Z-1.048
X87.559 Y259.882 Z-1.08
X87.425 Y259.815 Z-1.145
X87.195 Y259.696 Z-1.261
X87.004 Y259.592 Z-1.363
X86.833 Y259.495 Z-1.459
X86.714 Y259.423 Z-1.529
X86.559 Y259.326 Z-1.625
X86.426 Y259.237 Z-1.712
X86.268 Y259.128 Z-1.82
X86.133 Y259.031 Z-1.916
X85.993 Y258.925 Z-2.021
X85.852 Y258.816 Z-2.129
X85.659 Y258.66 Z-2.285
X85.425 Y258.462 Z-2.481
X85.194 Y258.26 Z-2.682
X84.929 Y258.021 Z-2.921
X84.768 Y257.872 Z-3.068
X84.353 Y258.253 Z-2.687
X83.709 Y258.843 Z-2.104
X83.608 Y258.93 Z-2.018
X83.465 Y259.046 Z-1.903
X83.315 Y259.16 Z-1.791
X83.229 Y259.222 Z-1.73
X83.019 Y259.363 Z-1.592
X82.864 Y259.462 Z-1.495
X82.72 Y259.55 Z-1.408
X82.56 Y259.641 Z-1.319
X82.452 Y259.7 Z-1.263
X82.292 Y259.779 Z-1.186
X82.166 Y259.837 Z-1.13
X82.011 Y259.901 Z-1.069
X81.879 Y259.951 Z-1.021
X81.72 Y260.006 Z-0.969
X81.582 Y260.05 Z-0.927
X81.489 Y260.078 Z-0.901
X81.395 Y260.102 Z-0.879
X81.301 Y260.122 Z-0.861
X81.229 Y260.135 Z-0.85
X81.157 Y260.145 Z-0.842
X80.581 Y260.215 Z-0.785
X80.279 Y260.25 Z-0.758
X79.97 Y260.282 Z-0.735
X79.663 Y260.309 Z-0.716
X79.362 Y260.332 Z-0.703
X78.988 Y260.357 Z-0.69
X78.62 Y260.377 Z-0.681
X78.506 Y260.382 Z-0.68
X78.168 Y260.063 Z-0.342
X77.826 Y259.736 Z0
X78.168 Y260.063 Z-0.342
X78.506 Y260.382 Z-0.68
X77.826 Y261.084 Z0
G0 Z5
X94.081
G1 Z0 F850
X94.776 Y260.367 Z-0.694
X94.632 Y260.237 Z-0.551
X94.225 Y259.863 Z-0.144
X94.082 Y259.73 Z0
X94.225 Y259.863 Z-0.144
X94.632 Y260.237 Z-0.551
X94.776 Y260.367 Z-0.694
X95.15 Y260.339 Z-0.71
X95.421 Y260.314 Z-0.726
X95.693 Y260.285 Z-0.747
X95.966 Y260.252 Z-0.772
X96.24 Y260.213 Z-0.803
X96.514 Y260.169 Z-0.839
X96.985 Y260.09 Z-0.906
X97.109 Y260.067 Z-0.926
X97.205 Y260.044 Z-0.947
X97.302 Y260.017 Z-0.971
X97.41 Y259.982 Z-1.004
X97.515 Y259.944 Z-1.04
X97.619 Y259.9 Z-1.081
X97.873 Y259.788 Z-1.188
X98.164 Y259.656 Z-1.315
X98.393 Y259.547 Z-1.421
X98.572 Y259.456 Z-1.509
X98.778 Y259.347 Z-1.616
X98.95 Y259.252 Z-1.709
X99.168 Y259.125 Z-1.832
X99.397 Y258.987 Z-1.967
X99.637 Y258.838 Z-2.114
X101.298 Y257.761 Z-3.179
X101.495 Y257.988 Z-2.951
X101.634 Y258.142 Z-2.798
X101.774 Y258.289 Z-2.652
X101.913 Y258.429 Z-2.513
X102.062 Y258.571 Z-2.372
X102.302 Y258.785 Z-2.161
X102.458 Y258.918 Z-2.029
X102.645 Y259.071 Z-1.877
X102.761 Y259.162 Z-1.788
X102.899 Y259.264 Z-1.686
X103.015 Y259.348 Z-1.604
X103.183 Y259.46 Z-1.493
X103.3 Y259.534 Z-1.421
X103.471 Y259.635 Z-1.323
X103.646 Y259.726 Z-1.233
X103.746 Y259.775 Z-1.185
X103.887 Y259.839 Z-1.124
X104.026 Y259.895 Z-1.07
X104.155 Y259.943 Z-1.024
X104.304 Y259.994 Z-0.976
X104.473 Y260.046 Z-0.927
X104.588 Y260.079 Z-0.897
X104.68 Y260.103 Z-0.874
X104.773 Y260.123 Z-0.856
X104.87 Y260.14 Z-0.841
X105.049 Y260.164 Z-0.822
X105.317 Y260.198 Z-0.795
X105.732 Y260.249 Z-0.756
X106.01 Y260.278 Z-0.735
X106.288 Y260.305 Z-0.717
X106.566 Y260.328 Z-0.704
X106.844 Y260.348 Z-0.693
X107.281 Y260.375 Z-0.682
X107.963 Y261.083 Z0
X107.281 Y260.375 Z-0.682
X107.804 Y259.884 Z-0.159
X107.963 Y259.734 Z0
X107.804 Y259.884 Z-0.159
X107.281 Y260.375 Z-0.682
X106.844 Y260.348 Z-0.693
X106.566 Y260.328 Z-0.704
X106.288 Y260.305 Z-0.717
X106.01 Y260.278 Z-0.735
X105.732 Y260.249 Z-0.756
X105.317 Y260.198 Z-0.795
X105.049 Y260.164 Z-0.822
X104.87 Y260.14 Z-0.841
X104.773 Y260.123 Z-0.856
X104.68 Y260.103 Z-0.874
X104.588 Y260.079 Z-0.897
X104.473 Y260.046 Z-0.927
X104.304 Y259.994 Z-0.976
X104.155 Y259.943 Z-1.024
X104.026 Y259.895 Z-1.07
X103.887 Y259.839 Z-1.124
X103.746 Y259.775 Z-1.185
X103.646 Y259.726 Z-1.233
X103.471 Y259.635 Z-1.323
X103.3 Y259.534 Z-1.421
X103.183 Y259.46 Z-1.493
X103.015 Y259.348 Z-1.604
X102.899 Y259.264 Z-1.686
X102.761 Y259.162 Z-1.788
X102.645 Y259.071 Z-1.877
X102.458 Y258.918 Z-2.029
X102.302 Y258.785 Z-2.161
X102.062 Y258.571 Z-2.372
X101.913 Y258.429 Z-2.513
X101.774 Y258.289 Z-2.652
X101.634 Y258.142 Z-2.798
X101.495 Y257.988 Z-2.951
X101.298 Y257.761 Z-3.179
X101.361 Y257.568 Z-3.157
X101.453 Y257.309 Z-3.134
X101.729 Y256.541 Z-3.072
X101.903 Y256.071 Z-3.038
X102.001 Y255.808 Z-3.021
X102.185 Y255.326 Z-2.995
X102.374 Y254.845 Z-2.975
X102.583 Y254.325 Z-2.959
X102.756 Y253.9 Z-2.95
X103.04 Y253.218 Z-2.941
X103.404 Y252.353 Z-2.939
X103.656 Y251.756 Z-2.937
X104.41 Y249.937 Z-2.93
X109.847 Y236.8 Z-2.888
X109.933 Y236.602 Z-2.892
X110.027 Y236.407 Z-2.903
X110.127 Y236.214 Z-2.922
X110.234 Y236.025 Z-2.948
X110.348 Y235.838 Z-2.981
X110.469 Y235.655 Z-3.022
X110.597 Y235.474 Z-3.071
X110.732 Y235.296 Z-3.126
X110.739 Y234.75 Z-2.923
X110.754 Y233.973 Z-2.637
X110.772 Y233.212 Z-2.361
X110.796 Y232.395 Z-2.069
X111.768 Y231.033 Z-0.706
X112.275 Y230.326 Z0
X111.768 Y231.033 Z-0.706
X110.796 Y232.395 Z-2.069
X109.418 Y230.326 Z0
X110.796 Y232.395 Z-2.069
X110.772 Y233.212 Z-2.361
X110.754 Y233.973 Z-2.637
X110.739 Y234.75 Z-2.923
X110.732 Y235.296 Z-3.126
X110.904 Y235.347 Z-2.985
X111.072 Y235.399 Z-2.848
X111.33 Y235.487 Z-2.64
X111.57 Y235.577 Z-2.449
X111.75 Y235.649 Z-2.309
X111.898 Y235.712 Z-2.196
X112.041 Y235.778 Z-2.088
X112.186 Y235.848 Z-1.98
X112.319 Y235.917 Z-1.883
X112.447 Y235.988 Z-1.791
X112.583 Y236.068 Z-1.697
X112.701 Y236.143 Z-1.616
X112.815 Y236.22 Z-1.54
X112.93 Y236.303 Z-1.466
X113.034 Y236.383 Z-1.401
X113.133 Y236.465 Z-1.341
X113.227 Y236.55 Z-1.287
X113.317 Y236.636 Z-1.237
X113.402 Y236.724 Z-1.193
X113.488 Y236.821 Z-1.151
X113.564 Y236.913 Z-1.118
X113.634 Y237.007 Z-1.09
X113.7 Y237.103 Z-1.067
X113.761 Y237.201 Z-1.049
X113.818 Y237.301 Z-1.036
X113.87 Y237.404 Z-1.028
X113.917 Y237.509 Z-1.026
X114.093 Y237.932 Z-1.03
X118.961 Y249.752 Z-1.101
X119.235 Y250.402 Z-1.099
X119.655 Y251.407
X119.933 Y252.08 Z-1.102
X120.21 Y252.765 Z-1.11
X120.481 Y253.45 Z-1.124
X120.748 Y254.144 Z-1.146
X120.864 Y254.455 Z-1.158
X120.945 Y254.673 Z-1.168
X121.107 Y255.122 Z-1.19
X121.261 Y255.56 Z-1.216
X121.386 Y255.915 Z-1.241
X121.589 Y256.5 Z-1.291
X121.756 Y256.975 Z-1.34
X121.845 Y257.222 Z-1.368
X121.936 Y257.475 Z-1.398
X122.108 Y257.942 Z-1.46
X122.165 Y258.096 Z-1.483
X122.194 Y258.183 Z-1.498
X122.237 Y258.324 Z-1.529
X122.268 Y258.442 Z-1.56
X122.312 Y258.637 Z-1.618
X122.333 Y258.738 Z-1.651
X122.375 Y258.964 Z-1.731
X122.405 Y259.144 Z-1.799
X122.842 Y259.393 Z-1.558
X123.485 Y259.754 Z-1.207
X123.59 Y259.811 Z-1.153
X123.696 Y259.863 Z-1.104
X123.801 Y259.91 Z-1.059
X123.907 Y259.951 Z-1.02
X124.013 Y259.988 Z-0.986
X124.124 Y260.021 Z-0.955
X124.212 Y260.044 Z-0.935
X124.336 Y260.07 Z-0.912
X124.769 Y260.155 Z-0.84
X125.017 Y260.2 Z-0.803
X125.263 Y260.241 Z-0.771
X125.41 Y260.262 Z-0.755
X125.656 Y260.295 Z-0.732
X125.83 Y260.314 Z-0.719
X126.055 Y260.337 Z-0.705
X126.342 Y260.361 Z-0.692
X127.034 Y261.082 Z0
X126.342 Y260.361 Z-0.692
X126.549 Y260.176 Z-0.485
X126.803 Y259.943 Z-0.231
X127.034 Y259.729 Z0
X126.803 Y259.943 Z-0.231
X126.549 Y260.176 Z-0.485
X126.342 Y260.361 Z-0.692
X126.055 Y260.337 Z-0.705
X125.83 Y260.314 Z-0.719
X125.656 Y260.295 Z-0.732
X125.41 Y260.262 Z-0.755
X125.263 Y260.241 Z-0.771
X125.017 Y260.2 Z-0.803
X124.769 Y260.155 Z-0.84
X124.336 Y260.07 Z-0.912
X124.212 Y260.044 Z-0.935
X124.124 Y260.021 Z-0.955
X124.013 Y259.988 Z-0.986
X123.907 Y259.951 Z-1.02
X123.801 Y259.91 Z-1.059
X123.696 Y259.863 Z-1.104
X123.59 Y259.811 Z-1.153
X123.485 Y259.754 Z-1.207
X122.842 Y259.393 Z-1.558
X122.405 Y259.144 Z-1.799
X122.278 Y259.239 Z-1.701
X122.14 Y259.338 Z-1.601
X121.994 Y259.44 Z-1.502
X121.835 Y259.543 Z-1.401
X121.661 Y259.647 Z-1.301
X121.533 Y259.716 Z-1.233
X121.422 Y259.773 Z-1.178
X121.386 Y259.79 Z-1.162
X121.243 Y259.855 Z-1.099
X121.154 Y259.892 Z-1.064
X120.983 Y259.958 Z-1.001
X120.835 Y260.009 Z-0.954
X120.661 Y260.063 Z-0.903
X120.573 Y260.089 Z-0.879
X120.461 Y260.118 Z-0.851
X120.344 Y260.143 Z-0.83
X120.276 Y260.154 Z-0.82
X120.122 Y260.174 Z-0.805
X119.654 Y260.228 Z-0.762
X119.363 Y260.26 Z-0.739
X119.071 Y260.289 Z-0.719
X118.767 Y260.315 Z-0.703
X118.484 Y260.336 Z-0.692
X118.052 Y260.363 Z-0.681
X117.7 Y260.381 Z-0.675
X117.341 Y260.041 Z-0.316
X117.025 Y259.737 Z0
X117.341 Y260.041 Z-0.316
X117.7 Y260.381 Z-0.675
X117.025 Y261.083 Z0
G0 Z5
X130.143 Y230.782
G1 Z0 F850
X130.887 Y231.572 Z-0.744
X130.583 Y231.854 Z-0.44
X130.232 Y232.189 Z-0.089
X130.143 Y232.274 Z0
X130.232 Y232.189 Z-0.089
X130.583 Y231.854 Z-0.44
X130.887 Y231.572 Z-0.744
X131.078 Y231.587 Z-0.748
X131.33 Y231.61 Z-0.757
X131.582 Y231.636 Z-0.772
X131.836 Y231.667 Z-0.793
X132.073 Y231.701 Z-0.817
X132.347 Y231.745 Z-0.852
X132.809 Y231.822 Z-0.919
X132.9 Y231.84 Z-0.935
X133.001 Y231.863 Z-0.957
X133.102 Y231.892 Z-0.983
X133.214 Y231.928 Z-1.018
X133.315 Y231.965 Z-1.054
X133.402 Y232 Z-1.088
X133.516 Y232.052 Z-1.139
X133.841 Y232.204 Z-1.289
X134.059 Y232.311 Z-1.394
X134.268 Y232.416 Z-1.498
X134.509 Y232.545 Z-1.626
X134.745 Y232.675 Z-1.756
X134.851 Y232.6 Z-1.681
X134.978 Y232.515 Z-1.596
X135.093 Y232.442 Z-1.524
X135.208 Y232.373 Z-1.455
X135.376 Y232.28 Z-1.363
X135.513 Y232.211 Z-1.295
X135.648 Y232.147 Z-1.232
X135.738 Y232.108 Z-1.194
X135.915 Y232.038 Z-1.124
X136.026 Y231.997 Z-1.085
X136.168 Y231.95 Z-1.039
X136.364 Y231.89 Z-0.981
X136.455 Y231.865 Z-0.957
X136.552 Y231.843 Z-0.936
X136.656 Y231.823 Z-0.918
X136.775 Y231.806 Z-0.903
X137.294 Y231.744 Z-0.851
X137.578 Y231.711 Z-0.826
X137.912 Y231.675 Z-0.801
X138.146 Y231.653 Z-0.788
X138.428 Y231.628 Z-0.775
X138.833 Y231.597 Z-0.762
X139.094 Y231.578 Z-0.757
X139.85 Y230.781 Z-0.001
X139.094 Y231.578 Z-0.757
X139.543 Y231.994 Z-0.308
X139.851 Y232.281 Z0
X139.543 Y231.994 Z-0.308
X139.094 Y231.578 Z-0.757
X138.833 Y231.597 Z-0.762
X138.428 Y231.628 Z-0.775
X138.146 Y231.653 Z-0.788
X137.912 Y231.675 Z-0.801
X137.578 Y231.711 Z-0.826
X137.294 Y231.744 Z-0.851
X136.775 Y231.806 Z-0.903
X136.656 Y231.823 Z-0.918
X136.552 Y231.843 Z-0.936
X136.455 Y231.865 Z-0.957
X136.364 Y231.89 Z-0.981
X136.168 Y231.95 Z-1.039
X136.026 Y231.997 Z-1.085
X135.915 Y232.038 Z-1.124
X135.738 Y232.108 Z-1.194
X135.648 Y232.147 Z-1.232
X135.513 Y232.211 Z-1.295
X135.376 Y232.28 Z-1.363
X135.208 Y232.373 Z-1.455
X135.093 Y232.442 Z-1.524
X134.978 Y232.515 Z-1.596
X134.851 Y232.6 Z-1.681
X134.745 Y232.675 Z-1.756
X134.763 Y232.838 Z-1.69
X134.785 Y233.002 Z-1.63
X134.807 Y233.153 Z-1.579
X134.834 Y233.318 Z-1.528
X134.864 Y233.488 Z-1.48
X134.896 Y233.645 Z-1.442
X134.932 Y233.795 Z-1.412
X134.987 Y234.012 Z-1.372
X135.038 Y234.195 Z-1.342
X135.095 Y234.383 Z-1.316
X135.147 Y234.544 Z-1.297
X135.24 Y234.808 Z-1.273
X135.305 Y234.986 Z-1.259
X135.537 Y235.617 Z-1.211
X135.73 Y236.134 Z-1.176
X135.925 Y236.645 Z-1.146
X136.076 Y237.035 Z-1.127
X136.273 Y237.534 Z-1.107
X136.434 Y237.942 Z-1.093
X136.878 Y239.027 Z-1.076
X137.286 Y240.033 Z-1.062
X137.443 Y240.422 Z-1.058
X137.484 Y240.514 Z-1.06
X137.528 Y240.605 Z-1.065
X137.576 Y240.696 Z-1.075
X137.638 Y240.8 Z-1.092
X137.704 Y240.903 Z-1.114
X137.778 Y241.006 Z-1.143
X137.855 Y241.104 Z-1.177
X137.936 Y241.199 Z-1.215
X138.023 Y241.293 Z-1.26
X138.114 Y241.384 Z-1.309
X138.21 Y241.472 Z-1.364
X138.311 Y241.559 Z-1.424
X138.396 Y241.526 Z-1.376
X138.474 Y241.496 Z-1.336
X138.546 Y241.467 Z-1.301
X138.617 Y241.44 Z-1.27
X138.729 Y241.398 Z-1.226
X138.841 Y241.362 Z-1.187
X138.952 Y241.33 Z-1.153
X139.064 Y241.303 Z-1.123
X139.176 Y241.281 Z-1.099
X139.287 Y241.263 Z-1.079
X139.398 Y241.25 Z-1.063
X139.509 Y241.242 Z-1.053
X139.608 Y241.239 Z-1.048
X140.624 Y241.226 Z-1.016
X141.676 Y241.215 Z-0.99
X142.625 Y241.209 Z-0.977
X143.941 Y241.206 Z-0.97
X144.231 Y241.205
X144.993 Y241.206 Z-0.973
X146.186 Y241.211 Z-0.982
X147.012 Y241.216 Z-0.995
X147.545 Y241.221 Z-1.006
X148.245 Y241.228 Z-1.024
X149.072 Y241.238 Z-1.048
X149.207 Y241.243 Z-1.056
X149.334 Y241.255 Z-1.07
X149.461 Y241.272 Z-1.09
X149.589 Y241.296 Z-1.116
X149.716 Y241.326 Z-1.148
X149.843 Y241.362 Z-1.187
X149.971 Y241.404 Z-1.232
X150.099 Y241.452 Z-1.283
X150.229 Y241.505 Z-1.343
X150.358 Y241.557 Z-1.412
X150.488 Y241.61 Z-1.491
X150.619 Y241.662 Z-1.577
X150.752 Y241.716 Z-1.671
X150.885 Y241.77 Z-1.772
X151.02 Y241.824 Z-1.879
X151.158 Y241.879 Z-1.992
X151.297 Y241.936 Z-2.11
X151.584 Y242.051 Z-2.365
X152.039 Y242.235 Z-2.789
X152.362 Y242.365 Z-3.102
X152.473 Y242.201 Z-3.064
X152.579 Y242.034 Z-3.031
X152.679 Y241.864 Z-3.004
X152.774 Y241.693 Z-2.984
X152.863 Y241.519 Z-2.969
X152.947 Y241.343 Z-2.96
X153.025 Y241.164 Z-2.957
X154.538 Y237.456 Z-3.001
X154.721 Y237.012 Z-3.004
X154.88 Y236.62 Z-3.01
X155 Y236.316 Z-3.015
X155.144 Y235.943 Z-3.026
X155.259 Y235.635 Z-3.038
X155.373 Y235.324 Z-3.056
X155.473 Y235.043 Z-3.076
X155.574 Y234.755 Z-3.1
X155.712 Y234.355 Z-3.139
X155.803 Y234.087 Z-3.17
X155.622 Y233.874 Z-2.958
X155.475 Y233.709 Z-2.794
X155.318 Y233.543 Z-2.628
X155.168 Y233.392 Z-2.478
X154.945 Y233.182 Z-2.269
X154.72 Y232.981 Z-2.07
X154.585 Y232.867 Z-1.956
X154.413 Y232.727 Z-1.818
X154.236 Y232.591 Z-1.684
X154.097 Y232.491 Z-1.586
X154.064 Y232.468 Z-1.563
X153.891 Y232.354 Z-1.451
X153.79 Y232.292 Z-1.39
X153.637 Y232.204 Z-1.304
X153.51 Y232.137 Z-1.239
X153.376 Y232.072 Z-1.176
X153.255 Y232.018 Z-1.123
X153.138 Y231.97 Z-1.077
X153.026 Y231.928 Z-1.037
X152.853 Y231.869 Z-0.981
X152.7 Y231.821 Z-0.937
X152.6 Y231.792 Z-0.91
X152.5 Y231.767 Z-0.887
X152.4 Y231.747 Z-0.869
X152.3 Y231.731 Z-0.856
X152.109 Y231.71 Z-0.839
X151.692 Y231.667 Z-0.807
X151.301 Y231.63 Z-0.782
X151.023 Y231.608 Z-0.768
X150.756 Y231.589 Z-0.759
X150.471 Y231.572 Z-0.752
X150.011 Y231.551 Z-0.746
X149.675 Y231.873 Z-0.41
X149.266 Y232.271 Z-0.001
X149.675 Y231.873 Z-0.41
X150.011 Y231.551 Z-0.746
X149.266 Y230.776 Z-0.001
X150.011 Y231.551 Z-0.746
X150.471 Y231.572 Z-0.752
X150.756 Y231.589 Z-0.759
X151.023 Y231.608 Z-0.768
X151.301 Y231.63 Z-0.782
X151.692 Y231.667 Z-0.807
X152.109 Y231.71 Z-0.839
X152.3 Y231.731 Z-0.856
X152.4 Y231.747 Z-0.869
X152.5 Y231.767 Z-0.887
X152.6 Y231.792 Z-0.91
X152.7 Y231.821 Z-0.937
X152.853 Y231.869 Z-0.981
X153.026 Y231.928 Z-1.037
X153.138 Y231.97 Z-1.077
X153.255 Y232.018 Z-1.123
X153.376 Y232.072 Z-1.176
X153.51 Y232.137 Z-1.239
X153.637 Y232.204 Z-1.304
X153.79 Y232.292 Z-1.39
X153.891 Y232.354 Z-1.451
X154.064 Y232.468 Z-1.563
X154.097 Y232.491 Z-1.586
X154.236 Y232.591 Z-1.684
X154.413 Y232.727 Z-1.818
X154.585 Y232.867 Z-1.956
X154.72 Y232.981 Z-2.07
X154.945 Y233.182 Z-2.269
X155.168 Y233.392 Z-2.478
X155.318 Y233.543 Z-2.628
X155.475 Y233.709 Z-2.794
X155.622 Y233.874 Z-2.958
X155.803 Y234.087 Z-3.17
X156.118 Y233.89 Z-2.971
X156.632 Y233.57 Z-2.653
X157.106 Y233.281 Z-2.367
X157.391 Y233.109 Z-2.198
X157.893 Y232.812 Z-1.905
X158.801 Y232.283 Z-1.388
X158.955 Y232.197 Z-1.304
X159.086 Y232.131 Z-1.241
X159.226 Y232.068 Z-1.181
X159.366 Y232.014 Z-1.129
X159.511 Y231.966 Z-1.084
X159.652 Y231.927 Z-1.049
X159.937 Y231.863 Z-0.992
X160.222 Y231.802 Z-0.938
X160.497 Y231.747 Z-0.891
X160.662 Y231.717 Z-0.866
X160.927 Y231.673 Z-0.831
X161.11 Y231.647 Z-0.811
X161.348 Y231.618 Z-0.79
X161.526 Y231.6 Z-0.778
X161.798 Y231.577 Z-0.765
X161.998 Y231.562 Z-0.758
X162.756 Y230.776 Z0
X161.998 Y231.562 Z-0.758
X162.231 Y231.777 Z-0.525
X162.628 Y232.152 Z-0.128
X162.755 Y232.274 Z-0.001
X162.628 Y232.152 Z-0.128
X162.231 Y231.777 Z-0.525
X161.998 Y231.562 Z-0.758
X161.798 Y231.577 Z-0.765
X161.526 Y231.6 Z-0.778
X161.348 Y231.618 Z-0.79
X161.11 Y231.647 Z-0.811
X160.927 Y231.673 Z-0.831
X160.662 Y231.717 Z-0.866
X160.497 Y231.747 Z-0.891
X160.222 Y231.802 Z-0.938
X159.937 Y231.863 Z-0.992
X159.652 Y231.927 Z-1.049
X159.511 Y231.966 Z-1.084
X159.366 Y232.014 Z-1.129
X159.226 Y232.068 Z-1.181
X159.086 Y232.131 Z-1.241
X158.955 Y232.197 Z-1.304
X158.801 Y232.283 Z-1.388
X157.893 Y232.812 Z-1.905
X157.391 Y233.109 Z-2.198
X157.106 Y233.281 Z-2.367
X156.632 Y233.57 Z-2.653
X156.118 Y233.89 Z-2.971
X155.803 Y234.087 Z-3.17
X155.712 Y234.355 Z-3.139
X155.574 Y234.755 Z-3.1
X155.473 Y235.043 Z-3.076
X155.373 Y235.324 Z-3.056
X155.259 Y235.635 Z-3.038
X155.144 Y235.943 Z-3.026
X155 Y236.316 Z-3.015
X154.88 Y236.62 Z-3.01
X154.721 Y237.012 Z-3.004
X154.538 Y237.456 Z-3.001
X153.025 Y241.164 Z-2.957
X152.947 Y241.343 Z-2.96
X152.863 Y241.519 Z-2.969
X152.774 Y241.693 Z-2.984
X152.679 Y241.864 Z-3.004
X152.579 Y242.034 Z-3.031
X152.473 Y242.201 Z-3.064
X152.362 Y242.365 Z-3.102
X152.322 Y242.572 Z-3.058
X152.276 Y242.777 Z-3.021
X152.225 Y242.978 Z-2.991
X152.166 Y243.178 Z-2.967
X152.102 Y243.374 Z-2.95
X152.032 Y243.568 Z-2.94
X151.955 Y243.76 Z-2.936
X147.224 Y255.062 Z-2.913
X147.135 Y255.263 Z-2.916
X147.04 Y255.461 Z-2.928
X146.937 Y255.655 Z-2.947
X146.827 Y255.847 Z-2.974
X146.711 Y256.036 Z-3.008
X146.587 Y256.223 Z-3.05
X146.456 Y256.406 Z-3.099
X146.318 Y256.586 Z-3.156
X146.304 Y259.167 Z-2.168
X144.848 Y261.334 Z-0.001
X146.304 Y259.167 Z-2.168
X147.744 Y261.335 Z0
X146.304 Y259.167 Z-2.168
X146.318 Y256.586 Z-3.156
X146.098 Y256.521 Z-2.977
X145.884 Y256.453 Z-2.805
X145.679 Y256.381 Z-2.641
X145.48 Y256.307 Z-2.486
X145.289 Y256.23 Z-2.338
X145.105 Y256.15 Z-2.198
X144.929 Y256.067 Z-2.066
X144.76 Y255.981 Z-1.943
X144.599 Y255.891 Z-1.827
X144.444 Y255.799 Z-1.719
X144.298 Y255.704 Z-1.619
X144.158 Y255.606 Z-1.527
X144.026 Y255.505 Z-1.443
X143.902 Y255.4 Z-1.367
X143.785 Y255.293 Z-1.299
X143.675 Y255.183 Z-1.239
X143.572 Y255.069 Z-1.187
X143.477 Y254.953 Z-1.143
X143.39 Y254.834 Z-1.107
X143.309 Y254.711 Z-1.079
X143.236 Y254.586 Z-1.059
X143.171 Y254.457 Z-1.047
X143.113 Y254.326 Z-1.043
X138.484 Y243.02 Z-1.032
X138.438 Y242.897 Z-1.035
X138.398 Y242.772 Z-1.045
X138.364 Y242.645 Z-1.062
X138.336 Y242.515 Z-1.085
X138.314 Y242.382 Z-1.115
X138.299 Y242.247 Z-1.152
X138.29 Y242.11 Z-1.195
X138.286 Y241.965 Z-1.247
X138.289 Y241.835 Z-1.299
X138.297 Y241.702 Z-1.357
X138.311 Y241.559 Z-1.424
G0 Z5
X164.495 Y261.046
G1 Z0 F850
X164.58 Y261.006 Z-0.083
X164.555 Y261.089 Z-0.001
X164.58 Y261.006 Z-0.083
X165.277 Y260.326 Z-0.733
X166.041 Y259.577 Z-1.449
X165.976 Y259.442 Z-1.376
X165.917 Y259.306 Z-1.31
X165.862 Y259.168 Z-1.248
X165.815 Y259.046 Z-1.195
X165.759 Y258.88 Z-1.13
X165.717 Y258.741 Z-1.081
X165.696 Y258.663 Z-1.057
X165.658 Y258.501 Z-1.011
X165.644 Y258.432 Z-0.994
X165.611 Y258.245 Z-0.953
X165.602 Y258.187 Z-0.942
X165.585 Y258.055 Z-0.92
X165.573 Y257.884 Z-0.902
X165.542 Y257.262 Z-0.852
X165.51 Y256.602 Z-0.808
X165.484 Y256.04 Z-0.777
X165.459 Y255.429 Z-0.749
X165.44 Y254.956 Z-0.73
X165.437 Y254.894 Z-0.728
X164.707 Y254.167 Z-0.001
X165.437 Y254.894 Z-0.728
X166.113 Y254.166 Z0
X165.437 Y254.894 Z-0.728
X165.44 Y254.956 Z-0.73
X165.459 Y255.429 Z-0.749
X165.484 Y256.04 Z-0.777
X165.51 Y256.602 Z-0.808
X165.542 Y257.262 Z-0.852
X165.573 Y257.884 Z-0.902
X165.585 Y258.055 Z-0.92
X165.602 Y258.187 Z-0.942
X165.611 Y258.245 Z-0.953
X165.644 Y258.432 Z-0.994
X165.658 Y258.501 Z-1.011
X165.696 Y258.663 Z-1.057
X165.717 Y258.741 Z-1.081
X165.759 Y258.88 Z-1.13
X165.815 Y259.046 Z-1.195
X165.862 Y259.168 Z-1.248
X165.917 Y259.306 Z-1.31
X165.976 Y259.442 Z-1.376
X166.041 Y259.577 Z-1.449
X166.248 Y259.628 Z-1.39
X166.405 Y259.657 Z-1.354
X166.56 Y259.679 Z-1.327
X166.769 Y259.702 Z-1.295
X166.984 Y259.723 Z-1.265
X167.154 Y259.738 Z-1.244
X167.323 Y259.75 Z-1.226
X167.615 Y259.765 Z-1.199
X167.872 Y259.773 Z-1.181
X168.263 Y259.78 Z-1.16
X169.651 Y259.798 Z-1.094
X170.329 Y259.805 Z-1.066
X170.999 Y259.809 Z-1.044
X171.676 Y259.81 Z-1.027
X172.566 Y259.808 Z-1.012
X173.649 Y259.802 Z-1
X173.738 Y259.804 Z-0.997
X173.974 Y259.807 Z-0.99
X174.21 Y259.808 Z-0.987
X174.397 Y259.805 Z-0.988
X174.632 Y259.796 Z-0.994
X174.819 Y259.784 Z-1.004
X175.028 Y259.766 Z-1.02
X175.239 Y259.74 Z-1.044
X175.427 Y259.713 Z-1.07
X175.668 Y259.673 Z-1.107
X175.829 Y259.641 Z-1.138
X175.969 Y259.605 Z-1.172
X176.109 Y259.562 Z-1.215
X176.25 Y259.511 Z-1.264
X176.392 Y259.451 Z-1.323
X176.532 Y259.385 Z-1.388
X176.672 Y259.312 Z-1.46
X176.811 Y259.232 Z-1.54
X176.951 Y259.143 Z-1.627
X177.091 Y259.048 Z-1.722
X177.231 Y258.944 Z-1.824
X177.37 Y258.834 Z-1.933
X177.517 Y258.709 Z-2.057
X177.661 Y258.58 Z-2.185
X177.804 Y258.444 Z-2.321
X178.463 Y257.8 Z-2.967
X178.587 Y257.92 Z-2.848
X178.809 Y258.131 Z-2.639
X179.012 Y258.316 Z-2.455
X179.217 Y258.497 Z-2.275
X179.413 Y258.664 Z-2.11
X179.7 Y258.901 Z-1.875
X179.791 Y258.973 Z-1.805
X179.942 Y259.084 Z-1.694
X180.094 Y259.187 Z-1.593
X180.245 Y259.28 Z-1.5
X180.399 Y259.367 Z-1.415
X180.518 Y259.427 Z-1.356
X180.637 Y259.482 Z-1.302
X180.756 Y259.532 Z-1.254
X180.875 Y259.576 Z-1.211
X181.06 Y259.634 Z-1.154
X181.161 Y259.663 Z-1.127
X181.311 Y259.702 Z-1.089
X181.36 Y259.714 Z-1.079
X181.488 Y259.74 Z-1.054
X181.616 Y259.762 Z-1.033
X181.736 Y259.777 Z-1.019
X181.837 Y259.788 Z-1.01
X182.028 Y259.8 Z-1
X182.155 Y259.803 Z-0.998
X182.3 Z-1
X182.877 Y259.808 Z-1.003
X184.052 Y259.817 Z-1.013
X184.648 Y259.819 Z-1.021
X185.537 Y259.82 Z-1.041
X186.137 Y259.817 Z-1.059
X186.743 Y259.811 Z-1.083
X187.345 Y259.799 Z-1.111
X187.731 Y259.79 Z-1.131
X188.345 Y259.775 Z-1.167
X189.428 Y259.743 Z-1.235
X189.502 Y259.739 Z-1.241
X189.723 Y259.724 Z-1.264
X189.828 Y259.715 Z-1.277
X190.001 Y259.696 Z-1.302
X190.179 Y259.671 Z-1.333
X190.381 Y259.634 Z-1.378
X190.562 Y259.593 Z-1.425
X190.713 Y259.554 Z-1.469
X190.851 Y259.513 Z-1.515
X191.915 Y260.497 Z-0.571
X192.324 Y260.874 Z-0.21
X192.541 Y260.927 Z0
X192.324 Y260.874 Z-0.21
X192.431 Y261.088 Z0
X192.324 Y260.874 Z-0.21
X191.915 Y260.497 Z-0.571
X190.851 Y259.513 Z-1.515
X190.919 Y259.352 Z-1.429
X190.977 Y259.207 Z-1.357
X191.042 Y259.032 Z-1.273
X191.084 Y258.909 Z-1.218
X191.122 Y258.782 Z-1.167
X191.148 Y258.68 Z-1.131
X191.171 Y258.579 Z-1.098
X191.191 Y258.469 Z-1.067
X191.205 Y258.369 Z-1.043
X191.216 Y258.269 Z-1.023
X191.223 Y258.163 Z-1.006
X191.251 Y257.552 Z-0.925
X191.264 Y257.251 Z-0.888
X191.277 Y256.921 Z-0.851
X191.287 Y256.557 Z-0.815
X191.294 Y256.201 Z-0.785
X191.299 Y255.84 Z-0.758
X191.302 Y255.447 Z-0.734
Y254.967 Z-0.708
X191.301 Y254.869 Z-0.703
X190.625 Y254.166 Z0
X191.301 Y254.869 Z-0.703
X191.969 Y254.166 Z0
X191.301 Y254.869 Z-0.703
X191.302 Y254.967 Z-0.708
Y255.447 Z-0.734
X191.299 Y255.84 Z-0.758
X191.294 Y256.201 Z-0.785
X191.287 Y256.557 Z-0.815
X191.277 Y256.921 Z-0.851
X191.264 Y257.251 Z-0.888
X191.251 Y257.552 Z-0.925
X191.223 Y258.163 Z-1.006
X191.216 Y258.269 Z-1.023
X191.205 Y258.369 Z-1.043
X191.191 Y258.469 Z-1.067
X191.171 Y258.579 Z-1.098
X191.148 Y258.68 Z-1.131
X191.122 Y258.782 Z-1.167
X191.084 Y258.909 Z-1.218
X191.042 Y259.032 Z-1.273
X190.977 Y259.207 Z-1.357
X190.919 Y259.352 Z-1.429
X190.851 Y259.513 Z-1.515
X190.713 Y259.554 Z-1.469
X190.562 Y259.593 Z-1.425
X190.381 Y259.634 Z-1.378
X190.179 Y259.671 Z-1.333
X190.001 Y259.696 Z-1.302
X189.828 Y259.715 Z-1.277
X189.723 Y259.724 Z-1.264
X189.502 Y259.739 Z-1.241
X189.428 Y259.743 Z-1.235
X188.345 Y259.775 Z-1.167
X187.731 Y259.79 Z-1.131
X187.345 Y259.799 Z-1.111
X186.743 Y259.811 Z-1.083
X186.137 Y259.817 Z-1.059
X185.537 Y259.82 Z-1.041
X184.648 Y259.819 Z-1.021
X184.052 Y259.817 Z-1.013
X182.877 Y259.808 Z-1.003
X182.3 Y259.803 Z-1
X182.155 Z-0.998
X182.028 Y259.8 Z-1
X181.837 Y259.788 Z-1.01
X181.736 Y259.777 Z-1.019
X181.616 Y259.762 Z-1.033
X181.488 Y259.74 Z-1.054
X181.36 Y259.714 Z-1.079
X181.311 Y259.702 Z-1.089
X181.161 Y259.663 Z-1.127
X181.06 Y259.634 Z-1.154
X180.875 Y259.576 Z-1.211
X180.756 Y259.532 Z-1.254
X180.637 Y259.482 Z-1.302
X180.518 Y259.427 Z-1.356
X180.399 Y259.367 Z-1.415
X180.245 Y259.28 Z-1.5
X180.094 Y259.187 Z-1.593
X179.942 Y259.084 Z-1.694
X179.791 Y258.973 Z-1.805
X179.7 Y258.901 Z-1.875
X179.413 Y258.664 Z-2.11
X179.217 Y258.497 Z-2.275
X179.012 Y258.316 Z-2.455
X178.809 Y258.131 Z-2.639
X178.587 Y257.92 Z-2.848
X178.463 Y257.8 Z-2.967
X178.465 Y257.5 Z-2.963
X178.47 Y256.969 Z-2.959
X178.474 Y255.841 Z-2.946
Y255.084 Z-2.938
X178.472 Y253.587 Z-2.927
X178.466 Y252.089 Z-2.92
X178.426 Y245.497 Z-2.901
X178.403 Y242.943 Z-2.902
X178.395 Y242.159 Z-2.905
X178.383 Y240.48 Z-2.914
X178.374 Y238.722 Z-2.932
X178.369 Y237.819 Z-2.948
X178.363 Y236.814 Z-2.976
X178.357 Y236.017 Z-3.004
X178.35 Y235.404 Z-3.031
X178.335 Y234.427 Z-3.08
X178.333 Y234.024 Z-3.105
X177.816 Y233.543 Z-2.626
X177.685 Y233.429 Z-2.512
X177.383 Y233.18 Z-2.264
X177.164 Y233.007 Z-2.092
X176.994 Y232.877 Z-1.963
X176.799 Y232.735 Z-1.822
X176.711 Y232.673 Z-1.761
X176.506 Y232.536 Z-1.625
X176.385 Y232.459 Z-1.55
X176.188 Y232.342 Z-1.434
X176.131 Y232.31 Z-1.402
X175.9 Y232.184 Z-1.278
X175.715 Y232.088 Z-1.185
X175.631 Y232.047 Z-1.145
X175.544 Y232.007 Z-1.106
X175.452 Y231.968 Z-1.069
X175.359 Y231.934 Z-1.036
X175.144 Y231.863 Z-0.969
X175.013 Y231.823 Z-0.931
X174.852 Y231.777 Z-0.889
X174.696 Y231.739 Z-0.853
X174.543 Y231.705 Z-0.822
X174.394 Y231.678 Z-0.798
X174.24 Y231.653 Z-0.778
X174.063 Y231.63 Z-0.759
X173.807 Y231.603 Z-0.739
X173.243 Y231.555 Z-0.707
X172.789 Y231.519 Z-0.687
X172.553 Y231.503 Z-0.68
X172.192 Y231.482 Z-0.672
X171.968 Y231.471 Z-0.67
X171.859 Y231.575 Z-0.561
X171.298 Y232.118 Z0
X171.859 Y231.575 Z-0.561
X171.968 Y231.471 Z-0.67
X171.298 Y230.776 Z0
X171.968 Y231.471 Z-0.67
X172.192 Y231.482 Z-0.672
X172.553 Y231.503 Z-0.68
X172.789 Y231.519 Z-0.687
X173.243 Y231.555 Z-0.707
X173.807 Y231.603 Z-0.739
X174.063 Y231.63 Z-0.759
X174.24 Y231.653 Z-0.778
X174.394 Y231.678 Z-0.798
X174.543 Y231.705 Z-0.822
X174.696 Y231.739 Z-0.853
X174.852 Y231.777 Z-0.889
X175.013 Y231.823 Z-0.931
X175.144 Y231.863 Z-0.969
X175.359 Y231.934 Z-1.036
X175.452 Y231.968 Z-1.069
X175.544 Y232.007 Z-1.106
X175.631 Y232.047 Z-1.145
X175.715 Y232.088 Z-1.185
X175.9 Y232.184 Z-1.278
X176.131 Y232.31 Z-1.402
X176.188 Y232.342 Z-1.434
X176.385 Y232.459 Z-1.55
X176.506 Y232.536 Z-1.625
X176.711 Y232.673 Z-1.761
X176.799 Y232.735 Z-1.822
X176.994 Y232.877 Z-1.963
X177.164 Y233.007 Z-2.092
X177.383 Y233.18 Z-2.264
X177.685 Y233.429 Z-2.512
X177.816 Y233.543 Z-2.626
X178.333 Y234.024 Z-3.105
X178.616 Y233.765 Z-2.846
X178.895 Y233.519 Z-2.6
X179.12 Y233.328 Z-2.41
X179.34 Y233.149 Z-2.232
X179.514 Y233.012 Z-2.096
X179.682 Y232.885 Z-1.971
X179.846 Y232.767 Z-1.854
X180.005 Y232.658 Z-1.745
X180.16 Y232.555 Z-1.644
X180.31 Y232.46 Z-1.55
X180.529 Y232.329 Z-1.42
X180.674 Y232.245 Z-1.338
X180.945 Y232.096 Z-1.191
X181.102 Y232.011 Z-1.108
X181.197 Y231.965 Z-1.063
X181.291 Y231.923 Z-1.023
X181.391 Y231.883 Z-0.984
X181.485 Y231.85 Z-0.952
X181.58 Y231.82 Z-0.924
X181.675 Y231.794 Z-0.901
X181.764 Y231.774 Z-0.882
X181.853 Y231.758 Z-0.867
X181.964 Y231.743 Z-0.854
X182.4 Y231.689 Z-0.81
X182.866 Y231.635 Z-0.768
X183.177 Y231.604 Z-0.745
X183.489 Y231.575 Z-0.726
X183.799 Y231.549 Z-0.711
X184.105 Y231.527 Z-0.7
X184.415 Y231.506 Z-0.691
X184.725 Y231.488 Z-0.684
X185.192 Y231.923 Z-0.217
X185.409 Y232.126 Z0
X185.192 Y231.923 Z-0.217
X184.725 Y231.488 Z-0.684
X185.408 Y230.777 Z-0.001
G0 Z5
X195.512 Y259.734
G1 Z0 F850
X195.557 Y259.776 Z-0.045
X196.012 Y260.203 Z-0.5
X196.196 Y260.374 Z-0.684
X195.513 Y261.083 Z-0.001
X196.196 Y260.374 Z-0.684
X196.462 Y260.357 Z-0.691
X196.76 Y260.335 Z-0.703
X197.064 Y260.308 Z-0.719
X197.375 Y260.276 Z-0.74
X197.616 Y260.247 Z-0.762
X197.856 Y260.214 Z-0.787
X198.169 Y260.166 Z-0.825
X198.476 Y260.113 Z-0.868
X198.917 Y260.034 Z-0.936
X198.982 Y260.021 Z-0.947
X199.095 Y259.994 Z-0.971
X199.208 Y259.961 Z-1
X199.321 Y259.923 Z-1.035
X199.434 Y259.88 Z-1.076
X199.546 Y259.83 Z-1.122
X199.658 Y259.776 Z-1.174
X199.802 Y259.698 Z-1.248
X199.945 Y259.616 Z-1.328
X200.137 Y259.503 Z-1.437
X200.341 Y259.378 Z-1.557
X200.528 Y259.259 Z-1.673
X200.684 Y259.153 Z-1.776
X200.891 Y259.008 Z-1.918
X201.078 Y258.869 Z-2.054
X201.295 Y258.699 Z-2.221
X201.478 Y258.55 Z-2.368
X201.591 Y258.454 Z-2.462
X201.778 Y258.292 Z-2.621
X202.006 Y258.086 Z-2.824
X202.242 Y257.866 Z-3.042
X203.084 Y258.665 Z-2.234
X203.273 Y258.84 Z-2.057
X203.424 Y258.97 Z-1.925
X203.618 Y259.128 Z-1.77
X203.751 Y259.228 Z-1.672
X203.885 Y259.321 Z-1.581
X204.018 Y259.407 Z-1.498
X204.152 Y259.485 Z-1.421
X204.286 Y259.557 Z-1.351
X204.42 Y259.622 Z-1.289
X204.554 Y259.68 Z-1.233
X204.688 Y259.731 Z-1.185
X204.822 Y259.774 Z-1.143
X204.956 Y259.811 Z-1.109
X205.091 Y259.84 Z-1.081
X205.225 Y259.863 Z-1.061
X205.36 Y259.878 Z-1.048
X205.495 Y259.887 Z-1.042
X206.027 Y259.906 Z-1.031
X206.576 Y259.926 Z-1.02
X207.483 Y259.955 Z-1.006
X208.222 Y259.973 Z-1
X208.775 Y259.983 Z-0.999
X209.859 Y260 Z-1
X210.58 Y260.005 Z-1.007
X211.058 Y260.007 Z-1.013
X211.536 Y260.006 Z-1.021
X212.02 Y260.003 Z-1.032
X212.509 Y259.996 Z-1.047
X212.998 Y259.984 Z-1.067
X213.492 Y259.967 Z-1.092
X213.989 Y259.944 Z-1.123
X214.719 Y259.903 Z-1.176
X215.553 Y259.85 Z-1.243
X215.743 Y259.834 Z-1.257
X216.06 Y259.799 Z-1.289
X216.243 Y259.775 Z-1.311
X216.437 Y259.744 Z-1.339
X216.594 Y259.714 Z-1.365
X216.731 Y259.685 Z-1.391
X216.891 Y259.646 Z-1.425
X217.019 Y259.611 Z-1.456
X217.163 Y259.568 Z-1.493
X217.246 Y259.382 Z-1.385
X217.333 Y259.176 Z-1.269
X217.354 Y259.126 Z-1.242
X217.403 Y259 Z-1.176
X217.452 Y258.858 Z-1.108
X217.496 Y258.706 Z-1.045
X217.528 Y258.566 Z-0.995
X217.555 Y258.413 Z-0.949
X217.567 Y258.321 Z-0.927
X217.575 Y258.229 Z-0.908
X217.58 Y258.113 Z-0.89
X217.59 Y257.663 Z-0.832
X217.598 Y257.208 Z-0.78
X217.602 Y256.892 Z-0.749
X217.603 Y256.44 Z-0.713
X217.602 Y256.14 Z-0.693
X217.599 Y255.84 Z-0.675
X217.593 Y255.414 Z-0.654
X218.208 Y254.76 Z0
X217.593 Y255.414 Z-0.654
X217.136 Y254.946 Z-0.186
X216.953 Y254.76 Z0
X217.136 Y254.946 Z-0.186
X217.593 Y255.414 Z-0.654
X217.599 Y255.84 Z-0.675
X217.602 Y256.14 Z-0.693
X217.603 Y256.44 Z-0.713
X217.602 Y256.892 Z-0.749
X217.598 Y257.208 Z-0.78
X217.59 Y257.663 Z-0.832
X217.58 Y258.113 Z-0.89
X217.575 Y258.229 Z-0.908
X217.567 Y258.321 Z-0.927
X217.555 Y258.413 Z-0.949
X217.528 Y258.566 Z-0.995
X217.496 Y258.706 Z-1.045
X217.452 Y258.858 Z-1.108
X217.403 Y259 Z-1.176
X217.354 Y259.126 Z-1.242
X217.333 Y259.176 Z-1.269
X217.246 Y259.382 Z-1.385
X217.163 Y259.568 Z-1.493
X217.331 Y259.706 Z-1.348
X217.777 Y260.067 Z-0.962
X218.363 Y260.531 Z-0.457
X218.801 Y260.874 Z-0.079
X218.884 Y260.891 Z0
X218.801 Y260.874 Z-0.079
X218.847 Y260.949 Z0
X218.801 Y260.874 Z-0.079
X218.363 Y260.531 Z-0.457
X217.777 Y260.067 Z-0.962
X217.331 Y259.706 Z-1.348
X217.163 Y259.568 Z-1.493
X217.019 Y259.611 Z-1.456
X216.891 Y259.646 Z-1.425
X216.731 Y259.685 Z-1.391
X216.594 Y259.714 Z-1.365
X216.437 Y259.744 Z-1.339
X216.243 Y259.775 Z-1.311
X216.06 Y259.799 Z-1.289
X215.743 Y259.834 Z-1.257
X215.553 Y259.85 Z-1.243
X214.719 Y259.903 Z-1.176
X213.989 Y259.944 Z-1.123
X213.492 Y259.967 Z-1.092
X212.998 Y259.984 Z-1.067
X212.509 Y259.996 Z-1.047
X212.02 Y260.003 Z-1.032
X211.536 Y260.006 Z-1.021
X211.058 Y260.007 Z-1.013
X210.58 Y260.005 Z-1.007
X209.859 Y260 Z-1
X208.775 Y259.983 Z-0.999
X208.222 Y259.973 Z-1
X207.483 Y259.955 Z-1.006
X206.576 Y259.926 Z-1.02
X206.027 Y259.906 Z-1.031
X205.495 Y259.887 Z-1.042
X205.36 Y259.878 Z-1.048
X205.225 Y259.863 Z-1.061
X205.091 Y259.84 Z-1.081
X204.956 Y259.811 Z-1.109
X204.822 Y259.774 Z-1.143
X204.688 Y259.731 Z-1.185
X204.554 Y259.68 Z-1.233
X204.42 Y259.622 Z-1.289
X204.286 Y259.557 Z-1.351
X204.152 Y259.485 Z-1.421
X204.018 Y259.407 Z-1.498
X203.885 Y259.321 Z-1.581
X203.751 Y259.228 Z-1.672
X203.618 Y259.128 Z-1.77
X203.424 Y258.97 Z-1.925
X203.273 Y258.84 Z-2.057
X203.084 Y258.665 Z-2.234
X202.242 Y257.866 Z-3.042
X202.244 Y257.633 Z-3.03
X202.243 Y256.925 Z-3.003
X202.238 Y255.107 Z-2.938
X202.235 Y254.198 Z-2.909
X202.23 Y253.283 Z-2.883
X202.224 Y252.352 Z-2.862
X202.213 Y251.009 Z-2.839
X202.203 Y249.83 Z-2.823
X202.183 Y247.757 Z-2.804
X202.187 Y247.555 Z-2.808
X202.198 Y247.352 Z-2.819
X202.216 Y247.153 Z-2.836
X202.24 Y246.954 Z-2.86
X202.271 Y246.755 Z-2.89
X202.311 Y246.544 Z-2.929
X202.358 Y246.333 Z-2.975
X202.766 Y246.358 Z-2.604
X203.15 Y246.381 Z-2.266
X203.335 Y246.392 Z-2.108
X203.515 Y246.403 Z-1.959
X203.691 Y246.413 Z-1.818
X203.863 Y246.424 Z-1.685
X204.032 Y246.434 Z-1.561
X204.198 Y246.444 Z-1.447
X204.362 Y246.454 Z-1.344
X204.524 Y246.464 Z-1.252
X204.605 Y246.469 Z-1.211
X204.685 Y246.473 Z-1.174
X204.764 Y246.478 Z-1.141
X204.844 Y246.483 Z-1.111
X204.923 Y246.488 Z-1.086
X205.002 Y246.493 Z-1.064
X205.081 Y246.497 Z-1.048
X205.16 Y246.502 Z-1.036
X205.345 Y246.508 Z-1.02
X205.758 Y246.514 Z-0.99
X206.281 Y246.52 Z-0.954
X206.644 Y246.523 Z-0.933
X207.025 Y246.524 Z-0.915
X207.487 Y246.523 Z-0.898
X207.971 Y246.522 Z-0.885
X208.531 Y246.52 Z-0.877
X209.089 Y246.517 Z-0.872
X209.792 Y246.511 Z-0.869
X210.112 Y246.507 Z-0.87
X210.575 Y246.499 Z-0.876
X210.97 Y246.493 Z-0.885
X211.225 Y246.488 Z-0.895
X211.617 Y246.481 Z-0.916
X211.885 Y246.477 Z-0.935
X212.266 Y246.474 Z-0.968
X212.703 Z-1.014
X213.117 Y246.476 Z-1.063
X213.355 Y246.478 Z-1.093
X213.432 Y246.477 Z-1.105
X213.586 Y246.47 Z-1.135
X213.701 Y246.467 Z-1.164
X213.772 Z-1.185
X213.868 Y246.468 Z-1.217
X213.983 Y246.471 Z-1.261
X214.171 Y246.478 Z-1.344
X214.288 Y246.481 Z-1.401
X214.371 Y246.63 Z-1.32
X214.457 Y246.796 Z-1.236
X214.502 Y246.886 Z-1.193
X214.562 Y247.018 Z-1.135
X214.597 Y247.1 Z-1.1
X214.662 Y247.269 Z-1.038
X214.685 Y247.332 Z-1.016
X214.728 Y247.467 Z-0.975
X214.773 Y247.625 Z-0.932
X214.805 Y247.753 Z-0.903
X214.837 Y247.902 Z-0.873
X214.869 Y248.069 Z-0.844
X214.876 Y248.105 Z-0.838
X214.895 Y248.229 Z-0.821
X214.915 Y248.431 Z-0.805
X214.953 Y248.84 Z-0.776
X214.989 Y249.256 Z-0.751
X215.017 Y249.629 Z-0.733
X215.047 Y250.109 Z-0.717
X215.056 Y250.274 Z-0.712
X214.506 Y250.866 Z-0.12
X214.393 Y250.986 Z0
X214.506 Y250.866 Z-0.12
X215.056 Y250.274 Z-0.712
X215.79 Y250.985 Z-0.001
X215.056 Y250.274 Z-0.712
X215.047 Y250.109 Z-0.717
X215.017 Y249.629 Z-0.733
X214.989 Y249.256 Z-0.751
X214.953 Y248.84 Z-0.776
X214.915 Y248.431 Z-0.805
X214.895 Y248.229 Z-0.821
X214.876 Y248.105 Z-0.838
X214.869 Y248.069 Z-0.844
X214.837 Y247.902 Z-0.873
X214.805 Y247.753 Z-0.903
X214.773 Y247.625 Z-0.932
X214.728 Y247.467 Z-0.975
X214.685 Y247.332 Z-1.016
X214.662 Y247.269 Z-1.038
X214.597 Y247.1 Z-1.1
X214.562 Y247.018 Z-1.135
X214.502 Y246.886 Z-1.193
X214.457 Y246.796 Z-1.236
X214.371 Y246.63 Z-1.32
X214.288 Y246.481 Z-1.401
X214.359 Y246.356 Z-1.329
X214.431 Y246.224 Z-1.26
X214.482 Y246.125 Z-1.212
X214.56 Y245.959 Z-1.137
X214.612 Y245.836 Z-1.088
X214.661 Y245.715 Z-1.042
X214.716 Y245.566 Z-0.99
X214.754 Y245.457 Z-0.954
X214.787 Y245.347 Z-0.924
X214.814 Y245.238 Z-0.899
X214.836 Y245.128 Z-0.88
X214.852 Y245.018 Z-0.866
X214.922 Y244.443 Z-0.809
X214.956 Y244.134 Z-0.782
X214.986 Y243.825 Z-0.759
X215.012 Y243.517 Z-0.739
X215.033 Y243.216 Z-0.726
X215.05 Y242.916 Z-0.715
X215.065 Y242.615 Z-0.707
X215.073 Y242.389 Z-0.703
X214.721 Y242.02 Z-0.334
X214.399 Y241.686 Z0
X214.721 Y242.02 Z-0.334
X215.073 Y242.389 Z-0.703
X215.792 Y241.687 Z-0.001
X215.073 Y242.389 Z-0.703
X215.065 Y242.615 Z-0.707
X215.05 Y242.916 Z-0.715
X215.033 Y243.216 Z-0.726
X215.012 Y243.517 Z-0.739
X214.986 Y243.825 Z-0.759
X214.956 Y244.134 Z-0.782
X214.922 Y244.443 Z-0.809
X214.852 Y245.018 Z-0.866
X214.836 Y245.128 Z-0.88
X214.814 Y245.238 Z-0.899
X214.787 Y245.347 Z-0.924
X214.754 Y245.457 Z-0.954
X214.716 Y245.566 Z-0.99
X214.661 Y245.715 Z-1.042
X214.612 Y245.836 Z-1.088
X214.56 Y245.959 Z-1.137
X214.482 Y246.125 Z-1.212
X214.431 Y246.224 Z-1.26
X214.359 Y246.356 Z-1.329
X214.288 Y246.481 Z-1.401
X214.171 Y246.478 Z-1.344
X213.983 Y246.471 Z-1.261
X213.868 Y246.468 Z-1.217
X213.772 Y246.467 Z-1.185
X213.701 Z-1.164
X213.586 Y246.47 Z-1.135
X213.432 Y246.477 Z-1.105
X213.355 Y246.478 Z-1.093
X213.117 Y246.476 Z-1.063
X212.703 Y246.474 Z-1.014
X212.266 Z-0.968
X211.885 Y246.477 Z-0.935
X211.617 Y246.481 Z-0.916
X211.225 Y246.488 Z-0.895
X210.97 Y246.493 Z-0.885
X210.575 Y246.499 Z-0.876
X210.112 Y246.507 Z-0.87
X209.792 Y246.511 Z-0.869
X209.089 Y246.517 Z-0.872
X208.531 Y246.52 Z-0.877
X207.971 Y246.522 Z-0.885
X207.487 Y246.523 Z-0.898
X207.025 Y246.524 Z-0.915
X206.644 Y246.523 Z-0.933
X206.281 Y246.52 Z-0.954
X205.758 Y246.514 Z-0.99
X205.345 Y246.508 Z-1.02
X205.16 Y246.502 Z-1.036
X205.081 Y246.497 Z-1.048
X205.002 Y246.493 Z-1.064
X204.923 Y246.488 Z-1.086
X204.844 Y246.483 Z-1.111
X204.764 Y246.478 Z-1.141
X204.685 Y246.473 Z-1.174
X204.605 Y246.469 Z-1.211
X204.524 Y246.464 Z-1.252
X204.362 Y246.454 Z-1.344
X204.198 Y246.444 Z-1.447
X204.032 Y246.434 Z-1.561
X203.863 Y246.424 Z-1.685
X203.691 Y246.413 Z-1.818
X203.515 Y246.403 Z-1.959
X203.335 Y246.392 Z-2.108
X203.15 Y246.381 Z-2.266
X202.766 Y246.358 Z-2.604
X202.358 Y246.333 Z-2.975
X202.328 Y246.149 Z-2.946
X202.303 Y245.949 Z-2.919
X202.283 Y245.749 Z-2.9
X202.27 Y245.548 Z-2.886
X202.262 Y245.234 Z-2.877
X202.247 Y244.217 Z-2.863
X202.242 Y243.594 Z-2.859
X202.237 Y242.865 Z-2.86
X202.232 Y241.66 Z-2.867
X202.225 Y240.661 Z-2.878
X202.215 Y239.621 Z-2.895
X202.212 Y239.22 Z-2.904
X202.202 Y238.393 Z-2.925
X202.193 Y237.566 Z-2.952
X202.182 Y236.738 Z-2.986
X202.171 Y235.723 Z-3.033
X202.157 Y234.498 Z-3.099
X202.151 Y234.03 Z-3.126
X201.35 Y233.275 Z-2.38
X200.709 Y232.672 Z-1.787
X200.603 Y232.579 Z-1.697
X200.497 Y232.492 Z-1.611
X200.385 Y232.405 Z-1.527
X200.28 Y232.328 Z-1.452
X200.174 Y232.256 Z-1.382
X200.068 Y232.189 Z-1.317
X199.962 Y232.126 Z-1.257
X199.856 Y232.069 Z-1.202
X199.741 Y232.012 Z-1.148
X199.636 Y231.965 Z-1.104
X199.53 Y231.923 Z-1.064
X199.418 Y231.883 Z-1.028
X198.99 Y231.745 Z-0.901
X198.661 Y231.641 Z-0.806
X198.332 Y231.541 Z-0.717
X198.106 Y231.475 Z-0.658
X197.884 Y231.414 Z-0.603
X197.663 Y231.354 Z-0.551
X197.273 Y231.254 Z-0.465
X196.809 Y230.775 Z-0.001
X197.273 Y231.254 Z-0.465
X196.883 Y231.497 Z-0.075
X196.808 Y231.545 Z0
X196.883 Y231.497 Z-0.075
X197.273 Y231.254 Z-0.465
X197.663 Y231.354 Z-0.551
X197.884 Y231.414 Z-0.603
X198.106 Y231.475 Z-0.658
X198.332 Y231.541 Z-0.717
X198.661 Y231.641 Z-0.806
X198.99 Y231.745 Z-0.901
X199.418 Y231.883 Z-1.028
X199.53 Y231.923 Z-1.064
X199.636 Y231.965 Z-1.104
X199.741 Y232.012 Z-1.148
X199.856 Y232.069 Z-1.202
X199.962 Y232.126 Z-1.257
X200.068 Y232.189 Z-1.317
X200.174 Y232.256 Z-1.382
X200.28 Y232.328 Z-1.452
X200.385 Y232.405 Z-1.527
X200.497 Y232.492 Z-1.611
X200.603 Y232.579 Z-1.697
X200.709 Y232.672 Z-1.787
X201.35 Y233.275 Z-2.38
X202.151 Y234.03 Z-3.126
X203.108 Y233.124 Z-2.211
X203.206 Y233.033 Z-2.12
X203.311 Y232.94 Z-2.026
X203.419 Y232.848 Z-1.933
X203.527 Y232.761 Z-1.845
X203.636 Y232.678 Z-1.762
X203.743 Y232.6 Z-1.683
X203.851 Y232.526 Z-1.609
X203.964 Y232.453 Z-1.535
X204.072 Y232.389 Z-1.47
X204.18 Y232.329 Z-1.41
X204.298 Y232.268 Z-1.349
X204.426 Y232.208 Z-1.289
X204.553 Y232.154 Z-1.236
X204.68 Y232.107 Z-1.189
X204.807 Y232.066 Z-1.149
X204.934 Y232.031 Z-1.115
X205.061 Y232.003 Z-1.087
X205.188 Y231.981 Z-1.065
X205.315 Y231.965 Z-1.05
X205.431 Y231.956 Z-1.041
X205.575 Y231.952 Z-1.038
X207.621 Y231.927 Z-1.032
X209.413 Y231.898 Z-1.034
X209.94 Y231.888 Z-1.036
X211.086 Y231.883 Z-1.056
X212.017 Y231.884 Z-1.075
X212.61 Y231.888 Z-1.091
X213.202 Y231.896 Z-1.109
X213.792 Y231.91 Z-1.13
X214.388 Y231.928 Z-1.156
X214.981 Y231.951 Z-1.184
X215.315 Y231.967 Z-1.2
X216.037 Y232.008 Z-1.23
X216.725 Y232.052 Z-1.259
X216.889 Y232.063 Z-1.265
X217.036 Y232.078 Z-1.273
X217.186 Y232.1 Z-1.289
X217.335 Y232.13 Z-1.312
X217.483 Y232.168 Z-1.342
X217.821 Y231.834 Z-0.99
X218.677 Y230.996 Z-0.1
X218.772 Y230.903 Z-0.001
X218.677 Y230.996 Z-0.1
X217.821 Y231.834 Z-0.99
X217.483 Y232.168 Z-1.342
X217.569 Y232.311 Z-1.263
X217.624 Y232.413 Z-1.213
X217.675 Y232.516 Z-1.166
X217.723 Y232.623 Z-1.123
X217.765 Y232.726 Z-1.087
X217.803 Y232.829 Z-1.055
X217.837 Y232.936 Z-1.026
X217.865 Y233.039 Z-1.004
X217.889 Y233.143 Z-0.986
X217.911 Y233.267 Z-0.97
X218.035 Y234.052 Z-0.896
X218.112 Y234.525 Z-0.855
X218.229 Y235.243 Z-0.8
X218.327 Y235.84 Z-0.761
X218.422 Y236.435 Z-0.728
X218.552 Y237.245 Z-0.689
X217.989 Y237.934 Z0
X218.552 Y237.245 Z-0.689
X219.293 Y237.905 Z-0.029
X219.326 Y237.934 Z0
G0 Z5
X234.008 Y261.087
G1 Z0 F850
X234.704 Y260.375 Z-0.696
X234.048 Y259.767 Z-0.04
X234.008 Y259.73 Z0
X234.048 Y259.767 Z-0.04
X234.704 Y260.375 Z-0.696
X235.19 Y260.347 Z-0.713
X235.607 Y260.32 Z-0.73
X236.031 Y260.289 Z-0.754
X236.463 Y260.25 Z-0.783
X237.15 Y260.183 Z-0.838
X237.248 Y260.171 Z-0.848
X237.346 Y260.155 Z-0.863
X237.463 Y260.13 Z-0.887
X237.49 Y260.123 Z-0.893
X237.657 Y260.081 Z-0.933
X237.799 Y260.04 Z-0.971
X237.93 Y259.998 Z-1.012
X238.011 Y259.97 Z-1.039
X238.183 Y259.903 Z-1.104
X238.329 Y259.84 Z-1.166
X238.496 Y259.758 Z-1.245
X238.63 Y259.687 Z-1.314
X238.767 Y259.609 Z-1.391
X238.932 Y259.511 Z-1.487
X239.098 Y259.407 Z-1.591
X239.206 Y259.333 Z-1.664
X239.314 Y259.254 Z-1.742
X239.418 Y259.173 Z-1.822
X239.831 Y258.832 Z-2.16
X240.296 Y258.439 Z-2.55
X240.706 Y258.086 Z-2.901
X240.984 Y257.841 Z-3.145
X241.507 Y258.334 Z-2.649
X241.634 Y258.451 Z-2.532
X241.772 Y258.573 Z-2.411
X242.03 Y258.786 Z-2.198
X242.241 Y258.953 Z-2.032
X242.318 Y259.012 Z-1.973
X242.519 Y259.16 Z-1.826
X242.675 Y259.271 Z-1.717
X242.816 Y259.365 Z-1.623
X243.017 Y259.49 Z-1.499
X243.143 Y259.564 Z-1.426
X243.3 Y259.649 Z-1.342
X243.434 Y259.717 Z-1.275
X243.608 Y259.8 Z-1.194
X243.814 Y259.891 Z-1.104
X243.858 Y259.91 Z-1.085
X243.996 Y259.964 Z-1.032
X244.134 Y260.01 Z-0.988
X244.226 Y260.036 Z-0.963
X244.319 Y260.058 Z-0.942
X244.415 Y260.077 Z-0.924
X244.62 Y260.109 Z-0.895
X245.091 Y260.18 Z-0.832
X245.414 Y260.224 Z-0.793
X245.742 Y260.264 Z-0.76
X245.915 Y260.283 Z-0.745
X246.235 Y260.313 Z-0.722
X246.56 Y260.339 Z-0.705
X246.922 Y260.362 Z-0.691
X247.351 Y260.385 Z-0.681
X248.031 Y261.085 Z-0.001
X247.351 Y260.385 Z-0.681
X247.974 Y259.793 Z-0.058
X248.031 Y259.738 Z-0.001
X247.974 Y259.793 Z-0.058
X247.351 Y260.385 Z-0.681
X246.922 Y260.362 Z-0.691
X246.56 Y260.339 Z-0.705
X246.235 Y260.313 Z-0.722
X245.915 Y260.283 Z-0.745
X245.742 Y260.264 Z-0.76
X245.414 Y260.224 Z-0.793
X245.091 Y260.18 Z-0.832
X244.62 Y260.109 Z-0.895
X244.415 Y260.077 Z-0.924
X244.319 Y260.058 Z-0.942
X244.226 Y260.036 Z-0.963
X244.134 Y260.01 Z-0.988
X243.996 Y259.964 Z-1.032
X243.858 Y259.91 Z-1.085
X243.814 Y259.891 Z-1.104
X243.608 Y259.8 Z-1.194
X243.434 Y259.717 Z-1.275
X243.3 Y259.649 Z-1.342
X243.143 Y259.564 Z-1.426
X243.017 Y259.49 Z-1.499
X242.816 Y259.365 Z-1.623
X242.675 Y259.271 Z-1.717
X242.519 Y259.16 Z-1.826
X242.318 Y259.012 Z-1.973
X242.241 Y258.953 Z-2.032
X242.03 Y258.786 Z-2.198
X241.772 Y258.573 Z-2.411
X241.634 Y258.451 Z-2.532
X241.507 Y258.334 Z-2.649
X240.984 Y257.841 Z-3.145
X240.993 Y257.484 Z-3.116
X240.997 Y257.243 Z-3.099
X241 Y256.869 Z-3.077
Y256.361 Z-3.053
X240.996 Y255.923 Z-3.04
X240.988 Y255.169 Z-3.025
X240.985 Y254.386 Z-3.009
X240.987 Y253.475 Z-2.993
X240.991 Y252.659 Z-2.982
X241.001 Y251.085 Z-2.965
X241 Y249.437 Z-2.946
X240.997 Y248.223 Z-2.934
X240.987 Y245.82 Z-2.915
X240.971 Y243.843 Z-2.907
X240.949 Y241.761 Z-2.903
X240.932 Y240.398 Z-2.904
X240.928 Y239.757 Z-2.911
X240.92 Y238.601 Z-2.93
X240.912 Y237.401 Z-2.956
X240.906 Y236.508 Z-2.98
X240.901 Y234.946 Z-3.032
X240.897 Y233.979 Z-3.068
X239.917 Y233.028 Z-2.126
X239.709 Y232.828 Z-1.929
X239.619 Y232.745 Z-1.848
X239.474 Y232.619 Z-1.724
X239.323 Y232.497 Z-1.605
X239.179 Y232.39 Z-1.501
X239.034 Y232.292 Z-1.405
X238.889 Y232.202 Z-1.319
X238.738 Y232.119 Z-1.239
X238.642 Y232.071 Z-1.192
X238.545 Y232.026 Z-1.15
X238.444 Y231.984 Z-1.11
X238.354 Y231.95 Z-1.079
X238.157 Y231.885 Z-1.019
X237.702 Y231.739 Z-0.886
X237.271 Y231.604 Z-0.766
X236.981 Y231.516 Z-0.688
X236.642 Y231.419 Z-0.602
X236.188 Y231.296 Z-0.496
X235.943 Y231.232 Z-0.441
X235.502 Y231.504 Z0
X235.943 Y231.232 Z-0.441
X235.502 Y230.776 Z0
X235.943 Y231.232 Z-0.441
X236.188 Y231.296 Z-0.496
X236.642 Y231.419 Z-0.602
X236.981 Y231.516 Z-0.688
X237.271 Y231.604 Z-0.766
X237.702 Y231.739 Z-0.886
X238.157 Y231.885 Z-1.019
X238.354 Y231.95 Z-1.079
X238.444 Y231.984 Z-1.11
X238.545 Y232.026 Z-1.15
X238.642 Y232.071 Z-1.192
X238.738 Y232.119 Z-1.239
X238.889 Y232.202 Z-1.319
X239.034 Y232.292 Z-1.405
X239.179 Y232.39 Z-1.501
X239.323 Y232.497 Z-1.605
X239.474 Y232.619 Z-1.724
X239.619 Y232.745 Z-1.848
X239.709 Y232.828 Z-1.929
X239.917 Y233.028 Z-2.126
X240.897 Y233.979 Z-3.068
X241.702 Y233.21 Z-2.293
X241.849 Y233.078 Z-2.161
X241.996 Y232.954 Z-2.036
X242.144 Y232.837 Z-1.918
X242.327 Y232.702 Z-1.783
X242.468 Y232.605 Z-1.689
X242.609 Y232.516 Z-1.601
X242.751 Y232.434 Z-1.521
X242.892 Y232.359 Z-1.449
X243.033 Y232.292 Z-1.383
X243.175 Y232.232 Z-1.326
X243.317 Y232.18 Z-1.275
X243.458 Y232.134 Z-1.232
X243.6 Y232.097 Z-1.196
X243.742 Y232.066 Z-1.168
X243.884 Y232.043 Z-1.147
X244.026 Y232.027 Z-1.133
X244.169 Y232.019 Z-1.127
X245.954 Y231.962 Z-1.095
X246.854 Y231.94 Z-1.085
X247.577 Y231.926 Z-1.08
X248.503 Y231.912 Z-1.078
X249.686 Y231.914 Z-1.095
X250.284 Y231.918 Z-1.107
X250.892 Y231.926 Z-1.123
X251.499 Y231.939 Z-1.144
X251.815 Y231.948 Z-1.157
X252.432 Y231.973 Z-1.189
X252.744 Y231.988 Z-1.208
X253.359 Y232.024 Z-1.252
X253.8 Y232.054 Z-1.288
X254.27 Y232.094 Z-1.322
X254.887 Y232.152 Z-1.37
X255.655 Y232.233 Z-1.427
X255.804 Y232.25 Z-1.438
X255.958 Y232.274 Z-1.454
X256.056 Y232.293 Z-1.468
X256.121 Y232.226 Z-1.398
X257.411 Y230.906 Z-0.001
X256.121 Y232.226 Z-1.398
X256.056 Y232.293 Z-1.468
X256.122 Y232.383 Z-1.41
X256.185 Y232.473 Z-1.356
X256.252 Y232.578 Z-1.298
X256.315 Y232.683 Z-1.245
X256.377 Y232.797 Z-1.193
X256.43 Y232.904 Z-1.15
X256.478 Y233.011 Z-1.112
X256.521 Y233.119 Z-1.079
X256.559 Y233.227 Z-1.052
X256.593 Y233.335 Z-1.029
X256.622 Y233.448 Z-1.01
X256.647 Y233.568 Z-0.997
X256.796 Y234.373 Z-0.928
X256.935 Y235.114 Z-0.871
X257.024 Y235.593 Z-0.838
X257.136 Y236.208 Z-0.801
X257.245 Y236.821 Z-0.771
X257.388 Y237.636 Z-0.737
X256.79 Y238.372 Z-0.001
X257.388 Y237.636 Z-0.737
X258.234 Y238.373 Z0
G0 Z5
X261.386 Y232.274
G1 Z0 F850
X261.474 Y232.189 Z-0.088
X261.825 Y231.855 Z-0.439
X262.13 Y231.572 Z-0.744
X261.386 Y230.782 Z0
X262.13 Y231.572 Z-0.744
X262.194 Y231.577 Z-0.745
X262.447 Y231.598 Z-0.752
X262.69 Y231.621 Z-0.763
X262.907 Y231.646 Z-0.778
X263.1 Y231.67 Z-0.795
X263.315 Y231.701 Z-0.817
X263.587 Y231.744 Z-0.852
X264.051 Y231.822 Z-0.919
X264.143 Y231.84 Z-0.935
X264.243 Y231.864 Z-0.957
X264.344 Y231.892 Z-0.983
X264.457 Y231.928 Z-1.018
X264.558 Y231.965 Z-1.054
X264.638 Y231.998 Z-1.086
X264.717 Y232.033 Z-1.12
X264.96 Y232.147 Z-1.232
X265.169 Y232.246 Z-1.33
X265.372 Y232.346 Z-1.429
X265.552 Y232.438 Z-1.52
X265.775 Y232.557 Z-1.638
X265.987 Y232.675 Z-1.756
X266.078 Y232.611 Z-1.692
X266.269 Y232.484 Z-1.565
X266.417 Y232.393 Z-1.475
X266.545 Y232.32 Z-1.403
X266.671 Y232.253 Z-1.336
X266.755 Y232.211 Z-1.295
X266.89 Y232.147 Z-1.232
X267.01 Y232.096 Z-1.181
X267.116 Y232.053 Z-1.139
X267.282 Y231.993 Z-1.08
X267.428 Y231.945 Z-1.033
X267.588 Y231.895 Z-0.986
X267.689 Y231.867 Z-0.959
X267.795 Y231.842 Z-0.936
X267.898 Y231.823 Z-0.918
X268.018 Y231.806 Z-0.903
X268.537 Y231.744 Z-0.851
X268.822 Y231.711 Z-0.826
X269.155 Y231.675 Z-0.801
X269.387 Y231.653 Z-0.788
X269.671 Y231.628 Z-0.775
X270.075 Y231.597 Z-0.762
X270.337 Y231.578 Z-0.757
X270.646 Y231.862 Z-0.448
X271.093 Y232.281 Z-0.001
X270.646 Y231.862 Z-0.448
X270.337 Y231.578 Z-0.757
X271.093 Y230.781 Z-0.001
X270.337 Y231.578 Z-0.757
X270.075 Y231.597 Z-0.762
X269.671 Y231.628 Z-0.775
X269.387 Y231.653 Z-0.788
X269.155 Y231.675 Z-0.801
X268.822 Y231.711 Z-0.826
X268.537 Y231.744 Z-0.851
X268.018 Y231.806 Z-0.903
X267.898 Y231.823 Z-0.918
X267.795 Y231.842 Z-0.936
X267.689 Y231.867 Z-0.959
X267.588 Y231.895 Z-0.986
X267.428 Y231.945 Z-1.033
X267.282 Y231.993 Z-1.08
X267.116 Y232.053 Z-1.139
X267.01 Y232.096 Z-1.181
X266.89 Y232.147 Z-1.232
X266.755 Y232.211 Z-1.295
X266.671 Y232.253 Z-1.336
X266.545 Y232.32 Z-1.403
X266.417 Y232.393 Z-1.475
X266.269 Y232.484 Z-1.565
X266.078 Y232.611 Z-1.692
X265.987 Y232.675 Z-1.756
X266.006 Y232.838 Z-1.69
X266.026 Y232.99 Z-1.634
X266.055 Y233.183 Z-1.569
X266.077 Y233.318 Z-1.528
X266.106 Y233.489 Z-1.479
X266.124 Y233.58 Z-1.456
X266.158 Y233.727 Z-1.425
X266.231 Y234.015 Z-1.371
X266.271 Y234.162 Z-1.347
X266.327 Y234.35 Z-1.32
X266.39 Y234.544 Z-1.297
X266.492 Y234.836 Z-1.27
X266.642 Y235.245 Z-1.239
X266.973 Y236.134 Z-1.176
X267.167 Y236.645 Z-1.146
X267.319 Y237.035 Z-1.127
X267.517 Y237.538 Z-1.107
X267.677 Y237.942 Z-1.093
X267.984 Y238.691 Z-1.081
X268.394 Y239.699 Z-1.066
X268.687 Y240.425 Z-1.058
X268.727 Y240.515 Z-1.06
X268.77 Y240.604 Z-1.065
X268.821 Y240.699 Z-1.076
X268.882 Y240.803 Z-1.093
X268.948 Y240.905 Z-1.115
X269.02 Y241.004 Z-1.143
X269.096 Y241.102 Z-1.176
X269.178 Y241.198 Z-1.215
X269.267 Y241.294 Z-1.261
X269.357 Y241.385 Z-1.31
X269.453 Y241.473 Z-1.364
X269.553 Y241.559 Z-1.424
X269.639 Y241.526 Z-1.376
X269.716 Y241.496 Z-1.336
X269.789 Y241.467 Z-1.301
X269.86 Y241.44 Z-1.27
X269.972 Y241.398 Z-1.226
X270.084 Y241.362 Z-1.187
X270.195 Y241.33 Z-1.153
X270.306 Y241.303 Z-1.124
X270.418 Y241.281 Z-1.099
X270.529 Y241.263 Z-1.079
X270.64 Y241.25 Z-1.063
X270.752 Y241.242 Z-1.053
X270.851 Y241.239 Z-1.048
X271.867 Y241.226 Z-1.015
X272.918 Y241.215 Z-0.99
X273.868 Y241.209 Z-0.977
X275.183 Y241.206 Z-0.97
X275.586 Z-0.971
X276.405 Y241.207 Z-0.974
X277.428 Y241.211 Z-0.982
X278.255 Y241.216 Z-0.995
X278.788 Y241.221 Z-1.006
X279.488 Y241.228 Z-1.024
X280.314 Y241.238 Z-1.048
X280.449 Y241.243 Z-1.056
X280.576 Y241.254 Z-1.07
X280.703 Y241.272 Z-1.09
X280.831 Y241.296 Z-1.116
X280.959 Y241.325 Z-1.148
X281.086 Y241.362 Z-1.187
X281.214 Y241.404 Z-1.232
X281.342 Y241.452 Z-1.283
X281.472 Y241.505 Z-1.343
X281.601 Y241.557 Z-1.412
X281.731 Y241.61 Z-1.491
X281.862 Y241.662 Z-1.577
X281.995 Y241.716 Z-1.671
X282.128 Y241.77 Z-1.772
X282.263 Y241.824 Z-1.879
X282.401 Y241.879 Z-1.992
X282.54 Y241.936 Z-2.11
X282.827 Y242.051 Z-2.365
X283.282 Y242.235 Z-2.789
X283.605 Y242.365 Z-3.102
X283.716 Y242.201 Z-3.064
X283.822 Y242.034 Z-3.031
X283.922 Y241.864 Z-3.004
X284.017 Y241.693 Z-2.984
X284.106 Y241.519 Z-2.969
X284.19 Y241.343 Z-2.96
X284.268 Y241.164 Z-2.957
X285.776 Y237.467 Z-3.001
X285.968 Y237.001 Z-3.005
X286.13 Y236.601 Z-3.01
X286.325 Y236.104 Z-3.02
X286.411 Y235.879 Z-3.028
X286.545 Y235.519 Z-3.044
X286.664 Y235.189 Z-3.065
X286.808 Y234.78 Z-3.098
X286.984 Y234.272 Z-3.148
X287.046 Y234.087 Z-3.17
X286.865 Y233.874 Z-2.958
X286.718 Y233.709 Z-2.794
X286.561 Y233.543 Z-2.628
X286.411 Y233.392 Z-2.478
X286.188 Y233.182 Z-2.269
X285.963 Y232.981 Z-2.07
X285.828 Y232.867 Z-1.956
X285.655 Y232.726 Z-1.817
X285.479 Y232.591 Z-1.684
X285.34 Y232.491 Z-1.586
X285.307 Y232.468 Z-1.563
X285.134 Y232.354 Z-1.451
X284.987 Y232.265 Z-1.364
X284.847 Y232.186 Z-1.287
X284.723 Y232.122 Z-1.224
X284.586 Y232.057 Z-1.161
X284.436 Y231.992 Z-1.099
X284.292 Y231.936 Z-1.045
X284.146 Y231.885 Z-0.997
X283.978 Y231.832 Z-0.947
X283.843 Y231.792 Z-0.91
X283.743 Y231.767 Z-0.887
X283.643 Y231.747 Z-0.869
X283.542 Y231.731 Z-0.856
X283.352 Y231.71 Z-0.839
X282.934 Y231.667 Z-0.807
X282.543 Y231.63 Z-0.782
X282.266 Y231.608 Z-0.768
X281.998 Y231.589 Z-0.759
X281.713 Y231.572 Z-0.752
X281.253 Y231.551 Z-0.746
X280.912 Y231.879 Z-0.405
X280.508 Y232.272 Z-0.001
X280.912 Y231.879 Z-0.405
X281.253 Y231.551 Z-0.746
X280.508 Y230.776 Z0
X281.253 Y231.551 Z-0.746
X281.713 Y231.572 Z-0.752
X281.998 Y231.589 Z-0.759
X282.266 Y231.608 Z-0.768
X282.543 Y231.63 Z-0.782
X282.934 Y231.667 Z-0.807
X283.352 Y231.71 Z-0.839
X283.542 Y231.731 Z-0.856
X283.643 Y231.747 Z-0.869
X283.743 Y231.767 Z-0.887
X283.843 Y231.792 Z-0.91
X283.978 Y231.832 Z-0.947
X284.146 Y231.885 Z-0.997
X284.292 Y231.936 Z-1.045
X284.436 Y231.992 Z-1.099
X284.586 Y232.057 Z-1.161
X284.723 Y232.122 Z-1.224
X284.847 Y232.186 Z-1.287
X284.987 Y232.265 Z-1.364
X285.134 Y232.354 Z-1.451
X285.307 Y232.468 Z-1.563
X285.34 Y232.491 Z-1.586
X285.479 Y232.591 Z-1.684
X285.655 Y232.726 Z-1.817
X285.828 Y232.867 Z-1.956
X285.963 Y232.981 Z-2.07
X286.188 Y233.182 Z-2.269
X286.411 Y233.392 Z-2.478
X286.561 Y233.543 Z-2.628
X286.718 Y233.709 Z-2.794
X286.865 Y233.874 Z-2.958
X287.046 Y234.087 Z-3.17
X287.386 Y233.874 Z-2.955
X287.874 Y233.57 Z-2.653
X288.166 Y233.391 Z-2.476
X288.671 Y233.086 Z-2.175
X289.198 Y232.776 Z-1.87
X289.848 Y232.397 Z-1.499
X290.073 Y232.266 Z-1.372
X290.201 Y232.195 Z-1.303
X290.329 Y232.131 Z-1.241
X290.469 Y232.068 Z-1.181
X290.614 Y232.012 Z-1.127
X290.754 Y231.966 Z-1.084
X290.899 Y231.926 Z-1.048
X291.074 Y231.887 Z-1.013
X291.34 Y231.828 Z-0.961
X291.618 Y231.771 Z-0.911
X291.902 Y231.717 Z-0.867
X292.051 Y231.691 Z-0.846
X292.216 Y231.666 Z-0.826
X292.496 Y231.629 Z-0.798
X292.65 Y231.612 Z-0.786
X292.922 Y231.586 Z-0.77
X293.195 Y231.565 Z-0.759
X293.24 Y231.562 Z-0.758
X293.475 Y231.778 Z-0.523
X293.87 Y232.152 Z-0.128
X293.998 Y232.274 Z0
X293.87 Y232.152 Z-0.128
X293.475 Y231.778 Z-0.523
X293.24 Y231.562 Z-0.758
X293.998 Y230.776 Z0
X293.24 Y231.562 Z-0.758
X293.195 Y231.565 Z-0.759
X292.922 Y231.586 Z-0.77
X292.65 Y231.612 Z-0.786
X292.496 Y231.629 Z-0.798
X292.216 Y231.666 Z-0.826
X292.051 Y231.691 Z-0.846
X291.902 Y231.717 Z-0.867
X291.618 Y231.771 Z-0.911
X291.34 Y231.828 Z-0.961
X291.074 Y231.887 Z-1.013
X290.899 Y231.926 Z-1.048
X290.754 Y231.966 Z-1.084
X290.614 Y232.012 Z-1.127
X290.469 Y232.068 Z-1.181
X290.329 Y232.131 Z-1.241
X290.201 Y232.195 Z-1.303
X290.073 Y232.266 Z-1.372
X289.848 Y232.397 Z-1.499
X289.198 Y232.776 Z-1.87
X288.671 Y233.086 Z-2.175
X288.166 Y233.391 Z-2.476
X287.874 Y233.57 Z-2.653
X287.386 Y233.874 Z-2.955
X287.046 Y234.087 Z-3.17
X286.984 Y234.272 Z-3.148
X286.808 Y234.78 Z-3.098
X286.664 Y235.189 Z-3.065
X286.545 Y235.519 Z-3.044
X286.411 Y235.879 Z-3.028
X286.325 Y236.104 Z-3.02
X286.13 Y236.601 Z-3.01
X285.968 Y237.001 Z-3.005
X285.776 Y237.467 Z-3.001
X284.268 Y241.164 Z-2.957
X284.19 Y241.343 Z-2.96
X284.106 Y241.519 Z-2.969
X284.017 Y241.693 Z-2.984
X283.922 Y241.864 Z-3.004
X283.822 Y242.034 Z-3.031
X283.716 Y242.201 Z-3.064
X283.605 Y242.365 Z-3.102
X283.565 Y242.572 Z-3.058
X283.519 Y242.777 Z-3.021
X283.468 Y242.978 Z-2.991
X283.409 Y243.178 Z-2.967
X283.345 Y243.374 Z-2.95
X283.275 Y243.568 Z-2.94
X283.198 Y243.76 Z-2.936
X278.467 Y255.062 Z-2.913
X278.378 Y255.263 Z-2.916
X278.283 Y255.461 Z-2.928
X278.18 Y255.655 Z-2.947
X278.07 Y255.847 Z-2.974
X277.954 Y256.036 Z-3.008
X277.83 Y256.223 Z-3.05
X277.699 Y256.406 Z-3.099
X277.561 Y256.586 Z-3.156
X277.547 Y259.167 Z-2.168
X276.091 Y261.334 Z-0.001
X277.547 Y259.167 Z-2.168
X278.987 Y261.335 Z0
X277.547 Y259.167 Z-2.168
X277.561 Y256.586 Z-3.156
X277.341 Y256.521 Z-2.977
X277.127 Y256.453 Z-2.805
X276.922 Y256.381 Z-2.641
X276.723 Y256.307 Z-2.486
X276.532 Y256.23 Z-2.338
X276.348 Y256.15 Z-2.198
X276.172 Y256.067 Z-2.066
X276.003 Y255.981 Z-1.943
X275.842 Y255.891 Z-1.827
X275.687 Y255.799 Z-1.719
X275.541 Y255.704 Z-1.619
X275.401 Y255.606 Z-1.527
X275.269 Y255.505 Z-1.443
X275.145 Y255.4 Z-1.367
X275.028 Y255.293 Z-1.299
X274.918 Y255.183 Z-1.239
X274.815 Y255.069 Z-1.187
X274.72 Y254.953 Z-1.143
X274.633 Y254.834 Z-1.107
X274.552 Y254.711 Z-1.079
X274.479 Y254.586 Z-1.059
X274.414 Y254.457 Z-1.047
X274.356 Y254.326 Z-1.043
X269.728 Y243.022 Z-1.032
X269.681 Y242.897 Z-1.035
X269.641 Y242.772 Z-1.045
X269.607 Y242.645 Z-1.062
X269.579 Y242.515 Z-1.085
X269.557 Y242.382 Z-1.115
X269.542 Y242.247 Z-1.152
X269.533 Y242.11 Z-1.195
X269.53 Y241.97 Z-1.245
X269.532 Y241.831 Z-1.301
X269.54 Y241.698 Z-1.359
X269.553 Y241.564 Z-1.422
Y241.559 Z-1.424
G0 Z5
X296.52 Y232.117
G1 Z0 F850
X296.541 Y232.096 Z-0.021
X297.189 Y231.469 Z-0.669
X296.52 Y230.776 Z0
X297.189 Y231.469 Z-0.669
X297.516 Y231.484 Z-0.672
X297.8 Y231.5 Z-0.677
X298.085 Y231.518 Z-0.686
X298.377 Y231.542 Z-0.699
X298.668 Y231.569 Z-0.718
X298.954 Y231.6 Z-0.739
X299.19 Y231.628 Z-0.76
X299.647 Y231.685 Z-0.805
X299.765 Y231.703 Z-0.82
X299.878 Y231.726 Z-0.841
X299.979 Y231.753 Z-0.866
X300.081 Y231.784 Z-0.895
X300.236 Y231.837 Z-0.944
X300.383 Y231.891 Z-0.995
X300.529 Y231.948 Z-1.05
X300.649 Y232.001 Z-1.1
X300.785 Y232.065 Z-1.161
X300.933 Y232.14 Z-1.234
X301.073 Y232.217 Z-1.308
X301.204 Y232.293 Z-1.382
X301.368 Y232.395 Z-1.481
X301.564 Y232.522 Z-1.605
X301.743 Y232.406 Z-1.487
X301.778 Y232.383 Z-1.465
X301.953 Y232.276 Z-1.36
X302.079 Y232.203 Z-1.289
X302.199 Y232.137 Z-1.225
X302.373 Y232.052 Z-1.142
X302.499 Y231.995 Z-1.088
X302.627 Y231.943 Z-1.038
X302.751 Y231.897 Z-0.994
X302.872 Y231.856 Z-0.956
X303.01 Y231.813 Z-0.916
X303.115 Y231.785 Z-0.889
X303.226 Y231.76 Z-0.866
X303.297 Y231.747 Z-0.855
X303.437 Y231.727 Z-0.838
X303.916 Y231.663 Z-0.786
X304.29 Y231.616 Z-0.751
X304.502 Y231.593 Z-0.735
X304.795 Y231.564 Z-0.715
X305.139 Y231.534 Z-0.699
X305.37 Y231.517 Z-0.69
X305.657 Y231.498 Z-0.683
X305.866 Y231.486 Z-0.679
X306.226 Y231.823 Z-0.319
X306.545 Y232.125 Z0
X306.226 Y231.823 Z-0.319
X305.866 Y231.486 Z-0.679
X306.545 Y230.777 Z0
X305.866 Y231.486 Z-0.679
X305.657 Y231.498 Z-0.683
X305.37 Y231.517 Z-0.69
X305.139 Y231.534 Z-0.699
X304.795 Y231.564 Z-0.715
X304.502 Y231.593 Z-0.735
X304.29 Y231.616 Z-0.751
X303.916 Y231.663 Z-0.786
X303.437 Y231.727 Z-0.838
X303.297 Y231.747 Z-0.855
X303.226 Y231.76 Z-0.866
X303.115 Y231.785 Z-0.889
X303.01 Y231.813 Z-0.916
X302.872 Y231.856 Z-0.956
X302.751 Y231.897 Z-0.994
X302.627 Y231.943 Z-1.038
X302.499 Y231.995 Z-1.088
X302.373 Y232.052 Z-1.142
X302.199 Y232.137 Z-1.225
X302.079 Y232.203 Z-1.289
X301.953 Y232.276 Z-1.36
X301.778 Y232.383 Z-1.465
X301.743 Y232.406 Z-1.487
X301.564 Y232.522 Z-1.605
X301.568 Y232.624 Z-1.568
X301.57 Y232.715 Z-1.54
X301.573 Y232.8 Z-1.518
X301.578 Y232.961 Z-1.485
X301.582 Y233.434 Z-1.404
X301.583 Y233.635 Z-1.372
X301.586 Y234.002 Z-1.317
X301.587 Y234.345 Z-1.273
X301.588 Y234.599 Z-1.246
X301.589 Y234.871 Z-1.222
X301.588 Y235.166 Z-1.202
Y235.384 Z-1.19
X301.587 Y235.879 Z-1.172
X301.586 Y236.097 Z-1.167
X301.585 Y236.637 Z-1.162
X301.584 Y236.995 Z-1.16
X301.587 Y237.327 Z-1.156
X301.588 Y240.289 Z-1.097
Y241.621 Z-1.076
Y242.619 Z-1.065
X301.589 Y243.644 Z-1.056
X301.587 Y245.397 Z-1.048
X301.586 Y245.753
X301.566 Y254.315 Z-1.068
X301.569 Y254.403 Z-1.069
X301.575 Y254.492 Z-1.074
X301.584 Y254.581 Z-1.081
X301.596 Y254.67 Z-1.092
X301.613 Y254.767 Z-1.107
X301.631 Y254.856 Z-1.124
X301.652 Y254.944 Z-1.144
X301.676 Y255.034 Z-1.167
X301.708 Y255.139 Z-1.198
X301.739 Y255.228 Z-1.229
X301.772 Y255.317 Z-1.262
X301.808 Y255.406 Z-1.298
X301.852 Y255.505 Z-1.342
X301.894 Y255.594 Z-1.385
X301.945 Y255.693 Z-1.436
X301.993 Y255.783 Z-1.485
X302.057 Y255.892 Z-1.551
X302.112 Y255.983 Z-1.608
X302.178 Y256.084 Z-1.675
X302.239 Y256.175 Z-1.739
X302.321 Y256.29 Z-1.824
X302.389 Y256.381 Z-1.896
X302.481 Y256.499 Z-1.993
X302.556 Y256.592 Z-2.073
X302.66 Y256.715 Z-2.182
X302.827 Y256.903 Z-2.361
X302.944 Y257.029 Z-2.487
X303.073 Y257.162 Z-2.625
X303.27 Y257.357 Z-2.838
X303.437 Y257.515 Z-3.019
X303.679 Y257.736 Z-3.284
X303.336 Y258.034 Z-2.977
X302.79 Y258.499 Z-2.5
X302.249 Y258.956 Z-2.036
X302.075 Y259.092 Z-1.898
X301.987 Y259.156 Z-1.833
X301.899 Y259.218 Z-1.771
X301.812 Y259.276 Z-1.711
X301.61 Y259.403 Z-1.583
X301.464 Y259.49 Z-1.494
X301.295 Y259.586 Z-1.397
X301.191 Y259.643 Z-1.342
X301.116 Y259.682 Z-1.304
X300.934 Y259.77 Z-1.218
X300.844 Y259.81 Z-1.179
X300.708 Y259.866 Z-1.124
X300.544 Y259.927 Z-1.065
X300.407 Y259.973 Z-1.02
X300.261 Y260.019 Z-0.976
X300.165 Y260.046 Z-0.95
X300.068 Y260.07 Z-0.929
X299.982 Y260.087 Z-0.912
X299.857 Y260.106 Z-0.895
X299.457 Y260.161 Z-0.846
X299.155 Y260.201 Z-0.811
X298.845 Y260.239 Z-0.78
X298.536 Y260.273 Z-0.754
X298.228 Y260.302 Z-0.732
X297.927 Y260.327 Z-0.716
X297.627 Y260.348 Z-0.703
X297.21 Y260.374 Z-0.69
X296.875 Y260.063 Z-0.355
X296.52 Y259.731 Z0
X296.875 Y260.063 Z-0.355
X297.21 Y260.374 Z-0.69
X296.521 Y261.085 Z-0.001
X297.21 Y260.374 Z-0.69
X297.627 Y260.348 Z-0.703
X297.927 Y260.327 Z-0.716
X298.228 Y260.302 Z-0.732
X298.536 Y260.273 Z-0.754
X298.845 Y260.239 Z-0.78
X299.155 Y260.201 Z-0.811
X299.457 Y260.161 Z-0.846
X299.857 Y260.106 Z-0.895
X299.982 Y260.087 Z-0.912
X300.068 Y260.07 Z-0.929
X300.165 Y260.046 Z-0.95
X300.261 Y260.019 Z-0.976
X300.407 Y259.973 Z-1.02
X300.544 Y259.927 Z-1.065
X300.708 Y259.866 Z-1.124
X300.844 Y259.81 Z-1.179
X300.934 Y259.77 Z-1.218
X301.116 Y259.682 Z-1.304
X301.191 Y259.643 Z-1.342
X301.295 Y259.586 Z-1.397
X301.464 Y259.49 Z-1.494
X301.61 Y259.403 Z-1.583
X301.812 Y259.276 Z-1.711
X301.899 Y259.218 Z-1.771
X301.987 Y259.156 Z-1.833
X302.075 Y259.092 Z-1.898
X302.249 Y258.956 Z-2.036
X302.79 Y258.499 Z-2.5
X303.336 Y258.034 Z-2.977
X303.679 Y257.736 Z-3.284
X303.847 Y257.717 Z-3.307
X304.236 Y258.561 Z-2.478
X305.393 Y261.087 Z-0.001
X304.236 Y258.561 Z-2.478
X303.847 Y257.717 Z-3.307
X303.981 Y257.626 Z-3.259
X304.112 Y257.533 Z-3.215
X304.24 Y257.437 Z-3.174
X304.393 Y257.316 Z-3.129
X304.542 Y257.193 Z-3.09
X304.686 Y257.065 Z-3.056
X304.825 Y256.935 Z-3.028
X304.963 Y256.799 Z-3.006
X305.093 Y256.662 Z-2.989
X305.22 Y256.521 Z-2.978
X305.342 Y256.377 Z-2.972
X306.492 Y254.923 Z-2.983
X307.231 Y253.994 Z-2.99
X308.087 Y252.926 Z-2.996
X308.619 Y252.269 Z-2.998
X309.149 Y251.622 Z-2.999
X309.631 Y251.035 Z-2.998
X310.514 Y249.971 Z-2.996
X311.579 Y248.695 Z-2.993
X313 Y247.007 Z-2.986
X314.509 Y245.219 Z-2.978
X315.235 Y244.364 Z-2.976
X316.631 Y242.726 Z-2.973
X317.246 Y242.01
X318.173 Y240.94 Z-2.976
X318.797 Y240.225 Z-2.98
X319.733 Y239.164 Z-2.989
X320.673 Y238.11 Z-3.001
X321.919 Y236.72 Z-3.017
X322.054 Y236.575 Z-3.022
X322.206 Y236.421 Z-3.034
X322.363 Y236.271 Z-3.053
X322.526 Y236.127 Z-3.079
X322.695 Y235.987 Z-3.113
X322.867 Y235.854 Z-3.153
X323.044 Y235.725 Z-3.2
X323.226 Y235.6 Z-3.254
X323.413 Y235.481 Z-3.315
X323.876 Y234.286 Z-2.867
X324.23 Y233.382 Z-2.532
X324.395 Y232.967 Z-2.378
X325.107 Y232.154 Z-1.69
X325.665 Y231.514 Z-1.154
X326.675 Y230.351 Z-0.187
X326.865 Y230.281 Z0
X326.675 Y230.351 Z-0.187
X326.742 Y230.149 Z0
X326.675 Y230.351 Z-0.187
X325.665 Y231.514 Z-1.154
X325.107 Y232.154 Z-1.69
X324.395 Y232.967 Z-2.378
X323.184 Y230.749 Z0
X324.395 Y232.967 Z-2.378
X324.23 Y233.382 Z-2.532
X323.876 Y234.286 Z-2.867
X323.413 Y235.481 Z-3.315
X323.612 Y235.639 Z-3.114
X323.792 Y235.789 Z-2.933
X323.977 Y235.949 Z-2.747
X324.14 Y236.099 Z-2.583
X324.294 Y236.248 Z-2.428
X324.441 Y236.398 Z-2.281
X324.578 Y236.547 Z-2.142
X324.708 Y236.697 Z-2.011
X324.828 Y236.846 Z-1.89
X324.941 Y236.994 Z-1.776
X325.05 Y237.15 Z-1.667
X325.146 Y237.299 Z-1.571
X325.234 Y237.448 Z-1.483
X325.305 Y237.581 Z-1.412
X325.371 Y237.715 Z-1.347
X325.429 Y237.849 Z-1.29
X325.481 Y237.982 Z-1.239
X325.525 Y238.116 Z-1.195
X325.563 Y238.25 Z-1.157
X325.595 Y238.384 Z-1.127
X325.619 Y238.518 Z-1.103
X325.637 Y238.652 Z-1.086
X325.647 Y238.785 Z-1.076
X325.651 Y238.919 Z-1.073
X325.669 Y246.167 Z-1.091
X325.679 Y248.36 Z-1.101
X325.685 Y250.505 Z-1.116
Y251.936 Z-1.129
X325.682 Y253.012 Z-1.142
X325.672 Y254.802 Z-1.169
X325.662 Y255.657 Z-1.18
X325.659 Y256.337 Z-1.194
X325.66 Y256.579 Z-1.2
X325.663 Y257.011 Z-1.22
Y257.299 Z-1.239
Y257.548 Z-1.261
X325.662 Y257.795 Z-1.287
X325.656 Y258.09 Z-1.325
X325.652 Y258.244 Z-1.348
X325.639 Y258.529 Z-1.394
X325.635 Y258.659 Z-1.419
X325.634 Y258.8 Z-1.453
X325.636 Y258.892 Z-1.478
X325.638 Y258.954 Z-1.496
X325.644 Y259.102 Z-1.54
X325.656 Y259.3 Z-1.603
X325.661 Y259.361 Z-1.624
X325.808 Y259.453 Z-1.533
X326.013 Y259.571 Z-1.416
X326.163 Y259.652 Z-1.336
X326.299 Y259.721 Z-1.268
X326.371 Y259.757 Z-1.233
X326.547 Y259.836 Z-1.154
X326.741 Y259.914 Z-1.077
X326.912 Y259.978 Z-1.015
X327.057 Y260.026 Z-0.969
X327.197 Y260.067 Z-0.929
X327.311 Y260.097 Z-0.9
X327.491 Y260.139 Z-0.861
X327.561 Y260.154 Z-0.847
X327.669 Y260.174 Z-0.828
X327.779 Y260.189 Z-0.815
X328.422 Y260.259 Z-0.757
X328.763 Y260.292 Z-0.732
X329.095 Y260.32 Z-0.712
X329.503 Y260.35 Z-0.696
X329.76 Y260.365 Z-0.688
X330.01 Y260.378 Z-0.683
X330.422 Y259.993 Z-0.271
X330.692 Y259.735 Z-0.001
X330.422 Y259.993 Z-0.271
X330.01 Y260.378 Z-0.683
X330.693 Y261.084 Z0
X330.01 Y260.378 Z-0.683
X329.76 Y260.365 Z-0.688
X329.503 Y260.35 Z-0.696
X329.095 Y260.32 Z-0.712
X328.763 Y260.292 Z-0.732
X328.422 Y260.259 Z-0.757
X327.779 Y260.189 Z-0.815
X327.669 Y260.174 Z-0.828
X327.561 Y260.154 Z-0.847
X327.491 Y260.139 Z-0.861
X327.311 Y260.097 Z-0.9
X327.197 Y260.067 Z-0.929
X327.057 Y260.026 Z-0.969
X326.912 Y259.978 Z-1.015
X326.741 Y259.914 Z-1.077
X326.547 Y259.836 Z-1.154
X326.371 Y259.757 Z-1.233
X326.299 Y259.721 Z-1.268
X326.163 Y259.652 Z-1.336
X326.013 Y259.571 Z-1.416
X325.808 Y259.453 Z-1.533
X325.661 Y259.361 Z-1.624
X325.563 Y259.431 Z-1.554
X325.441 Y259.514 Z-1.471
X325.318 Y259.59 Z-1.394
X325.209 Y259.653 Z-1.331
X324.962 Y259.782 Z-1.202
X324.841 Y259.841 Z-1.143
X324.684 Y259.912 Z-1.074
X324.587 Y259.952 Z-1.034
X324.458 Y260.001 Z-0.986
X324.341 Y260.041 Z-0.947
X324.214 Y260.079 Z-0.909
X324.14 Y260.099 Z-0.89
X324.03 Y260.126 Z-0.864
X323.865 Y260.162 Z-0.83
X323.662 Y260.198 Z-0.796
X323.537 Y260.212 Z-0.784
X322.865 Y260.266 Z-0.742
X322.612 Y260.285 Z-0.728
X322.261 Y260.31 Z-0.712
X321.939 Y260.331 Z-0.701
X321.464 Y260.359 Z-0.688
X321.242 Y260.372 Z-0.684
X320.559 Y259.732 Z-0.001
X321.242 Y260.372 Z-0.684
X320.558 Y261.083 Z0
G0 Z5
X334.225 Y259.734
G1 Z0 F850
X334.271 Y259.777 Z-0.046
X334.726 Y260.204 Z-0.501
X334.909 Y260.374 Z-0.684
X334.225 Y261.083 Z-0.001
X334.909 Y260.374 Z-0.684
X335.175 Y260.357 Z-0.691
X335.473 Y260.335 Z-0.703
X335.777 Y260.308 Z-0.719
X336.088 Y260.276 Z-0.74
X336.33 Y260.247 Z-0.762
X336.568 Y260.215 Z-0.786
X336.882 Y260.166 Z-0.825
X337.189 Y260.113 Z-0.868
X337.628 Y260.034 Z-0.935
X337.695 Y260.021 Z-0.947
X337.808 Y259.994 Z-0.97
X337.921 Y259.962 Z-1
X338.034 Y259.924 Z-1.035
X338.147 Y259.88 Z-1.075
X338.259 Y259.831 Z-1.122
X338.371 Y259.776 Z-1.173
X338.516 Y259.698 Z-1.248
X338.779 Y259.545 Z-1.396
X338.996 Y259.415 Z-1.522
X339.182 Y259.297 Z-1.636
X339.336 Y259.195 Z-1.735
X339.563 Y259.038 Z-1.889
X339.761 Y258.892 Z-2.032
X339.943 Y258.752 Z-2.17
X340.113 Y258.615 Z-2.304
X340.342 Y258.422 Z-2.493
X340.451 Y258.327 Z-2.587
X340.674 Y258.129 Z-2.783
X340.956 Y257.867 Z-3.041
X341.797 Y258.665 Z-2.234
X341.983 Y258.837 Z-2.06
X342.137 Y258.97 Z-1.925
X342.331 Y259.128 Z-1.77
X342.464 Y259.228 Z-1.672
X342.598 Y259.321 Z-1.581
X342.731 Y259.407 Z-1.498
X342.865 Y259.485 Z-1.421
X342.999 Y259.557 Z-1.351
X343.133 Y259.622 Z-1.289
X343.267 Y259.68 Z-1.233
X343.401 Y259.731 Z-1.185
X343.535 Y259.774 Z-1.143
X343.669 Y259.811 Z-1.109
X343.804 Y259.84 Z-1.081
X343.938 Y259.863 Z-1.061
X344.073 Y259.878 Z-1.048
X344.208 Y259.887 Z-1.042
X344.739 Y259.906 Z-1.031
X345.289 Y259.926 Z-1.02
X346.197 Y259.955 Z-1.006
X346.936 Y259.973 Z-1
X347.488 Y259.983 Z-0.999
X348.573 Y260 Z-1
X349.293 Y260.005 Z-1.007
X349.771 Y260.007 Z-1.013
X350.25 Y260.006 Z-1.021
X350.733 Y260.003 Z-1.032
X351.222 Y259.996 Z-1.047
X351.711 Y259.984 Z-1.067
X352.206 Y259.967 Z-1.092
X352.702 Y259.944 Z-1.123
X353.433 Y259.903 Z-1.176
X354.266 Y259.85 Z-1.243
X354.464 Y259.834 Z-1.258
X354.735 Y259.804 Z-1.285
X354.956 Y259.775 Z-1.311
X355.15 Y259.744 Z-1.339
X355.307 Y259.714 Z-1.365
X355.444 Y259.685 Z-1.391
X355.604 Y259.646 Z-1.425
X355.732 Y259.611 Z-1.456
X355.877 Y259.568 Z-1.493
X355.959 Y259.383 Z-1.385
X356.068 Y259.126 Z-1.241
X356.117 Y259 Z-1.175
X356.166 Y258.858 Z-1.108
X356.21 Y258.701 Z-1.042
X356.243 Y258.561 Z-0.993
X356.268 Y258.417 Z-0.95
X356.28 Y258.325 Z-0.928
X356.288 Y258.234 Z-0.909
X356.294 Y258.105 Z-0.888
X356.306 Y257.519 Z-0.815
X356.312 Y257.201 Z-0.78
X356.317 Y256.756 Z-0.737
Y256.468 Z-0.715
X356.316 Y256.193 Z-0.696
X356.313 Y255.919 Z-0.679
X356.309 Y255.645 Z-0.664
X356.306 Y255.414 Z-0.654
X355.707 Y254.801 Z-0.041
X355.667 Y254.76 Z0
X355.707 Y254.801 Z-0.041
X356.306 Y255.414 Z-0.654
X356.921 Y254.76 Z0
X356.306 Y255.414 Z-0.654
X356.309 Y255.645 Z-0.664
X356.313 Y255.919 Z-0.679
X356.316 Y256.193 Z-0.696
X356.317 Y256.468 Z-0.715
Y256.756 Z-0.737
X356.312 Y257.201 Z-0.78
X356.306 Y257.519 Z-0.815
X356.294 Y258.105 Z-0.888
X356.288 Y258.234 Z-0.909
X356.28 Y258.325 Z-0.928
X356.268 Y258.417 Z-0.95
X356.243 Y258.561 Z-0.993
X356.21 Y258.701 Z-1.042
X356.166 Y258.858 Z-1.108
X356.117 Y259 Z-1.175
X356.068 Y259.126 Z-1.241
X355.959 Y259.383 Z-1.385
X355.877 Y259.568 Z-1.493
X356.045 Y259.706 Z-1.348
X356.49 Y260.067 Z-0.962
X357.075 Y260.53 Z-0.457
X357.514 Y260.873 Z-0.079
X357.56 Y260.949 Z0
X357.514 Y260.873 Z-0.079
X357.597 Y260.89 Z0
X357.514 Y260.873 Z-0.079
X357.075 Y260.53 Z-0.457
X356.49 Y260.067 Z-0.962
X356.045 Y259.706 Z-1.348
X355.877 Y259.568 Z-1.493
X355.732 Y259.611 Z-1.456
X355.604 Y259.646 Z-1.425
X355.444 Y259.685 Z-1.391
X355.307 Y259.714 Z-1.365
X355.15 Y259.744 Z-1.339
X354.956 Y259.775 Z-1.311
X354.735 Y259.804 Z-1.285
X354.464 Y259.834 Z-1.258
X354.266 Y259.85 Z-1.243
X353.433 Y259.903 Z-1.176
X352.702 Y259.944 Z-1.123
X352.206 Y259.967 Z-1.092
X351.711 Y259.984 Z-1.067
X351.222 Y259.996 Z-1.047
X350.733 Y260.003 Z-1.032
X350.25 Y260.006 Z-1.021
X349.771 Y260.007 Z-1.013
X349.293 Y260.005 Z-1.007
X348.573 Y260 Z-1
X347.488 Y259.983 Z-0.999
X346.936 Y259.973 Z-1
X346.197 Y259.955 Z-1.006
X345.289 Y259.926 Z-1.02
X344.739 Y259.906 Z-1.031
X344.208 Y259.887 Z-1.042
X344.073 Y259.878 Z-1.048
X343.938 Y259.863 Z-1.061
X343.804 Y259.84 Z-1.081
X343.669 Y259.811 Z-1.109
X343.535 Y259.774 Z-1.143
X343.401 Y259.731 Z-1.185
X343.267 Y259.68 Z-1.233
X343.133 Y259.622 Z-1.289
X342.999 Y259.557 Z-1.351
X342.865 Y259.485 Z-1.421
X342.731 Y259.407 Z-1.498
X342.598 Y259.321 Z-1.581
X342.464 Y259.228 Z-1.672
X342.331 Y259.128 Z-1.77
X342.137 Y258.97 Z-1.925
X341.983 Y258.837 Z-2.06
X341.797 Y258.665 Z-2.234
X340.956 Y257.867 Z-3.041
X340.958 Y257.56 Z-3.027
X340.956 Y256.925 Z-3.003
X340.953 Y255.565 Z-2.953
X340.948 Y254.198 Z-2.908
X340.946 Y253.616 Z-2.892
X340.938 Y252.352 Z-2.862
X340.928 Y251.087 Z-2.84
X340.915 Y249.649 Z-2.821
X340.901 Y248.291 Z-2.808
X340.897 Y247.754 Z-2.804
X340.901 Y247.551 Z-2.809
X340.912 Y247.348 Z-2.82
X340.93 Y247.151 Z-2.837
X340.954 Y246.953 Z-2.861
X340.984 Y246.755 Z-2.89
X341.024 Y246.545 Z-2.929
X341.071 Y246.334 Z-2.975
X341.479 Y246.359 Z-2.605
X341.863 Y246.382 Z-2.266
X342.048 Y246.393 Z-2.109
X342.228 Y246.403 Z-1.959
X342.404 Y246.414 Z-1.818
X342.576 Y246.424 Z-1.685
X342.745 Y246.435 Z-1.561
X342.912 Y246.445 Z-1.447
X343.076 Y246.454 Z-1.344
X343.238 Y246.464 Z-1.252
X343.318 Y246.469 Z-1.211
X343.398 Y246.474 Z-1.174
X343.478 Y246.479 Z-1.14
X343.557 Y246.483 Z-1.111
X343.637 Y246.488 Z-1.085
X343.716 Y246.493 Z-1.064
X343.795 Y246.498 Z-1.048
X343.874 Y246.502 Z-1.036
X343.986 Y246.507 Z-1.025
X344.709 Y246.517 Z-0.973
X345.176 Y246.522 Z-0.944
X345.555 Y246.524 Z-0.923
X345.924 Z-0.907
X346.673 Y246.522 Z-0.885
X347.244 Y246.52 Z-0.877
X347.972 Y246.516 Z-0.871
X348.506 Y246.511 Z-0.869
X348.974 Y246.505 Z-0.871
X349.442 Y246.496 Z-0.879
X349.89 Y246.489 Z-0.893
X350.254 Y246.483 Z-0.911
X350.543 Y246.478 Z-0.93
X350.914 Y246.474 Z-0.961
X351.188 Z-0.989
X351.587 Y246.475 Z-1.034
X352.038 Y246.478 Z-1.089
X352.145 Y246.477 Z-1.105
X352.223 Y246.474 Z-1.119
X352.305 Y246.47 Z-1.136
X352.408 Y246.468 Z-1.162
X352.55 Z-1.206
X352.631 Y246.469 Z-1.235
X352.798 Y246.475 Z-1.304
X352.881 Y246.478 Z-1.343
X353.001 Y246.481 Z-1.401
X353.08 Y246.342 Z-1.322
X353.144 Y246.224 Z-1.26
X353.195 Y246.125 Z-1.212
X353.272 Y245.961 Z-1.138
X353.339 Y245.803 Z-1.075
X353.396 Y245.656 Z-1.021
X353.44 Y245.535 Z-0.98
X353.483 Y245.406 Z-0.94
X353.518 Y245.277 Z-0.908
X353.545 Y245.148 Z-0.883
X353.565 Y245.018 Z-0.866
X353.636 Y244.436 Z-0.808
X353.669 Y244.134 Z-0.782
X353.7 Y243.825 Z-0.758
X353.725 Y243.517 Z-0.739
X353.746 Y243.216 Z-0.726
X353.763 Y242.916 Z-0.715
X353.784 Y242.467 Z-0.704
X353.787 Y242.389 Z-0.703
X353.297 Y241.877 Z-0.191
X353.113 Y241.686 Z0
X353.297 Y241.877 Z-0.191
X353.787 Y242.389 Z-0.703
X354.505 Y241.687 Z-0.001
X353.787 Y242.389 Z-0.703
X353.784 Y242.467 Z-0.704
X353.763 Y242.916 Z-0.715
X353.746 Y243.216 Z-0.726
X353.725 Y243.517 Z-0.739
X353.7 Y243.825 Z-0.758
X353.669 Y244.134 Z-0.782
X353.636 Y244.436 Z-0.808
X353.565 Y245.018 Z-0.866
X353.545 Y245.148 Z-0.883
X353.518 Y245.277 Z-0.908
X353.483 Y245.406 Z-0.94
X353.44 Y245.535 Z-0.98
X353.396 Y245.656 Z-1.021
X353.339 Y245.803 Z-1.075
X353.272 Y245.961 Z-1.138
X353.195 Y246.125 Z-1.212
X353.144 Y246.224 Z-1.26
X353.08 Y246.342 Z-1.322
X353.001 Y246.481 Z-1.401
X353.091 Y246.641 Z-1.314
X353.18 Y246.813 Z-1.227
X353.243 Y246.947 Z-1.165
X353.31 Y247.1 Z-1.1
X353.365 Y247.241 Z-1.047
X353.422 Y247.403 Z-0.993
X353.456 Y247.515 Z-0.961
X353.496 Y247.661 Z-0.924
X353.527 Y247.789 Z-0.895
X353.554 Y247.917 Z-0.87
X353.578 Y248.042 Z-0.848
X353.598 Y248.153 Z-0.831
X353.615 Y248.284 Z-0.817
X353.67 Y248.873 Z-0.774
X353.692 Y249.131 Z-0.758
X353.721 Y249.495 Z-0.739
X353.739 Y249.753 Z-0.728
X353.77 Y250.274 Z-0.712
X354.503 Y250.986 Z0
X353.77 Y250.274 Z-0.712
X353.222 Y250.862 Z-0.124
X353.106 Y250.985 Z-0.001
X353.222 Y250.862 Z-0.124
X353.77 Y250.274 Z-0.712
X353.739 Y249.753 Z-0.728
X353.721 Y249.495 Z-0.739
X353.692 Y249.131 Z-0.758
X353.67 Y248.873 Z-0.774
X353.615 Y248.284 Z-0.817
X353.598 Y248.153 Z-0.831
X353.578 Y248.042 Z-0.848
X353.554 Y247.917 Z-0.87
X353.527 Y247.789 Z-0.895
X353.496 Y247.661 Z-0.924
X353.456 Y247.515 Z-0.961
X353.422 Y247.403 Z-0.993
X353.365 Y247.241 Z-1.047
X353.31 Y247.1 Z-1.1
X353.243 Y246.947 Z-1.165
X353.18 Y246.813 Z-1.227
X353.091 Y246.641 Z-1.314
X353.001 Y246.481 Z-1.401
X352.881 Y246.478 Z-1.343
X352.798 Y246.475 Z-1.304
X352.631 Y246.469 Z-1.235
X352.55 Y246.468 Z-1.206
X352.408 Z-1.162
X352.305 Y246.47 Z-1.136
X352.223 Y246.474 Z-1.119
X352.145 Y246.477 Z-1.105
X352.038 Y246.478 Z-1.089
X351.587 Y246.475 Z-1.034
X351.188 Y246.474 Z-0.989
X350.914 Z-0.961
X350.543 Y246.478 Z-0.93
X350.254 Y246.483 Z-0.911
X349.89 Y246.489 Z-0.893
X349.442 Y246.496 Z-0.879
X348.974 Y246.505 Z-0.871
X348.506 Y246.511 Z-0.869
X347.972 Y246.516 Z-0.871
X347.244 Y246.52 Z-0.877
X346.673 Y246.522 Z-0.885
X345.924 Y246.524 Z-0.907
X345.555 Z-0.923
X345.176 Y246.522 Z-0.944
X344.709 Y246.517 Z-0.973
X343.986 Y246.507 Z-1.025
X343.874 Y246.502 Z-1.036
X343.795 Y246.498 Z-1.048
X343.716 Y246.493 Z-1.064
X343.637 Y246.488 Z-1.085
X343.557 Y246.483 Z-1.111
X343.478 Y246.479 Z-1.14
X343.398 Y246.474 Z-1.174
X343.318 Y246.469 Z-1.211
X343.238 Y246.464 Z-1.252
X343.076 Y246.454 Z-1.344
X342.912 Y246.445 Z-1.447
X342.745 Y246.435 Z-1.561
X342.576 Y246.424 Z-1.685
X342.404 Y246.414 Z-1.818
X342.228 Y246.403 Z-1.959
X342.048 Y246.393 Z-2.109
X341.863 Y246.382 Z-2.266
X341.479 Y246.359 Z-2.605
X341.071 Y246.334 Z-2.975
X341.042 Y246.155 Z-2.946
