%
(1001)
(OtherHouses_ z0 stock top)
(T7  D=16 CR=0 TAPER=45deg - ZMIN=-1.882 - chamfer mill)
G90 G94
G17
G21
G28 G91 Z0
G90

(ColleyOrchard)
M9
T7 M6
S6000 M3
G54
M9
G0 X83.081 Y92.727
Z15
Z5
G1 Z0 F850
X83.456 Y93.12 Z-0.393
X83.83 Y92.728 Z-0.001
X83.456 Y93.12 Z-0.393
X83.458 Y93.456 Z-0.41
X83.463 Y93.937 Z-0.436
X83.473 Y94.422 Z-0.468
X83.48 Y94.677 Z-0.487
X83.5 Y95.159 Z-0.528
X83.513 Y95.407 Z-0.552
X83.529 Y95.657 Z-0.579
X83.537 Y95.774 Z-0.593
X83.541 Y95.842 Z-0.602
X83.542 Y95.91 Z-0.615
X83.54 Y96.009 Z-0.638
X83.534 Y96.09 Z-0.66
X83.525 Y96.172 Z-0.687
X83.501 Y96.315 Z-0.742
X83.472 Y96.442 Z-0.8
X83.429 Y96.592 Z-0.878
X83.384 Y96.725 Z-0.955
X83.287 Y96.972 Z-1.112
X83.64 Y97.185 Z-0.829
X84.329 Y97.597 Z-0.287
X84.698 Y97.816 Z0
X84.329 Y97.597 Z-0.287
X83.64 Y97.185 Z-0.829
X83.287 Y96.972 Z-1.112
X82.808 Y97.164 Z-1.028
X82.411 Y97.321 Z-0.963
X82.168 Y97.415 Z-0.926
X81.839 Y97.539 Z-0.88
X81.504 Y97.657 Z-0.838
X81.171 Y97.769 Z-0.803
X80.843 Y97.871 Z-0.772
X80.519 Y97.967 Z-0.746
X80.201 Y98.056 Z-0.721
X79.808 Y98.161 Z-0.691
X79.508 Y98.236 Z-0.667
X79.094 Y98.321 Z-0.648
X78.713 Y98.392 Z-0.626
X78.377 Y98.449 Z-0.608
X78.052 Y98.497 Z-0.59
X77.714 Y98.54 Z-0.574
X77.388 Y98.575 Z-0.563
X77.148 Y98.596 Z-0.556
X76.873 Y98.616 Z-0.551
X76.544 Y98.636 Z-0.548
X76.17 Y98.655
X75.58 Y98.656 Z-0.528
X75.489 Y98.653 Z-0.527
X74.755 Y98.612 Z-0.537
X74.378 Y98.587 Z-0.541
X74 Y98.557 Z-0.545
X73.62 Y98.522 Z-0.549
X73.24 Y98.478 Z-0.554
X73.07 Y98.456 Z-0.557
X72.737 Y98.408 Z-0.561
X72.407 Y98.352 Z-0.566
X72.081 Y98.287 Z-0.571
X71.718 Y98.203 Z-0.578
X71.339 Y98.101 Z-0.587
X71.001 Y97.997 Z-0.598
X70.961 Y97.984 Z-0.6
X70.628 Y97.867 Z-0.615
X70.484 Y97.813 Z-0.624
X70.167 Y97.686 Z-0.644
X69.851 Y97.55 Z-0.668
X69.505 Y97.39 Z-0.7
X69.155 Y97.219 Z-0.736
X68.808 Y97.041 Z-0.778
X68.346 Y96.793 Z-0.84
X68.138 Y96.658 Z-0.853
X67.673 Y96.348 Z-0.886
X67.435 Y96.186 Z-0.903
X67.2 Y96.022 Z-0.92
X66.899 Y95.808 Z-0.938
X66.826 Y95.753 Z-0.943
X66.754 Y95.695 Z-0.953
X66.67 Y95.619 Z-0.968
X66.555 Y95.51 Z-0.992
X66.364 Y95.324 Z-1.031
X66.122 Y95.08 Z-1.075
X66.003 Y94.957 Z-1.095
X65.834 Y94.775 Z-1.122
X65.607 Y94.517 Z-1.153
X65.508 Y94.399 Z-1.166
X65.338 Y94.191 Z-1.185
X65.113 Y93.9 Z-1.208
X65.03 Y93.788 Z-1.217
X64.85 Y93.537 Z-1.235
X64.616 Y93.193 Z-1.26
X64.409 Y92.873 Z-1.286
X64.259 Y92.626 Z-1.31
X64.165 Y92.469 Z-1.326
X64.021 Y92.219 Z-1.355
X63.946 Y92.056 Z-1.361
X63.782 Y91.684 Z-1.381
X63.619 Y91.283 Z-1.411
X63.506 Y90.983 Z-1.437
X63.47 Y90.883 Z-1.446
X63.354 Y90.541 Z-1.478
X63.33 Y90.466 Z-1.486
X63.215 Y90.079 Z-1.522
X63.184 Y89.968 Z-1.534
X63.11 Y89.678 Z-1.558
X63.067 Y89.49 Z-1.574
X63.018 Y89.257 Z-1.591
X62.957 Y88.915 Z-1.61
X62.936 Y88.782 Z-1.617
X62.895 Y88.486 Z-1.629
X62.852 Y88.116 Z-1.641
X62.842 Y88.023 Z-1.643
X62.813 Y87.71 Z-1.649
X62.782 Y87.331 Z-1.654
X62.754 Y86.921 Z-1.657
X62.75 Y86.832 Z-1.659
X62.747 Y86.63 Z-1.67
X62.746 Y86.141 Z-1.697
X62.778 Y85.596
X62.817 Y85.078 Z-1.7
X62.842 Y84.799 Z-1.702
X62.871 Y84.528 Z-1.704
X62.903 Y84.263 Z-1.706
X62.94 Y84.005 Z-1.708
X62.981 Y83.753 Z-1.709
X63.042 Y83.432 Z-1.71
X63.1 Y83.169
X63.131 Y83.045
X63.198 Y82.793 Z-1.706
X63.293 Y82.483 Z-1.701
X63.38 Y82.227 Z-1.695
X63.419 Y82.118 Z-1.693
X63.509 Y81.875 Z-1.686
X63.618 Y81.602 Z-1.679
X63.735 Y81.323 Z-1.671
X63.855 Y81.05 Z-1.663
X64.061 Y80.597 Z-1.651
X64.254 Y80.185 Z-1.641
X64.489 Y79.777 Z-1.596
X64.557 Y79.663 Z-1.585
X64.634 Y79.546 Z-1.579
X64.952 Y79.085 Z-1.56
X65.11 Y78.864 Z-1.549
X65.267 Y78.65 Z-1.537
X65.432 Y78.432 Z-1.523
X65.612 Y78.205 Z-1.506
X65.8 Y77.979 Z-1.487
X65.894 Y77.871 Z-1.478
X66.054 Y77.694 Z-1.459
X66.221 Y77.52 Z-1.438
X66.423 Y77.321 Z-1.412
X66.65 Y77.111 Z-1.383
X66.886 Y76.906 Z-1.354
X67.084 Y76.743 Z-1.332
X67.187 Y76.661 Z-1.321
X67.407 Y76.492 Z-1.298
X67.635 Y76.324 Z-1.277
X67.87 Y76.158 Z-1.257
X68.111 Y75.992 Z-1.239
X68.358 Y75.827 Z-1.222
X68.544 Y75.706 Z-1.21
X69.039 Y75.435 Z-1.149
X69.628 Y75.121 Z-1.08
X69.805 Y75.031 Z-1.059
X69.923 Y74.977 Z-1.052
X70.364 Y74.786 Z-1.025
X70.613 Y74.682 Z-1.009
X70.865 Y74.58 Z-0.991
X71.121 Y74.481 Z-0.972
X71.388 Y74.383 Z-0.952
X71.678 Y74.284 Z-0.929
X71.969 Y74.192 Z-0.905
X72.265 Y74.107 Z-0.88
X72.566 Y74.03 Z-0.855
X72.745 Y73.988 Z-0.84
X73.028 Y73.928 Z-0.818
X73.311 Y73.875 Z-0.799
X73.591 Y73.829 Z-0.783
X73.868 Y73.79 Z-0.768
X74.152 Y73.755 Z-0.755
X74.482 Y73.721 Z-0.743
X74.815 Y73.692 Z-0.732
X75.227 Y73.661 Z-0.721
X75.797 Y73.626 Z-0.711
X76.309 Y73.617 Z-0.684
X76.369 Y73.618 Z-0.683
X76.845 Y73.636 Z-0.68
X77.196 Y73.653 Z-0.675
X77.54 Y73.675 Z-0.668
X77.88 Y73.703 Z-0.659
X78.241 Y73.741 Z-0.646
X78.565 Y73.782 Z-0.634
X78.891 Y73.829 Z-0.621
X79.104 Y73.863 Z-0.613
X79.524 Y73.937 Z-0.6
X79.956 Y74.02 Z-0.589
X80.489 Y74.145 Z-0.564
X80.953 Y74.259 Z-0.543
X81.35 Y74.361 Z-0.524
X81.421 Y74.381 Z-0.521
X81.748 Y74.486 Z-0.518
X82.093 Y74.603 Z-0.512
X82.436 Y74.728 Z-0.504
X82.749 Y74.851 Z-0.498
X82.95 Y74.934 Z-0.496
X83.121 Y75.008 Z-0.495
X83.293 Y75.086 Z-0.496
X83.463 Y75.166 Z-0.499
X83.633 Y75.249 Z-0.503
X83.873 Y75.37 Z-0.512
X84.275 Y74.992 Z0
X83.873 Y75.37 Z-0.512
X84.029 Y75.551 Z-0.435
X84.268 Y75.833 Z-0.32
X84.517 Y76.13 Z-0.207
X84.765 Y76.427 Z-0.1
X84.884 Y76.451 Z-0.001
X84.765 Y76.427 Z-0.1
X84.775 Y76.555 Z-0.001
G0 Z5
X89.538 Y78.399
G1 Z-1.523 F850
X89.659 Y78.104 Z-1.505
X89.714 Y77.979 Z-1.497
X89.817 Y77.757 Z-1.48
X89.929 Y77.529 Z-1.459
X90.064 Y77.268 Z-1.435
X90.207 Y77.004 Z-1.408
X90.351 Y76.745 Z-1.381
X90.64 Y76.243 Z-1.327
X90.666 Y76.198 Z-1.323
X90.808 Y76.01 Z-1.272
X90.891 Y75.906 Z-1.247
X90.942 Y75.847 Z-1.234
X91.071 Y75.707 Z-1.209
X91.336 Y75.428 Z-1.158
X91.517 Y75.244 Z-1.123
X91.706 Y75.06 Z-1.085
X91.774 Y74.995 Z-1.072
X91.947 Y74.839 Z-1.037
X92.118 Y74.692 Z-1.002
X92.327 Y74.527 Z-0.958
X92.512 Y74.394 Z-0.918
X92.639 Y74.309 Z-0.892
X92.823 Y74.196 Z-0.851
X93.045 Y74.073 Z-0.802
X93.245 Y73.976 Z-0.76
X93.305 Y73.948 Z-0.747
X93.508 Y73.862 Z-0.707
X93.571 Y73.838 Z-0.696
X93.778 Y73.763 Z-0.66
X93.919 Y73.717 Z-0.638
X94.097 Y73.664 Z-0.611
X94.311 Y73.608 Z-0.582
X94.427 Y73.581 Z-0.569
X94.609 Y73.541 Z-0.549
X94.86 Y73.493 Z-0.525
X95.109 Y73.452 Z-0.505
X95.459 Y73.402 Z-0.484
X95.702 Y73.39 Z-0.453
X96.084 Y73.376 Z-0.408
X96.331 Y73.371 Z-0.381
X96.592 Y73.367 Z-0.351
X96.649 Y73.369 Z-0.346
X96.706 Y73.374 Z-0.344
X97.061 Y73.414 Z-0.34
X97.242 Y73.437 Z-0.337
X97.442 Y73.465 Z-0.334
X97.717 Y73.511 Z-0.33
X97.792 Y73.526 Z-0.329
X97.986 Y73.566 Z-0.327
X98.249 Y73.631 Z-0.326
X98.349 Y73.659
X98.534 Y73.717 Z-0.328
X98.754 Y73.796 Z-0.332
X98.904 Y73.859 Z-0.336
X99.054 Y73.927 Z-0.342
X99.083 Y73.942 Z-0.344
X99.257 Y74.031 Z-0.354
X99.469 Y74.152 Z-0.37
X99.59 Y74.227 Z-0.379
X99.749 Y74.331 Z-0.394
X99.927 Y74.455 Z-0.412
X100.152 Y74.621 Z-0.437
X100.349 Y74.775 Z-0.46
X100.489 Y74.888 Z-0.476
X100.763 Y75.115 Z-0.508
X100.821 Y75.165 Z-0.517
X100.869 Y75.212 Z-0.527
X100.915 Y75.261 Z-0.541
X101.231 Y75.612 Z-0.642
X101.365 Y75.763 Z-0.686
X101.529 Y75.994 Z-0.718
X101.699 Y76.242 Z-0.756
X101.884 Y76.521 Z-0.8
X101.946 Y76.618 Z-0.816
X102.083 Y76.839 Z-0.854
X102.221 Y77.075 Z-0.896
X102.371 Y77.349 Z-0.948
X102.472 Y77.548 Z-0.985
X102.506 Y77.619 Z-0.999
X102.59 Y77.8 Z-1.034
X102.627 Y77.885 Z-1.051
X102.694 Y78.048 Z-1.082
X102.734 Y78.147 Z-1.101
X102.791 Y78.301 Z-1.129
X102.827 Y78.402 Z-1.149
X102.905 Y78.645 Z-1.191
X102.972 Y78.887 Z-1.228
X103.031 Y79.132 Z-1.262
X103.081 Y79.382 Z-1.292
X103.125 Y79.645 Z-1.32
X103.163 Y79.916 Z-1.345
X103.195 Y80.195 Z-1.368
X103.224 Y80.495 Z-1.389
X103.249 Y80.815 Z-1.408
X103.267 Y81.233 Z-1.438
X103.28 Y81.668 Z-1.467
X103.287 Y82.111 Z-1.497
X103.288 Y82.289 Z-1.51
X103.267 Y82.571 Z-1.511
X103.229 Y82.993 Z-1.518
X103.198 Y83.273 Z-1.523
X103.168 Y83.501 Z-1.528
X103.13 Y83.754 Z-1.534
X103.091 Y83.981 Z-1.541
X103.042 Y84.223 Z-1.545
X102.992 Y84.439 Z-1.548
X102.933 Y84.67 Z-1.547
X102.876 Y84.865 Z-1.544
X102.84 Y84.98 Z-1.541
X102.78 Y85.154 Z-1.532
X102.712 Y85.334 Z-1.518
X102.636 Y85.52 Z-1.501
X102.551 Y85.714 Z-1.479
X102.457 Y85.919 Z-1.451
X102.356 Y86.131 Z-1.42
X102.306 Y86.223 Z-1.408
X102.224 Y86.368 Z-1.391
X102.059 Y86.651 Z-1.356
X101.874 Y86.958 Z-1.317
X101.684 Y87.257 Z-1.282
X101.632 Y87.336 Z-1.274
X101.566 Y87.414 Z-1.252
X101.378 Y87.628 Z-1.196
X101.31 Y87.702 Z-1.177
X101.172 Y87.851 Z-1.14
X101 Y88.028 Z-1.099
X100.89 Y88.135 Z-1.075
X100.746 Y88.269 Z-1.046
X100.604 Y88.396 Z-1.019
X100.427 Y88.546 Z-0.988
X100.237 Y88.697 Z-0.956
X100.038 Y88.844 Z-0.922
X99.854 Y88.973 Z-0.889
X99.621 Y89.123 Z-0.844
X99.468 Y89.217 Z-0.812
X99.348 Y89.286 Z-0.784
X99.264 Y89.332 Z-0.767
X99.175 Y89.373 Z-0.752
X99.046 Y89.428 Z-0.734
X98.787 Y89.532 Z-0.693
X98.512 Y89.633 Z-0.646
X98.245 Y89.722 Z-0.602
X98.079 Y89.772 Z-0.575
X97.819 Y89.842 Z-0.537
X97.779 Y89.852 Z-0.531
X97.549 Y89.904 Z-0.502
X97.47 Y89.92 Z-0.493
X97.274 Y89.956 Z-0.474
X97.166 Y89.974 Z-0.465
X96.994 Y89.998 Z-0.453
X96.741 Y90.029 Z-0.44
X96.583 Y90.045 Z-0.434
X96.442 Y90.057 Z-0.429
X96.081 Y90.064 Z-0.403
X95.76 Y90.067 Z-0.381
X95.672 Y90.064 Z-0.378
X95.271 Y90.035 Z-0.376
X95.074 Y90.016 Z-0.374
X94.823 Y89.986 Z-0.373
X94.584 Y89.949
X94.438 Y89.922 Z-0.375
X94.307 Y89.894 Z-0.377
X94.132 Y89.851 Z-0.382
X93.953 Y89.8 Z-0.387
X93.812 Y89.754 Z-0.392
X93.673 Y89.706 Z-0.399
X93.554 Y89.661 Z-0.405
X93.321 Y89.566 Z-0.417
X93.098 Y89.468 Z-0.429
X92.88 Y89.367 Z-0.441
X92.779 Y89.319 Z-0.446
X92.689 Y89.272 Z-0.454
X92.345 Y89.073 Z-0.498
X92.167 Y88.966 Z-0.523
X92.035 Y88.885 Z-0.543
X91.862 Y88.757 Z-0.558
X91.672 Y88.608 Z-0.581
X91.545 Y88.504 Z-0.599
X91.437 Y88.411 Z-0.617
X91.333 Y88.317 Z-0.636
X91.208 Y88.198 Z-0.663
X91.057 Y88.046 Z-0.698
X90.95 Y87.932 Z-0.725
X90.78 Y87.739 Z-0.769
X90.7 Y87.642 Z-0.79
X90.624 Y87.547 Z-0.81
X90.482 Y87.361 Z-0.845
X90.415 Y87.27 Z-0.861
X90.333 Y87.146 Z-0.884
X90.25 Y87.008 Z-0.912
X90.168 Y86.866 Z-0.938
X90.025 Y86.609 Z-0.983
X89.926 Y86.421 Z-1.014
X89.776 Y86.124 Z-1.062
X89.688 Y85.942 Z-1.092
X89.575 Y85.699 Z-1.134
X89.539 Y85.6 Z-1.144
X89.475 Y85.421 Z-1.164
X89.413 Y85.239 Z-1.185
X89.355 Y85.056 Z-1.209
X89.301 Y84.876 Z-1.233
X89.25 Y84.697 Z-1.258
X89.204 Y84.52 Z-1.282
X89.162 Y84.344 Z-1.305
X89.124 Y84.171 Z-1.328
X89.09 Y84 Z-1.348
X89.061 Y83.832 Z-1.366
X89.036 Y83.667 Z-1.381
X89.032 Y83.639 Z-1.384
X89.013 Y83.49 Z-1.395
X88.981 Y83.188 Z-1.413
X88.98 Y83.177 Z-1.414
X88.97 Y83.012 Z-1.425
X88.959 Y82.668 Z-1.45
X88.954 Y82.304 Z-1.473
X88.953 Y81.818 Z-1.501
X88.986 Y81.313 Z-1.506
X88.99 Y81.257
X89.016 Y80.947 Z-1.511
X89.047 Y80.633 Z-1.517
X89.084 Y80.315 Z-1.523
X89.122 Y80.039 Z-1.528
X89.137 Y79.943 Z-1.531
X89.185 Y79.669 Z-1.535
X89.242 Y79.39 Z-1.538
X89.279 Y79.231 Z-1.54
X89.336 Y79.013 Z-1.539
X89.414 Y78.753 Z-1.535
X89.464 Y78.604 Z-1.532
X89.538 Y78.399 Z-1.523
G0 Z5
X107.5 Y73.862
G1 Z0 F850
X107.792 Y73.594 Z-0.292
X107.5 Y73.291 Z0
X107.792 Y73.594 Z-0.292
X108.771 Y73.651 Z-0.314
X108.98 Y73.662 Z-0.318
X109.178 Y73.674 Z-0.324
X109.318 Y73.685 Z-0.331
X109.468 Y73.702 Z-0.343
X109.574 Y73.717 Z-0.355
X109.713 Y73.741 Z-0.375
X109.804 Y73.76 Z-0.392
X109.874 Y73.777 Z-0.407
X109.993 Y73.809 Z-0.436
X110.093 Y73.84 Z-0.465
X110.189 Y73.873 Z-0.496
X110.314 Y73.92 Z-0.541
X110.461 Y73.982 Z-0.599
X110.739 Y74.108 Z-0.72
X110.866 Y74.171 Z-0.781
X110.975 Y74.233 Z-0.841
X111.086 Y74.304 Z-0.911
X111.195 Y74.381 Z-0.987
X111.305 Y74.467 Z-1.071
X111.413 Y74.559 Z-1.162
X111.8 Y74.912 Z-1.51
X112.222 Y74.537 Z-1.13
X112.301 Y74.472 Z-1.065
X112.412 Y74.387 Z-0.979
X112.545 Y74.296 Z-0.886
X112.624 Y74.245 Z-0.837
X112.703 Y74.199 Z-0.791
X112.783 Y74.157 Z-0.749
X112.912 Y74.096 Z-0.69
X113.127 Y74.006 Z-0.602
X113.285 Y73.944 Z-0.543
X113.427 Y73.893 Z-0.494
X113.517 Y73.864 Z-0.466
X113.617 Y73.835 Z-0.439
X113.747 Y73.802 Z-0.408
X113.838 Y73.782 Z-0.39
X113.982 Y73.756 Z-0.366
X114.084 Y73.74 Z-0.354
X114.235 Y73.722 Z-0.34
X114.377 Y73.71 Z-0.331
X114.575 Y73.696 Z-0.325
X114.785 Y73.684 Z-0.321
X115.426 Y73.636 Z-0.302
X115.808 Y73.605 Z-0.292
X116.099 Y73.296 Z-0.001
X115.808 Y73.605 Z-0.292
X116.099 Y73.868 Z-0.001
X115.808 Y73.605 Z-0.292
X115.426 Y73.636 Z-0.302
X114.785 Y73.684 Z-0.321
X114.575 Y73.696 Z-0.325
X114.377 Y73.71 Z-0.331
X114.235 Y73.722 Z-0.34
X114.084 Y73.74 Z-0.354
X113.982 Y73.756 Z-0.366
X113.838 Y73.782 Z-0.39
X113.747 Y73.802 Z-0.408
X113.617 Y73.835 Z-0.439
X113.517 Y73.864 Z-0.466
X113.427 Y73.893 Z-0.494
X113.285 Y73.944 Z-0.543
X113.127 Y74.006 Z-0.602
X112.912 Y74.096 Z-0.69
X112.783 Y74.157 Z-0.749
X112.703 Y74.199 Z-0.791
X112.624 Y74.245 Z-0.837
X112.545 Y74.296 Z-0.886
X112.412 Y74.387 Z-0.979
X112.301 Y74.472 Z-1.065
X112.222 Y74.537 Z-1.13
X111.8 Y74.912 Z-1.51
X111.799 Y75.376 Z-1.464
Y75.921 Z-1.414
Y76.219 Z-1.389
Y76.756 Z-1.352
Y77.317 Z-1.322
X111.8 Y77.662 Z-1.308
X111.799 Y78.159 Z-1.294
X111.8 Y78.701 Z-1.285
Y79.347 Z-1.282
Y80.178 Z-1.286
X111.801 Y81.001 Z-1.295
X111.8 Y90.518 Z-1.297
X111.806 Y92.56 Z-1.314
X111.816 Y94.134 Z-1.332
X111.818 Y95.015 Z-1.354
X111.822 Y95.833 Z-1.376
X111.827 Y96.508 Z-1.397
X111.834 Y96.729 Z-1.4
X111.836 Y96.928 Z-1.406
X111.835 Y97.094 Z-1.414
X111.83 Y97.261 Z-1.426
X111.821 Y97.429 Z-1.443
X111.809 Y97.589 Z-1.462
X111.796 Y97.711 Z-1.481
X111.78 Y97.845 Z-1.504
X111.758 Y97.994 Z-1.533
X111.98 Y98.28 Z-1.325
X112.086 Y98.417 Z-1.226
X112.486 Y98.947 Z-0.853
X112.87 Y99.464 Z-0.497
X113.296 Y100.046 Z-0.103
X113.31 Y100.16 Z-0.001
X113.296 Y100.046 Z-0.103
X113.401 Y100.097 Z0
X113.296 Y100.046 Z-0.103
X112.87 Y99.464 Z-0.497
X112.486 Y98.947 Z-0.853
X112.086 Y98.417 Z-1.226
X111.98 Y98.28 Z-1.325
X111.758 Y97.994 Z-1.533
X111.538 Y98.1 Z-1.369
X111.25 Y98.234 Z-1.161
X111.113 Y98.294 Z-1.069
X111.013 Y98.333 Z-1.006
X110.887 Y98.378 Z-0.932
X110.791 Y98.408 Z-0.88
X110.695 Y98.434 Z-0.833
X110.579 Y98.46 Z-0.781
X110.407 Y98.49 Z-0.716
X110.193 Y98.521 Z-0.641
X109.998 Y98.547 Z-0.579
X109.9 Y98.557 Z-0.551
X109.782 Y98.568 Z-0.519
X109.638 Y98.576 Z-0.487
X109.529 Y98.579 Z-0.466
X109.376 Y98.58 Z-0.441
X109.233 Y98.577 Z-0.423
X109.047 Y98.568 Z-0.404
X108.856 Y98.556 Z-0.39
X108.366 Y98.525 Z-0.36
X107.829 Y98.494 Z-0.329
X107.501 Y98.789 Z-0.001
X107.829 Y98.494 Z-0.329
X107.5 Y98.166 Z0
G0 Z5
X118.413 Y73.862
G1 Z0 F850
X118.705 Y73.594 Z-0.292
X118.413 Y73.291 Z0
X118.705 Y73.594 Z-0.292
X119.684 Y73.651 Z-0.314
X119.893 Y73.662 Z-0.318
X120.091 Y73.674 Z-0.324
X120.231 Y73.685 Z-0.331
X120.381 Y73.702 Z-0.343
X120.487 Y73.717 Z-0.355
X120.626 Y73.741 Z-0.375
X120.717 Y73.76 Z-0.392
X120.787 Y73.777 Z-0.407
X120.906 Y73.809 Z-0.436
X121.008 Y73.841 Z-0.466
X121.145 Y73.889 Z-0.511
X121.289 Y73.946 Z-0.565
X121.399 Y73.993 Z-0.609
X121.607 Y74.086 Z-0.699
X121.779 Y74.171 Z-0.781
X121.888 Y74.233 Z-0.841
X121.999 Y74.304 Z-0.911
X122.108 Y74.381 Z-0.987
X122.218 Y74.467 Z-1.071
X122.327 Y74.56 Z-1.163
X122.713 Y74.912 Z-1.51
X123.135 Y74.536 Z-1.13
X123.214 Y74.471 Z-1.064
X123.325 Y74.387 Z-0.978
X123.458 Y74.296 Z-0.886
X123.537 Y74.245 Z-0.837
X123.616 Y74.199 Z-0.791
X123.696 Y74.157 Z-0.749
X123.825 Y74.096 Z-0.69
X124.031 Y74.01 Z-0.606
X124.198 Y73.944 Z-0.543
X124.34 Y73.893 Z-0.494
X124.43 Y73.864 Z-0.466
X124.53 Y73.835 Z-0.439
X124.622 Y73.811 Z-0.416
X124.747 Y73.783 Z-0.39
X124.838 Y73.765 Z-0.375
X124.973 Y73.744 Z-0.357
X125.073 Y73.731 Z-0.346
X125.22 Y73.716 Z-0.335
X125.377 Y73.703 Z-0.328
X125.552 Y73.693 Z-0.324
X125.698 Y73.684 Z-0.321
X126.339 Y73.636 Z-0.302
X126.721 Y73.605 Z-0.292
X127.013 Y73.296 Z0
X126.721 Y73.605 Z-0.292
X127.012 Y73.868 Z-0.001
X126.721 Y73.605 Z-0.292
X126.339 Y73.636 Z-0.302
X125.698 Y73.684 Z-0.321
X125.552 Y73.693 Z-0.324
X125.377 Y73.703 Z-0.328
X125.22 Y73.716 Z-0.335
X125.073 Y73.731 Z-0.346
X124.973 Y73.744 Z-0.357
X124.838 Y73.765 Z-0.375
X124.747 Y73.783 Z-0.39
X124.622 Y73.811 Z-0.416
X124.53 Y73.835 Z-0.439
X124.43 Y73.864 Z-0.466
X124.34 Y73.893 Z-0.494
X124.198 Y73.944 Z-0.543
X124.031 Y74.01 Z-0.606
X123.825 Y74.096 Z-0.69
X123.696 Y74.157 Z-0.749
X123.616 Y74.199 Z-0.791
X123.537 Y74.245 Z-0.837
X123.458 Y74.296 Z-0.886
X123.325 Y74.387 Z-0.978
X123.214 Y74.471 Z-1.064
X123.135 Y74.536 Z-1.13
X122.713 Y74.912 Z-1.51
Y75.376 Z-1.464
Y75.928 Z-1.414
X122.712 Y76.478 Z-1.37
Y77.039 Z-1.335
Y77.385 Z-1.319
Y77.87 Z-1.301
X122.713 Y78.239 Z-1.292
Y78.793 Z-1.284
X122.714 Y79.352 Z-1.281
Y80.056 Z-1.284
Y81.001 Z-1.295
X122.713 Y90.518 Z-1.297
X122.716 Y91.747 Z-1.307
X122.721 Y92.969 Z-1.318
X122.73 Y94.134 Z-1.333
X122.731 Y95.015 Z-1.354
X122.735 Y95.833 Z-1.376
X122.74 Y96.508 Z-1.397
X122.747 Y96.729 Z-1.4
X122.749 Y96.928 Z-1.406
X122.748 Y97.094 Z-1.414
X122.743 Y97.261 Z-1.426
X122.734 Y97.429 Z-1.443
X122.722 Y97.589 Z-1.462
X122.709 Y97.711 Z-1.481
X122.693 Y97.845 Z-1.504
X122.671 Y97.994 Z-1.533
X122.896 Y98.283 Z-1.322
X122.999 Y98.417 Z-1.227
X123.399 Y98.946 Z-0.854
X123.782 Y99.463 Z-0.498
X124.209 Y100.046 Z-0.103
X124.223 Y100.16 Z-0.001
X124.209 Y100.046 Z-0.103
X124.314 Y100.097 Z0
X124.209 Y100.046 Z-0.103
X123.782 Y99.463 Z-0.498
X123.399 Y98.946 Z-0.854
X122.999 Y98.417 Z-1.227
X122.896 Y98.283 Z-1.322
X122.671 Y97.994 Z-1.533
X122.451 Y98.1 Z-1.369
X122.163 Y98.234 Z-1.161
X122.026 Y98.294 Z-1.069
X121.926 Y98.333 Z-1.006
X121.8 Y98.378 Z-0.932
X121.704 Y98.408 Z-0.88
X121.608 Y98.434 Z-0.833
X121.492 Y98.46 Z-0.781
X121.32 Y98.49 Z-0.716
X121.114 Y98.52 Z-0.644
X120.953 Y98.542 Z-0.592
X120.813 Y98.557 Z-0.551
X120.695 Y98.568 Z-0.519
X120.551 Y98.576 Z-0.487
X120.442 Y98.579 Z-0.466
X120.289 Y98.58 Z-0.441
X120.146 Y98.577 Z-0.423
X119.96 Y98.568 Z-0.404
X119.769 Y98.556 Z-0.39
X119.279 Y98.525 Z-0.359
X118.742 Y98.494 Z-0.329
X118.414 Y98.789 Z-0.001
X118.742 Y98.494 Z-0.329
X118.413 Y98.166 Z0
G0 Z5
X143.743 Y74.599
G1 Z0 F850
X143.38 Y74.918 Z-0.453
X143.522 Y75.079 Z-0.378
X143.773 Y75.372 Z-0.247
X143.941 Y75.573 Z-0.162
X144.191 Y75.877 Z-0.037
X144.195 Y75.923 Z0
X144.191 Y75.877 Z-0.037
X144.235 Y75.888 Z0
X144.191 Y75.877 Z-0.037
X143.941 Y75.573 Z-0.162
X143.773 Y75.372 Z-0.247
X143.522 Y75.079 Z-0.378
X143.38 Y74.918 Z-0.453
X143.237 Y74.843 Z-0.455
X142.99 Y74.721 Z-0.461
X142.763 Y74.613 Z-0.469
X142.537 Y74.511 Z-0.477
X142.255 Y74.391 Z-0.486
X142.012 Y74.294 Z-0.49
X141.924 Y74.261 Z-0.492
X141.716 Y74.191 Z-0.5
X141.397 Y74.09 Z-0.511
X141.118 Y74.008 Z-0.521
X140.85 Y73.936 Z-0.532
X140.603 Y73.874 Z-0.547
X140.357 Y73.827 Z-0.558
X140.12 Y73.786 Z-0.571
X139.885 Y73.751 Z-0.587
X139.561 Y73.708 Z-0.61
X139.32 Y73.681 Z-0.625
X139.178 Y73.667 Z-0.634
X138.927 Y73.659 Z-0.658
X138.673 Y73.656 Z-0.681
X138.414 Y73.658 Z-0.703
X138.15 Y73.664 Z-0.724
X137.88 Y73.675 Z-0.746
X137.52 Y73.696 Z-0.78
X137.295 Y73.725 Z-0.793
X137.023 Y73.765 Z-0.812
X136.776 Y73.808 Z-0.834
X136.526 Y73.858 Z-0.861
X136.27 Y73.918 Z-0.892
X136.009 Y73.988 Z-0.928
X135.76 Y74.066 Z-0.967
X135.535 Y74.146 Z-1.004
X135.32 Y74.23 Z-1.04
X135.118 Y74.317 Z-1.074
X134.979 Y74.383 Z-1.097
X134.787 Y74.48 Z-1.127
X134.57 Y74.601 Z-1.158
X134.398 Y74.706 Z-1.179
X134.224 Y74.82 Z-1.198
X134.045 Y74.944 Z-1.215
X133.956 Y75.009 Z-1.222
X133.781 Y75.139 Z-1.235
X133.601 Y75.276 Z-1.246
X133.488 Y75.368 Z-1.255
X133.396 Y75.452 Z-1.267
X133.307 Y75.54 Z-1.285
X132.954 Y75.916 Z-1.362
X132.714 Y76.179 Z-1.415
X132.504 Y76.481 Z-1.427
X132.35 Y76.71 Z-1.437
X132.203 Y76.938 Z-1.449
X132.123 Y77.067 Z-1.455
X131.997 Y77.276 Z-1.467
X131.85 Y77.539 Z-1.482
X131.721 Y77.789 Z-1.497
X131.629 Y77.986 Z-1.508
X131.549 Y78.169 Z-1.516
X131.471 Y78.368 Z-1.524
X131.434 Y78.475 Z-1.526
X131.361 Y78.704 Z-1.531
X131.295 Y78.949 Z-1.533
X131.269 Y79.059
X131.218 Y79.296 Z-1.532
X131.165 Y79.59 Z-1.529
X131.123 Y79.865 Z-1.526
X131.092 Y80.116 Z-1.523
X131.082 Y80.203 Z-1.521
X131.054 Y80.486 Z-1.518
X131.018 Y80.924 Z-1.515
X130.986 Y81.408 Z-1.511
X130.983 Y81.778 Z-1.491
X130.984 Y81.886 Z-1.486
X130.987 Y81.983 Z-1.485
X130.997 Y82.108 Z-1.487
X131.008 Y82.216 Z-1.492
X131.023 Y82.321 Z-1.5
X131.042 Y82.426 Z-1.511
X131.063 Y82.525 Z-1.524
X131.087 Y82.623 Z-1.539
X131.344 Y82.617 Z-1.304
X131.58 Y82.611 Z-1.097
X131.691 Y82.608 Z-1.003
X131.9 Y82.602 Z-0.834
X131.999 Y82.6 Z-0.759
X132.095 Y82.597 Z-0.691
X132.189 Y82.595 Z-0.629
X132.281 Y82.592 Z-0.575
X132.371 Y82.59 Z-0.529
X132.459 Y82.587 Z-0.491
X132.547 Y82.585 Z-0.463
X132.634 Y82.583 Z-0.445
X132.72 Y82.581 Z-0.437
X134.037 Y82.557 Z-0.413
X135.085 Y82.54 Z-0.397
X135.873 Y82.531 Z-0.387
X136.923 Y82.523 Z-0.379
X137.968 Y82.519 Z-0.374
X138.869 Y82.52 Z-0.369
X139.319 Y82.524 Z-0.368
X139.808 Y82.533
X140.215 Y82.544 Z-0.369
X140.604 Y82.56 Z-0.372
X141.057 Y82.585 Z-0.379
X141.728 Y82.629 Z-0.391
X141.783 Y82.634 Z-0.393
X141.858 Y82.644 Z-0.399
X141.932 Y82.659 Z-0.411
X142.006 Y82.679 Z-0.426
X142.08 Y82.702 Z-0.446
X142.154 Y82.731 Z-0.47
X142.228 Y82.763 Z-0.499
X142.302 Y82.801 Z-0.532
X142.375 Y82.843 Z-0.57
X142.448 Y82.889 Z-0.612
X142.545 Y82.957 Z-0.675
X142.641 Y83.033 Z-0.746
X142.705 Y83.091 Z-0.797
X142.792 Y83.177 Z-0.873
X142.876 Y83.267 Z-0.953
X143.125 Y83.546 Z-1.202
X143.357 Y83.811 Z-1.434
X143.646 Y83.577 Z-1.159
X143.752 Y83.493 Z-1.058
X144.071 Y83.219 Z-0.73
X144.536 Y82.829 Z-0.251
X144.78 Y82.627 Z-0.001
X144.536 Y82.829 Z-0.251
X144.071 Y83.219 Z-0.73
X143.752 Y83.493 Z-1.058
X143.646 Y83.577 Z-1.159
X143.357 Y83.811 Z-1.434
X143.348 Y84.127 Z-1.425
X143.338 Y84.368 Z-1.416
X143.318 Y84.644 Z-1.41
X143.305 Y84.8 Z-1.406
X143.274 Y85.087 Z-1.395
X143.256 Y85.23 Z-1.389
X143.231 Y85.397 Z-1.38
X143.207 Y85.539 Z-1.372
X143.174 Y85.705 Z-1.36
X143.136 Y85.869 Z-1.347
X143.091 Y86.031 Z-1.331
X143.037 Y86.202 Z-1.311
X142.985 Y86.35 Z-1.293
X142.925 Y86.506 Z-1.272
X142.857 Y86.667 Z-1.25
X142.741 Y86.921 Z-1.213
X142.663 Y87.08 Z-1.189
X142.532 Y87.336 Z-1.15
X142.372 Y87.636 Z-1.103
X142.258 Y87.844 Z-1.071
X142.224 Y87.903 Z-1.063
X142.183 Y87.953 Z-1.048
X141.967 Y88.199 Z-0.984
X141.876 Y88.3 Z-0.958
X141.729 Y88.458 Z-0.919
X141.572 Y88.617 Z-0.88
X141.421 Y88.759 Z-0.848
X141.321 Y88.847 Z-0.828
X141.226 Y88.926 Z-0.811
X141.108 Y89.019 Z-0.792
X140.951 Y89.131 Z-0.769
X140.836 Y89.207 Z-0.753
X140.648 Y89.322 Z-0.727
X140.477 Y89.415 Z-0.703
X140.375 Y89.466 Z-0.687
X140.134 Y89.579 Z-0.647
X140.063 Y89.609 Z-0.634
X140.006 Y89.631 Z-0.627
X139.81 Y89.698 Z-0.602
X139.604 Y89.764 Z-0.573
X139.386 Y89.827 Z-0.543
X139.161 Y89.886 Z-0.512
X138.928 Y89.938 Z-0.484
X138.807 Y89.962 Z-0.47
X138.664 Y89.987 Z-0.457
X138.444 Y90.018 Z-0.441
X138.225 Y90.044 Z-0.431
X138.038 Y90.061 Z-0.425
X137.754 Y90.062 Z-0.4
X137.329 Y90.054 Z-0.367
X137.241 Y90.048 Z-0.363
X137.136 Y90.037 Z-0.362
X136.922 Y90.013 Z-0.358
X136.595 Y89.97 Z-0.351
X136.429 Y89.943 Z-0.347
X136.262 Y89.912 Z-0.342
X136.095 Y89.877 Z-0.338
X135.927 Y89.836 Z-0.333
X135.759 Y89.788 Z-0.329
X135.592 Y89.735 Z-0.327
X135.424 Y89.674 Z-0.326
X135.256 Y89.607 Z-0.327
X135.088 Y89.532 Z-0.333
X134.924 Y89.45 Z-0.341
X134.765 Y89.366 Z-0.353
X134.608 Y89.275 Z-0.367
X134.456 Y89.184 Z-0.384
X134.307 Y89.089 Z-0.403
X134.16 Y88.992 Z-0.424
X133.955 Y88.852 Z-0.457
X133.831 Y88.76 Z-0.474
X133.479 Y88.491 Z-0.525
X133.421 Y88.444 Z-0.535
X133.366 Y88.394 Z-0.548
X133.181 Y88.204 Z-0.611
X133.014 Y88.024 Z-0.667
X132.855 Y87.847 Z-0.72
X132.725 Y87.697 Z-0.763
X132.585 Y87.526 Z-0.807
X132.48 Y87.389 Z-0.84
X132.443 Y87.339 Z-0.851
X132.316 Y87.16 Z-0.889
X132.291 Y87.122 Z-0.896
X132.179 Y86.95 Z-0.93
X132.079 Y86.784 Z-0.961
X131.932 Y86.526 Z-1.01
X131.815 Y86.303 Z-1.053
X131.77 Y86.214 Z-1.072
X131.68 Y86.028 Z-1.111
X131.65 Y85.942 Z-1.12
X131.537 Y85.598 Z-1.16
X131.463 Y85.353 Z-1.192
X131.397 Y85.12 Z-1.225
X131.338 Y84.893 Z-1.257
X131.281 Y84.652 Z-1.291
X131.231 Y84.418 Z-1.324
X131.189 Y84.198 Z-1.353
X131.15 Y83.969 Z-1.38
X131.122 Y83.774 Z-1.401
X131.098 Y83.591 Z-1.417
X131.078 Y83.411 Z-1.431
X131.062 Y83.224 Z-1.445
X131.058 Y83.128 Z-1.454
X131.056 Y83.032 Z-1.466
X131.059 Y82.933 Z-1.48
X131.064 Y82.834 Z-1.496
X131.074 Y82.731 Z-1.516
X131.087 Y82.623 Z-1.539
G0 Z5
X146.621 Y90.105
G1 Z0 F850
X146.886 Y89.824 Z-0.265
X146.621 Y89.56 Z0
X146.886 Y89.824 Z-0.265
X147.103 Y89.818 Z-0.258
X147.183 Y89.812 Z-0.259
X147.323 Y89.792 Z-0.271
X147.585 Y89.753 Z-0.297
X147.746 Y89.726 Z-0.316
X147.973 Y89.685 Z-0.348
X148.109 Y89.656 Z-0.371
X148.252 Y89.623 Z-0.399
X148.398 Y89.584 Z-0.433
X148.55 Y89.54 Z-0.473
X148.715 Y89.485 Z-0.525
X148.879 Y89.423 Z-0.583
X149.05 Y89.351 Z-0.652
X149.228 Y89.269 Z-0.731
X149.387 Y89.189 Z-0.808
X149.556 Y89.1 Z-0.895
X149.722 Y89.007 Z-0.986
X149.89 Y88.91 Z-1.085
X150.082 Y88.796 Z-1.202
X150.356 Y88.626 Z-1.376
X150.57 Y88.49 Z-1.516
X150.718 Y88.633 Z-1.375
X150.877 Y88.776 Z-1.235
X150.987 Y88.871 Z-1.142
X151.097 Y88.962 Z-1.053
X151.217 Y89.056 Z-0.961
X151.336 Y89.143 Z-0.876
X151.439 Y89.214 Z-0.807
X151.544 Y89.281 Z-0.743
X151.615 Y89.323 Z-0.702
X151.749 Y89.396 Z-0.631
X151.84 Y89.442 Z-0.588
X151.965 Y89.499 Z-0.533
X152.082 Y89.548 Z-0.487
X152.195 Y89.592 Z-0.446
X152.28 Y89.623 Z-0.417
X152.412 Y89.659 Z-0.384
X152.62 Y89.71 Z-0.339
X152.777 Y89.743 Z-0.31
X152.9 Y89.764 Z-0.292
X153.023 Y89.782 Z-0.278
X153.144 Y89.795 Z-0.268
X153.272 Y89.805 Z-0.262
X153.429 Y89.812 Z-0.259
X153.665 Y89.819 Z-0.26
X154.162 Y89.826 Z-0.267
X154.504 Y89.832 Z-0.273
X154.776 Y90.113 Z-0.001
X154.504 Y89.832 Z-0.273
X154.777 Y89.56 Z0
X154.504 Y89.832 Z-0.273
X154.162 Y89.826 Z-0.267
X153.665 Y89.819 Z-0.26
X153.429 Y89.812 Z-0.259
X153.272 Y89.805 Z-0.262
X153.144 Y89.795 Z-0.268
X153.023 Y89.782 Z-0.278
X152.9 Y89.764 Z-0.292
X152.777 Y89.743 Z-0.31
X152.62 Y89.71 Z-0.339
X152.412 Y89.659 Z-0.384
X152.28 Y89.623 Z-0.417
X152.195 Y89.592 Z-0.446
X152.082 Y89.548 Z-0.487
X151.965 Y89.499 Z-0.533
X151.84 Y89.442 Z-0.588
X151.749 Y89.396 Z-0.631
X151.615 Y89.323 Z-0.702
X151.544 Y89.281 Z-0.743
X151.439 Y89.214 Z-0.807
X151.336 Y89.143 Z-0.876
X151.217 Y89.056 Z-0.961
X151.097 Y88.962 Z-1.053
X150.987 Y88.871 Z-1.142
X150.877 Y88.776 Z-1.235
X150.718 Y88.633 Z-1.375
X150.57 Y88.49 Z-1.516
X150.585 Y88.419 Z-1.502
X150.616 Y88.293 Z-1.48
X150.672 Y88.098 Z-1.455
X150.738 Y87.879 Z-1.429
X150.824 Y87.609 Z-1.402
X150.879 Y87.447 Z-1.389
X150.956 Y87.235 Z-1.376
X151.065 Y86.951 Z-1.364
X151.184 Y86.653 Z-1.355
X151.848 Y84.998 Z-1.314
X152.451 Y83.466 Z-1.296
X152.815 Y82.547 Z-1.287
X153.182 Y81.629 Z-1.281
X153.552 Y80.711 Z-1.278
X153.929 Y79.781 Z-1.28
X154.342 Y78.772 Z-1.285
X154.896 Y77.423 Z-1.297
X155.416 Y76.159 Z-1.312
X155.602 Y75.707 Z-1.318
X155.646 Y75.605 Z-1.321
X155.693 Y75.504 Z-1.329
X155.745 Y75.404 Z-1.34
X155.805 Y75.297 Z-1.357
X155.869 Y75.192 Z-1.379
X155.938 Y75.089 Z-1.405
X155.997 Y75.007 Z-1.43
X156.059 Y74.926 Z-1.457
X156.028 Y72.389 Z-0.506
X156.027 Y72.332 Z-0.485
X156.02 Y72.249 Z-0.459
X156.009 Y72.169 Z-0.437
X155.993 Y72.09 Z-0.42
X155.973 Y72.013 Z-0.407
X155.953 Y71.95 Z-0.4
X155.824 Y71.625 Z-0.389
X155.395 Y70.57 Z-0.361
X155.175 Y70.04 Z-0.35
X154.95 Y69.511 Z-0.342
X154.72 Y68.985 Z-0.338
X154.481 Y68.458 Z-0.34
X154.234 Y67.933 Z-0.347
X154.107 Y67.67 Z-0.354
X153.95 Y67.357 Z-0.364
X153.714 Y66.893 Z-0.382
X153.515 Y66.513 Z-0.4
X153.067 Y65.671 Z-0.443
X153.003 Y65.558 Z-0.451
X152.959 Y65.491 Z-0.462
X152.925 Y65.442 Z-0.471
X152.763 Y65.241 Z-0.495
X152.621 Y65.072 Z-0.515
X152.524 Y64.963 Z-0.529
X152.425 Y64.857 Z-0.544
X152.295 Y64.729 Z-0.562
X152.177 Y64.624 Z-0.578
X152.104 Y64.564 Z-0.587
X151.966 Y64.462 Z-0.603
X151.845 Y64.381 Z-0.618
X151.732 Y64.312 Z-0.633
X151.592 Y64.234 Z-0.653
X151.468 Y64.17 Z-0.673
X151.373 Y64.124 Z-0.69
X151.235 Y64.061 Z-0.715
X151.071 Y64.002 Z-0.736
X150.86 Y63.933 Z-0.764
X150.652 Y63.871 Z-0.792
X150.533 Y63.839 Z-0.806
X150.419 Y63.813 Z-0.821
X150.347 Y63.802 Z-0.831
X150.287 Y63.795 Z-0.841
X150.141 Y63.784 Z-0.865
X150.011 Y63.779 Z-0.883
X149.881 Z-0.901
X149.729 Y63.784 Z-0.923
X149.572 Y63.795 Z-0.948
X149.435 Y63.81 Z-0.973
X149.295 Y63.83 Z-1.002
X149.236 Y63.842 Z-1.012
X149.102 Y63.874 Z-1.036
X149 Y63.902 Z-1.054
X148.886 Y63.939 Z-1.072
X148.731 Y63.996 Z-1.094
X148.544 Y63.891 Z-0.944
X148.248 Y63.739 Z-0.705
X148.02 Y63.626 Z-0.519
X147.852 Y63.546 Z-0.381
X147.662 Y63.461 Z-0.225
X147.393 Y63.344 Z0
X147.662 Y63.461 Z-0.225
X147.852 Y63.546 Z-0.381
X148.02 Y63.626 Z-0.519
X148.248 Y63.739 Z-0.705
X148.544 Y63.891 Z-0.944
X148.731 Y63.996 Z-1.094
X148.696 Y64.086 Z-1.034
X148.618 Y64.304 Z-0.896
X148.512 Y64.615 Z-0.705
X148.439 Y64.844 Z-0.569
X148.39 Y65.011 Z-0.474
X148.328 Y65.239 Z-0.349
X148.263 Y65.51 Z-0.208
X148.216 Y65.721 Z-0.102
X148.262 Y65.823 Z-0.001
X148.216 Y65.721 Z-0.102
X148.14 Y65.823 Z0
X148.216 Y65.721 Z-0.102
X148.263 Y65.51 Z-0.208
X148.328 Y65.239 Z-0.349
X148.39 Y65.011 Z-0.474
X148.439 Y64.844 Z-0.569
X148.512 Y64.615 Z-0.705
X148.618 Y64.304 Z-0.896
X148.696 Y64.086 Z-1.034
X148.731 Y63.996 Z-1.094
X148.886 Y63.939 Z-1.072
X149 Y63.902 Z-1.054
X149.102 Y63.874 Z-1.036
X149.236 Y63.842 Z-1.012
X149.295 Y63.83 Z-1.002
X149.435 Y63.81 Z-0.973
X149.572 Y63.795 Z-0.948
X149.729 Y63.784 Z-0.923
X149.881 Y63.779 Z-0.901
X150.011 Z-0.883
X150.141 Y63.784 Z-0.865
X150.287 Y63.795 Z-0.841
X150.347 Y63.802 Z-0.831
X150.419 Y63.813 Z-0.821
X150.533 Y63.839 Z-0.806
X150.652 Y63.871 Z-0.792
X150.86 Y63.933 Z-0.764
X151.071 Y64.002 Z-0.736
X151.235 Y64.061 Z-0.715
X151.373 Y64.124 Z-0.69
X151.468 Y64.17 Z-0.673
X151.592 Y64.234 Z-0.653
X151.732 Y64.312 Z-0.633
X151.845 Y64.381 Z-0.618
X151.966 Y64.462 Z-0.603
X152.104 Y64.564 Z-0.587
X152.177 Y64.624 Z-0.578
X152.295 Y64.729 Z-0.562
X152.425 Y64.857 Z-0.544
X152.524 Y64.963 Z-0.529
X152.621 Y65.072 Z-0.515
X152.763 Y65.241 Z-0.495
X152.925 Y65.442 Z-0.471
X152.959 Y65.491 Z-0.462
X153.003 Y65.558 Z-0.451
X153.067 Y65.671 Z-0.443
X153.515 Y66.513 Z-0.4
X153.714 Y66.893 Z-0.382
X153.95 Y67.357 Z-0.364
X154.107 Y67.67 Z-0.354
X154.234 Y67.933 Z-0.347
X154.481 Y68.458 Z-0.34
X154.72 Y68.985 Z-0.338
X154.95 Y69.511 Z-0.342
X155.175 Y70.04 Z-0.35
X155.395 Y70.57 Z-0.361
X155.824 Y71.625 Z-0.389
X155.953 Y71.95 Z-0.4
X155.973 Y72.013 Z-0.407
X155.993 Y72.09 Z-0.42
X156.009 Y72.169 Z-0.437
X156.02 Y72.249 Z-0.459
X156.027 Y72.332 Z-0.485
X156.028 Y72.389 Z-0.506
X156.059 Y74.926 Z-1.457
X156.2 Y74.968 Z-1.344
X156.354 Y75.02 Z-1.222
X156.496 Y75.073 Z-1.112
X156.63 Y75.13 Z-1.01
X156.757 Y75.189 Z-0.916
X156.876 Y75.252 Z-0.83
X156.988 Y75.318 Z-0.753
X157.092 Y75.387 Z-0.683
X157.189 Y75.46 Z-0.622
X157.282 Y75.538 Z-0.567
X157.364 Y75.616 Z-0.522
X157.438 Y75.698 Z-0.485
X157.505 Y75.783 Z-0.457
X157.563 Y75.868 Z-0.437
X157.613 Y75.956 Z-0.424
X157.657 Y76.047 Z-0.42
X158.367 Y77.685 Z-0.405
X158.7 Y78.454 Z-0.402
X159.13 Y79.449 Z-0.401
X159.678 Y80.729 Z-0.407
X160.015 Y81.528 Z-0.416
X160.223 Y82.016 Z-0.426
X160.584 Y82.873 Z-0.447
X161.04 Y83.96 Z-0.48
X161.426 Y84.876 Z-0.515
X161.685 Y85.485 Z-0.541
X162.028 Y86.287 Z-0.581
X162.118 Y86.493 Z-0.59
X162.253 Y86.805 Z-0.608
X162.376 Y87.1 Z-0.63
X162.465 Y87.32 Z-0.649
X162.541 Y87.514 Z-0.669
X162.656 Y87.827 Z-0.709
X162.768 Y88.143 Z-0.754
X162.804 Y88.26 Z-0.775
X162.832 Y88.369 Z-0.8
X162.855 Y88.481 Z-0.831
X162.871 Y88.595 Z-0.868
X162.882 Y88.692 Z-0.904
X162.888 Y88.788 Z-0.942
X162.891 Y88.971 Z-1.023
X163.045 Y89.057 Z-0.937
X163.248 Y89.162 Z-0.833
X163.452 Y89.263 Z-0.734
X163.591 Y89.327 Z-0.672
X163.742 Y89.392 Z-0.609
X163.876 Y89.445 Z-0.559
X164.048 Y89.506 Z-0.501
X164.251 Y89.573 Z-0.44
X164.385 Y89.615 Z-0.402
X164.523 Y89.651 Z-0.37
X164.703 Y89.696 Z-0.332
X164.845 Y89.728 Z-0.307
X164.984 Y89.754 Z-0.287
X165.096 Y89.772 Z-0.275
X165.208 Y89.786 Z-0.267
X165.345 Y89.8 Z-0.262
X165.548 Y89.816 Z-0.258
X165.598 Y89.818 Z-0.259
X165.719 Y89.822 Z-0.263
X165.981 Y90.103 Z-0.001
X165.719 Y89.822 Z-0.263
X165.982 Y89.56 Z0
X165.719 Y89.822 Z-0.263
X165.598 Y89.818 Z-0.259
X165.548 Y89.816 Z-0.258
X165.345 Y89.8 Z-0.262
X165.208 Y89.786 Z-0.267
X165.096 Y89.772 Z-0.275
X164.984 Y89.754 Z-0.287
X164.845 Y89.728 Z-0.307
X164.703 Y89.696 Z-0.332
X164.523 Y89.651 Z-0.37
X164.385 Y89.615 Z-0.402
X164.251 Y89.573 Z-0.44
X164.048 Y89.506 Z-0.501
X163.876 Y89.445 Z-0.559
X163.742 Y89.392 Z-0.609
X163.591 Y89.327 Z-0.672
X163.452 Y89.263 Z-0.734
X163.248 Y89.162 Z-0.833
X163.045 Y89.057 Z-0.937
X162.891 Y88.971 Z-1.023
X162.694 Y89.093 Z-0.904
X162.533 Y89.187 Z-0.812
X162.374 Y89.273 Z-0.728
X162.239 Y89.34 Z-0.663
X162.12 Y89.394 Z-0.611
X162.051 Y89.423 Z-0.583
X161.919 Y89.473 Z-0.535
X161.855 Y89.496 Z-0.514
X161.729 Y89.534 Z-0.477
X161.623 Y89.563 Z-0.451
X161.521 Y89.587 Z-0.429
X161.406 Y89.611 Z-0.409
X161.326 Y89.625 Z-0.397
X161.17 Y89.648 Z-0.379
X161.061 Y89.661 Z-0.369
X160.899 Y89.678 Z-0.359
X160.673 Y89.696 Z-0.349
X160.598 Y89.702 Z-0.346
X159.794 Y89.781 Z-0.306
X159.737 Y89.787 Z-0.304
X159.434 Y89.525 Z-0.001
X159.737 Y89.787 Z-0.304
X159.434 Y90.107 Z0
G0 Z5
X179.194 Y88.271
G1 Z-1.517 F850
X179.181 Y88.134 Z-1.523
X179.146 Y87.698 Z-1.539
X179.135 Y87.506 Z-1.547
X179.128 Y87.27 Z-1.563
X179.113 Y86.562 Z-1.606
X179.106 Y86.044 Z-1.639
X179.132 Y85.586 Z-1.642
X179.154 Y85.255 Z-1.647
X179.181 Y84.922 Z-1.652
X179.212 Y84.584 Z-1.658
X179.25 Y84.242 Z-1.664
X179.296 Y83.894 Z-1.672
X179.342 Y83.596 Z-1.678
X179.387 Y83.344 Z-1.683
X179.415 Y83.202 Z-1.684
X179.491 Y82.856 Z-1.688
X179.551 Y82.619 Z-1.689
X179.579 Y82.512 Z-1.687
X179.679 Y82.168 Z-1.685
X179.768 Y81.886 Z-1.68
X179.853 Y81.634 Z-1.675
X179.892 Y81.523 Z-1.672
X180.008 Y81.204 Z-1.664
X180.143 Y80.849 Z-1.654
X180.359 Y80.305 Z-1.637
X180.54 Y79.862 Z-1.623
X180.608 Y79.725 Z-1.608
X180.666 Y79.611 Z-1.597
X180.848 Y79.29 Z-1.581
X181.111 Y78.843 Z-1.557
X181.256 Y78.605 Z-1.544
X181.387 Y78.398 Z-1.53
X181.517 Y78.198 Z-1.517
X181.567 Y78.124 Z-1.511
X181.71 Y77.917 Z-1.494
X181.883 Y77.68 Z-1.473
X182.04 Y77.479 Z-1.452
X182.178 Y77.312 Z-1.433
X182.251 Y77.228 Z-1.421
X182.449 Y77.009 Z-1.392
X182.637 Y76.814 Z-1.364
X182.7 Y76.752 Z-1.354
X182.881 Y76.579 Z-1.328
X183.104 Y76.375 Z-1.299
X183.33 Y76.18 Z-1.272
X183.558 Y75.991 Z-1.247
X183.781 Y75.813 Z-1.225
X184.002 Y75.641 Z-1.205
X184.13 Y75.544 Z-1.195
X184.47 Y75.33 Z-1.14
X184.782 Y75.139 Z-1.093
X185.161 Y74.914 Z-1.035
X185.387 Y74.782 Z-1
X185.452 Y74.746 Z-0.991
X185.517 Y74.712 Z-0.984
X185.766 Y74.598 Z-0.966
X186.013 Y74.488 Z-0.947
X186.247 Y74.388 Z-0.927
X186.481 Y74.292 Z-0.905
X186.716 Y74.201 Z-0.882
X186.961 Y74.113 Z-0.856
X187.207 Y74.031 Z-0.828
X187.457 Y73.955 Z-0.799
X187.712 Y73.884 Z-0.769
X187.971 Y73.819 Z-0.74
X188.23 Y73.76 Z-0.713
X188.496 Y73.708 Z-0.687
X188.762 Y73.662 Z-0.664
X189.025 Y73.623 Z-0.644
X189.286 Y73.59 Z-0.627
X189.43 Y73.574 Z-0.619
X189.722 Y73.544 Z-0.604
X190.017 Y73.519 Z-0.592
X190.264 Y73.501 Z-0.584
X190.313 Y73.5 Z-0.58
X190.816 Y73.499 Z-0.539
X191.063 Y73.5 Z-0.521
X191.554 Y73.507 Z-0.485
X191.636 Y73.51 Z-0.481
X192.073 Y73.543 Z-0.471
X192.518 Y73.583 Z-0.46
X192.752 Y73.607 Z-0.454
X193.1 Y73.647 Z-0.448
X193.421 Y73.693 Z-0.442
X193.559 Y73.714 Z-0.441
X193.876 Y73.771 Z-0.438
X194.01 Y73.798 Z-0.439
X194.126 Y73.823 Z-0.438
X194.358 Y73.876 Z-0.441
X194.564 Y73.93 Z-0.444
X194.792 Y73.995 Z-0.449
X194.882 Y74.022 Z-0.452
X195.239 Y74.141 Z-0.462
X195.457 Y74.223 Z-0.468
X195.684 Y74.311 Z-0.476
X196.092 Y74.488 Z-0.484
X196.499 Y74.682 Z-0.488
X196.894 Y74.884 Z-0.484
X197.002 Y74.948 Z-0.486
X197.278 Y75.129 Z-0.505
X197.553 Y75.318 Z-0.52
X197.737 Y75.446 Z-0.53
X198.026 Y75.657 Z-0.546
X198.288 Y75.858 Z-0.56
X198.395 Y75.941 Z-0.568
X198.653 Y76.153 Z-0.586
X198.759 Y76.243 Z-0.597
X199.014 Y76.468 Z-0.623
X199.197 Y76.637 Z-0.647
X199.373 Y76.807 Z-0.674
X199.464 Y76.898 Z-0.69
X199.716 Y77.158 Z-0.738
X199.884 Y77.338 Z-0.775
X200.063 Y77.534 Z-0.818
X200.19 Y77.71 Z-0.833
X200.459 Y78.094 Z-0.871
X200.717 Y78.474 Z-0.911
X200.966 Y78.851 Z-0.952
X201.011 Y78.92 Z-0.96
X201.053 Y78.992 Z-0.972
X201.282 Y79.406 Z-1.041
X201.493 Y79.799 Z-1.104
X201.692 Y80.188 Z-1.162
X201.835 Y80.483 Z-1.204
X201.956 Y80.743 Z-1.239
X202.045 Y80.946 Z-1.266
X202.075 Y81.016 Z-1.274
X202.198 Y81.317 Z-1.312
X202.309 Y81.618 Z-1.346
X202.395 Y81.872 Z-1.373
X202.45 Y82.044 Z-1.392
X202.484 Y82.164 Z-1.402
X202.551 Y82.411 Z-1.426
X202.636 Y82.763 Z-1.455
X202.703 Y83.096 Z-1.48
X202.75 Y83.361 Z-1.498
X202.785 Y83.57 Z-1.513
X202.838 Y83.952 Z-1.536
X202.89 Y84.4 Z-1.561
X202.93 Y84.81 Z-1.582
X202.953 Y85.093 Z-1.595
X202.994 Y85.64 Z-1.617
X202.999 Y85.723 Z-1.621
X203.01 Y86.054 Z-1.643
X203.025 Y86.641 Z-1.681
X203.031 Y86.98 Z-1.704
X202.993 Y87.545 Z-1.7
X202.984 Y87.662
X202.949 Y88.068 Z-1.702
X202.909 Y88.462 Z-1.704
X202.867 Y88.806 Z-1.707
X202.822 Y89.121 Z-1.711
X202.767 Y89.456 Z-1.716
X202.744 Y89.58 Z-1.719
X202.693 Y89.838 Z-1.722
X202.631 Y90.113 Z-1.727
X202.595 Y90.26 Z-1.73
X202.549 Y90.436
X202.51 Y90.579 Z-1.732
X202.459 Y90.749 Z-1.73
X202.416 Y90.887 Z-1.731
X202.316 Y91.18 Z-1.726
X202.209 Y91.464 Z-1.715
X202.089 Y91.755 Z-1.698
X201.955 Y92.052 Z-1.675
X201.808 Y92.357 Z-1.646
X201.649 Y92.671 Z-1.61
X201.478 Y92.994 Z-1.568
X201.412 Y93.11 Z-1.554
X201.346 Y93.217 Z-1.544
X201.081 Y93.622 Z-1.512
X200.937 Y93.837 Z-1.493
X200.657 Y94.242 Z-1.459
X200.614 Y94.304 Z-1.454
X200.369 Y94.642 Z-1.428
X200.244 Y94.811 Z-1.417
X200.073 Y94.984 Z-1.375
X199.787 Y95.267 Z-1.312
X199.583 Y95.46 Z-1.272
X199.427 Y95.603 Z-1.244
X199.157 Y95.84 Z-1.201
X198.935 Y96.024 Z-1.172
X198.77 Y96.156 Z-1.152
X198.504 Y96.359 Z-1.122
X198.281 Y96.521 Z-1.1
X198.101 Y96.647 Z-1.083
X197.851 Y96.814 Z-1.059
X197.766 Y96.87 Z-1.051
X197.431 Y97.08 Z-1.017
X197.094 Y97.278 Z-0.979
X196.781 Y97.451 Z-0.938
X196.677 Y97.503 Z-0.925
X196.406 Y97.619 Z-0.907
X196.043 Y97.76 Z-0.878
X195.67 Y97.894 Z-0.842
X195.669 Y97.895
X195.285 Y98.02 Z-0.802
X194.928 Y98.126 Z-0.762
X194.675 Y98.194 Z-0.735
X194.481 Y98.244 Z-0.715
X194.161 Y98.318 Z-0.683
X193.898 Y98.371 Z-0.659
X193.638 Y98.419 Z-0.639
X193.37 Y98.462 Z-0.62
X193.203 Y98.485 Z-0.611
X192.845 Y98.53 Z-0.592
X192.587 Y98.557 Z-0.582
X192.329 Y98.581 Z-0.574
X192.073 Y98.601 Z-0.568
X191.865 Y98.616 Z-0.565
X191.454 Y98.642 Z-0.56
X190.816 Y98.64 Z-0.524
X190.548 Y98.637 Z-0.509
X190.079 Y98.611 Z-0.503
X189.614 Y98.579 Z-0.497
X189.155 Y98.54 Z-0.492
X188.922 Y98.515 Z-0.49
X188.701 Y98.489
X188.46 Y98.456
X188.256 Y98.426 Z-0.493
X187.995 Y98.38 Z-0.496
X187.818 Y98.346 Z-0.5
X187.526 Y98.282 Z-0.508
X187.39 Y98.249 Z-0.513
X187.06 Y98.16 Z-0.526
X186.832 Y98.092 Z-0.535
X186.591 Y98.014 Z-0.547
X186.167 Y97.861 Z-0.565
X185.779 Y97.703 Z-0.578
X185.393 Y97.533 Z-0.583
X185.125 Y97.406 Z-0.582
X185.063 Y97.375 Z-0.583
X185.011 Y97.346 Z-0.586
X184.642 Y97.123 Z-0.612
X184.274 Y96.887 Z-0.633
X183.912 Y96.643 Z-0.653
X183.73 Y96.512 Z-0.664
X183.548 Y96.38 Z-0.677
X183.367 Y96.241 Z-0.69
X183.184 Y96.097 Z-0.707
X183.002 Y95.946 Z-0.727
X182.831 Y95.799 Z-0.749
X182.642 Y95.629 Z-0.776
X182.484 Y95.484 Z-0.803
X182.294 Y95.301 Z-0.838
X182.145 Y95.153 Z-0.87
X181.959 Y94.964 Z-0.912
X181.91 Y94.912 Z-0.924
X181.811 Y94.781 Z-0.933
X181.546 Y94.417 Z-0.961
X181.287 Y94.051 Z-0.992
X181.044 Y93.698 Z-1.022
X181.003 Y93.636 Z-1.028
X180.963 Y93.572 Z-1.037
X180.832 Y93.345 Z-1.07
X180.591 Y92.92 Z-1.13
X180.353 Y92.478 Z-1.189
X180.174 Y92.12 Z-1.233
X180.014 Y91.775 Z-1.272
X179.896 Y91.495 Z-1.301
X179.81 Y91.276 Z-1.323
X179.74 Y91.088 Z-1.342
X179.63 Y90.752 Z-1.371
X179.553 Y90.479 Z-1.392
X179.487 Y90.216 Z-1.411
X179.45 Y90.055 Z-1.423
X179.377 Y89.69 Z-1.446
X179.369 Y89.641 Z-1.449
X179.315 Y89.312 Z-1.469
X179.262 Y88.926 Z-1.489
X179.229 Y88.637 Z-1.502
X179.194 Y88.271 Z-1.517
G0 Z5
X206.706 Y73.863
G1 Z0 F850
X206.996 Y73.597 Z-0.29
X206.707 Y73.294 Z-0.001
X206.996 Y73.597 Z-0.29
X207.233 Y73.612 Z-0.294
X208.24 Y73.674 Z-0.316
X208.527 Y73.69 Z-0.322
X208.712 Y73.703 Z-0.33
X208.843 Y73.716 Z-0.339
X208.981 Y73.733 Z-0.353
X209.126 Y73.756 Z-0.372
X209.229 Y73.776 Z-0.389
X209.369 Y73.807 Z-0.418
X209.515 Y73.843 Z-0.451
X209.746 Y73.908 Z-0.513
X209.856 Y73.941 Z-0.544
X209.957 Y73.978 Z-0.579
X210.056 Y74.021 Z-0.621
X210.158 Y74.072 Z-0.671
X210.258 Y74.129 Z-0.727
X210.371 Y74.202 Z-0.799
X210.537 Y74.316 Z-0.912
X210.796 Y74.499 Z-1.093
X210.985 Y74.636 Z-1.229
X211.163 Y74.772 Z-1.364
X211.342 Y74.915 Z-1.506
X211.564 Y74.725 Z-1.318
X211.726 Y74.595 Z-1.188
X211.883 Y74.477 Z-1.072
X211.997 Y74.396 Z-0.992
X212.106 Y74.323 Z-0.92
X212.249 Y74.234 Z-0.832
X212.37 Y74.165 Z-0.764
X212.507 Y74.094 Z-0.694
X212.612 Y74.043 Z-0.645
X212.757 Y73.978 Z-0.582
X212.891 Y73.921 Z-0.527
X212.971 Y73.89 Z-0.497
X213.053 Y73.864 Z-0.471
X213.116 Y73.847 Z-0.455
X213.179 Y73.833 Z-0.442
X213.548 Y73.761 Z-0.377
X213.743 Y73.726 Z-0.346
X213.943 Y73.693 Z-0.318
X214.146 Y73.664 Z-0.294
X214.35 Y73.641 Z-0.277
X214.547 Y73.624 Z-0.266
X214.741 Y73.611 Z-0.259
X214.931 Y73.602 Z-0.256
X215.208 Y73.592
X215.496 Y73.584 Z-0.259
X216.062 Y73.573 Z-0.27
X216.331 Y73.292 Z-0.001
X216.062 Y73.573 Z-0.27
X216.332 Y73.843 Z0
X216.062 Y73.573 Z-0.27
X215.496 Y73.584 Z-0.259
X215.208 Y73.592 Z-0.256
X214.931 Y73.602
X214.741 Y73.611 Z-0.259
X214.547 Y73.624 Z-0.266
X214.35 Y73.641 Z-0.277
X214.146 Y73.664 Z-0.294
X213.943 Y73.693 Z-0.318
X213.743 Y73.726 Z-0.346
X213.548 Y73.761 Z-0.377
X213.179 Y73.833 Z-0.442
X213.116 Y73.847 Z-0.455
X213.053 Y73.864 Z-0.471
X212.971 Y73.89 Z-0.497
X212.891 Y73.921 Z-0.527
X212.757 Y73.978 Z-0.582
X212.612 Y74.043 Z-0.645
X212.507 Y74.094 Z-0.694
X212.37 Y74.165 Z-0.764
X212.249 Y74.234 Z-0.832
X212.106 Y74.323 Z-0.92
X211.997 Y74.396 Z-0.992
X211.883 Y74.477 Z-1.072
X211.726 Y74.595 Z-1.188
X211.564 Y74.725 Z-1.318
X211.342 Y74.915 Z-1.506
X211.348 Y75.061 Z-1.482
X211.352 Y75.203 Z-1.464
X211.357 Y75.424 Z-1.439
Y75.622 Z-1.421
X211.355 Y75.854 Z-1.404
X211.349 Y76.091 Z-1.39
X211.338 Y76.597 Z-1.362
X211.332 Y77.169 Z-1.334
X211.33 Y77.722 Z-1.313
X211.331 Y78.142 Z-1.3
X211.335 Y78.67 Z-1.287
X211.341 Y79.465 Z-1.274
X211.345 Y80.259 Z-1.267
X211.35 Y80.881 Z-1.264
X211.358 Y81.576 Z-1.268
X211.369 Y82.098 Z-1.277
X211.385 Y82.609 Z-1.291
X211.4 Y82.939 Z-1.3
X211.425 Y83.4 Z-1.319
X211.453 Y83.854 Z-1.343
X211.471 Y84.163 Z-1.362
X211.498 Y84.62 Z-1.396
X211.517 Y84.96 Z-1.423
X211.526 Y85.093 Z-1.438
X211.55 Y85.311 Z-1.472
X211.557 Y85.368 Z-1.482
X211.518 Y85.458 Z-1.449
X211.483 Y85.548 Z-1.419
X211.436 Y85.676 Z-1.381
X211.401 Y85.782 Z-1.355
X211.364 Y85.909 Z-1.329
X211.337 Y86.016 Z-1.311
X211.309 Y86.143 Z-1.296
X211.29 Y86.25 Z-1.288
X211.268 Y86.405 Z-1.284
X211.258 Y86.507 Z-1.286
X211.244 Y86.724 Z-1.3
X211.213 Y87.201 Z-1.341
X211.147 Y88.093 Z-1.425
X211.134 Y88.223 Z-1.44
X211.117 Y88.352 Z-1.46
X211.095 Y88.481 Z-1.485
X211.336 Y88.802 Z-1.25
X211.53 Y89.067 Z-1.062
X211.78 Y89.419 Z-0.819
X212.089 Y89.866 Z-0.518
X212.354 Y90.258 Z-0.261
X212.406 Y90.338 Z-0.209
X212.447 Y90.399 Z-0.165
X212.494 Y90.463 Z-0.111
X212.531 Y90.517 Z-0.061
X212.577 Y90.574 Z-0.001
X212.531 Y90.517 Z-0.061
X212.494 Y90.463 Z-0.111
X212.447 Y90.399 Z-0.165
X212.406 Y90.338 Z-0.209
X212.354 Y90.258 Z-0.261
X212.089 Y89.866 Z-0.518
X211.78 Y89.419 Z-0.819
X211.53 Y89.067 Z-1.062
X211.336 Y88.802 Z-1.25
X211.095 Y88.481 Z-1.485
X211.035 Y88.509 Z-1.441
X210.896 Y88.57 Z-1.344
X210.753 Y88.627 Z-1.25
X210.621 Y88.675 Z-1.17
X210.49 Y88.716 Z-1.097
X210.35 Y88.754 Z-1.025
X210.069 Y88.822 Z-0.89
X209.854 Y88.869 Z-0.792
X209.693 Y88.903 Z-0.726
X209.549 Y88.929 Z-0.671
X209.48 Y88.94 Z-0.647
X209.355 Y88.957 Z-0.605
X209.236 Y88.969 Z-0.569
X209.117 Y88.978 Z-0.537
X208.982 Y88.984 Z-0.505
X208.836 Y88.986 Z-0.475
X208.703 Y88.983 Z-0.452
X208.527 Y88.976 Z-0.428
X208.359 Y88.965 Z-0.409
X208.123 Y88.945 Z-0.39
X207.874 Y88.924 Z-0.372
X207.328 Y88.886 Z-0.334
X207.02 Y88.866 Z-0.314
X206.706 Y89.143 Z0
X207.02 Y88.866 Z-0.314
X206.706 Y88.553 Z0
X207.02 Y88.866 Z-0.314
X207.328 Y88.886 Z-0.334
X207.874 Y88.924 Z-0.372
X208.123 Y88.945 Z-0.39
X208.359 Y88.965 Z-0.409
X208.527 Y88.976 Z-0.428
X208.703 Y88.983 Z-0.452
X208.836 Y88.986 Z-0.475
X208.982 Y88.984 Z-0.505
X209.117 Y88.978 Z-0.537
X209.236 Y88.969 Z-0.569
X209.355 Y88.957 Z-0.605
X209.48 Y88.94 Z-0.647
X209.549 Y88.929 Z-0.671
X209.693 Y88.903 Z-0.726
X209.854 Y88.869 Z-0.792
X210.069 Y88.822 Z-0.89
X210.35 Y88.754 Z-1.025
X210.49 Y88.716 Z-1.097
X210.621 Y88.675 Z-1.17
X210.753 Y88.627 Z-1.25
X210.896 Y88.57 Z-1.344
X211.035 Y88.509 Z-1.441
X211.095 Y88.481 Z-1.485
X211.117 Y88.352 Z-1.46
X211.134 Y88.223 Z-1.44
X211.147 Y88.093 Z-1.425
X211.213 Y87.201 Z-1.341
X211.244 Y86.724 Z-1.3
X211.258 Y86.507 Z-1.286
X211.268 Y86.405 Z-1.284
X211.29 Y86.25 Z-1.288
X211.309 Y86.143 Z-1.296
X211.337 Y86.016 Z-1.311
X211.364 Y85.909 Z-1.329
X211.401 Y85.782 Z-1.355
X211.436 Y85.676 Z-1.381
X211.483 Y85.548 Z-1.419
X211.518 Y85.458 Z-1.449
X211.557 Y85.368 Z-1.482
X211.693 Y85.403 Z-1.362
X211.876 Y85.455 Z-1.202
X212.091 Y85.524 Z-1.019
X212.248 Y85.582 Z-0.888
X212.422 Y85.655 Z-0.749
X212.575 Y85.728 Z-0.631
X212.712 Y85.804 Z-0.533
X212.732 Y85.815 Z-0.519
X212.833 Y85.881 Z-0.452
X212.901 Y85.93 Z-0.411
X212.945 Y85.965 Z-0.386
X213.005 Y86.015 Z-0.356
X213.044 Y86.051 Z-0.338
X213.096 Y86.103 Z-0.318
X213.131 Y86.141 Z-0.306
X213.18 Y86.2 Z-0.295
X213.287 Y86.331 Z-0.279
X213.375 Y86.435 Z-0.269
X213.513 Y86.591 Z-0.26
X213.674 Y86.765 Z-0.256
X213.826 Y86.925 Z-0.259
X214.017 Y87.126 Z-0.268
X214.09 Y87.201 Z-0.274
X214.244 Y87.342 Z-0.302
X214.389 Y87.473 Z-0.331
X214.541 Y87.608 Z-0.365
X214.7 Y87.746 Z-0.405
X214.802 Y87.831 Z-0.433
X214.965 Y87.96 Z-0.482
X215.056 Y88.028 Z-0.512
X215.149 Y88.095 Z-0.543
X215.272 Y88.179 Z-0.587
X215.403 Y88.263 Z-0.635
X215.519 Y88.334 Z-0.679
X215.703 Y88.439 Z-0.75
X215.876 Y88.531 Z-0.816
X216.017 Y88.6 Z-0.868
X216.208 Y88.688 Z-0.936
X216.371 Y88.755 Z-0.991
X216.463 Y88.787 Z-1.023
X216.684 Y88.855 Z-1.104
X216.909 Y88.918 Z-1.185
X217.057 Y88.955 Z-1.24
X217.131 Y88.967 Z-1.262
X217.307 Y88.99 Z-1.315
X217.463 Y89.004 Z-1.362
X217.557 Y89.009 Z-1.39
X217.65 Z-1.416
X217.765 Y89.002 Z-1.444
X217.862 Y88.991 Z-1.467
X218.023 Y88.969 Z-1.505
X218.201 Y89.137 Z-1.35
X218.434 Y89.338 Z-1.145
X218.641 Y89.508 Z-0.963
X218.78 Y89.616 Z-0.84
X218.927 Y89.722 Z-0.71
X219.108 Y89.843 Z-0.549
X219.328 Y89.985 Z-0.351
X219.412 Y90.038 Z-0.275
X219.533 Y90.118 Z-0.163
X219.566 Y90.135 Z-0.131
X219.671 Y90.209 Z-0.012
X219.68 Y90.215 Z0
X219.671 Y90.209 Z-0.012
X219.566 Y90.135 Z-0.131
X219.533 Y90.118 Z-0.163
X219.412 Y90.038 Z-0.275
X219.328 Y89.985 Z-0.351
X219.108 Y89.843 Z-0.549
X218.927 Y89.722 Z-0.71
X218.78 Y89.616 Z-0.84
X218.641 Y89.508 Z-0.963
X218.434 Y89.338 Z-1.145
X218.201 Y89.137 Z-1.35
X218.023 Y88.969 Z-1.505
X218.106 Y88.824 Z-1.406
X218.251 Y88.562 Z-1.233
X218.41 Y88.266 Z-1.047
X218.459 Y88.171 Z-0.99
X218.497 Y88.091 Z-0.946
X218.567 Y87.925 Z-0.863
X218.695 Y87.613 Z-0.715
X218.737 Y87.508 Z-0.667
X218.809 Y87.32 Z-0.586
X218.869 Y87.153 Z-0.519
X218.907 Y87.038 Z-0.477
X218.958 Y86.874 Z-0.42
X218.988 Y86.769 Z-0.387
X219.032 Y86.605 Z-0.338
X219.072 Y86.446 Z-0.295
X219.1 Y86.326 Z-0.264
X218.936 Y86.062 Z0
X219.1 Y86.326 Z-0.264
X219.358 Y86.062 Z0
G0 Z5
X234.593 Y85.092
G1 Z0 F850
X234.931 Y85.429 Z-0.338
X235.256 Y85.092 Z0
X234.931 Y85.429 Z-0.338
X234.94 Y85.829 Z-0.347
X234.946 Y86.206 Z-0.36
X234.944 Y86.455 Z-0.377
X234.939 Y86.634 Z-0.394
X234.93 Y86.814 Z-0.417
X234.915 Y86.996 Z-0.446
X234.902 Y87.119 Z-0.47
X234.88 Y87.296 Z-0.508
X234.855 Y87.476 Z-0.552
X234.807 Y87.783 Z-0.634
X234.786 Y87.899 Z-0.67
X234.76 Y88.005 Z-0.709
X234.739 Y88.077 Z-0.74
X234.716 Y88.145 Z-0.771
X234.607 Y88.457 Z-0.921
X234.529 Y88.675 Z-1.031
X234.457 Y88.864 Z-1.131
X234.649 Y88.974 Z-0.959
X235.019 Y89.178 Z-0.625
X235.394 Y89.379 Z-0.287
X235.713 Y89.546 Z0
X235.394 Y89.379 Z-0.287
X235.019 Y89.178 Z-0.625
X234.649 Y88.974 Z-0.959
X234.457 Y88.864 Z-1.131
X234.365 Y88.917 Z-1.114
X234.194 Y89.005 Z-1.085
X234.054 Y89.072 Z-1.064
X233.873 Y89.151 Z-1.039
X233.744 Y89.203 Z-1.024
X233.527 Y89.286 Z-1.002
X233.372 Y89.333 Z-0.982
X233.106 Y89.411 Z-0.951
X232.839 Y89.482 Z-0.921
X232.58 Y89.541 Z-0.895
X232.319 Y89.593 Z-0.865
X232.045 Y89.64 Z-0.832
X231.856 Y89.669 Z-0.81
X231.596 Y89.703 Z-0.781
X231.351 Y89.728 Z-0.758
X231.134 Y89.741 Z-0.736
X230.934 Y89.749 Z-0.718
X230.681 Y89.753 Z-0.697
X230.437 Y89.752 Z-0.678
X230.199 Y89.745 Z-0.658
X229.957 Y89.732 Z-0.635
X229.835 Y89.723 Z-0.622
X229.715 Y89.708 Z-0.612
X229.471 Y89.67 Z-0.589
X229.212 Y89.623 Z-0.561
X228.957 Y89.57 Z-0.531
X228.688 Y89.507 Z-0.499
X228.552 Y89.473 Z-0.484
X228.414 Y89.437 Z-0.47
X228.259 Y89.392 Z-0.454
X228.005 Y89.306 Z-0.425
X227.847 Y89.248 Z-0.41
X227.688 Y89.187 Z-0.398
X227.5 Y89.109 Z-0.388
X227.312 Y89.024 Z-0.383
X227.09 Y88.915
X226.945 Y88.839 Z-0.386
X226.782 Y88.748 Z-0.392
X226.612 Y88.648 Z-0.401
X226.387 Y88.507 Z-0.417
X226.253 Y88.419 Z-0.427
X226.118 Y88.328 Z-0.439
X225.824 Y88.121 Z-0.465
X225.529 Y87.907 Z-0.492
X225.453 Y87.847 Z-0.503
X225.405 Y87.804 Z-0.513
X225.331 Y87.732 Z-0.534
X225.004 Y87.402 Z-0.634
X224.769 Y87.131 Z-0.694
X224.626 Y86.959 Z-0.732
X224.482 Y86.78 Z-0.771
X224.334 Y86.583 Z-0.812
X224.195 Y86.384 Z-0.851
X224.099 Y86.231 Z-0.877
X224.077 Y86.195 Z-0.883
X223.967 Y85.999 Z-0.913
X223.868 Y85.801 Z-0.94
X223.844 Y85.749 Z-0.947
X223.758 Y85.556 Z-0.974
X223.672 Y85.342 Z-1.004
X223.655 Y85.298 Z-1.01
X223.563 Y85.044 Z-1.048
X223.495 Y84.843 Z-1.079
X223.431 Y84.589 Z-1.106
X223.356 Y84.266 Z-1.143
X223.322 Y84.105 Z-1.163
X223.288 Y83.934 Z-1.183
X223.238 Y83.65 Z-1.217
X223.194 Y83.363 Z-1.248
X223.177 Y83.229 Z-1.26
X223.147 Y82.952 Z-1.281
X223.135 Y82.813 Z-1.29
X223.129 Y82.67 Z-1.302
X223.121 Y82.368 Z-1.325
X223.119 Y82.057 Z-1.345
X223.121 Y81.732 Z-1.364
X223.128 Y81.387 Z-1.384
X223.131 Y81.276 Z-1.391
X223.155 Y80.945 Z-1.401
X223.189 Y80.567 Z-1.416
X223.214 Y80.33 Z-1.425
X223.256 Y80.008 Z-1.44
X223.304 Y79.714 Z-1.453
X223.334 Y79.559 Z-1.46
X223.38 Y79.349 Z-1.467
X223.401 Y79.262 Z-1.47
X223.467 Y79.016 Z-1.476
X223.477 Y78.981 Z-1.477
X223.548 Y78.758 Z-1.48
X223.573 Y78.682 Z-1.482
X223.688 Y78.372 Z-1.486
X223.822 Y78.045 Z-1.493
X223.975 Y77.705 Z-1.504
X224.089 Y77.463 Z-1.513
X224.275 Y77.148 Z-1.503
X224.438 Y76.883 Z-1.496
X224.595 Y76.641 Z-1.487
X224.744 Y76.426 Z-1.475
X224.888 Y76.231 Z-1.459
X224.957 Y76.143 Z-1.448
X225.102 Y75.968 Z-1.422
X225.108 Y75.962 Z-1.421
X225.189 Y75.87 Z-1.405
X225.291 Y75.757 Z-1.381
X225.372 Y75.673 Z-1.364
X225.477 Y75.574 Z-1.347
X225.593 Y75.475 Z-1.334
X225.835 Y75.279 Z-1.309
X226.106 Y75.065 Z-1.279
X226.141 Y75.039 Z-1.275
X226.367 Y74.893 Z-1.232
X226.529 Y74.791 Z-1.201
X226.749 Y74.657 Z-1.163
X226.997 Y74.515 Z-1.121
X227.212 Y74.4 Z-1.086
X227.404 Y74.304 Z-1.056
X227.458 Y74.278 Z-1.048
X227.706 Y74.169 Z-1.011
X227.748 Y74.152 Z-1.005
X227.97 Y74.068 Z-0.971
X228.172 Y74.001 Z-0.942
X228.234 Y73.982 Z-0.933
X228.498 Y73.91 Z-0.898
X228.711 Y73.861 Z-0.872
X228.887 Y73.825 Z-0.852
X229.069 Y73.793 Z-0.833
X229.263 Y73.762 Z-0.814
X229.509 Y73.728 Z-0.793
X229.827 Y73.693 Z-0.771
X229.991 Y73.676 Z-0.761
X230.398 Y73.656 Z-0.727
X230.692 Y73.647 Z-0.703
X230.926 Y73.644 Z-0.683
X231.142 Z-0.662
X231.259 Y73.649 Z-0.653
X231.445 Y73.665 Z-0.642
X231.737 Y73.696 Z-0.623
X232.025 Y73.734 Z-0.603
X232.275 Y73.772 Z-0.587
X232.471 Y73.805 Z-0.577
X232.668 Y73.849 Z-0.563
X232.914 Y73.907 Z-0.549
X233.11 Y73.957 Z-0.538
X233.412 Y74.04 Z-0.521
X233.613 Y74.1 Z-0.509
X233.874 Y74.191 Z-0.495
X234.109 Y74.278 Z-0.48
X234.34 Y74.369 Z-0.464
X234.526 Y74.446 Z-0.451
X234.762 Y74.548 Z-0.438
X235.066 Y74.212 Z0
X234.762 Y74.548 Z-0.438
X234.968 Y74.72 Z-0.357
X235.2 Y74.919 Z-0.269
X235.424 Y75.114 Z-0.186
X235.455 Y75.333 Z-0.001
X235.424 Y75.114 Z-0.186
X235.665 Y75.147 Z0
G0 Z5
X238.127 Y73.292
G1 Z0 F850
X238.429 Y73.607 Z-0.302
X238.128 Y73.872 Z-0.001
X238.429 Y73.607 Z-0.302
X238.842 Y73.641 Z-0.32
X239.329 Y73.679 Z-0.339
X239.578 Y73.7 Z-0.351
X239.774 Y73.719 Z-0.364
X239.923 Y73.737 Z-0.376
X240.119 Y73.765 Z-0.398
X240.326 Y73.799 Z-0.427
X240.583 Y73.848 Z-0.469
X240.732 Y73.879 Z-0.497
X240.824 Y73.906 Z-0.522
X240.91 Y73.936 Z-0.55
X240.994 Y73.971 Z-0.583
X241.168 Y74.05 Z-0.659
X241.322 Y74.124 Z-0.731
X241.429 Y74.18 Z-0.785
X241.573 Y74.26 Z-0.863
X241.666 Y74.317 Z-0.918
X241.778 Y74.389 Z-0.989
X241.93 Y74.493 Z-1.091
X242.089 Y74.611 Z-1.207
X242.251 Y74.738 Z-1.332
X242.419 Y74.876 Z-1.469
X242.761 Y74.574 Z-1.166
X242.827 Y74.519 Z-1.112
X242.922 Y74.444 Z-1.038
X243.018 Y74.375 Z-0.97
X243.112 Y74.311 Z-0.907
X243.208 Y74.253 Z-0.85
X243.303 Y74.2 Z-0.799
X243.4 Y74.152 Z-0.752
X243.572 Y74.079 Z-0.682
X243.783 Y73.996 Z-0.602
X243.922 Y73.945 Z-0.552
X244.09 Y73.888 Z-0.499
X244.224 Y73.847 Z-0.46
X244.359 Y73.812 Z-0.428
X244.431 Y73.795 Z-0.412
X244.551 Y73.77 Z-0.39
X244.625 Y73.756 Z-0.378
X244.783 Y73.731 Z-0.358
X244.895 Y73.717 Z-0.347
X245.062 Y73.701 Z-0.335
X245.221 Y73.689 Z-0.328
X245.448 Y73.676 Z-0.323
X245.58 Y73.67 Z-0.321
X246.473 Y73.611 Z-0.298
X246.672 Y73.598 Z-0.293
X246.965 Y73.293 Z0
X246.672 Y73.598 Z-0.293
X246.965 Y73.865 Z0
X246.672 Y73.598 Z-0.293
X246.473 Y73.611 Z-0.298
X245.58 Y73.67 Z-0.321
X245.448 Y73.676 Z-0.323
X245.221 Y73.689 Z-0.328
X245.062 Y73.701 Z-0.335
X244.895 Y73.717 Z-0.347
X244.783 Y73.731 Z-0.358
X244.625 Y73.756 Z-0.378
X244.551 Y73.77 Z-0.39
X244.431 Y73.795 Z-0.412
X244.359 Y73.812 Z-0.428
X244.224 Y73.847 Z-0.46
X244.09 Y73.888 Z-0.499
X243.922 Y73.945 Z-0.552
X243.783 Y73.996 Z-0.602
X243.572 Y74.079 Z-0.682
X243.4 Y74.152 Z-0.752
X243.303 Y74.2 Z-0.799
X243.208 Y74.253 Z-0.85
X243.112 Y74.311 Z-0.907
X243.018 Y74.375 Z-0.97
X242.922 Y74.444 Z-1.038
X242.827 Y74.519 Z-1.112
X242.761 Y74.574 Z-1.166
X242.419 Y74.876 Z-1.469
X242.423 Y75.074 Z-1.442
Y75.223 Z-1.425
X242.413 Y75.784 Z-1.377
X242.409 Y76.155 Z-1.349
X242.406 Y76.55 Z-1.325
Y76.954 Z-1.307
X242.407 Y77.379 Z-1.293
X242.409 Y77.902 Z-1.283
X242.411 Y78.464 Z-1.28
X242.415 Y79.042 Z-1.283
X242.418 Y79.769 Z-1.288
X242.417 Y82.923 Z-1.287
X242.415 Y83.354 Z-1.285
X242.417 Y83.796 Z-1.287
X242.421 Y84.101 Z-1.291
X242.43 Y84.429 Z-1.3
X242.444 Y84.746 Z-1.314
X242.463 Y85.051 Z-1.333
X242.479 Y85.257 Z-1.349
X242.508 Y85.576 Z-1.378
X242.541 Y85.883 Z-1.411
X242.584 Y86.248 Z-1.454
X242.54 Y86.392 Z-1.41
X242.503 Y86.537 Z-1.373
X242.472 Y86.681 Z-1.342
X242.448 Y86.825 Z-1.318
X242.432 Y86.97 Z-1.302
X242.421 Y87.114 Z-1.291
X242.418 Y87.258 Z-1.288
Y92.102
X242.423 Y92.495 Z-1.287
X242.431 Y93.143 Z-1.286
X242.437 Y93.717 Z-1.289
X242.442 Y94.288 Z-1.298
X242.443 Y94.907 Z-1.315
X242.441 Y95.391 Z-1.334
X242.433 Y95.883 Z-1.358
X242.42 Y96.383 Z-1.389
X242.401 Y96.869 Z-1.424
X242.358 Y97.808 Z-1.499
X242.35 Y97.939 Z-1.512
X242.336 Y98.071 Z-1.529
X242.283 Y98.101 Z-1.487
X242.168 Y98.163 Z-1.398
X242.046 Y98.225 Z-1.309
X241.933 Y98.277 Z-1.231
X241.813 Y98.329 Z-1.152
X241.704 Y98.371 Z-1.085
X241.587 Y98.411 Z-1.018
X241.481 Y98.444 Z-0.962
X241.328 Y98.483 Z-0.89
X241.064 Y98.541 Z-0.776
X240.852 Y98.583 Z-0.69
X240.68 Y98.613 Z-0.627
X240.558 Y98.63 Z-0.587
X240.45 Y98.643 Z-0.554
X240.306 Y98.656 Z-0.516
X240.182 Y98.663 Z-0.488
X240.018 Y98.667 Z-0.457
X239.891 Z-0.437
X239.718 Y98.661 Z-0.417
X239.554 Y98.652 Z-0.402
X239.397 Y98.641 Z-0.392
X239.104 Y98.616 Z-0.378
X238.467 Y98.578 Z-0.34
X238.127 Y98.239 Z0
X238.467 Y98.578 Z-0.34
X238.128 Y98.881 Z-0.001
X238.467 Y98.578 Z-0.34
X239.104 Y98.616 Z-0.378
X239.397 Y98.641 Z-0.392
X239.554 Y98.652 Z-0.402
X239.718 Y98.661 Z-0.417
X239.891 Y98.667 Z-0.437
X240.018 Z-0.457
X240.182 Y98.663 Z-0.488
X240.306 Y98.656 Z-0.516
X240.45 Y98.643 Z-0.554
X240.558 Y98.63 Z-0.587
X240.68 Y98.613 Z-0.627
X240.852 Y98.583 Z-0.69
X241.064 Y98.541 Z-0.776
X241.328 Y98.483 Z-0.89
X241.481 Y98.444 Z-0.962
X241.587 Y98.411 Z-1.018
X241.704 Y98.371 Z-1.085
X241.813 Y98.329 Z-1.152
X241.933 Y98.277 Z-1.231
X242.046 Y98.225 Z-1.309
X242.168 Y98.163 Z-1.398
X242.283 Y98.101 Z-1.487
X242.336 Y98.071 Z-1.529
X242.763 Y98.603 Z-1.121
X242.838 Y98.7 Z-1.049
X243.334 Y99.369 Z-0.576
X243.865 Y100.057 Z-0.097
X243.928 Y100.154 Z-0.026
X243.949 Y100.172 Z-0.001
X243.928 Y100.154 Z-0.026
Y100.18 Z-0.001
Y100.154 Z-0.026
X243.865 Y100.057 Z-0.097
X243.334 Y99.369 Z-0.576
X242.838 Y98.7 Z-1.049
X242.763 Y98.603 Z-1.121
X242.336 Y98.071 Z-1.529
X242.35 Y97.939 Z-1.512
X242.358 Y97.808 Z-1.499
X242.401 Y96.869 Z-1.424
X242.42 Y96.383 Z-1.389
X242.433 Y95.883 Z-1.358
X242.441 Y95.391 Z-1.334
X242.443 Y94.907 Z-1.315
X242.442 Y94.288 Z-1.298
X242.437 Y93.717 Z-1.289
X242.431 Y93.143 Z-1.286
X242.423 Y92.495 Z-1.287
X242.418 Y92.102 Z-1.288
Y87.258
X242.421 Y87.114 Z-1.291
X242.432 Y86.97 Z-1.302
X242.448 Y86.825 Z-1.318
X242.472 Y86.681 Z-1.342
X242.503 Y86.537 Z-1.373
X242.54 Y86.392 Z-1.41
X242.584 Y86.248 Z-1.454
X242.735 Y86.28 Z-1.315
X242.88 Y86.313 Z-1.182
X243.019 Y86.349 Z-1.056
X243.182 Y86.393 Z-0.911
X243.324 Y86.431 Z-0.792
X243.451 Y86.465 Z-0.69
X243.572 Y86.498 Z-0.602
X243.702 Y86.537 Z-0.515
X243.82 Y86.581 Z-0.441
X243.877 Y86.607 Z-0.407
X243.938 Y86.636 Z-0.372
X243.989 Y86.664 Z-0.346
X244.044 Y86.697 Z-0.318
X244.09 Y86.727 Z-0.298
X244.143 Y86.766 Z-0.277
X244.184 Y86.799 Z-0.263
X244.227 Y86.837 Z-0.251
X244.309 Y86.922 Z-0.236
X244.465 Y87.084 Z-0.217
X244.548 Y87.167 Z-0.21
X244.704 Y87.315 Z-0.201
X244.802 Y87.402 Z-0.2
X244.971 Y87.547 Z-0.202
X245.144 Y87.689 Z-0.21
X245.315 Y87.823 Z-0.222
X245.568 Y88.015 Z-0.245
X245.735 Y88.14 Z-0.261
X245.78 Y88.171 Z-0.267
X246.201 Y88.45 Z-0.335
X246.423 Y88.592 Z-0.375
X246.653 Y88.735 Z-0.42
X246.879 Y88.868 Z-0.469
X247.039 Y88.957 Z-0.508
X247.18 Y89.032 Z-0.543
X247.316 Y89.099 Z-0.577
X247.445 Y89.159 Z-0.61
X247.57 Y89.211 Z-0.641
X247.687 Y89.256 Z-0.667
X247.82 Y89.302 Z-0.695
X247.999 Y89.357 Z-0.73
X248.213 Y89.416 Z-0.77
X248.379 Y89.458 Z-0.8
X248.708 Y89.513 Z-0.834
X248.817 Y89.526 Z-0.847
X248.962 Y89.539 Z-0.866
X249.144 Y89.551 Z-0.886
X249.28 Y89.555 Z-0.898
X249.47 Y89.556 Z-0.912
X249.66 Y89.552 Z-0.926
X249.901 Y89.54 Z-0.945
X249.968 Y89.536 Z-0.951
X250.176 Y89.512 Z-0.966
X250.374 Y89.485 Z-0.983
X250.515 Y89.462 Z-0.998
X250.653 Y89.436 Z-1.014
X250.794 Y89.407 Z-1.032
X251.04 Y89.348 Z-1.065
X251.193 Y89.306 Z-1.086
X251.386 Y89.247 Z-1.112
X251.544 Y89.193 Z-1.131
X251.7 Y89.134 Z-1.148
X251.916 Y89.045 Z-1.167
X252.026 Y88.993 Z-1.18
X252.186 Y88.905 Z-1.204
X252.448 Y88.754 Z-1.245
X252.644 Y88.634 Z-1.277
X252.798 Y88.534 Z-1.303
X252.957 Y88.411 Z-1.324
X253.065 Y88.324 Z-1.339
X253.221 Y88.189 Z-1.365
X253.349 Y88.068 Z-1.387
X253.459 Y87.954 Z-1.407
X253.542 Y87.858 Z-1.42
X253.608 Y87.774 Z-1.429
X253.689 Y87.659 Z-1.438
X253.777 Y87.522 Z-1.446
X253.871 Y87.361 Z-1.454
X253.975 Y87.173 Z-1.464
X253.989 Y87.147 Z-1.465
X254.079 Y86.904 Z-1.445
X254.154 Y86.689 Z-1.431
X254.193 Y86.554 Z-1.428
X254.236 Y86.375 Z-1.431
X254.3 Y86.078 Z-1.433
X254.356 Y85.789 Z-1.432
X254.387 Y85.606 Z-1.427
X254.424 Y85.355 Z-1.42
X254.462 Y85.047 Z-1.408
X254.481 Y84.854 Z-1.4
X254.504 Y84.559 Z-1.388
X254.522 Y84.259 Z-1.377
X254.536 Y83.873 Z-1.365
X254.543 Y83.521 Z-1.358
X254.544 Y83.136 Z-1.349
X254.541 Y82.588 Z-1.342
X254.511 Y80.551 Z-1.33
X254.483 Y79.03 Z-1.327
X254.465 Y78.263 Z-1.329
X254.458 Y77.843 Z-1.334
X254.45 Y77.213 Z-1.349
X254.447 Y76.824 Z-1.362
Y76.434 Z-1.379
X254.45 Y76.031 Z-1.403
X254.461 Y75.398 Z-1.447
X254.47 Y75.006 Z-1.478
X254.475 Y74.884 Z-1.491
X253.992 Y74.412 Z-1.036
X253.523 Y73.946 Z-0.596
X253.065 Y73.485 Z-0.168
X252.885 Y73.303 Z0
X253.065 Y73.485 Z-0.168
X253.523 Y73.946 Z-0.596
X253.992 Y74.412 Z-1.036
X254.475 Y74.884 Z-1.491
X254.629 Y74.758 Z-1.361
X254.795 Y74.627 Z-1.227
X254.897 Y74.55 Z-1.148
X255.067 Y74.429 Z-1.025
X255.219 Y74.329 Z-0.923
X255.322 Y74.266 Z-0.859
X255.395 Y74.224 Z-0.815
X255.532 Y74.15 Z-0.741
X255.646 Y74.091 Z-0.683
X255.839 Y73.998 Z-0.592
X255.934 Y73.956 Z-0.551
X256.006 Y73.928 Z-0.524
X256.079 Y73.904 Z-0.501
X256.198 Y73.872 Z-0.47
X256.416 Y73.818 Z-0.42
X256.542 Y73.79 Z-0.394
X256.674 Y73.764 Z-0.371
X256.807 Y73.742 Z-0.353
X256.953 Y73.723 Z-0.337
X257.096 Y73.708 Z-0.327
X257.243 Y73.696 Z-0.32
X257.421 Y73.684 Z-0.315
X257.539 Y73.676 Z-0.313
X258.12 Y73.631 Z-0.297
X258.413 Y73.607 Z-0.29
X258.702 Y73.868 Z-0.001
X258.413 Y73.607 Z-0.29
X258.703 Y73.298 Z0
G0 Z5
X262.006 Y88.103
G1 Z0 F850
X262.667 Y87.725 Z-0.656
X262.517 Y86.903 Z-0.496
X262.39 Y86.238 Z-0.379
X262.625 Y85.783 Z0
X262.39 Y86.238 Z-0.379
X262.007 Y85.948 Z0
X262.39 Y86.238 Z-0.379
X262.517 Y86.903 Z-0.496
X262.667 Y87.725 Z-0.656
X263.043 Y88.155 Z-0.467
X263.121 Y88.245 Z-0.428
X263.179 Y88.307 Z-0.403
X263.24 Y88.365 Z-0.383
X263.303 Y88.417 Z-0.368
X263.369 Y88.465 Z-0.359
X263.437 Y88.509 Z-0.355
X263.736 Y88.682 Z-0.352
X263.926 Y88.788 Z-0.354
X264.124 Y88.893 Z-0.359
X264.26 Y88.962 Z-0.365
X264.455 Y89.053 Z-0.377
X264.621 Y89.127 Z-0.39
X264.852 Y89.225 Z-0.41
X265.024 Y89.293 Z-0.424
X265.293 Y89.385 Z-0.453
X265.515 Y89.454 Z-0.474
X265.734 Y89.516 Z-0.496
X265.902 Y89.559 Z-0.514
X266.073 Y89.598 Z-0.534
X266.293 Y89.644 Z-0.563
X266.368 Y89.658 Z-0.573
X266.671 Y89.7 Z-0.603
X266.84 Y89.721 Z-0.62
X267.006 Y89.733 Z-0.641
X267.242 Y89.745 Z-0.67
X267.472 Y89.75 Z-0.693
X267.712 Y89.748 Z-0.715
X267.88 Y89.743 Z-0.729
X268.052 Y89.735 Z-0.745
X268.285 Y89.719 Z-0.768
X268.428 Y89.701 Z-0.78
X268.604 Y89.677 Z-0.796
X268.784 Y89.649 Z-0.815
X268.993 Y89.61 Z-0.841
X269.212 Y89.562 Z-0.872
X269.432 Y89.504 Z-0.907
X269.64 Y89.44 Z-0.943
X269.795 Y89.386 Z-0.971
X269.851 Y89.365 Z-0.981
X270.046 Y89.285 Z-1.017
X270.093 Y89.264 Z-1.026
X270.23 Y89.2 Z-1.049
X270.378 Y89.123 Z-1.073
X270.44 Y89.089 Z-1.083
X270.59 Y89.003 Z-1.106
X270.749 Y88.905 Z-1.129
X270.936 Y88.784 Z-1.156
X271.207 Y88.598 Z-1.193
X271.413 Y88.451 Z-1.221
X271.504 Y88.379 Z-1.239
X271.603 Y88.275 Z-1.253
X271.769 Y88.081 Z-1.289
X271.874 Y87.952 Z-1.311
X271.991 Y87.803 Z-1.335
X272.095 Y87.661 Z-1.353
X272.182 Y87.532 Z-1.365
X272.223 Y87.465 Z-1.37
X272.293 Y87.34 Z-1.372
X272.363 Y87.196 Z-1.37
X272.441 Y87.017 Z-1.363
X272.516 Y86.823 Z-1.355
X272.569 Y86.675 Z-1.349
X272.651 Y86.425 Z-1.342
X272.693 Y86.207 Z-1.318
X272.73 Y85.993 Z-1.3
X272.768 Y85.747 Z-1.284
X272.799 Y85.505 Z-1.272
X272.831 Y85.209 Z-1.263
X272.852 Y84.977 Z-1.26
X272.877 Y84.647 Z-1.258
X272.897 Y84.306 Z-1.259
X272.915 Y83.925 Z-1.261
Y83.793 Z-1.267
X272.91 Y83.661 Z-1.279
X272.898 Y83.528 Z-1.296
X272.879 Y83.386 Z-1.321
X272.653 Z-1.111
X272.449 Z-0.927
X272.264 Z-0.766
X272.093 Z-0.626
X272.013 Z-0.564
X271.934 Z-0.507
X271.858 Z-0.456
X271.784 Z-0.41
X271.711 Z-0.371
X271.639 Z-0.339
X271.567 Z-0.314
X271.496 Z-0.298
X271.405 Y83.382 Z-0.286
X271.314 Y83.37 Z-0.282
X271.018 Y83.315 Z-0.287
X270.216 Y83.162 Z-0.301
X269.61 Y83.042 Z-0.313
X269.045 Y82.922 Z-0.327
X268.635 Y82.83 Z-0.339
X268.322 Y82.756 Z-0.35
X268.009 Y82.679 Z-0.362
X267.699 Y82.599 Z-0.376
X267.39 Y82.514 Z-0.391
X267.083 Y82.426 Z-0.408
X266.782 Y82.334 Z-0.427
X266.501 Y82.244 Z-0.446
X266.222 Y82.152 Z-0.466
X265.944 Y82.056 Z-0.486
X265.394 Y81.859 Z-0.53
X264.655 Y81.584 Z-0.59
X264.507 Y81.526 Z-0.604
X264.431 Y81.491 Z-0.616
X264.357 Y81.453 Z-0.633
X264.134 Y81.324 Z-0.693
X263.863 Y81.134 Z-0.746
X263.76 Y81.058 Z-0.767
X263.563 Y80.907 Z-0.809
X263.405 Y80.776 Z-0.844
X263.372 Y80.747 Z-0.852
X263.234 Y80.62 Z-0.883
X263.135 Y80.521 Z-0.905
X263.038 Y80.413 Z-0.928
X262.977 Y80.341 Z-0.941
X262.874 Y80.207 Z-0.964
X262.833 Y80.149 Z-0.974
X262.732 Y79.999 Z-0.999
X262.64 Y79.849 Z-1.026
X262.549 Y79.686 Z-1.057
X262.489 Y79.574 Z-1.08
X262.417 Y79.429 Z-1.111
X262.365 Y79.292 Z-1.128
X262.314 Y79.152 Z-1.148
X262.274 Y79.035 Z-1.166
X262.201 Y78.797 Z-1.202
X262.144 Y78.59 Z-1.233
X262.119 Y78.491 Z-1.247
X262.08 Y78.309 Z-1.269
X262.05 Y78.135 Z-1.285
X262.024 Y77.948 Z-1.298
X262.014 Y77.848 Z-1.303
X262.008 Y77.741 Z-1.312
X262.004 Y77.628 Z-1.321
X262.002 Y77.411 Z-1.339
X262.005 Y77.162 Z-1.359
X262.012 Y76.953 Z-1.377
X262.023 Y76.845 Z-1.381
X262.049 Y76.649 Z-1.392
X262.079 Y76.466 Z-1.403
X262.109 Y76.312 Z-1.413
X262.155 Y76.123 Z-1.427
X262.2 Y75.974 Z-1.436
X262.242 Y75.863 Z-1.44
X262.289 Y75.758
X262.342 Y75.658 Z-1.436
X262.396 Y75.563 Z-1.432
X262.504 Y75.395 Z-1.421
X262.598 Y75.259 Z-1.412
X262.746 Y75.059 Z-1.4
X262.869 Y74.939 Z-1.37
X263.03 Y74.788 Z-1.331
X263.12 Y74.705 Z-1.309
X263.216 Y74.623 Z-1.288
X263.312 Y74.549 Z-1.271
X263.405 Y74.486 Z-1.257
X263.563 Y74.387 Z-1.234
X263.655 Y74.333 Z-1.217
X263.777 Y74.269 Z-1.193
X263.894 Y74.213 Z-1.167
X264.016 Y74.159 Z-1.14
X264.105 Y74.123 Z-1.119
X264.233 Y74.075 Z-1.09
X264.365 Y74.03 Z-1.06
X264.421 Y74.012 Z-1.048
X264.563 Y73.97 Z-1.019
X264.715 Y73.93 Z-0.99
X264.868 Y73.896 Z-0.964
X265.012 Y73.867 Z-0.942
X265.154 Y73.843 Z-0.924
X265.288 Y73.824 Z-0.909
X265.494 Y73.804 Z-0.886
X265.639 Y73.795 Z-0.871
X265.784 Y73.79 Z-0.856
X265.896 Z-0.842
X266.014 Y73.794 Z-0.827
X266.21 Y73.806 Z-0.799
X266.304 Y73.813 Z-0.785
X266.369 Y73.823 Z-0.771
X266.463 Y73.842 Z-0.754
X266.586 Y73.873 Z-0.733
X266.702 Y73.906 Z-0.709
X266.831 Y73.948 Z-0.678
X267.029 Y74.02 Z-0.626
X267.18 Y74.079 Z-0.585
X267.32 Y74.138 Z-0.546
X267.571 Y74.247 Z-0.481
X267.802 Y74.355 Z-0.426
X267.947 Y74.427 Z-0.396
X268.067 Y74.489 Z-0.372
X268.286 Y74.609 Z-0.335
X268.411 Y74.68 Z-0.316
X268.628 Y74.809 Z-0.287
X268.837 Y74.939 Z-0.263
X269.138 Y75.13 Z-0.233
X269.237 Y75.194 Z-0.223
X269.287 Y75.228 Z-0.22
X269.741 Y75.565 Z-0.213
X269.971 Y75.739 Z-0.212
X270.199 Y75.916 Z-0.215
X270.431 Y76.102 Z-0.222
X270.658 Y76.293 Z-0.236
X270.879 Y76.487 Z-0.257
X271.096 Y76.685 Z-0.283
X271.149 Y76.73 Z-0.293
X271.215 Y76.778 Z-0.31
X271.275 Y76.817 Z-0.331
X271.345 Y76.856 Z-0.358
X271.413 Y76.89 Z-0.389
X271.492 Y76.923 Z-0.428
X271.568 Y76.951 Z-0.469
X271.65 Y76.976 Z-0.516
X271.733 Y76.998 Z-0.567
X271.829 Y77.019 Z-0.628
X271.92 Y77.035 Z-0.689
X272.025 Y77.05 Z-0.762
X272.122 Y77.06 Z-0.832
X272.222 Y77.067 Z-0.906
X272.326 Y77.071 Z-0.985
X272.434 Y77.073 Z-1.068
X272.631 Z-1.227
X272.859 Z-1.421
X272.883 Y77.178 Z-1.393
X272.905 Y77.293 Z-1.367
X272.924 Y77.414 Z-1.344
X272.937 Y77.527 Z-1.327
X272.948 Y77.655 Z-1.312
X272.953 Y77.768 Z-1.305
X272.954 Y77.909 Z-1.3
X272.947 Y78.589 Z-1.299
X272.942 Y79.51 Z-1.303
X272.939 Y80.448 Z-1.308
X272.926 Y81.925
X272.934 Y82.603 Z-1.289
X272.935 Y82.867 Z-1.281
X272.934 Y82.891
X272.928 Y83.012 Z-1.283
X272.917 Y83.133 Z-1.29
X272.901 Y83.26 Z-1.303
X272.879 Y83.386 Z-1.321
X272.901 Y83.26 Z-1.303
X272.917 Y83.133 Z-1.29
X272.928 Y83.012 Z-1.283
X272.934 Y82.891 Z-1.281
X272.935 Y82.867
X272.934 Y82.603 Z-1.289
X272.926 Y81.925 Z-1.308
X272.939 Y80.448
X272.942 Y79.51 Z-1.303
X272.947 Y78.589 Z-1.299
X272.954 Y77.909 Z-1.3
X272.953 Y77.768 Z-1.305
X272.948 Y77.655 Z-1.312
X272.937 Y77.527 Z-1.327
X272.924 Y77.414 Z-1.344
X272.905 Y77.293 Z-1.367
X272.883 Y77.178 Z-1.393
X272.859 Y77.073 Z-1.421
X272.893 Y76.945 Z-1.393
X272.923 Y76.811 Z-1.369
X272.944 Y76.699 Z-1.354
X272.962 Y76.58 Z-1.343
X272.975 Y76.467 Z-1.336
X272.985 Y76.356 Z-1.334
X272.989 Y76.275 Z-1.335
X273.014 Y75.753 Z-1.35
X273.036 Y75.322 Z-1.367
X273.065 Y74.776 Z-1.393
X272.711 Y74.409 Z-1.042
X272.264 Y73.943 Z-0.6
X271.657 Y73.3 Z0
X272.264 Y73.943 Z-0.6
X272.711 Y74.409 Z-1.042
X273.065 Y74.776 Z-1.393
X273.308 Y74.563 Z-1.172
X273.429 Y74.464 Z-1.07
X273.548 Y74.376 Z-0.979
X273.668 Y74.295 Z-0.895
X273.785 Y74.224 Z-0.822
X273.962 Y74.128 Z-0.722
X274.146 Y74.034 Z-0.625
X274.257 Y73.98 Z-0.572
X274.384 Y73.921 Z-0.517
X274.48 Y73.881 Z-0.479
X274.566 Y73.848 Z-0.449
X274.665 Y73.815 Z-0.417
X274.775 Y73.783 Z-0.388
X274.851 Y73.764 Z-0.372
X274.948 Y73.743 Z-0.354
X275.057 Y73.724 Z-0.338
X275.179 Y73.708 Z-0.326
X275.265 Y73.699 Z-0.32
X275.389 Y73.689 Z-0.316
X275.553 Y73.68 Z-0.313
X275.634 Y73.676
X276.246 Y73.661 Z-0.329
X276.476 Y73.654 Z-0.336
X276.812 Y73.989 Z0
X276.476 Y73.654 Z-0.336
X276.812 Y73.297 Z0
G0 Z5
X278.74 Y73.863
G1 Z0 F850
X279.03 Y73.597 Z-0.29
X278.741 Y73.294 Z-0.001
X279.03 Y73.597 Z-0.29
X280.073 Y73.662 Z-0.311
X280.694 Y73.699 Z-0.327
X280.825 Y73.711 Z-0.335
X280.963 Y73.727 Z-0.347
X281.109 Y73.748 Z-0.365
X281.235 Y73.77 Z-0.384
X281.335 Y73.791 Z-0.403
X281.488 Y73.828 Z-0.437
X281.662 Y73.874 Z-0.481
X281.836 Y73.924 Z-0.528
X281.89 Y73.941 Z-0.544
X281.99 Y73.977 Z-0.579
X282.092 Y74.021 Z-0.622
X282.192 Y74.072 Z-0.671
X282.293 Y74.129 Z-0.728
X282.405 Y74.202 Z-0.799
X282.737 Y74.433 Z-1.027
X282.924 Y74.567 Z-1.16
X283.133 Y74.723 Z-1.315
X283.318 Y74.869 Z-1.459
X283.376 Y74.915 Z-1.506
X283.518 Y74.792 Z-1.384
X283.679 Y74.659 Z-1.252
X283.84 Y74.533 Z-1.128
X283.981 Y74.43 Z-1.026
X284.103 Y74.347 Z-0.943
X284.206 Y74.281 Z-0.878
X284.32 Y74.213 Z-0.811
X284.422 Y74.155 Z-0.754
X284.56 Y74.084 Z-0.685
X284.687 Y74.024 Z-0.626
X284.872 Y73.943 Z-0.548
X284.91 Y73.927 Z-0.532
X284.998 Y73.893 Z-0.499
X285.087 Y73.864 Z-0.471
X285.15 Y73.847 Z-0.455
X285.212 Y73.833 Z-0.442
X285.584 Y73.761 Z-0.377
X285.777 Y73.726 Z-0.346
X285.977 Y73.693 Z-0.318
X286.18 Y73.664 Z-0.294
X286.383 Y73.641 Z-0.277
X286.581 Y73.624 Z-0.266
X286.775 Y73.611 Z-0.259
X286.964 Y73.602 Z-0.256
X287.242 Y73.592
X287.53 Y73.584 Z-0.259
X288.096 Y73.573 Z-0.27
X288.366 Y73.843 Z0
X288.096 Y73.573 Z-0.27
X288.366 Y73.292 Z0
X288.096 Y73.573 Z-0.27
X287.53 Y73.584 Z-0.259
X287.242 Y73.592 Z-0.256
X286.964 Y73.602
X286.775 Y73.611 Z-0.259
X286.581 Y73.624 Z-0.266
X286.383 Y73.641 Z-0.277
X286.18 Y73.664 Z-0.294
X285.977 Y73.693 Z-0.318
X285.777 Y73.726 Z-0.346
X285.584 Y73.761 Z-0.377
X285.212 Y73.833 Z-0.442
X285.15 Y73.847 Z-0.455
X285.087 Y73.864 Z-0.471
X284.998 Y73.893 Z-0.499
X284.91 Y73.927 Z-0.532
X284.872 Y73.943 Z-0.548
X284.687 Y74.024 Z-0.626
X284.56 Y74.084 Z-0.685
X284.422 Y74.155 Z-0.754
X284.32 Y74.213 Z-0.811
X284.206 Y74.281 Z-0.878
X284.103 Y74.347 Z-0.943
X283.981 Y74.43 Z-1.026
X283.84 Y74.533 Z-1.128
X283.679 Y74.659 Z-1.252
X283.518 Y74.792 Z-1.384
X283.376 Y74.915 Z-1.506
X283.382 Y75.08 Z-1.48
X283.389 Y75.279 Z-1.455
X283.391 Y75.424 Z-1.439
Y75.622 Z-1.421
X283.389 Y75.854 Z-1.404
X283.383 Y76.091 Z-1.39
X283.375 Y76.409 Z-1.373
X283.367 Y76.972 Z-1.343
X283.364 Y77.356 Z-1.326
Y77.918 Z-1.306
X283.369 Y78.67 Z-1.287
X283.374 Y79.373 Z-1.276
X283.379 Y80.259 Z-1.267
X283.383 Y80.874 Z-1.265
X283.388 Y81.328 Z-1.266
X283.397 Y81.837 Z-1.272
X283.406 Y82.242 Z-1.28
X283.422 Y82.709 Z-1.293
X283.446 Y83.177 Z-1.309
X283.477 Y83.706 Z-1.334
X283.505 Y84.155 Z-1.362
X283.532 Y84.627 Z-1.396
X283.551 Y84.968 Z-1.424
X283.56 Y85.101 Z-1.439
X283.584 Y85.32 Z-1.474
X283.59 Y85.368 Z-1.482
X283.551 Y85.458 Z-1.449
X283.516 Y85.548 Z-1.419
X283.472 Y85.668 Z-1.383
X283.437 Y85.774 Z-1.356
X283.397 Y85.909 Z-1.328
X283.371 Y86.016 Z-1.311
X283.343 Y86.143 Z-1.296
X283.324 Y86.25 Z-1.288
X283.302 Y86.405 Z-1.284
X283.291 Y86.514 Z-1.286
X283.263 Y86.963 Z-1.32
X283.231 Y87.426 Z-1.361
X283.179 Y88.101 Z-1.426
X283.167 Y88.228 Z-1.441
X283.15 Y88.354 Z-1.461
X283.128 Y88.481 Z-1.485
X283.293 Y88.699 Z-1.325
X283.475 Y88.945 Z-1.148
X283.652 Y89.19 Z-0.976
X283.893 Y89.532 Z-0.742
X284.197 Y89.974 Z-0.447
X284.392 Y90.265 Z-0.257
X284.419 Y90.307 Z-0.23
X284.462 Y90.371 Z-0.186
X284.495 Y90.418 Z-0.149
X284.536 Y90.475 Z-0.1
X284.565 Y90.517 Z-0.061
X284.61 Y90.574 Z0
X284.565 Y90.517 Z-0.061
X284.536 Y90.475 Z-0.1
X284.495 Y90.418 Z-0.149
X284.462 Y90.371 Z-0.186
X284.419 Y90.307 Z-0.23
X284.392 Y90.265 Z-0.257
X284.197 Y89.974 Z-0.447
X283.893 Y89.532 Z-0.742
X283.652 Y89.19 Z-0.976
X283.475 Y88.945 Z-1.148
X283.293 Y88.699 Z-1.325
X283.128 Y88.481 Z-1.485
X283.073 Y88.507 Z-1.445
X282.925 Y88.572 Z-1.342
X282.79 Y88.626 Z-1.253
X282.655 Y88.674 Z-1.171
X282.52 Y88.717 Z-1.095
X282.383 Y88.754 Z-1.025
X282.103 Y88.822 Z-0.89
X281.913 Y88.864 Z-0.803
X281.771 Y88.895 Z-0.744
X281.644 Y88.919 Z-0.694
X281.514 Y88.94 Z-0.647
X281.389 Y88.957 Z-0.605
X281.266 Y88.97 Z-0.568
X281.15 Y88.978 Z-0.537
X281.016 Y88.984 Z-0.505
X280.879 Y88.986 Z-0.477
X280.769 Y88.984 Z-0.457
X280.651 Y88.98 Z-0.439
X280.476 Y88.971 Z-0.418
X280.311 Y88.958 Z-0.402
X280.02 Y88.933 Z-0.38
X279.634 Y88.904 Z-0.352
X279.054 Y88.866 Z-0.314
X278.74 Y88.553 Z0
X279.054 Y88.866 Z-0.314
X278.74 Y89.143 Z0
X279.054 Y88.866 Z-0.314
X279.634 Y88.904 Z-0.352
X280.02 Y88.933 Z-0.38
X280.311 Y88.958 Z-0.402
X280.476 Y88.971 Z-0.418
X280.651 Y88.98 Z-0.439
X280.769 Y88.984 Z-0.457
X280.879 Y88.986 Z-0.477
X281.016 Y88.984 Z-0.505
X281.15 Y88.978 Z-0.537
X281.266 Y88.97 Z-0.568
X281.389 Y88.957 Z-0.605
X281.514 Y88.94 Z-0.647
X281.644 Y88.919 Z-0.694
X281.771 Y88.895 Z-0.744
X281.913 Y88.864 Z-0.803
X282.103 Y88.822 Z-0.89
X282.383 Y88.754 Z-1.025
X282.52 Y88.717 Z-1.095
X282.655 Y88.674 Z-1.171
X282.79 Y88.626 Z-1.253
X282.925 Y88.572 Z-1.342
X283.073 Y88.507 Z-1.445
X283.128 Y88.481 Z-1.485
X283.15 Y88.354 Z-1.461
X283.167 Y88.228 Z-1.441
X283.179 Y88.101 Z-1.426
X283.231 Y87.426 Z-1.361
X283.263 Y86.963 Z-1.32
X283.291 Y86.514 Z-1.286
X283.302 Y86.405 Z-1.284
X283.324 Y86.25 Z-1.288
X283.343 Y86.143 Z-1.296
X283.371 Y86.016 Z-1.311
X283.397 Y85.909 Z-1.328
X283.437 Y85.774 Z-1.356
X283.472 Y85.668 Z-1.383
X283.516 Y85.548 Z-1.419
X283.551 Y85.458 Z-1.449
X283.59 Y85.368 Z-1.482
X283.726 Y85.403 Z-1.362
X283.934 Y85.462 Z-1.181
X284.105 Y85.518 Z-1.035
X284.298 Y85.588 Z-0.875
X284.456 Y85.654 Z-0.748
X284.61 Y85.728 Z-0.631
X284.746 Y85.804 Z-0.532
X284.766 Y85.815 Z-0.519
X284.867 Y85.881 Z-0.452
X284.935 Y85.93 Z-0.411
X284.979 Y85.965 Z-0.386
X285.039 Y86.015 Z-0.356
X285.078 Y86.051 Z-0.338
X285.13 Y86.103 Z-0.318
X285.164 Y86.141 Z-0.307
X285.211 Y86.197 Z-0.296
X285.275 Y86.277 Z-0.285
X285.4 Y86.425 Z-0.27
X285.545 Y86.588 Z-0.26
X285.686 Y86.742 Z-0.256
X285.834 Y86.898 Z-0.258
X286.048 Y87.124 Z-0.267
X286.124 Y87.201 Z-0.274
X286.203 Y87.273 Z-0.288
X286.423 Y87.473 Z-0.331
X286.575 Y87.608 Z-0.365
X286.737 Y87.748 Z-0.406
X286.838 Y87.833 Z-0.434
X286.999 Y87.961 Z-0.483
X287.087 Y88.027 Z-0.511
X287.179 Y88.093 Z-0.542
X287.275 Y88.159 Z-0.576
X287.414 Y88.249 Z-0.627
X287.542 Y88.329 Z-0.676
X287.73 Y88.436 Z-0.748
X287.909 Y88.531 Z-0.816
X288.082 Y88.615 Z-0.88
X288.239 Y88.686 Z-0.935
X288.405 Y88.755 Z-0.991
X288.497 Y88.787 Z-1.023
X288.507 Y88.79 Z-1.027
X288.718 Y88.855 Z-1.104
X288.941 Y88.917 Z-1.184
X289.093 Y88.956 Z-1.241
X289.16 Y88.966 Z-1.26
X289.329 Y88.989 Z-1.311
X289.455 Y89.001 Z-1.35
X289.59 Y89.009 Z-1.39
X289.684 Z-1.416
X289.798 Y89.002 Z-1.444
X289.897 Y88.991 Z-1.468
X290.057 Y88.969 Z-1.505
X290.235 Y89.137 Z-1.35
X290.467 Y89.337 Z-1.145
X290.625 Y89.468 Z-1.007
X290.768 Y89.581 Z-0.881
X290.91 Y89.686 Z-0.755
X291.013 Y89.758 Z-0.663
X291.227 Y89.9 Z-0.471
X291.53 Y90.094 Z-0.197
X291.565 Y90.117 Z-0.164
X291.602 Y90.136 Z-0.129
X291.685 Y90.195 Z-0.034
X291.704 Y90.207 Z-0.013
X291.685 Y90.195 Z-0.034
X291.602 Y90.136 Z-0.129
X291.565 Y90.117 Z-0.164
X291.53 Y90.094 Z-0.197
X291.227 Y89.9 Z-0.471
X291.013 Y89.758 Z-0.663
X290.91 Y89.686 Z-0.755
X290.768 Y89.581 Z-0.881
X290.625 Y89.468 Z-1.007
X290.467 Y89.337 Z-1.145
X290.235 Y89.137 Z-1.35
X290.057 Y88.969 Z-1.505
X290.133 Y88.838 Z-1.415
X290.24 Y88.645 Z-1.287
X290.384 Y88.377 Z-1.116
X290.485 Y88.186 Z-0.998
X290.535 Y88.082 Z-0.941
X290.601 Y87.925 Z-0.863
X290.729 Y87.612 Z-0.715
X290.804 Y87.423 Z-0.63
X290.846 Y87.311 Z-0.583
X290.912 Y87.126 Z-0.509
X290.97 Y86.944 Z-0.443
X291.022 Y86.769 Z-0.387
X291.068 Y86.597 Z-0.336
X291.123 Y86.366 Z-0.274
X291.133 Y86.326 Z-0.264
X290.97 Y86.062 Z0
X291.133 Y86.326 Z-0.264
X291.391 Y86.063 Z0
G0 Z5
X304.224 Y73.399
G1 Z0 F850
X303.859 Y74.043 Z-0.723
X303.621 Y73.998 Z-0.748
X303.348 Y73.949 Z-0.776
X303.192 Y73.929 Z-0.796
X302.986 Y73.916 Z-0.832
X302.787 Y73.907 Z-0.864
X302.595 Y73.903 Z-0.892
X302.398 Z-0.919
X302.192 Y73.907 Z-0.946
X301.88 Y73.921 Z-0.985
X301.64 Y73.938 Z-1.018
X301.42 Y73.975 Z-1.035
X301.184 Y74.02 Z-1.055
X300.944 Y74.073 Z-1.079
X300.697 Y74.136 Z-1.109
X300.443 Y74.21 Z-1.144
X300.19 Y74.296 Z-1.182
X300.007 Y74.367 Z-1.211
X299.879 Y74.421 Z-1.231
X299.705 Y74.502 Z-1.258
X299.534 Y74.59 Z-1.285
X299.432 Y74.647 Z-1.298
X299.267 Y74.747 Z-1.319
X299.131 Y74.839 Z-1.334
X299.064 Y74.886 Z-1.339
X298.871 Y75.03 Z-1.356
X298.705 Y75.164 Z-1.368
X298.554 Y75.29 Z-1.377
X298.521 Y75.32 Z-1.379
X298.357 Y75.464 Z-1.387
X298.078 Y75.72 Z-1.399
X297.981 Y75.814 Z-1.403
X297.914 Y75.883 Z-1.409
X297.855 Y75.947 Z-1.417
X297.717 Y76.108 Z-1.443
X297.664 Y76.187 Z-1.444
X297.372 Y76.63 Z-1.453
X297.231 Y76.852 Z-1.457
X297.098 Y77.068 Z-1.461
X296.976 Y77.277 Z-1.464
X296.861 Y77.48 Z-1.467
X296.797 Y77.601
X296.69 Y77.813 Z-1.468
X296.576 Y78.06
X296.5 Y78.243 Z-1.465
X296.434 Y78.416 Z-1.46
X296.367 Y78.616 Z-1.453
X296.336 Y78.719 Z-1.449
X296.273 Y78.945 Z-1.44
X296.204 Y79.241 Z-1.427
X296.158 Y79.477 Z-1.417
X296.138 Y79.59 Z-1.412
X296.101 Y79.824 Z-1.403
X296.063 Y80.11 Z-1.392
X296.032 Y80.396 Z-1.384
X296.007 Y80.67 Z-1.377
X295.986 Y80.938 Z-1.372
X295.968 Y81.214 Z-1.369
X295.964 Y81.477 Z-1.357
X295.962 Y81.734 Z-1.346
X295.964 Y82.175 Z-1.323
X295.968 Y82.331 Z-1.315
X295.988 Y82.636 Z-1.305
X296.012 Y82.917 Z-1.291
X296.044 Y83.194 Z-1.271
X296.085 Y83.471 Z-1.246
X296.138 Y83.767 Z-1.215
X296.168 Y83.917 Z-1.198
X296.238 Y84.231 Z-1.163
X296.317 Y84.552 Z-1.129
X296.392 Y84.828 Z-1.102
X296.473 Y85.061 Z-1.07
X296.57 Y85.317 Z-1.037
X296.672 Y85.563 Z-1.006
X296.765 Y85.766 Z-0.981
X296.809 Y85.855 Z-0.969
X296.904 Y86.031 Z-0.944
X296.952 Y86.115 Z-0.931
X297.054 Y86.28 Z-0.901
X297.175 Y86.458 Z-0.866
X297.308 Y86.642 Z-0.826
X297.458 Y86.837 Z-0.783
X297.658 Y87.088 Z-0.727
X298.026 Y87.47 Z-0.601
X298.362 Y87.811 Z-0.489
X298.433 Y87.878 Z-0.469
X298.507 Y87.939 Z-0.455
X298.808 Y88.168 Z-0.412
X299.082 Y88.368 Z-0.374
X299.215 Y88.463 Z-0.356
X299.446 Y88.621 Z-0.328
X299.613 Y88.731 Z-0.31
X299.763 Y88.825 Z-0.296
X299.904 Y88.91 Z-0.286
X300.128 Y89.039 Z-0.275
X300.307 Y89.134 Z-0.271
X300.485 Y89.224 Z-0.273
X300.636 Y89.294 Z-0.278
X300.702 Y89.324 Z-0.281
X300.865 Y89.392 Z-0.29
X301.041 Y89.458 Z-0.303
X301.176 Y89.507 Z-0.314
X301.442 Y89.595 Z-0.34
X301.578 Y89.635 Z-0.355
X301.829 Y89.705 Z-0.382
X302.022 Y89.752 Z-0.403
X302.226 Y89.797 Z-0.424
X302.475 Y89.844 Z-0.445
X302.725 Y89.883 Z-0.46
X302.854 Y89.898 Z-0.467
X303.119 Y89.911 Z-0.494
X303.392 Y89.917 Z-0.52
X303.666 Y89.919 Z-0.546
X303.913 Y89.915 Z-0.571
X304.093 Y89.899 Z-0.581
X304.302 Y89.876 Z-0.595
X304.501 Y89.848 Z-0.61
X304.67 Y89.82 Z-0.624
X304.861 Y89.782 Z-0.641
X305.014 Y89.747 Z-0.654
X305.205 Y89.697 Z-0.671
X305.469 Y89.622 Z-0.694
X305.804 Y89.517 Z-0.725
X306.059 Y89.426 Z-0.742
X306.149 Y89.393 Z-0.749
X306.327 Y89.317 Z-0.771
X306.583 Y89.204 Z-0.802
X306.826 Y89.089 Z-0.829
X306.985 Y89.011 Z-0.845
X307.146 Y88.928 Z-0.861
X307.396 Y88.792 Z-0.886
X307.559 Y88.699 Z-0.904
X307.817 Y88.546 Z-0.936
X307.9 Y88.497 Z-0.949
X307.962 Y88.463 Z-0.961
X308.043 Y88.421 Z-0.98
X308.107 Y88.391 Z-0.998
X308.266 Y88.322 Z-1.049
X308.43 Y88.262 Z-1.114
X308.589 Y88.212 Z-1.184
X308.769 Y88.166 Z-1.273
X308.95 Y88.127 Z-1.372
X309.126 Y88.098 Z-1.473
X309.321 Y88.074 Z-1.594
X309.471 Y88.06 Z-1.69
X309.544 Y88.211 Z-1.618
X309.609 Y88.361 Z-1.553
X309.666 Y88.512 Z-1.496
X309.717 Y88.663 Z-1.445
X309.76 Y88.813 Z-1.402
X309.795 Y88.964 Z-1.367
X309.824 Y89.114 Z-1.338
X309.845 Y89.265 Z-1.317
X309.862 Y89.443 Z-1.304
X309.868 Y89.584 Z-1.301
X309.884 Y90.871 Z-1.316
X309.92 Y95.739 Z-1.352
X309.928 Y96.151 Z-1.36
X309.936 Y96.49 Z-1.364
X309.939 Y96.666 Z-1.368
Y96.906 Z-1.378
X309.935 Y97.047 Z-1.386
X309.929 Y97.225 Z-1.4
X309.918 Y97.397 Z-1.418
X309.903 Y97.577 Z-1.441
X309.884 Y97.753 Z-1.468
X309.859 Y97.935 Z-1.501
X309.839 Y98.064 Z-1.526
X309.58 Y98.192 Z-1.333
X309.272 Y98.338 Z-1.113
X309.144 Y98.393 Z-1.029
X309.045 Y98.431 Z-0.968
X308.925 Y98.472 Z-0.9
X308.83 Y98.501 Z-0.851
X308.735 Y98.525 Z-0.806
X308.586 Y98.556 Z-0.743
X308.345 Y98.597 Z-0.654
X308.187 Y98.622 Z-0.6
X308.043 Y98.64 Z-0.556
X307.934 Y98.652 Z-0.526
X307.808 Y98.661 Z-0.495
X307.675 Y98.668 Z-0.467
X307.569 Y98.67 Z-0.448
X307.423 Y98.669 Z-0.427
X307.289 Y98.665 Z-0.412
X307.102 Y98.655 Z-0.396
X306.886 Y98.64 Z-0.383
X306.422 Y98.612 Z-0.355
X305.892 Y98.584 Z-0.327
X305.565 Y98.879 Z0
X305.892 Y98.584 Z-0.327
X305.565 Y98.257 Z0
X305.892 Y98.584 Z-0.327
X306.422 Y98.612 Z-0.355
X306.886 Y98.64 Z-0.383
X307.102 Y98.655 Z-0.396
X307.289 Y98.665 Z-0.412
X307.423 Y98.669 Z-0.427
X307.569 Y98.67 Z-0.448
X307.675 Y98.668 Z-0.467
X307.808 Y98.661 Z-0.495
X307.934 Y98.652 Z-0.526
X308.043 Y98.64 Z-0.556
X308.187 Y98.622 Z-0.6
X308.345 Y98.597 Z-0.654
X308.586 Y98.556 Z-0.743
X308.735 Y98.525 Z-0.806
X308.83 Y98.501 Z-0.851
X308.925 Y98.472 Z-0.9
X309.045 Y98.431 Z-0.968
X309.144 Y98.393 Z-1.029
X309.272 Y98.338 Z-1.113
X309.58 Y98.192 Z-1.333
X309.839 Y98.064 Z-1.526
X310.106 Y98.402 Z-1.277
X310.411 Y98.793 Z-0.993
X310.916 Y99.45 Z-0.528
X311.359 Y100.032 Z-0.12
X311.483 Y100.093 Z-0.001
X311.359 Y100.032 Z-0.12
X311.376 Y100.165 Z0
X311.359 Y100.032 Z-0.12
X310.916 Y99.45 Z-0.528
X310.411 Y98.793 Z-0.993
X310.106 Y98.402 Z-1.277
X309.839 Y98.064 Z-1.526
X309.859 Y97.935 Z-1.501
X309.884 Y97.753 Z-1.468
X309.903 Y97.577 Z-1.441
X309.918 Y97.397 Z-1.418
X309.929 Y97.225 Z-1.4
X309.935 Y97.047 Z-1.386
X309.939 Y96.906 Z-1.378
Y96.666 Z-1.368
X309.936 Y96.49 Z-1.364
X309.928 Y96.151 Z-1.36
X309.92 Y95.739 Z-1.352
X309.884 Y90.871 Z-1.316
X309.868 Y89.584 Z-1.301
X309.862 Y89.443 Z-1.304
X309.845 Y89.265 Z-1.317
X309.824 Y89.114 Z-1.338
X309.795 Y88.964 Z-1.367
X309.76 Y88.813 Z-1.402
X309.717 Y88.663 Z-1.445
X309.666 Y88.512 Z-1.496
X309.609 Y88.361 Z-1.553
X309.544 Y88.211 Z-1.618
X309.471 Y88.06 Z-1.69
X309.605 Y87.736 Z-1.557
X309.659 Y87.595 Z-1.503
X309.708 Y87.454 Z-1.454
X309.749 Y87.314 Z-1.413
X309.785 Y87.173 Z-1.377
X309.814 Y87.032 Z-1.348
X309.836 Y86.891 Z-1.326
X309.852 Y86.75 Z-1.31
X309.862 Y86.609 Z-1.3
X309.865 Y86.468 Z-1.297
X309.864 Y81.629 Z-1.298
X309.86 Y81.081 Z-1.302
X309.853 Y80.698 Z-1.309
X309.842 Y80.307 Z-1.32
X309.824 Y79.916 Z-1.338
X309.812 Y79.697 Z-1.35
X309.784 Y79.324 Z-1.378
X309.762 Y79.084 Z-1.4
X309.741 Y78.874 Z-1.421
X309.695 Y78.479 Z-1.467
X309.659 Y78.208 Z-1.5
X309.616 Y77.91 Z-1.538
X309.601 Y77.813 Z-1.551
X309.44 Y77.77 Z-1.409
X309.286 Y77.725 Z-1.273
X309.139 Y77.678 Z-1.146
X309 Y77.628 Z-1.027
X308.79 Y77.543 Z-0.85
X308.656 Y77.487 Z-0.747
X308.526 Y77.431 Z-0.657
X308.458 Y77.399 Z-0.612
X308.395 Y77.366 Z-0.571
X308.326 Y77.327 Z-0.529
X308.268 Y77.292 Z-0.494
X308.207 Y77.25 Z-0.46
X308.154 Y77.211 Z-0.432
X308.098 Y77.166 Z-0.405
X308.051 Y77.125 Z-0.385
X308.002 Y77.077 Z-0.366
X307.913 Y76.978 Z-0.339
X307.739 Y76.783 Z-0.295
X307.559 Y76.589 Z-0.257
X307.463 Y76.492 Z-0.241
X307.287 Y76.32 Z-0.218
X307.18 Y76.22 Z-0.208
X306.996 Y76.056 Z-0.198
X306.855 Y75.936 Z-0.193
X306.687 Y75.795 Z-0.192
X306.42 Y75.578 Z-0.196
X306.234 Y75.429 Z-0.202
X306.175 Y75.386 Z-0.206
X305.777 Y75.108 Z-0.254
X305.565 Y74.965 Z-0.284
X305.341 Y74.818 Z-0.32
X305.109 Y74.675 Z-0.365
X304.987 Y74.602 Z-0.392
X304.861 Y74.531 Z-0.421
X304.684 Y74.435 Z-0.468
X304.606 Y74.395 Z-0.489
X304.477 Y74.329 Z-0.526
X304.22 Y74.206 Z-0.604
X303.964 Y74.089 Z-0.688
X303.859 Y74.043 Z-0.723
X303.964 Y74.089 Z-0.688
X304.22 Y74.206 Z-0.604
X304.477 Y74.329 Z-0.526
X304.606 Y74.395 Z-0.489
X304.684 Y74.435 Z-0.468
X304.861 Y74.531 Z-0.421
X304.987 Y74.602 Z-0.392
X305.109 Y74.675 Z-0.365
X305.341 Y74.818 Z-0.32
X305.565 Y74.965 Z-0.284
X305.777 Y75.108 Z-0.254
X306.175 Y75.386 Z-0.206
X306.234 Y75.429 Z-0.202
X306.42 Y75.578 Z-0.196
X306.687 Y75.795 Z-0.192
X306.855 Y75.936 Z-0.193
X306.996 Y76.056 Z-0.198
X307.18 Y76.22 Z-0.208
X307.287 Y76.32 Z-0.218
X307.463 Y76.492 Z-0.241
X307.559 Y76.589 Z-0.257
X307.739 Y76.783 Z-0.295
X307.913 Y76.978 Z-0.339
X308.002 Y77.077 Z-0.366
X308.051 Y77.125 Z-0.385
X308.098 Y77.166 Z-0.405
X308.154 Y77.211 Z-0.432
X308.207 Y77.25 Z-0.46
X308.268 Y77.292 Z-0.494
X308.326 Y77.327 Z-0.529
X308.395 Y77.366 Z-0.571
X308.458 Y77.399 Z-0.612
X308.526 Y77.431 Z-0.657
X308.656 Y77.487 Z-0.747
X308.79 Y77.543 Z-0.85
X309 Y77.628 Z-1.027
X309.139 Y77.678 Z-1.146
X309.286 Y77.725 Z-1.273
X309.44 Y77.77 Z-1.409
X309.601 Y77.813 Z-1.551
X309.667 Y77.636 Z-1.483
X309.717 Y77.481 Z-1.432
X309.76 Y77.327 Z-1.389
X309.793 Y77.184 Z-1.356
X309.824 Y77.02 Z-1.328
X309.843 Y76.877 Z-1.31
X309.858 Y76.713 Z-1.299
X309.864 Y76.603 Z-1.297
X309.865 Y76.56
X309.868 Y76.349 Z-1.306
X309.875 Y75.925 Z-1.328
X309.885 Y75.614 Z-1.349
X309.9 Y75.265 Z-1.378
X309.92 Y74.839 Z-1.418
X309.384 Y74.302 Z-0.915
X308.834 Y73.751 Z-0.407
X308.39 Y73.305 Z0
X308.834 Y73.751 Z-0.407
X309.384 Y74.302 Z-0.915
X309.92 Y74.839 Z-1.418
X310.16 Y74.644 Z-1.211
X310.261 Y74.568 Z-1.129
X310.361 Y74.498 Z-1.054
X310.447 Y74.439 Z-0.994
X310.53 Y74.385 Z-0.941
X310.613 Y74.335 Z-0.891
X310.696 Y74.289 Z-0.847
X310.779 Y74.247 Z-0.806
X310.847 Y74.216 Z-0.776
X310.992 Y74.156 Z-0.718
X311.244 Y74.057 Z-0.623
X311.409 Y73.997 Z-0.566
X311.535 Y73.954 Z-0.526
X311.642 Y73.92 Z-0.495
X311.78 Y73.88 Z-0.459
X311.852 Y73.861 Z-0.442
X311.954 Y73.837 Z-0.42
X312.12 Y73.803 Z-0.391
X312.239 Y73.782 Z-0.375
X312.414 Y73.756 Z-0.356
X312.585 Y73.735 Z-0.342
X312.823 Y73.711 Z-0.329
X313.288 Y73.669 Z-0.313
X313.871 Y73.613 Z-0.294
X314.164 Y73.872 Z-0.001
X313.871 Y73.613 Z-0.294
X314.165 Y73.299 Z0
G0 Z15

(CliftonCottage)
M9
X84.619 Y137.108
Z15
Z5
G1 Z0 F850
X84.994 Y137.501 Z-0.393
X85.367 Y137.109 Z-0.001
X84.994 Y137.501 Z-0.393
X84.995 Y137.837 Z-0.409
X85 Y138.317 Z-0.436
X85.01 Y138.802 Z-0.468
X85.026 Y139.292 Z-0.506
X85.037 Y139.539 Z-0.528
X85.051 Y139.787 Z-0.552
X85.066 Y140.038 Z-0.579
X85.075 Y140.155 Z-0.593
X85.079 Y140.223 Z-0.603
Y140.291 Z-0.615
X85.077 Y140.389 Z-0.637
X85.071 Y140.47 Z-0.66
X85.062 Y140.552 Z-0.687
X85.038 Y140.697 Z-0.742
X85.009 Y140.824 Z-0.8
X84.967 Y140.973 Z-0.878
X84.921 Y141.106 Z-0.955
X84.824 Y141.352 Z-1.112
X85.177 Y141.565 Z-0.83
X85.738 Y141.901 Z-0.388
X86.236 Y142.196 Z-0.001
X85.738 Y141.901 Z-0.388
X85.177 Y141.565 Z-0.83
X84.824 Y141.352 Z-1.112
X84.347 Y141.544 Z-1.028
X83.948 Y141.702 Z-0.963
X83.61 Y141.833 Z-0.913
X83.377 Y141.919 Z-0.88
X83.041 Y142.038 Z-0.838
X82.781 Y142.125 Z-0.81
X82.539 Y142.203 Z-0.786
X82.218 Y142.3 Z-0.759
X81.894 Y142.394 Z-0.733
X81.428 Y142.52 Z-0.697
X81.108 Y142.603 Z-0.671
X81.044 Y142.617 Z-0.667
X80.632 Y142.701 Z-0.648
X80.248 Y142.773 Z-0.626
X79.914 Y142.829 Z-0.608
X79.593 Y142.877 Z-0.59
X79.266 Y142.919 Z-0.575
X79.083 Y142.939 Z-0.568
X78.745 Y142.971 Z-0.557
X78.416 Y142.996 Z-0.551
X78.082 Y143.016 Z-0.549
X77.707 Y143.035 Z-0.548
X77.065 Z-0.527
X77.026 Y143.033
X76.292 Y142.993 Z-0.536
X75.915 Y142.968 Z-0.541
X75.538 Y142.938 Z-0.545
X75.158 Y142.902 Z-0.549
X74.777 Y142.859 Z-0.553
X74.396 Y142.807 Z-0.558
X74.273 Y142.788 Z-0.561
X73.944 Y142.732 Z-0.566
X73.619 Y142.668 Z-0.571
X73.256 Y142.584 Z-0.578
X72.875 Y142.481 Z-0.587
X72.498 Y142.364 Z-0.6
X72.338 Y142.309 Z-0.608
X72.127 Y142.234 Z-0.617
X72.021 Y142.193 Z-0.624
X71.705 Y142.067 Z-0.644
X71.389 Y141.931 Z-0.668
X71.043 Y141.771 Z-0.699
X70.691 Y141.599 Z-0.736
X70.346 Y141.421 Z-0.777
X69.883 Y141.173 Z-0.84
X69.674 Y141.038 Z-0.853
X69.211 Y140.729 Z-0.886
X68.972 Y140.566 Z-0.903
X68.737 Y140.402 Z-0.919
X68.435 Y140.188 Z-0.938
X68.363 Y140.133 Z-0.944
X68.293 Y140.076 Z-0.953
X68.208 Y140 Z-0.967
X68.092 Y139.89 Z-0.992
X67.901 Y139.704 Z-1.03
X67.659 Y139.461 Z-1.075
X67.54 Y139.337 Z-1.095
X67.37 Y139.154 Z-1.122
X67.144 Y138.897 Z-1.153
X67.045 Y138.78 Z-1.166
X66.875 Y138.571 Z-1.185
X66.628 Y138.25 Z-1.21
X66.567 Y138.168 Z-1.217
X66.388 Y137.919 Z-1.235
X66.153 Y137.574 Z-1.26
X66.101 Y137.494 Z-1.267
X65.925 Y137.218 Z-1.289
X65.702 Y136.85 Z-1.326
X65.559 Y136.6 Z-1.355
X65.483 Y136.437 Z-1.361
X65.319 Y136.065 Z-1.381
X65.156 Y135.664 Z-1.411
X65.044 Y135.365 Z-1.437
X65.007 Y135.263 Z-1.446
X64.891 Y134.921 Z-1.478
X64.867 Y134.846 Z-1.486
X64.752 Y134.46 Z-1.522
X64.721 Y134.348 Z-1.534
X64.647 Y134.058 Z-1.558
X64.604 Y133.871 Z-1.574
X64.555 Y133.638 Z-1.591
X64.495 Y133.296 Z-1.61
X64.474 Y133.163 Z-1.617
X64.432 Y132.866 Z-1.629
X64.389 Y132.497 Z-1.641
X64.379 Y132.404 Z-1.643
X64.35 Y132.091 Z-1.649
X64.311 Y131.587 Z-1.656
X64.291 Y131.302 Z-1.657
X64.287 Y131.213 Z-1.659
X64.285 Y131.01 Z-1.67
X64.283 Y130.522 Z-1.697
X64.315 Y129.977
X64.354 Y129.458 Z-1.7
X64.38 Y129.18 Z-1.702
X64.408 Y128.908 Z-1.704
X64.441 Y128.643 Z-1.706
X64.477 Y128.385 Z-1.708
X64.518 Y128.134 Z-1.71
X64.579 Y127.811
X64.638 Y127.548
X64.668 Y127.425
X64.736 Y127.173 Z-1.706
X64.831 Y126.863 Z-1.701
X64.918 Y126.607 Z-1.695
X64.956 Y126.498 Z-1.693
X65.047 Y126.255 Z-1.686
X65.155 Y125.984 Z-1.679
X65.272 Y125.704 Z-1.671
X65.392 Y125.43 Z-1.663
X65.599 Y124.976 Z-1.651
X65.791 Y124.566 Z-1.641
X66.026 Y124.157 Z-1.596
X66.094 Y124.044 Z-1.585
X66.171 Y123.927 Z-1.579
X66.491 Y123.465 Z-1.56
X66.647 Y123.245 Z-1.549
X66.804 Y123.031 Z-1.537
X66.969 Y122.812 Z-1.523
X67.149 Y122.586 Z-1.506
X67.338 Y122.359 Z-1.487
X67.509 Y122.165 Z-1.468
X67.591 Y122.075 Z-1.459
X67.757 Y121.902 Z-1.438
X67.96 Y121.702 Z-1.412
X68.188 Y121.491 Z-1.383
X68.42 Y121.289 Z-1.355
X68.662 Y121.091 Z-1.327
X68.864 Y120.933 Z-1.306
X68.944 Y120.873 Z-1.298
X69.173 Y120.704 Z-1.277
X69.407 Y120.538 Z-1.257
X69.647 Y120.374 Z-1.239
X69.896 Y120.207 Z-1.222
X70.083 Y120.087 Z-1.21
X70.576 Y119.815 Z-1.149
X71.037 Y119.57 Z-1.095
X71.343 Y119.411 Z-1.059
X71.46 Y119.358 Z-1.052
X71.902 Y119.167 Z-1.025
X72.151 Y119.063 Z-1.009
X72.4 Y118.962 Z-0.992
X72.659 Y118.861 Z-0.972
X72.925 Y118.763 Z-0.952
X73.215 Y118.664 Z-0.929
X73.506 Y118.572 Z-0.905
X73.802 Y118.488 Z-0.88
X74.103 Y118.41 Z-0.855
X74.28 Y118.369 Z-0.84
X74.567 Y118.308 Z-0.818
X74.847 Y118.256 Z-0.799
X75.128 Y118.21 Z-0.783
X75.408 Y118.17 Z-0.768
X75.689 Y118.136 Z-0.756
X76.019 Y118.102 Z-0.742
X76.353 Y118.072 Z-0.732
X76.768 Y118.041 Z-0.721
X77.335 Y118.007 Z-0.711
X77.846 Y117.997 Z-0.684
X77.906 Y117.999 Z-0.683
X78.382 Y118.017 Z-0.68
X78.732 Y118.034 Z-0.675
X79.153 Y118.062 Z-0.666
X79.418 Y118.084 Z-0.659
X79.788 Y118.122 Z-0.646
X80.103 Y118.162 Z-0.633
X80.276 Y118.186 Z-0.627
X80.642 Y118.244 Z-0.613
X81.06 Y118.318 Z-0.6
X81.492 Y118.4 Z-0.589
X82.027 Y118.526 Z-0.564
X82.394 Y118.615 Z-0.548
X82.754 Y118.707 Z-0.531
X82.959 Y118.762 Z-0.521
X83.286 Y118.867 Z-0.518
X83.63 Y118.984 Z-0.512
X83.974 Y119.109 Z-0.504
X84.143 Y119.174 Z-0.501
X84.455 Y119.301 Z-0.496
X84.658 Y119.388
X84.829 Y119.466
X85.001 Y119.546 Z-0.499
X85.277 Y119.682 Z-0.506
X85.411 Y119.751 Z-0.512
X85.813 Y119.373 Z0
X85.411 Y119.751 Z-0.512
X85.565 Y119.93 Z-0.435
X85.737 Y120.133 Z-0.352
X85.951 Y120.387 Z-0.253
X86.265 Y120.763 Z-0.116
X86.302 Y120.808 Z-0.1
X86.422 Y120.831 Z-0.001
X86.302 Y120.808 Z-0.1
X86.313 Y120.936 Z0
G0 Z5
X137.095 Y125.364
G1 Z-1.51 F850
X137.069 Y125.693 Z-1.506
X137.036 Y126.197 Z-1.501
Y126.555 Z-1.48
X137.039 Y126.871 Z-1.461
X137.046 Y127.223 Z-1.438
X137.054 Y127.422 Z-1.423
X137.063 Y127.567 Z-1.413
X137.096 Y127.88 Z-1.394
X137.12 Y128.056 Z-1.381
X137.145 Y128.222 Z-1.365
X137.187 Y128.457 Z-1.339
X137.218 Y128.606 Z-1.321
X137.286 Y128.895 Z-1.282
X137.34 Y129.106 Z-1.254
X137.394 Y129.294 Z-1.228
X137.496 Y129.62 Z-1.186
X137.568 Y129.829 Z-1.16
X137.657 Y130.078 Z-1.134
X137.781 Y130.345 Z-1.088
X137.943 Y130.674 Z-1.034
X138.107 Y130.987 Z-0.984
X138.275 Y131.289 Z-0.931
X138.413 Y131.523 Z-0.884
X138.44 Y131.566 Z-0.876
X138.533 Y131.699 Z-0.853
X138.64 Y131.843 Z-0.827
X138.793 Y132.035 Z-0.788
X138.868 Y132.125 Z-0.768
X138.963 Y132.235 Z-0.743
X139.049 Y132.33 Z-0.721
X139.233 Y132.522 Z-0.676
X139.337 Y132.624 Z-0.653
X139.439 Y132.719 Z-0.632
X139.561 Y132.827 Z-0.61
X139.704 Y132.948 Z-0.588
X139.757 Y132.99 Z-0.58
X139.959 Y133.147 Z-0.557
X140.118 Y133.265 Z-0.542
X140.27 Y133.359 Z-0.52
X140.477 Y133.483 Z-0.492
X140.782 Y133.659 Z-0.453
X140.862 Y133.7 Z-0.446
X141.141 Y133.83 Z-0.431
X141.323 Y133.911 Z-0.421
X141.531 Y134 Z-0.41
X141.771 Y134.092 Z-0.398
X141.895 Y134.135 Z-0.393
X142.034 Y134.18 Z-0.387
X142.255 Y134.242 Z-0.38
X142.409 Y134.279 Z-0.377
X142.583 Y134.315 Z-0.375
X142.671 Y134.33 Z-0.373
X142.918 Y134.368
X143.043 Y134.384
X143.287 Y134.409 Z-0.375
X143.553 Y134.431 Z-0.377
X143.759 Y134.445 Z-0.378
X143.845 Y134.447 Z-0.381
X144.252 Y134.444 Z-0.409
X144.543 Y134.437 Z-0.43
X144.819 Y134.41 Z-0.44
X144.971 Y134.392 Z-0.447
X145.122 Y134.373 Z-0.456
X145.357 Y134.337 Z-0.475
X145.424 Y134.325 Z-0.48
X145.631 Y134.285 Z-0.502
X145.732 Y134.263 Z-0.514
X145.902 Y134.223 Z-0.537
X146.183 Y134.147 Z-0.579
X146.454 Y134.062 Z-0.623
X146.664 Y133.99 Z-0.659
X146.876 Y133.91 Z-0.694
X147.006 Y133.859 Z-0.715
X147.136 Y133.806 Z-0.735
X147.259 Y133.753 Z-0.753
X147.347 Y133.713 Z-0.767
X147.432 Y133.666 Z-0.785
X147.573 Y133.584 Z-0.817
X147.746 Y133.478 Z-0.853
X147.936 Y133.354 Z-0.889
X148.135 Y133.214 Z-0.925
X148.319 Y133.077 Z-0.956
X148.51 Y132.926 Z-0.989
X148.7 Y132.766 Z-1.022
X148.862 Y132.619 Z-1.052
X149.002 Y132.486 Z-1.081
X149.149 Y132.341 Z-1.114
X149.291 Y132.193 Z-1.149
X149.519 Y131.943 Z-1.213
X149.672 Y131.767 Z-1.259
X149.715 Y131.717 Z-1.273
X149.861 Y131.49 Z-1.299
X149.973 Y131.311 Z-1.321
X150.143 Y131.03 Z-1.357
X150.234 Y130.876 Z-1.376
X150.383 Y130.613 Z-1.407
X150.439 Y130.51 Z-1.42
X150.54 Y130.299 Z-1.451
X150.646 Y130.068 Z-1.482
X150.73 Y129.872 Z-1.503
X150.81 Y129.674 Z-1.522
X150.88 Y129.483 Z-1.534
X150.923 Y129.357 Z-1.54
X150.979 Y129.178 Z-1.546
X151.032 Y128.992 Z-1.548
X151.083 Y128.787
X151.132 Y128.568 Z-1.545
X151.18 Y128.327 Z-1.539
X151.22 Y128.09 Z-1.534
X151.256 Y127.847 Z-1.528
X151.285 Y127.619 Z-1.523
X151.312 Y127.37 Z-1.517
X151.35 Y126.943 Z-1.512
X151.37 Y126.67 Z-1.51
X151.366 Y126.244 Z-1.48
X151.356 Y125.793 Z-1.451
X151.341 Y125.392 Z-1.423
X151.326 Y125.111 Z-1.403
X151.306 Y124.865 Z-1.388
X151.278 Y124.575 Z-1.368
X151.246 Y124.297 Z-1.345
X151.207 Y124.023 Z-1.32
X151.164 Y123.764 Z-1.292
X151.113 Y123.512 Z-1.262
X151.055 Y123.268 Z-1.228
X150.988 Y123.027 Z-1.19
X150.909 Y122.78 Z-1.148
X150.858 Y122.638 Z-1.121
X150.816 Y122.527 Z-1.101
X150.758 Y122.381 Z-1.073
X150.67 Y122.175 Z-1.033
X150.59 Y122.001 Z-1
X150.534 Y121.887 Z-0.977
X150.409 Y121.646 Z-0.931
X150.28 Y121.413 Z-0.888
X150.141 Y121.177 Z-0.847
X149.967 Y120.901 Z-0.8
X149.876 Y120.763 Z-0.777
X149.741 Y120.562 Z-0.746
X149.589 Y120.342 Z-0.714
X149.448 Y120.143 Z-0.685
X149.108 Y119.763 Z-0.576
X148.95 Y119.591 Z-0.527
X148.904 Y119.546 Z-0.517
X148.844 Y119.494 Z-0.508
X148.569 Y119.266 Z-0.476
X148.423 Y119.149 Z-0.458
X148.235 Y119.002 Z-0.437
X148.124 Y118.919 Z-0.424
X147.973 Y118.809 Z-0.408
X147.783 Y118.679 Z-0.39
X147.653 Y118.595 Z-0.377
X147.485 Y118.493 Z-0.363
X147.315 Y118.398 Z-0.353
X147.135 Y118.306 Z-0.342
X147.08 Y118.28 Z-0.341
X146.956 Y118.226 Z-0.335
X146.771 Y118.152 Z-0.33
X146.588 Y118.087 Z-0.328
X146.405 Y118.032 Z-0.325
X146.236 Y117.987 Z-0.326
X146.043 Y117.941 Z-0.327
X145.799 Y117.891 Z-0.331
X145.676 Y117.87 Z-0.332
X145.498 Y117.842 Z-0.335
X145.14 Y117.794 Z-0.34
X144.789 Y117.754 Z-0.345
X144.732 Y117.75 Z-0.346
X144.654 Y117.748 Z-0.353
X144.165 Y117.757 Z-0.408
X143.667 Y117.775 Z-0.468
X143.541 Y117.782 Z-0.484
X143.321 Y117.813 Z-0.497
X143.167 Y117.836 Z-0.508
X142.916 Y117.879 Z-0.528
X142.656 Y117.929 Z-0.552
X142.438 Y117.978 Z-0.577
X142.391 Y117.99 Z-0.582
X142.133 Y118.058 Z-0.618
X141.922 Y118.123 Z-0.649
X141.762 Y118.178 Z-0.678
X141.591 Y118.243 Z-0.707
X141.531 Y118.268 Z-0.72
X141.309 Y118.365 Z-0.764
X141.073 Y118.483 Z-0.814
X140.877 Y118.593 Z-0.857
X140.722 Y118.689 Z-0.891
X140.593 Y118.775 Z-0.918
X140.544 Y118.809 Z-0.93
X140.371 Y118.936 Z-0.966
X140.16 Y119.107 Z-1.01
X139.964 Y119.278 Z-1.05
X139.792 Y119.437 Z-1.084
X139.685 Y119.54 Z-1.106
X139.42 Y119.807 Z-1.158
X139.239 Y119.997 Z-1.193
X139.076 Y120.171 Z-1.223
X138.975 Y120.285 Z-1.246
X138.892 Y120.39 Z-1.272
X138.748 Y120.579 Z-1.323
X138.542 Y120.934 Z-1.361
X138.281 Y121.399 Z-1.41
X138.132 Y121.675 Z-1.438
X137.993 Y121.948 Z-1.463
X137.857 Y122.228 Z-1.486
X137.797 Y122.36 Z-1.497
X137.704 Y122.574 Z-1.512
X137.603 Y122.827 Z-1.525
X137.546 Y122.985 Z-1.532
X137.48 Y123.184 Z-1.537
X137.402 Y123.456 Z-1.539
X137.362 Y123.611 Z-1.54
X137.31 Y123.84 Z-1.538
X137.258 Y124.099 Z-1.534
X137.204 Y124.424 Z-1.528
X137.162 Y124.732 Z-1.522
X137.126 Y125.048 Z-1.516
X137.095 Y125.364 Z-1.51
G0 Z5
X215.295 Y126.198
G1 Z-1.501 F850
Y126.561 Z-1.48
X215.298 Y126.867 Z-1.462
X215.306 Y127.223 Z-1.438
X215.313 Y127.422 Z-1.422
X215.322 Y127.567 Z-1.413
X215.339 Y127.735 Z-1.404
X215.374 Y128.02 Z-1.384
X215.406 Y128.232 Z-1.364
X215.435 Y128.395 Z-1.346
X215.478 Y128.61 Z-1.321
X215.545 Y128.895 Z-1.282
X215.592 Y129.077 Z-1.257
X215.645 Y129.268 Z-1.232
X215.707 Y129.47 Z-1.205
X215.767 Y129.655 Z-1.181
X215.83 Y129.838 Z-1.159
X215.918 Y130.081 Z-1.134
X216.029 Y130.32 Z-1.092
X216.121 Y130.511 Z-1.061
X216.284 Y130.832 Z-1.009
X216.433 Y131.109 Z-0.963
X216.534 Y131.287 Z-0.931
X216.677 Y131.529 Z-0.883
X216.701 Y131.568 Z-0.876
X216.792 Y131.699 Z-0.853
X216.895 Y131.836 Z-0.829
X217.047 Y132.029 Z-0.789
X217.132 Y132.131 Z-0.766
X217.218 Y132.229 Z-0.744
X217.309 Y132.33 Z-0.721
X217.492 Y132.521 Z-0.676
X217.596 Y132.624 Z-0.652
X217.698 Y132.719 Z-0.632
X217.819 Y132.827 Z-0.61
X217.963 Y132.947 Z-0.588
X218.016 Y132.99 Z-0.58
X218.218 Y133.147 Z-0.557
X218.377 Y133.265 Z-0.542
X218.529 Y133.359 Z-0.52
X218.736 Y133.483 Z-0.492
X219.041 Y133.659 Z-0.453
X219.121 Y133.7 Z-0.446
X219.4 Y133.83 Z-0.431
X219.581 Y133.911 Z-0.421
X219.79 Y133.999 Z-0.41
X220.015 Y134.086 Z-0.399
X220.156 Y134.136 Z-0.393
X220.293 Y134.18 Z-0.388
X220.514 Y134.242 Z-0.38
X220.669 Y134.279 Z-0.377
X220.908 Y134.327 Z-0.374
X221.048 Y134.349 Z-0.373
X221.292 Y134.383
X221.427 Y134.398 Z-0.374
X221.667 Y134.419 Z-0.376
X222.018 Y134.445 Z-0.378
X222.104 Y134.447 Z-0.381
X222.511 Y134.444 Z-0.409
X222.802 Y134.437 Z-0.43
X223.08 Y134.41 Z-0.44
X223.336 Y134.379 Z-0.453
X223.38 Y134.373 Z-0.456
X223.616 Y134.337 Z-0.474
X223.685 Y134.325 Z-0.48
X223.891 Y134.285 Z-0.502
X223.991 Y134.263 Z-0.514
X224.16 Y134.223 Z-0.537
X224.296 Y134.187 Z-0.556
X224.442 Y134.147 Z-0.579
X224.713 Y134.062 Z-0.623
X224.923 Y133.99 Z-0.659
X225.133 Y133.911 Z-0.694
X225.269 Y133.857 Z-0.715
X225.395 Y133.806 Z-0.735
X225.518 Y133.753 Z-0.753
X225.606 Y133.713 Z-0.767
X225.691 Y133.666 Z-0.785
X225.828 Y133.586 Z-0.816
X226.005 Y133.478 Z-0.853
X226.241 Y133.322 Z-0.897
X226.395 Y133.214 Z-0.924
X226.58 Y133.077 Z-0.956
X226.802 Y132.9 Z-0.994
X226.972 Y132.754 Z-1.024
X227.152 Y132.591 Z-1.059
X227.342 Y132.408 Z-1.1
X227.408 Y132.341 Z-1.114
X227.55 Y132.193 Z-1.149
X227.778 Y131.943 Z-1.213
X227.931 Y131.767 Z-1.26
X227.974 Y131.717 Z-1.274
X228.135 Y131.467 Z-1.302
X228.322 Y131.164 Z-1.34
X228.488 Y130.884 Z-1.375
X228.647 Y130.604 Z-1.408
X228.724 Y130.457 Z-1.428
X228.816 Y130.263 Z-1.456
X228.905 Y130.068 Z-1.481
X228.99 Y129.872 Z-1.503
X229.072 Y129.666 Z-1.522
X229.143 Y129.475 Z-1.535
X229.182 Y129.36 Z-1.541
X229.238 Y129.181 Z-1.546
X229.291 Y128.992 Z-1.548
X229.342 Y128.787
X229.394 Y128.56 Z-1.544
X229.437 Y128.335 Z-1.54
X229.481 Y128.082 Z-1.533
X229.514 Y127.855 Z-1.528
X229.545 Y127.61 Z-1.522
X229.572 Y127.37 Z-1.518
X229.596 Y127.103 Z-1.513
X229.628 Y126.696 Z-1.51
X229.63 Y126.67
X229.626 Y126.253 Z-1.481
X229.616 Y125.818 Z-1.452
X229.609 Y125.605 Z-1.438
X229.601 Y125.4 Z-1.424
X229.585 Y125.104 Z-1.402
X229.566 Y124.865 Z-1.388
X229.538 Y124.575 Z-1.368
X229.505 Y124.297 Z-1.345
X229.467 Y124.025 Z-1.32
X229.423 Y123.762 Z-1.292
X229.372 Y123.512 Z-1.262
X229.314 Y123.268 Z-1.228
X229.247 Y123.027 Z-1.191
X229.168 Y122.78 Z-1.148
X229.117 Y122.637 Z-1.121
X229.076 Y122.527 Z-1.102
X229.02 Y122.387 Z-1.074
X228.932 Y122.181 Z-1.034
X228.848 Y122 Z-1
X228.795 Y121.892 Z-0.978
X228.667 Y121.642 Z-0.93
X228.539 Y121.413 Z-0.888
X228.4 Y121.177 Z-0.847
X228.226 Y120.901 Z-0.8
X228.135 Y120.763 Z-0.777
X228 Y120.562 Z-0.746
X227.848 Y120.342 Z-0.714
X227.707 Y120.143 Z-0.686
X227.368 Y119.763 Z-0.576
X227.211 Y119.592 Z-0.527
X227.163 Y119.545 Z-0.517
X227.104 Y119.494 Z-0.508
X226.828 Y119.266 Z-0.476
X226.682 Y119.149 Z-0.458
X226.494 Y119.002 Z-0.437
X226.269 Y118.835 Z-0.412
X226.23 Y118.808 Z-0.408
X226.041 Y118.678 Z-0.39
X225.911 Y118.594 Z-0.377
X225.744 Y118.493 Z-0.364
X225.574 Y118.398 Z-0.353
X225.395 Y118.307 Z-0.342
X225.338 Y118.28 Z-0.341
X225.215 Y118.226 Z-0.335
X225.03 Y118.152 Z-0.33
X224.848 Y118.087 Z-0.328
X224.665 Y118.032 Z-0.325
X224.495 Y117.987 Z-0.326
