%
(1001)
(Harolyn_ z0 stock top)
(T7  D=16 CR=0 TAPER=45deg - ZMIN=-1.733 - chamfer mill)
G90 G94
G17
G21
G28 G91 Z0
G90

(Harolyn)
M9
T7 M6
S6000 M3
G54
M9
G0 X118.638 Y27.855
Z15
Z5
G1 Z0 F850
X118.956 Y28.183 Z-0.318
X118.638 Y28.501 Z0
X118.956 Y28.183 Z-0.318
X119.393 Y28.19 Z-0.311
X119.826 Y28.192 Z-0.3
X120.049 Y28.195 Z-0.296
X120.277 Y28.201
X120.409 Y28.208 Z-0.299
X120.63 Y28.223 Z-0.309
X120.673 Y28.227 Z-0.312
X120.873 Y28.249 Z-0.328
X121 Y28.267 Z-0.343
X121.127 Y28.288 Z-0.361
X121.261 Y28.314 Z-0.384
X121.394 Y28.344 Z-0.411
X121.529 Y28.378 Z-0.442
X121.689 Y28.423 Z-0.483
X121.915 Y28.493 Z-0.549
X122.055 Y28.539 Z-0.593
X122.38 Y28.653 Z-0.701
X122.462 Y28.684 Z-0.731
X122.548 Y28.72 Z-0.766
X122.632 Y28.761 Z-0.805
X122.716 Y28.805 Z-0.849
X122.802 Y28.855 Z-0.897
X122.887 Y28.908 Z-0.95
X122.971 Y28.966 Z-1.006
X123.1 Y29.061 Z-1.1
X123.226 Y29.165 Z-1.202
X123.476 Y29.38 Z-1.415
X123.85 Y29.702 Z-1.733
X124.251 Y29.346 Z-1.372
X124.38 Y29.239 Z-1.264
X124.533 Y29.123 Z-1.147
X124.628 Y29.057 Z-1.082
X124.773 Y28.964 Z-0.991
X124.994 Y28.835 Z-0.863
X125.134 Y28.759 Z-0.788
X125.254 Y28.698 Z-0.729
X125.359 Y28.649 Z-0.681
X125.498 Y28.591 Z-0.624
X125.608 Y28.55 Z-0.584
X125.739 Y28.505 Z-0.541
X125.875 Y28.462 Z-0.5
X126.019 Y28.42 Z-0.46
X126.066 Y28.407 Z-0.448
X126.2 Y28.378 Z-0.422
X126.469 Y28.326 Z-0.374
X126.643 Y28.295 Z-0.348
X126.789 Y28.273 Z-0.329
X126.948 Y28.252 Z-0.314
X127.102 Y28.237 Z-0.303
X127.252 Y28.226 Z-0.297
X127.461 Y28.215 Z-0.294
X127.673 Y28.208 Z-0.295
X127.993 Y28.201 Z-0.3
X128.555 Y28.188 Z-0.313
X128.868 Y27.86 Z0
X128.555 Y28.188 Z-0.313
X128.868 Y28.501 Z0
X128.555 Y28.188 Z-0.313
X127.993 Y28.201 Z-0.3
X127.673 Y28.208 Z-0.295
X127.461 Y28.215 Z-0.294
X127.252 Y28.226 Z-0.297
X127.102 Y28.237 Z-0.303
X126.948 Y28.252 Z-0.314
X126.789 Y28.273 Z-0.329
X126.643 Y28.295 Z-0.348
X126.469 Y28.326 Z-0.374
X126.2 Y28.378 Z-0.422
X126.066 Y28.407 Z-0.448
X126.019 Y28.42 Z-0.46
X125.875 Y28.462 Z-0.5
X125.739 Y28.505 Z-0.541
X125.608 Y28.55 Z-0.584
X125.498 Y28.591 Z-0.624
X125.359 Y28.649 Z-0.681
X125.254 Y28.698 Z-0.729
X125.134 Y28.759 Z-0.788
X124.994 Y28.835 Z-0.863
X124.773 Y28.964 Z-0.991
X124.628 Y29.057 Z-1.082
X124.533 Y29.123 Z-1.147
X124.38 Y29.239 Z-1.264
X124.251 Y29.346 Z-1.372
X123.85 Y29.702 Z-1.733
X123.861 Y30.115 Z-1.682
X123.871 Y30.468 Z-1.643
X123.884 Y30.948 Z-1.598
X123.893 Y31.326 Z-1.57
X123.901 Y31.762 Z-1.543
X123.906 Y32.296 Z-1.518
X123.903 Y32.83 Z-1.497
X123.895 Y33.356 Z-1.481
X123.886 Y33.952 Z-1.471
X123.877 Y34.495 Z-1.469
X123.864 Y35.284 Z-1.471
X123.863 Y35.426 Z-1.472
Y40.543
X123.865 Y40.685 Z-1.474
X123.874 Y40.827 Z-1.483
X123.889 Y40.969 Z-1.498
X123.909 Y41.111 Z-1.518
X123.936 Y41.252 Z-1.545
X123.968 Y41.394 Z-1.577
X123.936 Y41.536 Z-1.545
X123.909 Y41.678 Z-1.518
X123.889 Y41.82 Z-1.498
X123.874 Y41.962 Z-1.483
X123.865 Y42.104 Z-1.474
X123.863 Y42.246 Z-1.472
Y46.383
X123.869 Y47.237 Z-1.461
X123.871 Y47.654 Z-1.459
X123.873 Y48.238 Z-1.461
X123.872 Y48.709 Z-1.469
X123.871 Y48.998 Z-1.477
X123.866 Y49.469 Z-1.497
X123.863 Y49.751 Z-1.513
X123.854 Y50.209 Z-1.546
X123.849 Y50.414 Z-1.564
X123.842 Y50.632 Z-1.585
X123.829 Y50.997 Z-1.623
X123.808 Y51.467 Z-1.677
X123.804 Y51.584 Z-1.693
X123.413 Y51.915 Z-1.364
X123.186 Y52.106 Z-1.175
X123.06 Y52.207 Z-1.075
X122.943 Y52.293 Z-0.991
X122.825 Y52.37 Z-0.914
X122.709 Y52.439 Z-0.847
X122.591 Y52.5 Z-0.787
X122.498 Y52.543 Z-0.745
X122.357 Y52.598 Z-0.691
X122.092 Y52.696 Z-0.597
X121.862 Y52.776 Z-0.521
X121.74 Y52.815 Z-0.484
X121.618 Y52.851 Z-0.45
X121.491 Y52.886 Z-0.417
X121.363 Y52.917 Z-0.389
X121.237 Y52.944 Z-0.365
X121.116 Y52.966 Z-0.345
X120.948 Y52.991 Z-0.324
X120.882 Y53 Z-0.317
X120.713 Y53.017 Z-0.304
X120.565 Y53.029 Z-0.297
X120.441 Y53.036 Z-0.293
X120.23 Y53.044 Z-0.292
X120.008 Y53.049 Z-0.295
X119.303 Y53.059 Z-0.309
X118.954 Y53.065 Z-0.316
X118.638 Y53.393 Z0
X118.954 Y53.065 Z-0.316
X118.638 Y52.75 Z0
X118.954 Y53.065 Z-0.316
X119.303 Y53.059 Z-0.309
X120.008 Y53.049 Z-0.295
X120.23 Y53.044 Z-0.292
X120.441 Y53.036 Z-0.293
X120.565 Y53.029 Z-0.297
X120.713 Y53.017 Z-0.304
X120.882 Y53 Z-0.317
X120.948 Y52.991 Z-0.324
X121.116 Y52.966 Z-0.345
X121.237 Y52.944 Z-0.365
X121.363 Y52.917 Z-0.389
X121.491 Y52.886 Z-0.417
X121.618 Y52.851 Z-0.45
X121.74 Y52.815 Z-0.484
X121.862 Y52.776 Z-0.521
X122.092 Y52.696 Z-0.597
X122.357 Y52.598 Z-0.691
X122.498 Y52.543 Z-0.745
X122.591 Y52.5 Z-0.787
X122.709 Y52.439 Z-0.847
X122.825 Y52.37 Z-0.914
X122.943 Y52.293 Z-0.991
X123.06 Y52.207 Z-1.075
X123.186 Y52.106 Z-1.175
X123.413 Y51.915 Z-1.364
X123.804 Y51.584 Z-1.693
X124.026 Y51.767 Z-1.508
X124.193 Y51.902 Z-1.374
X124.406 Y52.066 Z-1.212
X124.516 Y52.146 Z-1.132
X124.678 Y52.257 Z-1.022
X124.785 Y52.327 Z-0.953
X124.888 Y52.391 Z-0.89
X124.989 Y52.449 Z-0.833
X125.128 Y52.524 Z-0.759
X125.275 Y52.597 Z-0.688
X125.377 Y52.643 Z-0.643
X125.514 Y52.702 Z-0.585
X125.724 Y52.787 Z-0.503
X125.795 Y52.813 Z-0.479
X125.865 Y52.834 Z-0.458
X125.937 Y52.853 Z-0.441
X126.015 Y52.868 Z-0.427
X126.393 Y52.93 Z-0.372
X126.592 Y52.96 Z-0.347
X126.797 Y52.987 Z-0.326
X127.008 Y53.009 Z-0.31
X127.222 Y53.026 Z-0.3
X127.435 Y53.038 Z-0.295
X127.649 Y53.047 Z-0.294
X127.883 Y53.053 Z-0.297
X128.252 Y53.058 Z-0.307
X128.503 Y53.063 Z-0.313
X128.554 Y53.064 Z-0.314
X128.868 Y52.75 Z0
X128.554 Y53.064 Z-0.314
X128.867 Y53.391 Z-0.001
X128.554 Y53.064 Z-0.314
X128.503 Y53.063 Z-0.313
X128.252 Y53.058 Z-0.307
X127.883 Y53.053 Z-0.297
X127.649 Y53.047 Z-0.294
X127.435 Y53.038 Z-0.295
X127.222 Y53.026 Z-0.3
X127.008 Y53.009 Z-0.31
X126.797 Y52.987 Z-0.326
X126.592 Y52.96 Z-0.347
X126.393 Y52.93 Z-0.372
X126.015 Y52.868 Z-0.427
X125.937 Y52.853 Z-0.441
X125.865 Y52.834 Z-0.458
X125.795 Y52.813 Z-0.479
X125.724 Y52.787 Z-0.503
X125.514 Y52.702 Z-0.585
X125.377 Y52.643 Z-0.643
X125.275 Y52.597 Z-0.688
X125.128 Y52.524 Z-0.759
X124.989 Y52.449 Z-0.833
X124.888 Y52.391 Z-0.89
X124.785 Y52.327 Z-0.953
X124.678 Y52.257 Z-1.022
X124.516 Y52.146 Z-1.132
X124.406 Y52.066 Z-1.212
X124.193 Y51.902 Z-1.374
X124.026 Y51.767 Z-1.508
X123.804 Y51.584 Z-1.693
X123.808 Y51.467 Z-1.677
X123.829 Y50.997 Z-1.623
X123.842 Y50.632 Z-1.585
X123.849 Y50.414 Z-1.564
X123.854 Y50.209 Z-1.546
X123.863 Y49.751 Z-1.513
X123.866 Y49.469 Z-1.497
X123.871 Y48.998 Z-1.477
X123.872 Y48.709 Z-1.469
X123.873 Y48.238 Z-1.461
X123.871 Y47.654 Z-1.459
X123.869 Y47.237 Z-1.461
X123.863 Y46.383 Z-1.472
Y42.246
X123.865 Y42.104 Z-1.474
X123.874 Y41.962 Z-1.483
X123.889 Y41.82 Z-1.498
X123.909 Y41.678 Z-1.518
X123.936 Y41.536 Z-1.545
X123.968 Y41.394 Z-1.577
X124.326 Z-1.269
X124.543 Z-1.095
X124.646 Z-1.017
X124.746 Z-0.945
X124.843 Z-0.879
X124.938 Z-0.819
X125.03 Z-0.766
X125.121 Z-0.719
X125.21 Z-0.68
X125.298 Z-0.648
X125.385 Z-0.624
X125.472 Z-0.609
X125.558 Z-0.602
X127.362 Y41.395 Z-0.549
X128.447 Z-0.521
X129.373 Z-0.503
X130.256 Z-0.491
X131.341 Z-0.481
X132.494 Z-0.476
X134.228 Z-0.474
X135.88 Z-0.48
X136.781 Z-0.488
X137.654 Y41.396 Z-0.502
X138.368 Z-0.519
X139.198 Z-0.543
X140.3 Y41.395 Z-0.582
X140.894 Y41.394 Z-0.605
X140.979 Z-0.617
X141.023 Z-0.626
X141.109 Z-0.65
X141.197 Z-0.682
X141.286 Z-0.721
X141.376 Z-0.768
X141.468 Z-0.821
X141.562 Z-0.881
X141.659 Z-0.947
X141.758 Z-1.019
X141.967 Z-1.18
X142.191 Z-1.366
X142.434 Z-1.576
X142.466 Y41.536 Z-1.544
X142.492 Y41.678 Z-1.518
X142.513 Y41.82 Z-1.497
X142.527 Y41.962 Z-1.483
X142.536 Y42.104 Z-1.474
X142.539 Y42.246 Z-1.471
Y45.798
X142.537 Y46.27
X142.531 Y47.329 Z-1.476
X142.527 Y47.839 Z-1.482
X142.52 Y48.438 Z-1.494
X142.514 Y48.891 Z-1.507
X142.505 Y49.44 Z-1.529
X142.49 Y50.228 Z-1.569
X142.475 Y51.021 Z-1.615
X142.473 Y51.241 Z-1.631
Y51.394 Z-1.649
X142.472 Y51.598 Z-1.678
X142.622 Y51.725 Z-1.552
X142.741 Y51.823 Z-1.455
X142.895 Y51.944 Z-1.334
X143.06 Y52.068 Z-1.212
X143.146 Y52.129 Z-1.151
X143.28 Y52.221 Z-1.06
X143.387 Y52.29 Z-0.992
X143.542 Y52.385 Z-0.899
X143.69 Y52.469 Z-0.816
X143.806 Y52.53 Z-0.756
X143.95 Y52.603 Z-0.684
X144.141 Y52.695 Z-0.595
X144.266 Y52.752 Z-0.539
X144.344 Y52.782 Z-0.51
X144.422 Y52.808 Z-0.486
X144.502 Y52.83 Z-0.465
X144.625 Y52.856 Z-0.441
X144.88 Y52.908 Z-0.394
X145.061 Y52.942 Z-0.364
X145.248 Y52.972 Z-0.338
X145.438 Y52.997 Z-0.317
X145.622 Y53.015 Z-0.304
X145.801 Y53.028 Z-0.296
X145.975 Y53.037 Z-0.292
X146.223 Y53.045
X146.474 Y53.049 Z-0.297
X146.86 Y53.054 Z-0.305
X147.448 Y53.065 Z-0.316
X147.763 Y53.393 Z-0.001
X147.448 Y53.065 Z-0.316
X147.764 Y52.75 Z0
X147.448 Y53.065 Z-0.316
X146.86 Y53.054 Z-0.305
X146.474 Y53.049 Z-0.297
X146.223 Y53.045 Z-0.292
X145.975 Y53.037
X145.801 Y53.028 Z-0.296
X145.622 Y53.015 Z-0.304
X145.438 Y52.997 Z-0.317
X145.248 Y52.972 Z-0.338
X145.061 Y52.942 Z-0.364
X144.88 Y52.908 Z-0.394
X144.625 Y52.856 Z-0.441
X144.502 Y52.83 Z-0.465
X144.422 Y52.808 Z-0.486
X144.344 Y52.782 Z-0.51
X144.266 Y52.752 Z-0.539
X144.141 Y52.695 Z-0.595
X143.95 Y52.603 Z-0.684
X143.806 Y52.53 Z-0.756
X143.69 Y52.469 Z-0.816
X143.542 Y52.385 Z-0.899
X143.387 Y52.29 Z-0.992
X143.28 Y52.221 Z-1.06
X143.146 Y52.129 Z-1.151
X143.06 Y52.068 Z-1.212
X142.895 Y51.944 Z-1.334
X142.741 Y51.823 Z-1.455
X142.622 Y51.725 Z-1.552
X142.472 Y51.598 Z-1.678
X142.263 Y51.772 Z-1.504
X142.125 Y51.882 Z-1.394
X141.971 Y52 Z-1.278
X141.808 Y52.117 Z-1.162
X141.699 Y52.193 Z-1.087
X141.591 Y52.263 Z-1.018
X141.429 Y52.361 Z-0.921
X141.281 Y52.445 Z-0.839
X141.186 Y52.496 Z-0.789
X141.034 Y52.572 Z-0.715
X140.877 Y52.646 Z-0.643
X140.707 Y52.722 Z-0.568
X140.65 Y52.747 Z-0.545
X140.592 Y52.769 Z-0.523
X140.496 Y52.801 Z-0.493
X140.37 Y52.832 Z-0.463
X140.077 Y52.896 Z-0.405
X139.904 Y52.931 Z-0.374
X139.722 Y52.963 Z-0.346
X139.555 Y52.987 Z-0.326
X139.445 Y53.001 Z-0.315
X139.259 Y53.018 Z-0.303
X139.095 Y53.03 Z-0.296
X138.928 Y53.038 Z-0.293
X138.684 Y53.045 Z-0.294
X138.148 Y53.055 Z-0.305
X137.629 Y53.065 Z-0.315
X137.314 Y53.392 Z0
X137.629 Y53.065 Z-0.315
X137.314 Y52.75 Z0
X137.629 Y53.065 Z-0.315
X138.148 Y53.055 Z-0.305
X138.684 Y53.045 Z-0.294
X138.928 Y53.038 Z-0.293
X139.095 Y53.03 Z-0.296
X139.259 Y53.018 Z-0.303
X139.445 Y53.001 Z-0.315
X139.555 Y52.987 Z-0.326
X139.722 Y52.963 Z-0.346
X139.904 Y52.931 Z-0.374
X140.077 Y52.896 Z-0.405
X140.37 Y52.832 Z-0.463
X140.496 Y52.801 Z-0.493
X140.592 Y52.769 Z-0.523
X140.65 Y52.747 Z-0.545
X140.707 Y52.722 Z-0.568
X140.877 Y52.646 Z-0.643
X141.034 Y52.572 Z-0.715
X141.186 Y52.496 Z-0.789
X141.281 Y52.445 Z-0.839
X141.429 Y52.361 Z-0.921
X141.591 Y52.263 Z-1.018
X141.699 Y52.193 Z-1.087
X141.808 Y52.117 Z-1.162
X141.971 Y52 Z-1.278
X142.125 Y51.882 Z-1.394
X142.263 Y51.772 Z-1.504
X142.472 Y51.598 Z-1.678
X142.473 Y51.394 Z-1.649
Y51.241 Z-1.631
X142.475 Y51.021 Z-1.615
X142.49 Y50.228 Z-1.569
X142.505 Y49.44 Z-1.529
X142.514 Y48.891 Z-1.507
X142.52 Y48.438 Z-1.494
X142.527 Y47.839 Z-1.482
X142.531 Y47.329 Z-1.476
X142.537 Y46.27 Z-1.471
X142.539 Y45.798
Y42.246
X142.536 Y42.104 Z-1.474
X142.527 Y41.962 Z-1.483
X142.513 Y41.82 Z-1.497
X142.492 Y41.678 Z-1.518
X142.466 Y41.536 Z-1.544
X142.434 Y41.394 Z-1.576
X142.466 Y41.252 Z-1.544
X142.492 Y41.111 Z-1.518
X142.513 Y40.969 Z-1.497
X142.527 Y40.827 Z-1.483
X142.536 Y40.685 Z-1.474
X142.539 Y40.543 Z-1.471
Y35.775
X142.534 Y35.177 Z-1.467
X142.526 Y34.383 Z-1.464
X142.521 Y33.841 Z-1.466
X142.517 Y33.291 Z-1.474
X142.514 Y32.74 Z-1.489
X142.512 Y32.249 Z-1.509
Y31.907 Z-1.527
X142.513 Y31.529 Z-1.552
X142.517 Y31.051 Z-1.588
X142.528 Y30.483 Z-1.64
X142.536 Y30.13 Z-1.675
X142.539 Y29.862 Z-1.708
X142.538 Y29.704 Z-1.73
X142.308 Y29.511 Z-1.538
X142.149 Y29.383 Z-1.411
X141.998 Y29.268 Z-1.297
X141.86 Y29.168 Z-1.197
X141.718 Y29.069 Z-1.1
X141.588 Y28.985 Z-1.016
X141.482 Y28.919 Z-0.951
X141.334 Y28.833 Z-0.866
X141.184 Y28.751 Z-0.786
X141.074 Y28.694 Z-0.73
X140.873 Y28.595 Z-0.633
X140.698 Y28.512 Z-0.553
X140.634 Y28.486 Z-0.528
X140.558 Y28.459 Z-0.502
X140.481 Y28.436 Z-0.48
X140.394 Y28.415 Z-0.46
X140.072 Y28.348 Z-0.399
X139.89 Y28.313 Z-0.368
X139.704 Y28.282 Z-0.341
X139.532 Y28.258 Z-0.322
X139.421 Y28.245 Z-0.312
X139.238 Y28.229 Z-0.301
X139.06 Y28.217 Z-0.295
X138.889 Y28.21 Z-0.293
X138.638 Y28.203 Z-0.295
X137.629 Y28.186 Z-0.315
X137.315 Y27.858 Z-0.001
X137.629 Y28.186 Z-0.315
X137.314 Y28.501 Z0
X137.629 Y28.186 Z-0.315
X138.638 Y28.203 Z-0.295
X138.889 Y28.21 Z-0.293
X139.06 Y28.217 Z-0.295
X139.238 Y28.229 Z-0.301
X139.421 Y28.245 Z-0.312
X139.532 Y28.258 Z-0.322
X139.704 Y28.282 Z-0.341
X139.89 Y28.313 Z-0.368
X140.072 Y28.348 Z-0.399
X140.394 Y28.415 Z-0.46
X140.481 Y28.436 Z-0.48
X140.558 Y28.459 Z-0.502
X140.634 Y28.486 Z-0.528
X140.698 Y28.512 Z-0.553
X140.873 Y28.595 Z-0.633
X141.074 Y28.694 Z-0.73
X141.184 Y28.751 Z-0.786
X141.334 Y28.833 Z-0.866
X141.482 Y28.919 Z-0.951
X141.588 Y28.985 Z-1.016
X141.718 Y29.069 Z-1.1
X141.86 Y29.168 Z-1.197
X141.998 Y29.268 Z-1.297
X142.149 Y29.383 Z-1.411
X142.308 Y29.511 Z-1.538
X142.538 Y29.704 Z-1.73
X143.126 Y29.194 Z-1.22
X143.24 Y29.098 Z-1.125
X143.348 Y29.015 Z-1.042
X143.457 Y28.937 Z-0.966
X143.565 Y28.868 Z-0.897
X143.675 Y28.805 Z-0.835
X143.783 Y28.749 Z-0.78
X143.892 Y28.7 Z-0.732
X144.042 Y28.642 Z-0.676
X144.329 Y28.535 Z-0.571
X144.457 Y28.49 Z-0.528
X144.602 Y28.442 Z-0.482
X144.765 Y28.393 Z-0.435
X144.854 Y28.368 Z-0.413
X144.984 Y28.336 Z-0.383
X145.108 Y28.309 Z-0.358
X145.228 Y28.287 Z-0.339
X145.346 Y28.269 Z-0.323
X145.461 Y28.254 Z-0.31
X145.639 Y28.236 Z-0.297
X145.773 Y28.225 Z-0.29
X145.897 Y28.218 Z-0.287
X146.106 Y28.21 Z-0.286
X146.308 Y28.206 Z-0.289
X146.95 Y28.197 Z-0.304
X147.45 Y28.187 Z-0.314
X147.764 Y28.501 Z0
X147.45 Y28.187 Z-0.314
X147.764 Y27.858 Z0
G0 Z5
X185.59 Y34.472
G1 Z-1.531 F850
X185.632 Y34.233 Z-1.535
X185.689 Y33.957 Z-1.538
X185.726 Y33.797 Z-1.54
X185.783 Y33.579 Z-1.539
X185.861 Y33.318 Z-1.535
X185.91 Y33.172 Z-1.532
X185.986 Y32.963 Z-1.523
X186.091 Y32.705 Z-1.508
X186.161 Y32.546 Z-1.497
X186.264 Y32.324 Z-1.48
X186.376 Y32.094 Z-1.459
X186.511 Y31.834 Z-1.435
X186.653 Y31.57 Z-1.408
X186.797 Y31.313 Z-1.381
X187.087 Y30.807 Z-1.327
X187.112 Y30.764 Z-1.323
X187.256 Y30.575 Z-1.272
X187.339 Y30.471 Z-1.246
X187.44 Y30.357 Z-1.223
X187.609 Y30.176 Z-1.191
X187.782 Y29.995 Z-1.158
X187.963 Y29.811 Z-1.123
X188.132 Y29.646 Z-1.089
X188.221 Y29.562 Z-1.072
X188.394 Y29.405 Z-1.037
X188.565 Y29.258 Z-1.002
X188.772 Y29.094 Z-0.958
X188.956 Y28.961 Z-0.919
X189.085 Y28.875 Z-0.892
X189.27 Y28.762 Z-0.851
X189.492 Y28.64 Z-0.802
X189.691 Y28.542 Z-0.76
X189.751 Y28.515 Z-0.747
X189.954 Y28.429 Z-0.708
X190.017 Y28.404 Z-0.696
X190.224 Y28.329 Z-0.659
X190.366 Y28.283 Z-0.638
X190.544 Y28.231 Z-0.611
X190.757 Y28.175 Z-0.582
X190.874 Y28.147 Z-0.569
X191.056 Y28.108 Z-0.549
X191.307 Y28.059 Z-0.525
X191.556 Y28.018 Z-0.505
X191.906 Y27.968 Z-0.484
X192.149 Y27.956 Z-0.453
X192.448 Y27.945 Z-0.418
X192.778 Y27.937 Z-0.381
X193.039 Y27.933 Z-0.351
X193.096 Y27.935 Z-0.346
X193.153 Y27.94 Z-0.344
X193.508 Y27.98 Z-0.34
X193.689 Y28.003 Z-0.337
X193.889 Y28.031 Z-0.335
X194.164 Y28.077 Z-0.33
X194.239 Y28.092 Z-0.329
X194.432 Y28.132 Z-0.327
X194.611 Y28.175 Z-0.326
X194.782 Y28.221
X194.981 Y28.283 Z-0.328
X195.201 Y28.362 Z-0.332
X195.349 Y28.424 Z-0.336
X195.5 Y28.493 Z-0.342
X195.531 Y28.508 Z-0.344
X195.704 Y28.597 Z-0.354
X195.916 Y28.718 Z-0.37
X196.036 Y28.793 Z-0.379
X196.196 Y28.897 Z-0.394
X196.374 Y29.021 Z-0.412
X196.599 Y29.187 Z-0.437
X196.795 Y29.341 Z-0.46
X196.937 Y29.455 Z-0.476
X197.21 Y29.681 Z-0.509
X197.267 Y29.731 Z-0.517
X197.314 Y29.777 Z-0.527
X197.359 Y29.825 Z-0.54
X197.679 Y30.178 Z-0.642
X197.811 Y30.328 Z-0.685
X197.975 Y30.56 Z-0.718
X198.146 Y30.809 Z-0.756
X198.331 Y31.087 Z-0.8
X198.393 Y31.184 Z-0.816
X198.53 Y31.406 Z-0.854
X198.668 Y31.64 Z-0.896
X198.818 Y31.915 Z-0.947
X198.921 Y32.119 Z-0.986
X198.953 Y32.186 Z-1
X199.034 Y32.361 Z-1.033
X199.074 Y32.451 Z-1.051
X199.141 Y32.614 Z-1.082
X199.181 Y32.713 Z-1.101
X199.238 Y32.867 Z-1.129
X199.273 Y32.966 Z-1.148
X199.351 Y33.211 Z-1.19
X199.419 Y33.454 Z-1.228
X199.477 Y33.698 Z-1.262
X199.528 Y33.95 Z-1.292
X199.551 Y34.086 Z-1.306
X199.572 Y34.211 Z-1.32
X199.61 Y34.482 Z-1.345
X199.65 Y34.834 Z-1.373
X199.671 Y35.061 Z-1.389
X199.696 Y35.381 Z-1.408
X199.714 Y35.795 Z-1.438
X199.722 Y36.021 Z-1.453
X199.731 Y36.456 Z-1.482
X199.733 Y36.873 Z-1.51
X199.714 Y37.137 Z-1.511
X199.676 Y37.559 Z-1.517
X199.645 Y37.84 Z-1.523
X199.614 Y38.076 Z-1.529
X199.578 Y38.312 Z-1.535
X199.536 Y38.556 Z-1.541
X199.491 Y38.781 Z-1.545
X199.437 Y39.014 Z-1.548
X199.382 Y39.228
X199.325 Y39.423 Z-1.544
X199.287 Y39.544 Z-1.541
X199.225 Y39.723 Z-1.531
X199.158 Y39.9 Z-1.519
X199.082 Y40.087 Z-1.501
X198.997 Y40.283 Z-1.478
X198.904 Y40.485 Z-1.451
X198.803 Y40.697 Z-1.42
X198.748 Y40.798 Z-1.407
X198.673 Y40.93 Z-1.392
X198.506 Y41.217 Z-1.356
X198.321 Y41.523 Z-1.318
X198.132 Y41.821 Z-1.282
X198.079 Y41.902 Z-1.274
X198.013 Y41.98 Z-1.252
X197.825 Y42.194 Z-1.196
X197.757 Y42.268 Z-1.177
X197.621 Y42.415 Z-1.141
X197.447 Y42.594 Z-1.099
X197.257 Y42.776 Z-1.059
X197.192 Y42.836 Z-1.045
X197.048 Y42.965 Z-1.019
X196.874 Y43.112 Z-0.988
X196.682 Y43.264 Z-0.956
X196.489 Y43.408 Z-0.923
X196.301 Y43.539 Z-0.889
X196.071 Y43.687 Z-0.845
X195.914 Y43.783 Z-0.812
X195.795 Y43.852 Z-0.784
X195.711 Y43.898 Z-0.767
X195.621 Y43.939 Z-0.752
X195.493 Y43.994 Z-0.734
X195.236 Y44.097 Z-0.693
X194.958 Y44.2 Z-0.646
X194.693 Y44.288 Z-0.602
X194.525 Y44.339 Z-0.575
X194.252 Y44.412 Z-0.535
X194.072 Y44.454 Z-0.511
X193.918 Y44.486 Z-0.493
X193.721 Y44.522 Z-0.474
X193.612 Y44.54 Z-0.465
X193.441 Y44.564 Z-0.453
X193.317 Y44.58 Z-0.446
X193.029 Y44.611 Z-0.434
X192.888 Y44.623 Z-0.429
X192.528 Y44.631 Z-0.403
X192.206 Y44.633 Z-0.381
X192.119 Y44.63 Z-0.378
X191.718 Y44.601 Z-0.376
X191.521 Y44.582 Z-0.374
X191.27 Y44.552 Z-0.373
X191.031 Y44.515
X190.886 Y44.488 Z-0.375
X190.753 Y44.46 Z-0.377
X190.579 Y44.418 Z-0.382
X190.386 Y44.362 Z-0.388
X190.221 Y44.308 Z-0.394
X190.001 Y44.227 Z-0.405
X189.769 Y44.132 Z-0.417
X189.544 Y44.034 Z-0.429
X189.326 Y43.933 Z-0.441
X189.226 Y43.885 Z-0.446
X189.137 Y43.839 Z-0.454
X188.793 Y43.64 Z-0.498
X188.614 Y43.532 Z-0.523
X188.482 Y43.451 Z-0.543
X188.324 Y43.334 Z-0.557
X188.203 Y43.241 Z-0.57
X188.015 Y43.089 Z-0.595
X187.885 Y42.978 Z-0.617
X187.779 Y42.883 Z-0.636
X187.655 Y42.764 Z-0.663
X187.504 Y42.612 Z-0.698
X187.401 Y42.503 Z-0.724
X187.296 Y42.385 Z-0.751
X187.145 Y42.206 Z-0.791
X187.073 Y42.116 Z-0.81
X186.924 Y41.921 Z-0.846
X186.858 Y41.83 Z-0.862
X186.782 Y41.714 Z-0.884
X186.696 Y41.572 Z-0.912
X186.617 Y41.434 Z-0.938
X186.472 Y41.174 Z-0.983
X186.371 Y40.983 Z-1.014
X186.213 Y40.672 Z-1.065
X186.062 Y40.353 Z-1.118
X186.022 Y40.265 Z-1.134
X185.983 Y40.161 Z-1.144
X185.872 Y39.841 Z-1.181
X185.803 Y39.625 Z-1.209
X185.747 Y39.441 Z-1.233
X185.697 Y39.262 Z-1.258
X185.65 Y39.081 Z-1.282
X185.582 Y38.792 Z-1.321
X185.551 Y38.643 Z-1.339
X185.507 Y38.397 Z-1.366
X185.5 Y38.349 Z-1.371
X185.462 Y38.076 Z-1.394
X185.46 Y38.056 Z-1.396
X185.427 Y37.745 Z-1.414
X185.417 Y37.577 Z-1.425
X185.408 Y37.319 Z-1.444
X185.403 Y37.03 Z-1.463
X185.4 Y36.683 Z-1.484
Y36.382 Z-1.501
X185.433 Y35.878 Z-1.506
X185.459 Y35.55 Z-1.51
X185.49 Y35.234 Z-1.516
X185.526 Y34.918 Z-1.523
X185.546 Y34.765 Z-1.526
X185.584 Y34.509 Z-1.531
X185.59 Y34.472
G0 Z5
X151.636 Y42.669
G1 Z0 F850
X152.297 Y42.291 Z-0.656
X152.23 Y41.925 Z-0.584
X152.146 Y41.469 Z-0.496
X152.02 Y40.804 Z-0.379
X152.254 Y40.349 Z-0.001
X152.02 Y40.804 Z-0.379
X151.637 Y40.515 Z-0.001
X152.02 Y40.804 Z-0.379
X152.146 Y41.469 Z-0.496
X152.23 Y41.925 Z-0.584
X152.297 Y42.291 Z-0.656
X152.75 Y42.811 Z-0.428
X152.809 Y42.874 Z-0.402
X152.87 Y42.932 Z-0.382
X152.934 Y42.985 Z-0.367
X153.001 Y43.034 Z-0.358
X153.07 Y43.077 Z-0.355
X153.181 Y43.142 Z-0.354
X153.422 Y43.28 Z-0.352
X153.612 Y43.385 Z-0.355
X153.753 Y43.46 Z-0.359
X153.948 Y43.556 Z-0.368
X154.094 Y43.624 Z-0.378
X154.347 Y43.735 Z-0.398
X154.601 Y43.839 Z-0.419
X154.785 Y43.905 Z-0.439
X154.993 Y43.974 Z-0.46
X155.137 Y44.018 Z-0.474
X155.363 Y44.082 Z-0.496
X155.533 Y44.125 Z-0.514
X155.76 Y44.177 Z-0.541
X155.983 Y44.222 Z-0.571
X156.289 Y44.265 Z-0.601
X156.47 Y44.287 Z-0.619
X156.553 Y44.294 Z-0.63
X156.794 Y44.308 Z-0.661
X156.948 Y44.314 Z-0.678
X157.101 Y44.316 Z-0.693
X157.26 Z-0.708
X157.509 Y44.309 Z-0.729
X157.681 Y44.301 Z-0.745
X157.914 Y44.285 Z-0.768
X158.163 Y44.254 Z-0.789
X158.366 Y44.223 Z-0.81
X158.571 Y44.187 Z-0.834
X158.737 Y44.152 Z-0.857
X158.841 Y44.128 Z-0.872
X159.049 Y44.074 Z-0.905
X159.216 Y44.024 Z-0.934
X159.424 Y43.953 Z-0.971
X159.6 Y43.884 Z-1.003
X159.629 Y43.872 Z-1.008
X159.826 Y43.783 Z-1.043
X159.865 Y43.764 Z-1.05
X160.012 Y43.687 Z-1.074
X160.189 Y43.587 Z-1.101
X160.219 Y43.569 Z-1.106
X160.437 Y43.433 Z-1.138
X160.68 Y43.272 Z-1.172
X160.97 Y43.071 Z-1.211
X161.04 Y43.019 Z-1.221
X161.135 Y42.945 Z-1.239
X161.231 Y42.844 Z-1.253
X161.303 Y42.761 Z-1.267
X161.403 Y42.641 Z-1.29
X161.553 Y42.455 Z-1.321
X161.678 Y42.292 Z-1.346
X161.779 Y42.147 Z-1.362
X161.855 Y42.027 Z-1.37
X161.92 Y41.911 Z-1.372
X161.992 Y41.763 Z-1.37
X162.071 Y41.583 Z-1.364
X162.143 Y41.399 Z-1.355
X162.197 Y41.246 Z-1.349
X162.281 Y40.989 Z-1.342
X162.323 Y40.773 Z-1.319
X162.352 Y40.606 Z-1.304
X162.391 Y40.355 Z-1.286
X162.417 Y40.162 Z-1.276
X162.445 Y39.928 Z-1.267
X162.478 Y39.592 Z-1.26
X162.493 Y39.398 Z-1.259
X162.517 Y39.048 Z-1.258
X162.534 Y38.716 Z-1.26
X162.544 Y38.491 Z-1.261
Y38.359 Z-1.267
X162.539 Y38.227 Z-1.279
X162.527 Y38.095 Z-1.296
X162.509 Y37.962 Z-1.319
X162.508 Y37.952 Z-1.321
X162.282 Z-1.111
X162.078 Z-0.927
X161.893 Z-0.766
X161.722 Z-0.626
X161.642 Z-0.564
X161.563 Z-0.507
X161.487 Z-0.456
X161.413 Z-0.41
X161.34 Z-0.371
X161.268 Z-0.339
X161.196 Z-0.314
X161.125 Z-0.298
X161.034 Y37.948 Z-0.286
X160.943 Y37.937 Z-0.282
X160.647 Y37.881 Z-0.287
X159.846 Y37.729 Z-0.301
X159.24 Y37.608 Z-0.313
X158.894 Y37.536 Z-0.321
X158.392 Y37.426 Z-0.335
X157.951 Y37.323 Z-0.35
X157.639 Y37.246 Z-0.362
X157.329 Y37.165 Z-0.376
X157.02 Y37.081 Z-0.391
X156.712 Y36.992 Z-0.408
X156.411 Y36.901 Z-0.427
X156.13 Y36.811 Z-0.446
X155.851 Y36.718 Z-0.466
X155.573 Y36.622 Z-0.486
X155.023 Y36.425 Z-0.53
X154.284 Y36.15 Z-0.59
X154.136 Y36.092 Z-0.604
X154.06 Y36.058 Z-0.616
X153.985 Y36.019 Z-0.633
X153.763 Y35.89 Z-0.693
X153.554 Y35.744 Z-0.734
X153.306 Y35.562 Z-0.785
X153.169 Y35.454 Z-0.814
X153.016 Y35.326 Z-0.849
X152.897 Y35.219 Z-0.875
X152.792 Y35.116 Z-0.899
X152.727 Y35.048 Z-0.914
X152.63 Y34.936 Z-0.935
X152.587 Y34.883 Z-0.945
X152.484 Y34.746 Z-0.968
X152.381 Y34.595 Z-0.995
X152.27 Y34.415 Z-1.026
X152.178 Y34.252 Z-1.057
X152.072 Y34.048 Z-1.099
X152.046 Y33.995 Z-1.111
X151.994 Y33.858 Z-1.129
X151.944 Y33.718 Z-1.149
X151.87 Y33.496 Z-1.182
X151.83 Y33.363 Z-1.202
X151.801 Y33.262 Z-1.218
X151.747 Y33.052 Z-1.248
X151.709 Y32.875 Z-1.27
X151.679 Y32.701 Z-1.286
X151.653 Y32.514 Z-1.298
X151.643 Y32.414 Z-1.303
X151.637 Y32.307 Z-1.312
X151.633 Y32.194 Z-1.321
X151.631 Y31.977 Z-1.339
X151.634 Y31.728 Z-1.359
X151.641 Y31.519 Z-1.378
X151.661 Y31.349 Z-1.384
X151.679 Y31.215 Z-1.391
X151.708 Y31.032 Z-1.402
X151.74 Y30.873 Z-1.413
X151.781 Y30.701 Z-1.426
X151.806 Y30.613 Z-1.432
X151.852 Y30.476 Z-1.439
X151.871 Y30.429 Z-1.44
X151.916 Y30.329
X151.982 Y30.204 Z-1.435
X152.077 Y30.046 Z-1.426
X152.14 Y29.95 Z-1.42
X152.256 Y29.784 Z-1.409
X152.375 Y29.625 Z-1.4
X152.498 Y29.505 Z-1.369
X152.659 Y29.354 Z-1.331
X152.749 Y29.271 Z-1.309
X152.845 Y29.189 Z-1.288
X152.942 Y29.115 Z-1.27
X153.032 Y29.053 Z-1.258
X153.205 Y28.945 Z-1.232
X153.304 Y28.889 Z-1.213
X153.407 Y28.835 Z-1.193
X153.523 Y28.779 Z-1.167
X153.645 Y28.725 Z-1.14
X153.734 Y28.689 Z-1.119
X153.862 Y28.641 Z-1.09
X153.912 Y28.624 Z-1.079
X154.044 Y28.58 Z-1.05
X154.192 Y28.536 Z-1.019
X154.343 Y28.497 Z-0.99
X154.498 Y28.462 Z-0.963
X154.644 Y28.433 Z-0.942
X154.782 Y28.41 Z-0.924
X154.919 Y28.39 Z-0.908
X155.142 Y28.369 Z-0.884
X155.313 Y28.359 Z-0.866
X155.439 Y28.356 Z-0.853
X155.558 Y28.357 Z-0.838
X155.689 Y28.363 Z-0.821
X155.933 Y28.379 Z-0.785
X155.998 Y28.389 Z-0.771
X156.092 Y28.409 Z-0.754
X156.216 Y28.439 Z-0.733
X156.33 Y28.472 Z-0.71
X156.45 Y28.511 Z-0.681
X156.615 Y28.57 Z-0.638
X156.809 Y28.645 Z-0.585
X156.949 Y28.703 Z-0.546
X157.2 Y28.813 Z-0.481
X157.431 Y28.921 Z-0.427
X157.575 Y28.992 Z-0.396
X157.697 Y29.055 Z-0.372
X157.915 Y29.174 Z-0.335
X158.041 Y29.246 Z-0.316
X158.257 Y29.375 Z-0.287
X158.466 Y29.505 Z-0.263
X158.77 Y29.698 Z-0.233
X158.915 Y29.793 Z-0.221
X159.256 Y30.046 Z-0.214
X159.6 Y30.305 Z-0.212
X159.83 Y30.484 Z-0.214
X160.06 Y30.669 Z-0.222
X160.287 Y30.86 Z-0.236
X160.51 Y31.056 Z-0.257
X160.728 Y31.253 Z-0.283
X160.781 Y31.298 Z-0.293
X160.843 Y31.344 Z-0.31
X160.904 Y31.383 Z-0.331
X160.975 Y31.423 Z-0.359
X161.043 Y31.456 Z-0.389
X161.121 Y31.489 Z-0.428
X161.197 Y31.517 Z-0.469
X161.279 Y31.543 Z-0.516
X161.362 Y31.565 Z-0.567
X161.458 Y31.585 Z-0.628
X161.549 Y31.601 Z-0.689
X161.654 Y31.616 Z-0.762
X161.751 Y31.626 Z-0.832
X161.851 Y31.633 Z-0.906
X161.955 Y31.638 Z-0.985
X162.063 Y31.639 Z-1.068
X162.26 Z-1.227
X162.488 Z-1.421
X162.512 Y31.745 Z-1.393
X162.534 Y31.859 Z-1.367
X162.553 Y31.98 Z-1.344
X162.566 Y32.094 Z-1.327
X162.577 Y32.221 Z-1.312
X162.582 Y32.335 Z-1.305
X162.583 Y32.475 Z-1.3
X162.576 Y33.155 Z-1.299
X162.571 Y34.076 Z-1.303
X162.568 Y35.017 Z-1.308
X162.562 Y35.826 Z-1.309
X162.555 Y36.492 Z-1.308
X162.563 Y37.166 Z-1.289
X162.564 Y37.433 Z-1.281
X162.563 Y37.457
X162.557 Y37.578 Z-1.283
X162.546 Y37.699 Z-1.29
X162.53 Y37.826 Z-1.303
X162.508 Y37.952 Z-1.321
X162.53 Y37.826 Z-1.303
X162.546 Y37.699 Z-1.29
X162.557 Y37.578 Z-1.283
X162.563 Y37.457 Z-1.281
X162.564 Y37.433
X162.563 Y37.166 Z-1.289
X162.555 Y36.492 Z-1.308
X162.562 Y35.826 Z-1.309
X162.568 Y35.017 Z-1.308
X162.571 Y34.076 Z-1.303
X162.576 Y33.155 Z-1.299
X162.583 Y32.475 Z-1.3
X162.582 Y32.335 Z-1.305
X162.577 Y32.221 Z-1.312
X162.566 Y32.094 Z-1.327
X162.553 Y31.98 Z-1.344
X162.534 Y31.859 Z-1.367
X162.512 Y31.745 Z-1.393
X162.488 Y31.639 Z-1.421
X162.524 Y31.504 Z-1.392
X162.551 Y31.385 Z-1.371
X162.572 Y31.272 Z-1.355
X162.591 Y31.146 Z-1.343
X162.604 Y31.033 Z-1.336
X162.614 Y30.922 Z-1.334
X162.63 Y30.576 Z-1.342
X162.668 Y29.847 Z-1.369
X162.694 Y29.342 Z-1.393
X162.339 Y28.975 Z-1.041
X161.895 Y28.51 Z-0.602
X161.353 Y27.938 Z-0.067
X161.287 Y27.867 Z-0.001
X161.353 Y27.938 Z-0.067
X161.895 Y28.51 Z-0.602
X162.339 Y28.975 Z-1.041
X162.694 Y29.342 Z-1.393
X162.938 Y29.129 Z-1.172
X163.059 Y29.03 Z-1.07
X163.179 Y28.941 Z-0.977
X163.296 Y28.862 Z-0.896
X163.414 Y28.79 Z-0.822
X163.535 Y28.725 Z-0.754
X163.763 Y28.607 Z-0.631
X163.852 Y28.562 Z-0.588
X163.968 Y28.507 Z-0.536
X164.063 Y28.466 Z-0.497
X164.162 Y28.427 Z-0.46
X164.251 Y28.395 Z-0.431
X164.351 Y28.364 Z-0.402
X164.443 Y28.339 Z-0.38
X164.528 Y28.319 Z-0.362
X164.648 Y28.297 Z-0.343
X164.733 Y28.284 Z-0.333
X164.829 Y28.272 Z-0.325
X164.958 Y28.26 Z-0.318
X165.131 Y28.249 Z-0.314
X165.263 Y28.243 Z-0.313
X165.875 Y28.227 Z-0.329
X166.105 Y28.22 Z-0.336
X166.441 Y28.555 Z0
X166.105 Y28.22 Z-0.336
X166.441 Y27.863 Z0
G0 Z5
X168.369 Y28.429
G1 Z0 F850
X168.659 Y28.163 Z-0.29
X168.37 Y27.86 Z-0.001
X168.659 Y28.163 Z-0.29
X168.896 Y28.178 Z-0.294
X169.903 Y28.24 Z-0.316
X169.965 Y28.244 Z-0.317
X170.191 Y28.256 Z-0.322
X170.375 Y28.27 Z-0.33
X170.506 Y28.282 Z-0.339
X170.645 Y28.3 Z-0.353
X170.789 Y28.322 Z-0.372
X170.892 Y28.342 Z-0.389
X171.032 Y28.373 Z-0.418
X171.178 Y28.409 Z-0.451
X171.41 Y28.475 Z-0.513
X171.519 Y28.507 Z-0.544
X171.62 Y28.544 Z-0.579
X171.719 Y28.587 Z-0.621
X171.821 Y28.638 Z-0.671
X171.921 Y28.695 Z-0.727
X172.034 Y28.768 Z-0.799
X172.2 Y28.882 Z-0.912
X172.459 Y29.065 Z-1.093
X172.648 Y29.203 Z-1.229
X172.826 Y29.339 Z-1.364
X173.005 Y29.481 Z-1.506
X173.227 Y29.291 Z-1.318
X173.389 Y29.161 Z-1.189
X173.546 Y29.043 Z-1.072
X173.66 Y28.962 Z-0.992
X173.769 Y28.889 Z-0.92
X173.912 Y28.8 Z-0.832
X174.033 Y28.731 Z-0.764
X174.172 Y28.659 Z-0.694
X174.274 Y28.61 Z-0.645
X174.42 Y28.544 Z-0.582
X174.537 Y28.494 Z-0.533
X174.626 Y28.459 Z-0.499
X174.716 Y28.43 Z-0.471
X174.781 Y28.413 Z-0.455
X174.845 Y28.398 Z-0.442
X175.212 Y28.327 Z-0.377
X175.406 Y28.292 Z-0.346
X175.606 Y28.259 Z-0.318
X175.809 Y28.231 Z-0.294
X176.012 Y28.208 Z-0.277
X176.211 Y28.19 Z-0.266
X176.404 Y28.177 Z-0.259
X176.594 Y28.168 Z-0.256
X176.871 Y28.158
X177.159 Y28.15 Z-0.259
X177.725 Y28.139 Z-0.27
X177.994 Y27.858 Z-0.001
X177.725 Y28.139 Z-0.27
X177.995 Y28.409 Z0
X177.725 Y28.139 Z-0.27
X177.159 Y28.15 Z-0.259
X176.871 Y28.158 Z-0.256
X176.594 Y28.168
X176.404 Y28.177 Z-0.259
X176.211 Y28.19 Z-0.266
X176.012 Y28.208 Z-0.277
X175.809 Y28.231 Z-0.294
X175.606 Y28.259 Z-0.318
X175.406 Y28.292 Z-0.346
X175.212 Y28.327 Z-0.377
X174.845 Y28.398 Z-0.442
X174.781 Y28.413 Z-0.455
X174.716 Y28.43 Z-0.471
X174.626 Y28.459 Z-0.499
X174.537 Y28.494 Z-0.533
X174.42 Y28.544 Z-0.582
X174.274 Y28.61 Z-0.645
X174.172 Y28.659 Z-0.694
X174.033 Y28.731 Z-0.764
X173.912 Y28.8 Z-0.832
X173.769 Y28.889 Z-0.92
X173.66 Y28.962 Z-0.992
X173.546 Y29.043 Z-1.072
X173.389 Y29.161 Z-1.189
X173.227 Y29.291 Z-1.318
X173.005 Y29.481 Z-1.506
X173.011 Y29.628 Z-1.482
X173.015 Y29.769 Z-1.464
X173.02 Y29.99 Z-1.439
Y30.188 Z-1.421
X173.018 Y30.421 Z-1.404
X173.012 Y30.657 Z-1.39
X173.004 Y30.975 Z-1.373
X172.996 Y31.539 Z-1.343
X172.994 Y31.914 Z-1.327
X172.993 Y32.289 Z-1.313
X172.994 Y32.708 Z-1.3
X172.998 Y33.236 Z-1.287
X173.004 Y34.037 Z-1.274
X173.01 Y35.087 Z-1.265
X173.015 Y35.664
X173.021 Y36.142 Z-1.268
X173.032 Y36.664 Z-1.277
X173.043 Y37.038 Z-1.286
X173.057 Y37.388 Z-1.296
X173.075 Y37.743 Z-1.309
X173.102 Y38.204 Z-1.331
X173.129 Y38.652 Z-1.357
X173.156 Y39.092 Z-1.389
X173.18 Y39.526 Z-1.423
X173.189 Y39.667 Z-1.439
X173.215 Y39.893 Z-1.475
X173.22 Y39.934 Z-1.482
X173.183 Y40.02 Z-1.451
X173.149 Y40.106 Z-1.421
X173.099 Y40.242 Z-1.381
X173.064 Y40.348 Z-1.355
X173.027 Y40.476 Z-1.329
X173 Y40.582 Z-1.311
X172.972 Y40.71 Z-1.296
X172.953 Y40.816 Z-1.288
X172.931 Y40.971 Z-1.284
X172.921 Y41.074 Z-1.286
X172.907 Y41.29 Z-1.3
X172.876 Y41.768 Z-1.341
X172.81 Y42.66 Z-1.425
X172.797 Y42.789 Z-1.44
X172.78 Y42.918 Z-1.46
X172.758 Y43.047 Z-1.485
X173 Y43.369 Z-1.249
X173.194 Y43.634 Z-1.061
X173.443 Y43.985 Z-0.819
X173.677 Y44.322 Z-0.592
X174.005 Y44.806 Z-0.273
X174.084 Y44.927 Z-0.194
X174.118 Y44.975 Z-0.157
X174.166 Y45.041 Z-0.1
X174.193 Y45.082 Z-0.063
X174.24 Y45.141 Z0
X174.193 Y45.082 Z-0.063
X174.166 Y45.041 Z-0.1
X174.118 Y44.975 Z-0.157
X174.084 Y44.927 Z-0.194
X174.005 Y44.806 Z-0.273
X173.677 Y44.322 Z-0.592
X173.443 Y43.985 Z-0.819
X173.194 Y43.634 Z-1.061
X173 Y43.369 Z-1.249
X172.758 Y43.047 Z-1.485
X172.698 Y43.075 Z-1.441
X172.559 Y43.136 Z-1.344
X172.416 Y43.194 Z-1.25
X172.284 Y43.241 Z-1.17
X172.153 Y43.283 Z-1.097
X172.013 Y43.32 Z-1.025
X171.732 Y43.388 Z-0.89
X171.517 Y43.436 Z-0.792
X171.355 Y43.47 Z-0.726
X171.212 Y43.496 Z-0.671
X171.143 Y43.506 Z-0.647
X171.018 Y43.523 Z-0.605
X170.898 Y43.535 Z-0.569
X170.781 Y43.544 Z-0.537
X170.645 Y43.55 Z-0.505
X170.5 Y43.552 Z-0.475
X170.366 Y43.55 Z-0.452
X170.191 Y43.542 Z-0.428
X170.022 Y43.531 Z-0.409
X169.786 Y43.511 Z-0.39
X169.537 Y43.49 Z-0.372
X169.128 Y43.461 Z-0.343
X168.683 Y43.432 Z-0.314
X168.369 Y43.709 Z0
X168.683 Y43.432 Z-0.314
X168.369 Y43.119 Z0
X168.683 Y43.432 Z-0.314
X169.128 Y43.461 Z-0.343
X169.537 Y43.49 Z-0.372
X169.786 Y43.511 Z-0.39
X170.022 Y43.531 Z-0.409
X170.191 Y43.542 Z-0.428
X170.366 Y43.55 Z-0.452
X170.5 Y43.552 Z-0.475
X170.645 Y43.55 Z-0.505
X170.781 Y43.544 Z-0.537
X170.898 Y43.535 Z-0.569
X171.018 Y43.523 Z-0.605
X171.143 Y43.506 Z-0.647
X171.212 Y43.496 Z-0.671
X171.355 Y43.47 Z-0.726
X171.517 Y43.436 Z-0.792
X171.732 Y43.388 Z-0.89
X172.013 Y43.32 Z-1.025
X172.153 Y43.283 Z-1.097
X172.284 Y43.241 Z-1.17
X172.416 Y43.194 Z-1.25
X172.559 Y43.136 Z-1.344
X172.698 Y43.075 Z-1.441
X172.758 Y43.047 Z-1.485
X172.78 Y42.918 Z-1.46
X172.797 Y42.789 Z-1.44
X172.81 Y42.66 Z-1.425
X172.876 Y41.768 Z-1.341
X172.907 Y41.29 Z-1.3
X172.921 Y41.074 Z-1.286
X172.931 Y40.971 Z-1.284
X172.953 Y40.816 Z-1.288
X172.972 Y40.71 Z-1.296
X173 Y40.582 Z-1.311
X173.027 Y40.476 Z-1.329
X173.064 Y40.348 Z-1.355
X173.099 Y40.242 Z-1.381
X173.149 Y40.106 Z-1.421
X173.183 Y40.02 Z-1.451
X173.22 Y39.934 Z-1.482
X173.358 Y39.97 Z-1.36
X173.567 Y40.03 Z-1.178
X173.775 Y40.098 Z-1.001
X173.946 Y40.162 Z-0.86
X174.113 Y40.234 Z-0.726
X174.262 Y40.307 Z-0.613
X174.395 Y40.382 Z-0.519
X174.496 Y40.447 Z-0.452
X174.564 Y40.496 Z-0.411
X174.627 Y40.546 Z-0.376
X174.668 Y40.581 Z-0.356
X174.723 Y40.633 Z-0.331
X174.759 Y40.669 Z-0.318
X174.807 Y40.723 Z-0.302
X174.888 Y40.823 Z-0.287
X175.027 Y40.988 Z-0.27
X175.116 Y41.09 Z-0.263
X175.265 Y41.254 Z-0.257
X175.419 Y41.417
X175.611 Y41.619 Z-0.264
X175.754 Y41.768 Z-0.274
X175.84 Y41.846 Z-0.29
X176.06 Y42.046 Z-0.333
X176.23 Y42.198 Z-0.371
X176.388 Y42.333 Z-0.412
X176.556 Y42.471 Z-0.46
X176.654 Y42.546 Z-0.49
X176.812 Y42.661 Z-0.543
X176.904 Y42.725 Z-0.576
X176.994 Y42.784 Z-0.609
X177.147 Y42.879 Z-0.666
X177.276 Y42.955 Z-0.715
X177.463 Y43.058 Z-0.787
X177.627 Y43.141 Z-0.849
X177.79 Y43.218 Z-0.908
X177.955 Y43.29 Z-0.964
X178.034 Y43.321 Z-0.991
X178.202 Y43.377 Z-1.052
X178.345 Y43.42 Z-1.103
X178.572 Y43.484 Z-1.185
X178.721 Y43.522 Z-1.24
X178.794 Y43.533 Z-1.262
X178.958 Y43.555 Z-1.311
X179.074 Y43.566 Z-1.347
X179.179 Y43.573 Z-1.378
X179.287 Y43.575 Z-1.409
X179.385 Y43.571 Z-1.434
X179.526 Y43.557 Z-1.468
X179.686 Y43.535 Z-1.505
X179.864 Y43.703 Z-1.35
X180.097 Y43.904 Z-1.145
X180.303 Y44.073 Z-0.964
X180.445 Y44.184 Z-0.838
X180.588 Y44.287 Z-0.712
X180.771 Y44.41 Z-0.548
X180.991 Y44.552 Z-0.35
X181.075 Y44.604 Z-0.275
X181.196 Y44.684 Z-0.163
X181.229 Y44.701 Z-0.131
X181.334 Y44.775 Z-0.011
X181.343 Y44.781 Z-0.001
X181.334 Y44.775 Z-0.011
X181.229 Y44.701 Z-0.131
X181.196 Y44.684 Z-0.163
X181.075 Y44.604 Z-0.275
X180.991 Y44.552 Z-0.35
X180.771 Y44.41 Z-0.548
X180.588 Y44.287 Z-0.712
X180.445 Y44.184 Z-0.838
X180.303 Y44.073 Z-0.964
X180.097 Y43.904 Z-1.145
X179.864 Y43.703 Z-1.35
X179.686 Y43.535 Z-1.505
X179.769 Y43.391 Z-1.406
X179.906 Y43.144 Z-1.243
X180.039 Y42.896 Z-1.087
X180.122 Y42.737 Z-0.99
X180.162 Y42.652 Z-0.943
X180.23 Y42.492 Z-0.863
X180.363 Y42.167 Z-0.709
X180.438 Y41.976 Z-0.624
X180.507 Y41.789 Z-0.547
X180.57 Y41.604 Z-0.477
X180.621 Y41.441 Z-0.42
X180.651 Y41.335 Z-0.387
X180.697 Y41.164 Z-0.336
X180.758 Y40.912 Z-0.269
X180.763 Y40.892 Z-0.264
X180.599 Y40.628 Z0
X180.763 Y40.892 Z-0.264
X181.021 Y40.628 Z0
G0 Z5
X203.946 Y27.857
G1 Z0 F850
X204.238 Y28.16 Z-0.292
X203.946 Y28.429 Z0
X204.238 Y28.16 Z-0.292
X205.311 Y28.223 Z-0.316
X205.556 Y28.235 Z-0.321
X205.694 Y28.245 Z-0.327
X205.839 Y28.259 Z-0.336
X205.994 Y28.279 Z-0.352
X206.101 Y28.296 Z-0.366
X206.246 Y28.325 Z-0.391
X206.321 Y28.343 Z-0.407
X206.44 Y28.375 Z-0.436
X206.542 Y28.407 Z-0.466
X206.679 Y28.455 Z-0.511
X206.823 Y28.512 Z-0.565
X206.98 Y28.58 Z-0.629
X207.198 Y28.68 Z-0.725
X207.313 Y28.737 Z-0.781
X207.422 Y28.8 Z-0.842
X207.532 Y28.87 Z-0.911
X207.641 Y28.948 Z-0.987
X207.752 Y29.034 Z-1.072
X207.86 Y29.126 Z-1.163
X208.247 Y29.478 Z-1.51
X208.669 Y29.103 Z-1.13
X208.747 Y29.038 Z-1.065
X208.858 Y28.954 Z-0.979
X208.992 Y28.862 Z-0.886
X209.071 Y28.812 Z-0.837
X209.15 Y28.765 Z-0.791
X209.23 Y28.723 Z-0.749
X209.359 Y28.662 Z-0.69
X209.574 Y28.572 Z-0.602
X209.732 Y28.51 Z-0.543
X209.874 Y28.459 Z-0.494
X209.964 Y28.43 Z-0.466
X210.064 Y28.401 Z-0.439
X210.192 Y28.368 Z-0.408
X210.285 Y28.348 Z-0.39
X210.428 Y28.322 Z-0.366
X210.531 Y28.307 Z-0.354
X210.682 Y28.289 Z-0.34
X210.824 Y28.276 Z-0.331
X211.022 Y28.263 Z-0.325
X211.232 Y28.251 Z-0.321
X211.872 Y28.202 Z-0.302
X212.255 Y28.171 Z-0.292
X212.547 Y27.862 Z0
X212.255 Y28.171 Z-0.292
X212.546 Y28.434 Z-0.001
X212.255 Y28.171 Z-0.292
X211.872 Y28.202 Z-0.302
X211.232 Y28.251 Z-0.321
X211.022 Y28.263 Z-0.325
X210.824 Y28.276 Z-0.331
X210.682 Y28.289 Z-0.34
X210.531 Y28.307 Z-0.354
X210.428 Y28.322 Z-0.366
X210.285 Y28.348 Z-0.39
X210.192 Y28.368 Z-0.408
X210.064 Y28.401 Z-0.439
X209.964 Y28.43 Z-0.466
X209.874 Y28.459 Z-0.494
X209.732 Y28.51 Z-0.543
X209.574 Y28.572 Z-0.602
X209.359 Y28.662 Z-0.69
X209.23 Y28.723 Z-0.749
X209.15 Y28.765 Z-0.791
X209.071 Y28.812 Z-0.837
X208.992 Y28.862 Z-0.886
X208.858 Y28.954 Z-0.979
X208.747 Y29.038 Z-1.065
X208.669 Y29.103 Z-1.13
X208.247 Y29.478 Z-1.51
X208.246 Y29.942 Z-1.464
Y30.488 Z-1.414
Y31.044 Z-1.37
Y31.328 Z-1.351
Y31.883 Z-1.322
Y32.178 Z-1.31
Y32.725 Z-1.294
X208.247 Y33.267 Z-1.285
Y33.913 Z-1.282
Y34.888 Z-1.287
X208.248 Y35.684 Z-1.296
X208.247 Y45.084 Z-1.298
X208.253 Y47.126 Z-1.314
X208.263 Y48.699 Z-1.332
Y49.169 Z-1.343
X208.266 Y49.99 Z-1.365
X208.274 Y51.09 Z-1.397
X208.281 Y51.329 Z-1.401
X208.283 Y51.494 Z-1.406
X208.282 Y51.66 Z-1.414
X208.277 Y51.827 Z-1.426
X208.268 Y51.995 Z-1.443
X208.256 Y52.155 Z-1.462
X208.243 Y52.277 Z-1.481
X208.227 Y52.412 Z-1.504
X208.205 Y52.56 Z-1.533
X208.427 Y52.846 Z-1.325
X208.533 Y52.983 Z-1.226
X208.933 Y53.513 Z-0.853
X209.316 Y54.03 Z-0.498
X209.743 Y54.612 Z-0.102
X209.757 Y54.727 Z-0.001
X209.743 Y54.612 Z-0.102
X209.848 Y54.663 Z0
X209.743 Y54.612 Z-0.102
X209.316 Y54.03 Z-0.498
X208.933 Y53.513 Z-0.853
X208.533 Y52.983 Z-1.226
X208.427 Y52.846 Z-1.325
X208.205 Y52.56 Z-1.533
X207.987 Y52.665 Z-1.37
X207.696 Y52.801 Z-1.161
X207.56 Y52.86 Z-1.069
X207.46 Y52.9 Z-1.006
X207.334 Y52.944 Z-0.932
X207.238 Y52.974 Z-0.88
X207.142 Y53 Z-0.833
X207.026 Y53.026 Z-0.781
X206.854 Y53.056 Z-0.716
X206.64 Y53.088 Z-0.641
X206.445 Y53.113 Z-0.579
X206.347 Y53.124 Z-0.551
X206.227 Y53.134 Z-0.519
X206.088 Y53.142 Z-0.488
X205.976 Y53.145 Z-0.466
X205.824 Y53.146 Z-0.441
X205.68 Y53.143 Z-0.423
X205.493 Y53.134 Z-0.404
X205.303 Y53.122 Z-0.39
X204.813 Y53.091 Z-0.36
X204.275 Y53.06 Z-0.329
X203.947 Y53.355 Z-0.001
X204.275 Y53.06 Z-0.329
X203.946 Y52.732 Z0
G0 Z5
X214.192 Y44.126
G1 Z0 F850
X214.457 Y44.39 Z-0.265
X214.192 Y44.671 Z0
X214.457 Y44.39 Z-0.265
X214.674 Y44.384 Z-0.258
X214.754 Y44.378 Z-0.259
X214.793 Y44.373 Z-0.262
X215.155 Y44.319 Z-0.297
X215.317 Y44.292 Z-0.316
X215.543 Y44.251 Z-0.347
X215.682 Y44.222 Z-0.371
X215.823 Y44.189 Z-0.399
X215.969 Y44.151 Z-0.433
X216.121 Y44.106 Z-0.473
X216.286 Y44.051 Z-0.525
X216.45 Y43.989 Z-0.583
X216.621 Y43.917 Z-0.652
X216.799 Y43.835 Z-0.731
X216.958 Y43.756 Z-0.808
X217.127 Y43.666 Z-0.895
X217.293 Y43.573 Z-0.986
X217.461 Y43.477 Z-1.085
X217.653 Y43.362 Z-1.202
X217.927 Y43.193 Z-1.376
X218.141 Y43.056 Z-1.516
X218.289 Y43.199 Z-1.375
X218.448 Y43.342 Z-1.235
X218.575 Y43.451 Z-1.128
X218.669 Y43.529 Z-1.052
X218.787 Y43.621 Z-0.962
X218.907 Y43.71 Z-0.876
X219.01 Y43.78 Z-0.807
X219.115 Y43.847 Z-0.743
X219.257 Y43.929 Z-0.663
X219.383 Y43.994 Z-0.601
X219.498 Y44.048 Z-0.549
X219.624 Y44.102 Z-0.498
X219.766 Y44.158 Z-0.446
X219.851 Y44.189 Z-0.417
X219.983 Y44.225 Z-0.384
X220.191 Y44.275 Z-0.339
X220.304 Y44.3 Z-0.318
X220.427 Y44.323 Z-0.298
X220.551 Y44.342 Z-0.282
X220.672 Y44.357 Z-0.271
X220.787 Y44.367 Z-0.264
X220.948 Y44.376 Z-0.26
X221.145 Y44.383 Z-0.259
X221.291 Y44.386 Z-0.26
X222.075 Y44.398 Z-0.273
X222.348 Y44.126 Z0
X222.075 Y44.398 Z-0.273
X222.347 Y44.679 Z-0.001
X222.075 Y44.398 Z-0.273
X221.291 Y44.386 Z-0.26
X221.145 Y44.383 Z-0.259
X220.948 Y44.376 Z-0.26
X220.787 Y44.367 Z-0.264
X220.672 Y44.357 Z-0.271
X220.551 Y44.342 Z-0.282
X220.427 Y44.323 Z-0.298
X220.304 Y44.3 Z-0.318
X220.191 Y44.275 Z-0.339
X219.983 Y44.225 Z-0.384
X219.851 Y44.189 Z-0.417
X219.766 Y44.158 Z-0.446
X219.624 Y44.102 Z-0.498
X219.498 Y44.048 Z-0.549
X219.383 Y43.994 Z-0.601
X219.257 Y43.929 Z-0.663
X219.115 Y43.847 Z-0.743
X219.01 Y43.78 Z-0.807
X218.907 Y43.71 Z-0.876
X218.787 Y43.621 Z-0.962
X218.669 Y43.529 Z-1.052
X218.575 Y43.451 Z-1.128
X218.448 Y43.342 Z-1.235
X218.289 Y43.199 Z-1.375
X218.141 Y43.056 Z-1.516
X218.158 Y42.98 Z-1.501
X218.186 Y42.866 Z-1.481
X218.274 Y42.558 Z-1.442
X218.342 Y42.34 Z-1.418
X218.412 Y42.123 Z-1.397
X218.469 Y41.962 Z-1.385
X218.522 Y41.816 Z-1.377
X218.596 Y41.62 Z-1.368
X218.933 Y40.775 Z-1.344
X219.408 Y39.592 Z-1.315
X219.66 Y38.95 Z-1.306
X220.203 Y37.574 Z-1.291
X220.568 Y36.656 Z-1.284
X220.935 Y35.741 Z-1.279
X221.306 Y34.824
X221.774 Y33.678 Z-1.283
X222.329 Y32.326 Z-1.294
X223.16 Y30.304 Z-1.317
X223.217 Y30.171 Z-1.321
X223.264 Y30.07 Z-1.329
X223.316 Y29.97 Z-1.34
X223.376 Y29.864 Z-1.357
X223.44 Y29.759 Z-1.379
X223.509 Y29.656 Z-1.405
X223.568 Y29.573 Z-1.43
X223.63 Y29.492 Z-1.457
X223.599 Y26.955 Z-0.506
X223.598 Y26.898 Z-0.485
X223.591 Y26.815 Z-0.459
X223.58 Y26.735 Z-0.437
X223.564 Y26.656 Z-0.42
X223.544 Y26.579 Z-0.407
X223.524 Y26.516 Z-0.4
X223.312 Y25.985 Z-0.384
X222.966 Y25.136 Z-0.361
X222.746 Y24.607 Z-0.35
X222.521 Y24.077 Z-0.342
X222.291 Y23.551 Z-0.338
X222.052 Y23.024 Z-0.34
X221.805 Y22.499 Z-0.347
X221.678 Y22.237 Z-0.354
X221.521 Y21.923 Z-0.364
X221.285 Y21.459 Z-0.382
X221.086 Y21.079 Z-0.4
X220.637 Y20.237 Z-0.443
X220.575 Y20.125 Z-0.452
X220.531 Y20.057 Z-0.462
X220.498 Y20.009 Z-0.471
X220.335 Y19.807 Z-0.494
X220.192 Y19.638 Z-0.515
X220.096 Y19.53 Z-0.529
X219.996 Y19.423 Z-0.544
X219.866 Y19.295 Z-0.562
X219.748 Y19.19 Z-0.578
X219.675 Y19.13 Z-0.587
X219.536 Y19.026 Z-0.603
X219.413 Y18.945 Z-0.618
X219.303 Y18.878 Z-0.633
X219.162 Y18.8 Z-0.653
X219.039 Y18.736 Z-0.673
X218.944 Y18.69 Z-0.69
X218.806 Y18.627 Z-0.715
X218.642 Y18.569 Z-0.736
X218.431 Y18.499 Z-0.764
X218.223 Y18.438 Z-0.792
X218.103 Y18.405 Z-0.806
X217.99 Y18.38 Z-0.821
X217.918 Y18.368 Z-0.831
X217.777 Y18.354 Z-0.855
X217.629 Y18.346 Z-0.877
X217.469 Y18.345 Z-0.899
X217.303 Y18.35 Z-0.923
X217.174 Y18.359 Z-0.943
X217.013 Y18.376 Z-0.972
X216.866 Y18.396 Z-1.002
X216.807 Y18.408 Z-1.012
X216.673 Y18.44 Z-1.036
X216.571 Y18.468 Z-1.054
X216.457 Y18.505 Z-1.072
X216.303 Y18.562 Z-1.094
X216.115 Y18.457 Z-0.944
X215.819 Y18.304 Z-0.704
X215.594 Y18.193 Z-0.522
X215.36 Y18.083 Z-0.329
X215.099 Y17.967 Z-0.112
X214.965 Y17.91 Z0
X215.099 Y17.967 Z-0.112
X215.36 Y18.083 Z-0.329
X215.594 Y18.193 Z-0.522
X215.819 Y18.304 Z-0.704
X216.115 Y18.457 Z-0.944
X216.303 Y18.562 Z-1.094
X216.267 Y18.652 Z-1.034
X216.189 Y18.871 Z-0.896
X216.084 Y19.18 Z-0.706
X216.007 Y19.422 Z-0.563
X215.941 Y19.649 Z-0.434
X215.899 Y19.806 Z-0.348
X215.832 Y20.085 Z-0.203
X215.787 Y20.287 Z-0.102
X215.833 Y20.389 Z0
X215.787 Y20.287 Z-0.102
X215.711 Y20.389 Z0
X215.787 Y20.287 Z-0.102
X215.832 Y20.085 Z-0.203
X215.899 Y19.806 Z-0.348
X215.941 Y19.649 Z-0.434
X216.007 Y19.422 Z-0.563
X216.084 Y19.18 Z-0.706
X216.189 Y18.871 Z-0.896
X216.267 Y18.652 Z-1.034
X216.303 Y18.562 Z-1.094
X216.457 Y18.505 Z-1.072
X216.571 Y18.468 Z-1.054
X216.673 Y18.44 Z-1.036
X216.807 Y18.408 Z-1.012
X216.866 Y18.396 Z-1.002
X217.013 Y18.376 Z-0.972
X217.174 Y18.359 Z-0.943
X217.303 Y18.35 Z-0.923
X217.469 Y18.345 Z-0.899
X217.629 Y18.346 Z-0.877
X217.777 Y18.354 Z-0.855
X217.918 Y18.368 Z-0.831
X217.99 Y18.38 Z-0.821
X218.103 Y18.405 Z-0.806
X218.223 Y18.438 Z-0.792
X218.431 Y18.499 Z-0.764
X218.642 Y18.569 Z-0.736
X218.806 Y18.627 Z-0.715
X218.944 Y18.69 Z-0.69
X219.039 Y18.736 Z-0.673
X219.162 Y18.8 Z-0.653
X219.303 Y18.878 Z-0.633
X219.413 Y18.945 Z-0.618
X219.536 Y19.026 Z-0.603
X219.675 Y19.13 Z-0.587
X219.748 Y19.19 Z-0.578
X219.866 Y19.295 Z-0.562
X219.996 Y19.423 Z-0.544
X220.096 Y19.53 Z-0.529
X220.192 Y19.638 Z-0.515
X220.335 Y19.807 Z-0.494
X220.498 Y20.009 Z-0.471
X220.531 Y20.057 Z-0.462
X220.575 Y20.125 Z-0.452
X220.637 Y20.237 Z-0.443
X221.086 Y21.079 Z-0.4
X221.285 Y21.459 Z-0.382
X221.521 Y21.923 Z-0.364
X221.678 Y22.237 Z-0.354
X221.805 Y22.499 Z-0.347
X222.052 Y23.024 Z-0.34
X222.291 Y23.551 Z-0.338
X222.521 Y24.077 Z-0.342
X222.746 Y24.607 Z-0.35
X222.966 Y25.136 Z-0.361
X223.312 Y25.985 Z-0.384
X223.524 Y26.516 Z-0.4
X223.544 Y26.579 Z-0.407
X223.564 Y26.656 Z-0.42
X223.58 Y26.735 Z-0.437
X223.591 Y26.815 Z-0.459
X223.598 Y26.898 Z-0.485
X223.599 Y26.955 Z-0.506
X223.63 Y29.492 Z-1.457
X223.771 Y29.535 Z-1.344
X223.925 Y29.586 Z-1.221
X224.068 Y29.64 Z-1.111
X224.202 Y29.697 Z-1.009
X224.329 Y29.756 Z-0.915
X224.449 Y29.819 Z-0.829
X224.561 Y29.885 Z-0.752
X224.665 Y29.955 Z-0.682
X224.762 Y30.027 Z-0.621
X224.852 Y30.103 Z-0.568
X224.934 Y30.181 Z-0.523
X225.008 Y30.263 Z-0.486
X225.075 Y30.348 Z-0.457
X225.133 Y30.434 Z-0.437
X225.184 Y30.522 Z-0.424
X225.228 Y30.613 Z-0.42
X225.772 Y31.869 Z-0.408
X226.271 Y33.019 Z-0.402
X226.701 Y34.015 Z-0.401
X227.249 Y35.296 Z-0.407
X227.586 Y36.094 Z-0.416
X227.845 Y36.704 Z-0.429
X228.335 Y37.867 Z-0.459
X228.695 Y38.724 Z-0.487
X228.997 Y39.442 Z-0.515
X229.256 Y40.052 Z-0.541
X229.599 Y40.853 Z-0.581
X229.689 Y41.059 Z-0.59
X229.824 Y41.372 Z-0.608
X229.947 Y41.666 Z-0.63
X230.036 Y41.886 Z-0.649
X230.112 Y42.08 Z-0.67
X230.227 Y42.393 Z-0.709
X230.339 Y42.709 Z-0.754
X230.375 Y42.826 Z-0.775
X230.403 Y42.935 Z-0.8
X230.426 Y43.047 Z-0.831
X230.442 Y43.161 Z-0.868
X230.453 Y43.258 Z-0.904
X230.459 Y43.354 Z-0.942
X230.462 Y43.538 Z-1.023
X230.617 Y43.624 Z-0.936
X230.859 Y43.748 Z-0.814
X231.013 Y43.824 Z-0.74
X231.188 Y43.905 Z-0.661
X231.353 Y43.974 Z-0.594
X231.488 Y44.026 Z-0.545
X231.65 Y44.083 Z-0.491
X231.77 Y44.122 Z-0.455
X231.958 Y44.181 Z-0.401
X232.094 Y44.218 Z-0.37
X232.274 Y44.262 Z-0.332
X232.416 Y44.294 Z-0.307
X232.555 Y44.32 Z-0.287
X232.667 Y44.338 Z-0.275
X232.779 Y44.352 Z-0.267
X232.916 Y44.366 Z-0.262
X233.118 Y44.382 Z-0.258
X233.17 Y44.384 Z-0.259
X233.29 Y44.388 Z-0.263
X233.552 Y44.669 Z-0.001
X233.29 Y44.388 Z-0.263
X233.553 Y44.126 Z0
X233.29 Y44.388 Z-0.263
X233.17 Y44.384 Z-0.259
X233.118 Y44.382 Z-0.258
X232.916 Y44.366 Z-0.262
X232.779 Y44.352 Z-0.267
X232.667 Y44.338 Z-0.275
X232.555 Y44.32 Z-0.287
X232.416 Y44.294 Z-0.307
X232.274 Y44.262 Z-0.332
X232.094 Y44.218 Z-0.37
X231.958 Y44.181 Z-0.401
X231.77 Y44.122 Z-0.455
X231.65 Y44.083 Z-0.491
X231.488 Y44.026 Z-0.545
X231.353 Y43.974 Z-0.594
X231.188 Y43.905 Z-0.661
X231.013 Y43.824 Z-0.74
X230.859 Y43.748 Z-0.814
X230.617 Y43.624 Z-0.936
X230.462 Y43.538 Z-1.023
X230.265 Y43.659 Z-0.904
X230.105 Y43.752 Z-0.813
X230.056 Y43.78 Z-0.786
X229.941 Y43.841 Z-0.726
X229.822 Y43.901 Z-0.668
X229.681 Y43.965 Z-0.606
X229.551 Y44.017 Z-0.556
X229.425 Y44.062 Z-0.513
X229.3 Y44.101 Z-0.477
X229.199 Y44.128 Z-0.452
X229.093 Y44.153 Z-0.429
X228.977 Y44.177 Z-0.409
X228.833 Y44.201 Z-0.389
X228.718 Y44.217 Z-0.376
X228.55 Y44.236 Z-0.363
X228.324 Y44.256 Z-0.352
X228.169 Y44.268 Z-0.346
X227.365 Y44.347 Z-0.306
X227.308 Y44.353 Z-0.304
X227.005 Y44.092 Z-0.001
X227.308 Y44.353 Z-0.304
X227.005 Y44.673 Z0
G0 Z5
X235.276 Y28.409
G1 Z0 F850
X235.544 Y28.141 Z-0.268
X235.277 Y27.86 Z-0.001
X235.544 Y28.141 Z-0.268
X236.109 Y28.154 Z-0.256
X236.415 Y28.16 Z-0.249
X236.664 Y28.164 Z-0.244
X236.838 Y28.171
X236.944 Y28.177 Z-0.246
X237.111 Y28.19 Z-0.254
X237.207 Y28.201 Z-0.262
X237.305 Y28.214 Z-0.272
X237.404 Y28.23 Z-0.285
X237.511 Y28.25 Z-0.303
X237.617 Y28.274 Z-0.324
X237.733 Y28.304 Z-0.352
X237.847 Y28.339 Z-0.384
X237.96 Y28.377 Z-0.42
X238.07 Y28.417 Z-0.458
X238.144 Y28.447 Z-0.486
X238.304 Y28.513 Z-0.55
X238.559 Y28.627 Z-0.661
X238.698 Y28.693 Z-0.725
X238.791 Y28.742 Z-0.773
X238.882 Y28.795 Z-0.825
X238.975 Y28.855 Z-0.884
X239.067 Y28.919 Z-0.948
X239.159 Y28.99 Z-1.017
X239.25 Y29.065 Z-1.091
X239.361 Y29.163 Z-1.188
X239.648 Y29.425 Z-1.451
X239.759 Y29.329 Z-1.357
X239.876 Y29.233 Z-1.262
X239.998 Y29.137 Z-1.168
X240.163 Y29.014 Z-1.046
X240.238 Y28.961 Z-0.995
X240.382 Y28.864 Z-0.899
X240.49 Y28.795 Z-0.831
X240.663 Y28.689 Z-0.728
X240.828 Y28.592 Z-0.633
X240.9 Y28.554 Z-0.597
X241.004 Y28.507 Z-0.552
X241.106 Y28.468 Z-0.514
X241.307 Y28.408 Z-0.458
X241.518 Y28.348 Z-0.403
X241.696 Y28.302 Z-0.361
X241.801 Y28.278 Z-0.339
X241.958 Y28.245 Z-0.311
X242.068 Y28.226 Z-0.295
X242.219 Y28.205 Z-0.278
X242.388 Y28.187 Z-0.265
X242.548 Y28.175 Z-0.258
X242.704 Y28.166 Z-0.255
X242.926 Y28.158 Z-0.254
X243.863 Y28.139 Z-0.27
X244.132 Y27.858 Z-0.001
X243.863 Y28.139 Z-0.27
X244.133 Y28.409 Z0
X243.863 Y28.139 Z-0.27
X242.926 Y28.158 Z-0.254
X242.704 Y28.166 Z-0.255
X242.548 Y28.175 Z-0.258
X242.388 Y28.187 Z-0.265
X242.219 Y28.205 Z-0.278
X242.068 Y28.226 Z-0.295
X241.958 Y28.245 Z-0.311
X241.801 Y28.278 Z-0.339
X241.696 Y28.302 Z-0.361
X241.518 Y28.348 Z-0.403
X241.307 Y28.408 Z-0.458
X241.106 Y28.468 Z-0.514
X241.004 Y28.507 Z-0.552
X240.9 Y28.554 Z-0.597
X240.828 Y28.592 Z-0.633
X240.663 Y28.689 Z-0.728
X240.49 Y28.795 Z-0.831
X240.382 Y28.864 Z-0.899
X240.238 Y28.961 Z-0.995
X240.163 Y29.014 Z-1.046
X239.998 Y29.137 Z-1.168
X239.876 Y29.233 Z-1.262
X239.759 Y29.329 Z-1.357
X239.648 Y29.425 Z-1.451
X239.645 Y29.553 Z-1.437
X239.644 Y29.684 Z-1.426
X239.648 Y29.899 Z-1.411
X239.654 Y30.065 Z-1.403
X239.657 Y30.145 Z-1.4
X239.68 Y30.914 Z-1.365
X239.693 Y31.439 Z-1.344
X239.704 Y32.075 Z-1.324
X239.711 Y32.743 Z-1.308
X239.716 Y33.521 Z-1.296
X239.717 Y34.352 Z-1.29
X239.714 Y35.346
X239.708 Y36.274 Z-1.293
X239.701 Y37.167 Z-1.295
X239.703 Y37.655 Z-1.297
X239.705 Y37.997 Z-1.3
X239.714 Y38.53 Z-1.312
X239.727 Y39.013 Z-1.329
X239.741 Y39.363 Z-1.347
X239.763 Y39.845 Z-1.377
X239.786 Y40.324 Z-1.411
X239.791 Y40.401 Z-1.418
X239.8 Y40.504 Z-1.429
X239.812 Y40.606 Z-1.444
X239.833 Y40.739 Z-1.467
X239.805 Y40.818 Z-1.442
X239.772 Y40.92 Z-1.412
X239.743 Y41.021 Z-1.386
X239.717 Y41.122 Z-1.363
X239.695 Y41.224 Z-1.344
X239.676 Y41.325 Z-1.327
X239.66 Y41.427 Z-1.315
X239.648 Y41.529 Z-1.305
X239.639 Y41.631 Z-1.299
X239.632 Y41.761 Z-1.297
X239.629 Y41.914 Z-1.3
X239.62 Y42.144 Z-1.313
X239.61 Y42.306 Z-1.325
X239.601 Y42.426 Z-1.337
X239.582 Y42.593 Z-1.358
X239.556 Y42.775 Z-1.387
X239.532 Y42.907 Z-1.412
X239.506 Y43.033 Z-1.44
X239.495 Y43.084 Z-1.452
X239.734 Y43.409 Z-1.218
X240.016 Y43.803 Z-0.942
X240.37 Y44.308 Z-0.596
X240.871 Y45.026 Z-0.11
X240.904 Y45.067 Z-0.074
X240.969 Y45.12 Z-0.001
X240.904 Y45.067 Z-0.074
X240.871 Y45.026 Z-0.11
X240.37 Y44.308 Z-0.596
X240.016 Y43.803 Z-0.942
X239.734 Y43.409 Z-1.218
X239.495 Y43.084 Z-1.452
X239.295 Y43.165 Z-1.315
X239.102 Y43.237 Z-1.189
X238.921 Y43.299 Z-1.077
X238.772 Y43.349 Z-0.988
X238.63 Y43.391 Z-0.907
X238.488 Y43.426 Z-0.835
X238.352 Y43.451 Z-0.774
X238.22 Y43.467 Z-0.723
X238.131 Y43.473 Z-0.693
X237.989 Y43.482 Z-0.65
X237.757 Y43.496 Z-0.585
X237.586 Y43.502 Z-0.541
X237.411 Y43.504 Z-0.502
X237.244 Y43.501 Z-0.47
X237.086 Y43.495 Z-0.444
X236.918 Y43.484 Z-0.421
X236.721 Y43.468 Z-0.399
X236.518 Y43.45 Z-0.382
X236.178 Y43.42 Z-0.357
X235.692 Y43.385 Z-0.322
X235.591 Y43.379 Z-0.315
X235.277 Y43.655 Z-0.001
X235.591 Y43.379 Z-0.315
X235.276 Y43.064 Z0
X235.591 Y43.379 Z-0.315
X235.692 Y43.385 Z-0.322
X236.178 Y43.42 Z-0.357
X236.518 Y43.45 Z-0.382
X236.721 Y43.468 Z-0.399
X236.918 Y43.484 Z-0.421
X237.086 Y43.495 Z-0.444
X237.244 Y43.501 Z-0.47
X237.411 Y43.504 Z-0.502
X237.586 Y43.502 Z-0.541
X237.757 Y43.496 Z-0.585
X237.989 Y43.482 Z-0.65
X238.131 Y43.473 Z-0.693
X238.22 Y43.467 Z-0.723
X238.352 Y43.451 Z-0.774
X238.488 Y43.426 Z-0.835
X238.63 Y43.391 Z-0.907
X238.772 Y43.349 Z-0.988
X238.921 Y43.299 Z-1.077
X239.102 Y43.237 Z-1.189
X239.295 Y43.165 Z-1.315
X239.495 Y43.084 Z-1.452
X239.506 Y43.033 Z-1.44
X239.532 Y42.907 Z-1.412
X239.556 Y42.775 Z-1.387
X239.582 Y42.593 Z-1.358
X239.601 Y42.426 Z-1.337
X239.61 Y42.306 Z-1.325
X239.62 Y42.144 Z-1.313
X239.629 Y41.914 Z-1.3
X239.632 Y41.761 Z-1.297
X239.639 Y41.631 Z-1.299
X239.648 Y41.529 Z-1.305
X239.66 Y41.427 Z-1.315
X239.676 Y41.325 Z-1.327
X239.695 Y41.224 Z-1.344
X239.717 Y41.122 Z-1.363
X239.743 Y41.021 Z-1.386
X239.772 Y40.92 Z-1.412
X239.805 Y40.818 Z-1.442
X239.833 Y40.739 Z-1.467
X240.112 Y40.785 Z-1.226
X240.322 Y40.828 Z-1.05
X240.514 Y40.876 Z-0.893
X240.612 Y40.904 Z-0.815
X240.706 Y40.934 Z-0.742
X240.848 Y40.986 Z-0.634
X240.929 Y41.019 Z-0.576
X240.992 Y41.047 Z-0.532
X241.079 Y41.09 Z-0.474
X241.135 Y41.12 Z-0.438
X241.205 Y41.16 Z-0.397
X241.255 Y41.193 Z-0.368
X241.316 Y41.236 Z-0.337
X241.361 Y41.271 Z-0.316
X241.422 Y41.323 Z-0.292
X241.462 Y41.36 Z-0.279
X241.52 Y41.42 Z-0.266
X241.631 Y41.542 Z-0.249
X241.732 Y41.646 Z-0.238
X241.891 Y41.802 Z-0.226
X242.066 Y41.964 Z-0.221
X242.238 Y42.117
X242.333 Y42.198 Z-0.223
X242.668 Y42.48 Z-0.234
X242.72 Y42.52 Z-0.238
X243.054 Y42.762 Z-0.279
X243.286 Y42.925 Z-0.311
X243.413 Y43.012 Z-0.33
X243.648 Y43.168 Z-0.369
X243.778 Y43.251 Z-0.393
X243.907 Y43.33 Z-0.419
X244.044 Y43.411 Z-0.449
X244.183 Y43.49 Z-0.483
X244.328 Y43.569 Z-0.52
X244.473 Y43.643 Z-0.56
X244.598 Y43.703 Z-0.593
X244.762 Y43.776 Z-0.637
X244.895 Y43.829 Z-0.67
X244.983 Y43.86 Z-0.689
X245.125 Y43.903 Z-0.716
X245.333 Y43.957 Z-0.751
X245.648 Y44.013 Z-0.784
X245.926 Y44.058 Z-0.813
X246.034 Y44.071 Z-0.826
X246.121 Y44.079 Z-0.838
X246.254 Y44.09 Z-0.855
X246.453 Y44.101 Z-0.877
X246.604 Y44.105 Z-0.892
X246.727 Y44.107 Z-0.904
X246.975 Y44.103 Z-0.927
X247.144 Y44.095 Z-0.944
X247.388 Y44.079 Z-0.972
X247.534 Y44.061 Z-0.987
X247.719 Y44.032 Z-1.007
X247.922 Y43.995 Z-1.032
X248.107 Y43.956 Z-1.058
X248.304 Y43.909 Z-1.087
X248.499 Y43.857 Z-1.115
X248.64 Y43.815 Z-1.136
X248.846 Y43.746 Z-1.163
X248.967 Y43.702 Z-1.177
X249.138 Y43.634 Z-1.193
X249.239 Y43.587 Z-1.205
X249.446 Y43.478 Z-1.235
X249.631 Y43.375 Z-1.261
X249.829 Y43.259 Z-1.289
X250.044 Y43.126 Z-1.322
X250.067 Y43.11 Z-1.325
X250.25 Y42.97 Z-1.345
X250.336 Y42.9 Z-1.356
X250.487 Y42.771 Z-1.378
X250.597 Y42.67 Z-1.394
X250.674 Y42.595 Z-1.406
X250.773 Y42.489 Z-1.421
X250.848 Y42.402 Z-1.43
X250.929 Y42.296 Z-1.438
X251.004 Y42.19 Z-1.443
X251.078 Y42.077 Z-1.448
X251.19 Y41.897 Z-1.454
X251.299 Y41.71 Z-1.461
X251.344 Y41.605 Z-1.451
X251.412 Y41.442 Z-1.437
X251.466 Y41.292 Z-1.43
X251.504 Y41.171
X251.586 Y40.877 Z-1.432
X251.625 Y40.723 Z-1.431
X251.679 Y40.495 Z-1.427
X251.727 Y40.259 Z-1.419
X251.752 Y40.119 Z-1.413
X251.783 Y39.913 Z-1.402
X251.811 Y39.706 Z-1.391
X251.841 Y39.408 Z-1.376
X251.859 Y39.174 Z-1.366
X251.877 Y38.849 Z-1.353
X251.889 Y38.511 Z-1.344
X251.892 Y38.321 Z-1.339
X251.894 Y37.858 Z-1.331
X251.885 Y36.438 Z-1.322
X251.874 Y35.223 Z-1.318
X251.859 Y34.004
X251.845 Y33.187 Z-1.321
X251.828 Y32.431 Z-1.325
X251.817 Y31.975 Z-1.33
X251.808 Y31.547 Z-1.339
X251.803 Y31.198 Z-1.351
X251.802 Y30.853 Z-1.368
X251.805 Y30.531 Z-1.388
X251.809 Y30.341 Z-1.402
X251.819 Y30.017 Z-1.432
X251.834 Y29.68 Z-1.468
X251.847 Y29.452 Z-1.495
X251.393 Y29.012 Z-1.072
X250.904 Y28.532 Z-0.618
X250.316 Y27.946 Z-0.073
X250.237 Y27.868 Z0
X250.316 Y27.946 Z-0.073
X250.904 Y28.532 Z-0.618
X251.393 Y29.012 Z-1.072
X251.847 Y29.452 Z-1.495
X252.036 Y29.299 Z-1.338
X252.426 Y28.984 Z-1.016
X252.553 Y28.888 Z-0.917
X252.679 Y28.802 Z-0.83
X252.744 Y28.762 Z-0.789
X252.806 Y28.727 Z-0.753
X252.868 Y28.693 Z-0.718
X252.931 Y28.662 Z-0.687
X253.139 Y28.569 Z-0.596
X253.369 Y28.472 Z-0.502
X253.518 Y28.414 Z-0.447
X253.641 Y28.37 Z-0.405
X253.734 Y28.34 Z-0.376
X253.799 Y28.32 Z-0.358
X253.928 Y28.285 Z-0.326
X254.027 Y28.263 Z-0.305
X254.152 Y28.239 Z-0.284
X254.241 Y28.224 Z-0.272
X254.386 Y28.206 Z-0.258
X254.551 Y28.19 Z-0.248
X254.705 Y28.18 Z-0.244
X254.924 Y28.169 Z-0.243
X255.221 Y28.161 Z-0.249
X255.806 Y28.145 Z-0.265
X256.071 Y28.409 Z0
X255.806 Y28.145 Z-0.265
X256.07 Y27.864 Z-0.001
G0 Z15
M9
G28 G91 Z0
G28 X0 Y0
M30
%
