%
(1001)
(road sign facing_ z0 stock top)
(T1  D=22 CR=0 - ZMIN=-1 - flat end mill)
G90 G94
G17
G21
G28 G91 Z0
G90

(Face2)
M9
T1 M6
(22mm Facing Bit)
S5000 M3
G54
M9
G0 X414.257 Y-0.658
Z15
Z5
G1 Z1.2 F850
G18 G3 X412.057 Z-1 I-2.2
G1 X400
X-10
G17 G2 Y19.476 J10.067
G1 X400
G3 Y39.609 J10.067
G1 X-10
G2 Y59.742 J10.067
G1 X400
G3 Y79.875 J10.067
G1 X-10
G2 Y100.008 J10.067
G1 X400
G3 Y120.142 J10.067
G1 X-10
G2 Y140.275 J10.067
G1 X400
G3 Y160.408 J10.067
G1 X-10
G2 Y180.542 J10.067
G1 X400
G3 Y200.675 J10.067
G1 X-10
G2 Y220.808 J10.067
G1 X400
G3 Y240.941 J10.067
G1 X-10
G2 Y261.074 J10.067
G1 X400
G3 Y281.208 J10.067
G1 X-10
G2 Y301.341 J10.067
G1 X400
G18 G2 X402.2 Z1.2 K2.2
G0 Z15
G17
M9
G28 G91 Z0
G28 X0 Y0
M30
%
