%
(1001)
(z0 botom machine -5-5)
(T1  D=6.35 CR=0 - ZMIN=0 - flat end mill)
G90 G94
G17
G21

(2D Contour2 2)
M9
T1 M6
S6500 M3
G54
M9
G0 X-145.066 Y-97.1
Z33
Z23
G1 Z20.5 F250
X-144.891 Y-97.193 Z20.493
G2 X-144.766 Y-97.264 Z20.488 I-1.499 J-2.799
G1 X-144.442 Y-97.457 Z20.475
G2 X-144.333 Y-97.525 Z20.47 I-1.624 J-2.728
G1 X-144 Y-97.742 Z20.457
G2 X-143.904 Y-97.807 Z20.452 I-1.733 J-2.66
G1 X-143.562 Y-98.048 Z20.438
G2 X-143.478 Y-98.109 Z20.434 I-1.829 J-2.595
G1 X-143.127 Y-98.374 Z20.419
G2 X-143.057 Y-98.428 Z20.416 I-1.913 J-2.534
G1 X-142.698 Y-98.715 Z20.4
G2 X-142.628 Y-98.773 Z20.397 I-1.983 J-2.48
G1 X-142.261 Y-99.084 Z20.38
G2 X-142.206 Y-99.132 Z20.377 I-2.053 J-2.422
G1 X-141.831 Y-99.465 Z20.36
G2 X-141.774 Y-99.516 Z20.357 I-2.108 J-2.374
G1 X-141.392 Y-99.872 Z20.339
G2 X-141.353 Y-99.909 Z20.337 I-2.165 J-2.323
G1 X-140.962 Y-100.286 Z20.318
G2 X-140.896 Y-100.352 Z20.315 I-2.204 J-2.286
G1 X-140.094 Y-101.172 Z20.275
G2 X-140.026 Y-101.244 Z20.271 I-2.27 J-2.22
G1 X-139.197 Y-102.146 Z20.228
G2 X-139.14 Y-102.209 Z20.225 I-2.338 J-2.148
G1 X-138.285 Y-103.191 Z20.18
G2 X-138.236 Y-103.25 Z20.177 I-2.395 J-2.085
G1 X-137.358 Y-104.309 Z20.129
G2 X-137.316 Y-104.36 Z20.127 I-2.444 J-2.026
G1 X-136.417 Y-105.492 Z20.076
G2 X-136.38 Y-105.54 Z20.074 I-2.486 J-1.975
G1 X-135.462 Y-106.742 Z20.022
G2 X-135.43 Y-106.784 Z20.02 I-2.523 J-1.927
G1 X-134.495 Y-108.051 Z19.965
G2 X-134.466 Y-108.091 Z19.963 I-2.555 J-1.885
G1 X-133.516 Y-109.421 Z19.906
G2 X-133.49 Y-109.457 Z19.904 I-2.584 J-1.845
G1 X-132.528 Y-110.845 Z19.845
G2 X-132.505 Y-110.88 Z19.844 I-2.61 J-1.809
G1 X-131.533 Y-112.323 Z19.783
G2 X-131.511 Y-112.356 Z19.782 I-2.633 J-1.774
G1 X-130.531 Y-113.85 Z19.719
G2 X-130.511 Y-113.88 Z19.718 I-2.655 J-1.741
G1 X-129.526 Y-115.42 Z19.654
G2 X-129.508 Y-115.449 Z19.653 I-2.675 J-1.711
G1 X-128.519 Y-117.033 Z19.588
G2 X-128.501 Y-117.062 Z19.587 I-2.693 J-1.682
G1 X-127.511 Y-118.686 Z19.52
G2 X-127.494 Y-118.714 Z19.519 I-2.711 J-1.653
G1 X-126.505 Y-120.374 Z19.452
G2 X-126.489 Y-120.401 Z19.451 I-2.728 J-1.625
G1 X-125.503 Y-122.094 Z19.382
G2 X-125.488 Y-122.12 Z19.381 I-2.744 J-1.598
G1 X-124.507 Y-123.842 Z19.312
G2 X-124.493 Y-123.869 Z19.311 I-2.759 J-1.572
G1 X-123.519 Y-125.617 Z19.241
G2 X-123.505 Y-125.642 Z19.24 I-2.773 J-1.545
G1 X-122.539 Y-127.413 Z19.17
G2 X-122.525 Y-127.439 Z19.168 I-2.787 J-1.52
G1 X-121.569 Y-129.231 Z19.098
G2 X-121.555 Y-129.257 Z19.097 I-2.801 J-1.494
G1 X-120.612 Y-131.065 Z19.025
G2 X-120.599 Y-131.09 Z19.024 I-2.815 J-1.468
G1 X-119.668 Y-132.914 Z18.953
G2 X-119.654 Y-132.941 Z18.952 I-2.828 J-1.443
G1 X-118.739 Y-134.777 Z18.88
G2 X-118.727 Y-134.802 Z18.879 I-2.842 J-1.416
G1 X-117.827 Y-136.648 Z18.807
G2 X-117.814 Y-136.674 Z18.806 I-2.854 J-1.391
G1 X-116.932 Y-138.527 Z18.735
G2 X-116.92 Y-138.554 Z18.734 I-2.867 J-1.365
G1 X-116.055 Y-140.414 Z18.662
G2 X-116.043 Y-140.442 Z18.661 I-2.88 J-1.338
G1 X-115.199 Y-142.305 Z18.59
G2 X-115.187 Y-142.332 Z18.589 I-2.892 J-1.31
G1 X-114.363 Y-144.197 Z18.517
G2 X-114.35 Y-144.226 Z18.516 I-2.904 J-1.283
G1 X-113.548 Y-146.091 Z18.445
G2 X-113.536 Y-146.121 Z18.444 I-2.917 J-1.254
G1 X-112.757 Y-147.985 Z18.374
G2 X-112.745 Y-148.013 Z18.373 I-2.929 J-1.224
G1 X-111.988 Y-149.874 Z18.302
G2 X-111.975 Y-149.905 Z18.301 I-2.941 J-1.196
G1 X-111.243 Y-151.761 Z18.232
G2 X-111.231 Y-151.792 Z18.23 I-2.954 J-1.165
G1 X-110.523 Y-153.644 Z18.161
G2 X-110.512 Y-153.675 Z18.16 I-2.966 J-1.134
G1 X-109.829 Y-155.519 Z18.091
G2 X-109.817 Y-155.552 Z18.09 I-2.977 J-1.103
G1 X-109.16 Y-157.388 Z18.022
G2 X-109.147 Y-157.423 Z18.021 I-2.989 J-1.07
G1 X-108.517 Y-159.251 Z17.953
G2 X-108.506 Y-159.284 Z17.952 I-3.002 J-1.035
G1 X-107.902 Y-161.101 Z17.885
G2 X-107.89 Y-161.139 Z17.884 I-3.013 J-1.002
G1 X-107.314 Y-162.946 Z17.818
G2 X-107.302 Y-162.983 Z17.816 I-3.025 J-0.964
G1 X-106.754 Y-164.779 Z17.751
G2 X-106.743 Y-164.815 Z17.749 I-3.037 J-0.927
G1 X-106.222 Y-166.598 Z17.684
G2 X-106.211 Y-166.639 Z17.683 I-3.048 J-0.891
G1 X-105.719 Y-168.41 Z17.619
G2 X-105.708 Y-168.449 Z17.617 I-3.059 J-0.85
G1 X-105.244 Y-170.206 Z17.554
G2 X-105.233 Y-170.25 Z17.552 I-3.07 J-0.811
G1 X-104.799 Y-171.993 Z17.49
G2 X-104.789 Y-172.034 Z17.488 I-3.081 J-0.767
G1 X-104.383 Y-173.763 Z17.426
G2 X-104.373 Y-173.807 Z17.425 I-3.091 J-0.726
G1 X-103.996 Y-175.521 Z17.363
G2 X-103.986 Y-175.568 Z17.362 I-3.101 J-0.682
G1 X-103.639 Y-177.267 Z17.301
G2 X-103.63 Y-177.313 Z17.299 I-3.111 J-0.635
G1 X-103.312 Y-178.996 Z17.24
G2 X-103.303 Y-179.045 Z17.238 I-3.12 J-0.589
G1 X-103.015 Y-180.713 Z17.179
G2 X-103.007 Y-180.761 Z17.177 I-3.129 J-0.54
G1 X-102.748 Y-182.413 Z17.119
G2 X-102.741 Y-182.465 Z17.117 I-3.137 J-0.492
G1 X-102.512 Y-184.101 Z17.059
G2 X-102.505 Y-184.154 Z17.057 I-3.144 J-0.44
G1 X-102.306 Y-185.774 Z17
G2 X-102.3 Y-185.826 Z16.998 I-3.151 J-0.387
G1 X-102.13 Y-187.43 Z16.942
G2 X-102.124 Y-187.486 Z16.94 I-3.157 J-0.335
G1 X-101.984 Y-189.073 Z16.884
G2 X-101.98 Y-189.13 Z16.882 I-3.163 J-0.279
G1 X-101.87 Y-190.7 Z16.828
G2 X-101.866 Y-190.759 Z16.825 I-3.167 J-0.222
G1 X-101.786 Y-192.314 Z16.771
G2 X-101.784 Y-192.372 Z16.769 I-3.171 J-0.163
G1 X-101.733 Y-193.909 Z16.715
G2 X-101.731 Y-193.97 Z16.713 I-3.173 J-0.105
G1 X-101.71 Y-195.492 Z16.66
G2 Y-195.555 Z16.658 I-3.175 J-0.044
G1 X-101.719 Y-197.059 Z16.605
G2 X-101.72 Y-197.121 Z16.603 I-3.175 J0.019
G1 X-101.758 Y-198.609 Z16.551
G2 X-101.76 Y-198.675 Z16.549 I-3.174 J0.081
G1 X-101.825 Y-200.073 Z16.5
G2 X-115.935 Y-234.065 I-48.175 J0.073 F850
X-116.304 Y-234.382 I-2.245 J2.245
G1 X-120.574 Y-237.509
G2 X-120.892 Y-237.713 I-1.876 J2.562
G1 X-125.452 Y-240.282
G2 X-125.79 Y-240.447 I-1.558 J2.766
G1 X-130.568 Y-242.435
G2 X-130.925 Y-242.559 I-1.22 J2.931
G1 X-135.849 Y-243.95
G2 X-136.217 Y-244.031 I-0.863 J3.055
G1 X-141.214 Y-244.819
G2 X-141.59 Y-244.856 I-0.495 J3.136
G1 X-146.586 Y-245.044
G2 X-146.964 Y-245.035 I-0.119 J3.173
G1 X-151.888 Y-244.632
G2 X-152.262 Y-244.579 I0.259 J3.164
G1 X-157.047 Y-243.606
G2 X-157.412 Y-243.509 I0.633 J3.111
G1 X-161.991 Y-241.993
G2 X-162.342 Y-241.853 I0.998 J3.014
G1 X-166.656 Y-239.829
G2 X-166.987 Y-239.649 I1.349 J2.874
G1 X-170.981 Y-237.158
G2 X-171.29 Y-236.939 I1.68 J2.694
G1 X-174.913 Y-234.027
G2 X-175.193 Y-233.772 I1.989 J2.475
G1 X-178.403 Y-230.491
G2 X-178.651 Y-230.206 I2.269 J2.22
G1 X-181.412 Y-226.614
G2 X-181.624 Y-226.301 I2.517 J1.935
G1 X-183.909 Y-222.456
G2 X-184.083 Y-222.119 I2.729 J1.622
G1 X-185.87 Y-218.083
G2 X-186.003 Y-217.729 I2.903 J1.285
G1 X-187.28 Y-213.564
G2 X-187.369 Y-213.195 I3.036 J0.931
G1 X-188.13 Y-208.966
G2 X-188.175 Y-208.591 I3.125 J0.562
G1 X-188.424 Y-204.36
G2 X-188.423 Y-203.98 I3.17 J0.187
G1 X-188.175 Y-199.903
G2 X-176.994 Y-173.006 I38.175 J-0.096
X-174.188 Y-172.126 I2.245 J-2.245
G1 X-173.505 Y-172.249
X-172.859 Y-172.352
X-172.226 Y-172.442
X-171.607 Y-172.518
X-170.998 Y-172.581
X-170.402 Y-172.63
X-169.821 Y-172.666
X-169.252 Y-172.689
X-168.698 Y-172.699
X-168.156 Y-172.695
X-167.624 Y-172.68
X-167.107 Y-172.652
X-166.606 Y-172.612
X-166.116 Y-172.559
X-165.639 Y-172.494
X-165.173 Y-172.418
X-164.722 Y-172.331
X-164.282 Y-172.232
X-163.852 Y-172.122
X-163.44 Y-172.002
X-163.035 Y-171.87
X-162.64 Y-171.728
X-162.262 Y-171.576
X-161.888 Y-171.412
X-161.528 Y-171.239
X-161.178 Y-171.055
X-160.835 Y-170.86
X-160.503 Y-170.655
X-160.178 Y-170.438
X-159.859 Y-170.21
X-159.552 Y-169.973
X-159.251 Y-169.723
X-158.957 Y-169.462
X-158.669 Y-169.187
X-158.386 Y-168.899
X-158.117 Y-168.605
X-157.848 Y-168.291
X-157.584 Y-167.964
X-157.331 Y-167.627
X-157.082 Y-167.275
X-156.839 Y-166.907
X-156.603 Y-166.528
X-156.373 Y-166.133
X-156.148 Y-165.723
X-155.932 Y-165.301
X-155.722 Y-164.865
X-155.519 Y-164.411
X-155.322 Y-163.945
X-155.132 Y-163.464
X-154.949 Y-162.968
X-154.773 Y-162.459
X-154.605 Y-161.938
X-154.444 Y-161.399
X-154.289 Y-160.849
X-154.143 Y-160.285
X-154.004 Y-159.708
X-153.872 Y-159.117
X-153.747 Y-158.513
X-153.63 Y-157.898
X-153.522 Y-157.281
X-153.324 Y-155.978
X-153.154 Y-154.632
X-153.07 Y-153.85
X-152.995 Y-153.047
X-152.929 Y-152.232
X-152.873 Y-151.41
X-152.784 Y-149.704
X-152.729 Y-147.966
X-152.706 Y-146.187
X-152.711 Y-144.375
X-152.743 Y-142.533
X-152.8 Y-140.667
X-152.879 Y-138.783
X-152.976 Y-136.884
X-153.09 Y-134.978
X-153.218 Y-133.073
X-153.504 Y-129.262
X-153.811 Y-125.511
X-154.114 Y-121.862
G2 X-154.115 Y-121.85 I3.164 J0.263
G1 X-154.392 Y-118.353
G2 X-154.394 Y-118.332 I3.165 J0.251
G1 X-154.516 Y-116.655
G2 X-154.517 Y-116.632 I3.167 J0.23
G1 X-154.623 Y-115.009
G2 X-154.625 Y-114.982 I3.168 J0.207
G1 X-154.714 Y-113.417
G2 X-154.716 Y-113.383 I3.17 J0.18
G1 X-154.785 Y-111.882
G2 X-154.786 Y-111.838 I3.172 J0.146
G1 X-154.832 Y-110.406
G2 X-154.834 Y-110.353 I3.173 J0.102
G1 X-154.855 Y-108.992
G2 Y-108.926 I3.175 J0.049
G1 X-154.848 Y-107.642
G2 X-154.847 Y-107.567 I3.175 J-0.017
G1 X-154.812 Y-106.364
G2 X-154.807 Y-106.266 I3.174 J-0.092
G1 X-154.74 Y-105.147
G2 X-154.734 Y-105.066 I3.169 J-0.19
G1 X-154.689 Y-104.54
G2 X-154.683 Y-104.473 I3.163 J-0.271
G1 X-154.629 Y-103.968
G2 X-154.62 Y-103.895 I3.157 J-0.338
G1 X-154.557 Y-103.413
G2 X-154.547 Y-103.338 I3.148 J-0.411
G1 X-154.476 Y-102.88
G2 X-154.46 Y-102.786 I3.138 J-0.486
G1 X-154.379 Y-102.35
G2 X-154.359 Y-102.251 I3.122 J-0.58
G1 X-154.269 Y-101.84
G2 X-154.243 Y-101.734 I3.102 J-0.679
G1 X-154.144 Y-101.346
G2 X-154.109 Y-101.218 I3.076 J-0.785
G1 X-154 Y-100.855
G2 X-153.957 Y-100.722 I3.041 J-0.913
G1 X-153.839 Y-100.384
G2 X-153.781 Y-100.231 I2.998 J-1.046
G1 X-153.653 Y-99.917
G2 X-153.578 Y-99.748 I2.94 J-1.199
G1 X-153.44 Y-99.459
G2 X-153.349 Y-99.282 I2.865 J-1.368
G1 X-153.202 Y-99.018
G2 X-153.073 Y-98.807 I2.774 J-1.545
G1 X-152.915 Y-98.569
G2 X-152.763 Y-98.359 I2.645 J-1.756
G1 X-152.595 Y-98.146
G2 X-152.407 Y-97.928 I2.493 J-1.966
G1 X-152.23 Y-97.741
G2 X-151.995 Y-97.517 I2.305 J-2.184
G1 X-151.807 Y-97.356
G2 X-151.533 Y-97.145 I2.07 J-2.408
G1 X-151.335 Y-97.009
G2 X-151.024 Y-96.822 I1.796 J-2.618
G1 X-150.816 Y-96.712
G2 X-150.476 Y-96.556 I1.485 J-2.806
G1 X-150.258 Y-96.472
G2 X-149.903 Y-96.358 I1.145 J-2.961
G1 X-149.675 Y-96.3
G2 X-149.32 Y-96.23 I0.79 J-3.075
G1 X-149.082 Y-96.197
G2 X-148.739 Y-96.168 I0.435 J-3.145
G1 X-148.49 Y-96.161
G2 X-148.173 Y-96.168 I0.092 J-3.174
G1 X-147.915 Y-96.186
G2 X-147.626 Y-96.22 I-0.225 J-3.167
G1 X-147.359 Y-96.264
G2 X-147.107 Y-96.316 I-0.514 J-3.133
G1 X-146.829 Y-96.385
G2 X-146.604 Y-96.45 I-0.766 J-3.081
G1 X-146.317 Y-96.544
G2 X-146.125 Y-96.614 I-0.991 J-3.016
G1 X-145.828 Y-96.733
G2 X-145.659 Y-96.807 I-1.183 J-2.946
G1 X-145.353 Y-96.951
G2 X-145.206 Y-97.025 I-1.352 J-2.873
G1 X-144.891 Y-97.193
G2 X-144.766 Y-97.264 I-1.499 J-2.799
G1 X-144.442 Y-97.457
G2 X-144.333 Y-97.525 I-1.624 J-2.728
G1 X-144 Y-97.742
G2 X-143.904 Y-97.807 I-1.733 J-2.66
G1 X-143.562 Y-98.048
G2 X-143.478 Y-98.109 I-1.829 J-2.595
G1 X-143.127 Y-98.374
G2 X-143.057 Y-98.428 I-1.913 J-2.534
G1 X-142.698 Y-98.715
G2 X-142.628 Y-98.773 I-1.983 J-2.48
G1 X-142.261 Y-99.084
G2 X-142.206 Y-99.132 I-2.053 J-2.422
G1 X-141.831 Y-99.465
G2 X-141.774 Y-99.516 I-2.108 J-2.374
G1 X-141.392 Y-99.872
G2 X-141.353 Y-99.909 I-2.165 J-2.323
G1 X-140.962 Y-100.286
G2 X-140.896 Y-100.352 I-2.204 J-2.286
G1 X-140.094 Y-101.172
G2 X-140.026 Y-101.244 I-2.27 J-2.22
G1 X-139.197 Y-102.146
G2 X-139.14 Y-102.209 I-2.338 J-2.148
G1 X-138.285 Y-103.191
G2 X-138.236 Y-103.25 I-2.395 J-2.085
G1 X-137.358 Y-104.309
G2 X-137.316 Y-104.36 I-2.444 J-2.026
G1 X-136.417 Y-105.492
G2 X-136.38 Y-105.54 I-2.486 J-1.975
G1 X-135.462 Y-106.742
G2 X-135.43 Y-106.784 I-2.523 J-1.927
G1 X-134.495 Y-108.051
G2 X-134.466 Y-108.091 I-2.555 J-1.885
G1 X-133.516 Y-109.421
G2 X-133.49 Y-109.457 I-2.584 J-1.845
G1 X-132.528 Y-110.845
G2 X-132.505 Y-110.88 I-2.61 J-1.809
G1 X-131.533 Y-112.323
G2 X-131.511 Y-112.356 I-2.633 J-1.774
G1 X-130.531 Y-113.85
G2 X-130.511 Y-113.88 I-2.655 J-1.741
G1 X-129.526 Y-115.42
G2 X-129.508 Y-115.449 I-2.675 J-1.711
G1 X-128.519 Y-117.033
G2 X-128.501 Y-117.062 I-2.693 J-1.682
G1 X-127.511 Y-118.686
G2 X-127.494 Y-118.714 I-2.711 J-1.653
G1 X-126.505 Y-120.374
G2 X-126.489 Y-120.401 I-2.728 J-1.625
G1 X-125.503 Y-122.094
G2 X-125.488 Y-122.12 I-2.744 J-1.598
G1 X-124.507 Y-123.842
G2 X-124.493 Y-123.869 I-2.759 J-1.572
G1 X-123.519 Y-125.617
G2 X-123.505 Y-125.642 I-2.773 J-1.545
G1 X-122.539 Y-127.413
G2 X-122.525 Y-127.439 I-2.787 J-1.52
G1 X-121.569 Y-129.231
G2 X-121.555 Y-129.257 I-2.801 J-1.494
G1 X-120.612 Y-131.065
G2 X-120.599 Y-131.09 I-2.815 J-1.468
G1 X-119.668 Y-132.914
G2 X-119.654 Y-132.941 I-2.828 J-1.443
G1 X-118.739 Y-134.777
G2 X-118.727 Y-134.802 I-2.842 J-1.416
G1 X-117.827 Y-136.648
G2 X-117.814 Y-136.674 I-2.854 J-1.391
G1 X-116.932 Y-138.527
G2 X-116.92 Y-138.554 I-2.867 J-1.365
G1 X-116.055 Y-140.414
G2 X-116.043 Y-140.442 I-2.88 J-1.338
G1 X-115.199 Y-142.305
G2 X-115.187 Y-142.332 I-2.892 J-1.31
G1 X-114.363 Y-144.197
G2 X-114.35 Y-144.226 I-2.904 J-1.283
G1 X-113.548 Y-146.091
G2 X-113.536 Y-146.121 I-2.917 J-1.254
G1 X-112.757 Y-147.985
G2 X-112.745 Y-148.013 I-2.929 J-1.224
G1 X-111.988 Y-149.874
G2 X-111.975 Y-149.905 I-2.941 J-1.196
G1 X-111.243 Y-151.761
G2 X-111.231 Y-151.792 I-2.954 J-1.165
G1 X-110.523 Y-153.644
G2 X-110.512 Y-153.675 I-2.966 J-1.134
G1 X-109.829 Y-155.519
G2 X-109.817 Y-155.552 I-2.977 J-1.103
G1 X-109.16 Y-157.388
G2 X-109.147 Y-157.423 I-2.989 J-1.07
G1 X-108.517 Y-159.251
G2 X-108.506 Y-159.284 I-3.002 J-1.035
G1 X-107.902 Y-161.101
G2 X-107.89 Y-161.139 I-3.013 J-1.002
G1 X-107.314 Y-162.946
G2 X-107.302 Y-162.983 I-3.025 J-0.964
G1 X-106.754 Y-164.779
G2 X-106.743 Y-164.815 I-3.037 J-0.927
G1 X-106.222 Y-166.598
G2 X-106.211 Y-166.639 I-3.048 J-0.891
G1 X-105.719 Y-168.41
G2 X-105.708 Y-168.449 I-3.059 J-0.85
G1 X-105.244 Y-170.206
G2 X-105.233 Y-170.25 I-3.07 J-0.811
G1 X-104.799 Y-171.993
G2 X-104.789 Y-172.034 I-3.081 J-0.767
G1 X-104.383 Y-173.763
G2 X-104.373 Y-173.807 I-3.091 J-0.726
G1 X-103.996 Y-175.521
G2 X-103.986 Y-175.568 I-3.101 J-0.682
G1 X-103.639 Y-177.267
G2 X-103.63 Y-177.313 I-3.111 J-0.635
G1 X-103.312 Y-178.996
G2 X-103.303 Y-179.045 I-3.12 J-0.589
G1 X-103.015 Y-180.713
G2 X-103.007 Y-180.761 I-3.129 J-0.54
G1 X-102.748 Y-182.413
G2 X-102.741 Y-182.465 I-3.137 J-0.492
G1 X-102.512 Y-184.101
G2 X-102.505 Y-184.154 I-3.144 J-0.44
G1 X-102.306 Y-185.774
G2 X-102.3 Y-185.826 I-3.151 J-0.387
G1 X-102.13 Y-187.43
G2 X-102.124 Y-187.486 I-3.157 J-0.335
G1 X-101.984 Y-189.073
G2 X-101.98 Y-189.13 I-3.163 J-0.279
G1 X-101.87 Y-190.7
G2 X-101.866 Y-190.759 I-3.167 J-0.222
G1 X-101.786 Y-192.314
G2 X-101.784 Y-192.372 I-3.171 J-0.163
G1 X-101.733 Y-193.909
G2 X-101.731 Y-193.97 I-3.173 J-0.105
G1 X-101.71 Y-195.492
G2 Y-195.555 I-3.175 J-0.044
G1 X-101.719 Y-197.059
G2 X-101.72 Y-197.121 I-3.175 J0.019
G1 X-101.758 Y-198.609
G2 X-101.76 Y-198.675 I-3.174 J0.081
G1 X-101.825 Y-200.073
G2 X-115.935 Y-234.065 Z15.181 I-48.175 J0.073 F250
X-116.304 Y-234.382 Z15.164 I-2.245 J2.245
G1 X-120.099 Y-237.161 Z15
X-120.574 Y-237.509 F850
G2 X-120.892 Y-237.713 I-1.876 J2.562
G1 X-125.452 Y-240.282
G2 X-125.79 Y-240.447 I-1.558 J2.766
G1 X-130.568 Y-242.435
G2 X-130.925 Y-242.559 I-1.22 J2.931
G1 X-135.849 Y-243.95
G2 X-136.217 Y-244.031 I-0.863 J3.055
G1 X-141.214 Y-244.819
G2 X-141.59 Y-244.856 I-0.495 J3.136
G1 X-146.586 Y-245.044
G2 X-146.964 Y-245.035 I-0.119 J3.173
G1 X-151.888 Y-244.632
G2 X-152.262 Y-244.579 I0.259 J3.164
G1 X-157.047 Y-243.606
G2 X-157.412 Y-243.509 I0.633 J3.111
G1 X-161.991 Y-241.993
G2 X-162.342 Y-241.853 I0.998 J3.014
G1 X-166.656 Y-239.829
G2 X-166.987 Y-239.649 I1.349 J2.874
G1 X-170.981 Y-237.158
G2 X-171.29 Y-236.939 I1.68 J2.694
G1 X-174.913 Y-234.027
G2 X-175.193 Y-233.772 I1.989 J2.475
G1 X-178.403 Y-230.491
G2 X-178.651 Y-230.206 I2.269 J2.22
G1 X-181.412 Y-226.614
G2 X-181.624 Y-226.301 I2.517 J1.935
G1 X-183.909 Y-222.456
G2 X-184.083 Y-222.119 I2.729 J1.622
G1 X-185.87 Y-218.083
G2 X-186.003 Y-217.729 I2.903 J1.285
G1 X-187.28 Y-213.564
G2 X-187.369 Y-213.195 I3.036 J0.931
G1 X-188.13 Y-208.966
G2 X-188.175 Y-208.591 I3.125 J0.562
G1 X-188.424 Y-204.36
G2 X-188.423 Y-203.98 I3.17 J0.187
G1 X-188.175 Y-199.903
G2 X-176.994 Y-173.006 I38.175 J-0.096
X-174.188 Y-172.126 I2.245 J-2.245
G1 X-173.505 Y-172.249
X-172.859 Y-172.352
X-172.226 Y-172.442
X-171.607 Y-172.518
X-170.998 Y-172.581
X-170.402 Y-172.63
X-169.821 Y-172.666
X-169.252 Y-172.689
X-168.698 Y-172.699
X-168.156 Y-172.695
X-167.624 Y-172.68
X-167.107 Y-172.652
X-166.606 Y-172.612
X-166.116 Y-172.559
X-165.639 Y-172.494
X-165.173 Y-172.418
X-164.722 Y-172.331
X-164.282 Y-172.232
X-163.852 Y-172.122
X-163.44 Y-172.002
X-163.035 Y-171.87
X-162.64 Y-171.728
X-162.262 Y-171.576
X-161.888 Y-171.412
X-161.528 Y-171.239
X-161.178 Y-171.055
X-160.835 Y-170.86
X-160.503 Y-170.655
X-160.178 Y-170.438
X-159.859 Y-170.21
X-159.552 Y-169.973
X-159.251 Y-169.723
X-158.957 Y-169.462
X-158.669 Y-169.187
X-158.386 Y-168.899
X-158.117 Y-168.605
X-157.848 Y-168.291
X-157.584 Y-167.964
X-157.331 Y-167.627
X-157.082 Y-167.275
X-156.839 Y-166.907
X-156.603 Y-166.528
X-156.373 Y-166.133
X-156.148 Y-165.723
X-155.932 Y-165.301
X-155.722 Y-164.865
X-155.519 Y-164.411
X-155.322 Y-163.945
X-155.132 Y-163.464
X-154.949 Y-162.968
X-154.773 Y-162.459
X-154.605 Y-161.938
X-154.444 Y-161.399
X-154.289 Y-160.849
X-154.143 Y-160.285
X-154.004 Y-159.708
X-153.872 Y-159.117
X-153.747 Y-158.513
X-153.63 Y-157.898
X-153.522 Y-157.281
X-153.324 Y-155.978
X-153.154 Y-154.632
X-153.07 Y-153.85
X-152.995 Y-153.047
X-152.929 Y-152.232
X-152.873 Y-151.41
X-152.784 Y-149.704
X-152.729 Y-147.966
X-152.706 Y-146.187
X-152.711 Y-144.375
X-152.743 Y-142.533
X-152.8 Y-140.667
X-152.879 Y-138.783
X-152.976 Y-136.884
X-153.09 Y-134.978
X-153.218 Y-133.073
X-153.504 Y-129.262
X-153.811 Y-125.511
X-154.114 Y-121.862
G2 X-154.115 Y-121.85 I3.164 J0.263
G1 X-154.392 Y-118.353
G2 X-154.394 Y-118.332 I3.165 J0.251
G1 X-154.516 Y-116.655
G2 X-154.517 Y-116.632 I3.167 J0.23
G1 X-154.623 Y-115.009
G2 X-154.625 Y-114.982 I3.168 J0.207
G1 X-154.714 Y-113.417
G2 X-154.716 Y-113.383 I3.17 J0.18
G1 X-154.785 Y-111.882
G2 X-154.786 Y-111.838 I3.172 J0.146
G1 X-154.832 Y-110.406
G2 X-154.834 Y-110.353 I3.173 J0.102
G1 X-154.855 Y-108.992
G2 Y-108.926 I3.175 J0.049
G1 X-154.848 Y-107.642
G2 X-154.847 Y-107.567 I3.175 J-0.017
G1 X-154.812 Y-106.364
G2 X-154.807 Y-106.266 I3.174 J-0.092
G1 X-154.74 Y-105.147
G2 X-154.734 Y-105.066 I3.169 J-0.19
G1 X-154.689 Y-104.54
G2 X-154.683 Y-104.473 I3.163 J-0.271
G1 X-154.629 Y-103.968
G2 X-154.62 Y-103.895 I3.157 J-0.338
G1 X-154.557 Y-103.413
G2 X-154.547 Y-103.338 I3.148 J-0.411
G1 X-154.476 Y-102.88
G2 X-154.46 Y-102.786 I3.138 J-0.486
G1 X-154.379 Y-102.35
G2 X-154.359 Y-102.251 I3.122 J-0.58
G1 X-154.269 Y-101.84
G2 X-154.243 Y-101.734 I3.102 J-0.679
G1 X-154.144 Y-101.346
G2 X-154.109 Y-101.218 I3.076 J-0.785
G1 X-154 Y-100.855
G2 X-153.957 Y-100.722 I3.041 J-0.913
G1 X-153.839 Y-100.384
G2 X-153.781 Y-100.231 I2.998 J-1.046
G1 X-153.653 Y-99.917
G2 X-153.578 Y-99.748 I2.94 J-1.199
G1 X-153.44 Y-99.459
G2 X-153.349 Y-99.282 I2.865 J-1.368
G1 X-153.202 Y-99.018
G2 X-153.073 Y-98.807 I2.774 J-1.545
G1 X-152.915 Y-98.569
G2 X-152.763 Y-98.359 I2.645 J-1.756
G1 X-152.595 Y-98.146
G2 X-152.407 Y-97.928 I2.493 J-1.966
G1 X-152.23 Y-97.741
G2 X-151.995 Y-97.517 I2.305 J-2.184
G1 X-151.807 Y-97.356
G2 X-151.533 Y-97.145 I2.07 J-2.408
G1 X-151.335 Y-97.009
G2 X-151.024 Y-96.822 I1.796 J-2.618
G1 X-150.816 Y-96.712
G2 X-150.476 Y-96.556 I1.485 J-2.806
G1 X-150.258 Y-96.472
G2 X-149.903 Y-96.358 I1.145 J-2.961
G1 X-149.675 Y-96.3
G2 X-149.32 Y-96.23 I0.79 J-3.075
G1 X-149.082 Y-96.197
G2 X-148.739 Y-96.168 I0.435 J-3.145
G1 X-148.49 Y-96.161
G2 X-148.173 Y-96.168 I0.092 J-3.174
G1 X-147.915 Y-96.186
G2 X-147.626 Y-96.22 I-0.225 J-3.167
G1 X-147.359 Y-96.264
G2 X-147.107 Y-96.316 I-0.514 J-3.133
G1 X-146.829 Y-96.385
G2 X-146.604 Y-96.45 I-0.766 J-3.081
G1 X-146.317 Y-96.544
G2 X-146.125 Y-96.614 I-0.991 J-3.016
G1 X-145.828 Y-96.733
G2 X-145.659 Y-96.807 I-1.183 J-2.946
G1 X-145.353 Y-96.951
G2 X-145.206 Y-97.025 I-1.352 J-2.873
G1 X-144.891 Y-97.193
G2 X-144.766 Y-97.264 I-1.499 J-2.799
G1 X-144.442 Y-97.457
G2 X-144.333 Y-97.525 I-1.624 J-2.728
G1 X-144 Y-97.742
G2 X-143.904 Y-97.807 I-1.733 J-2.66
G1 X-143.562 Y-98.048
G2 X-143.478 Y-98.109 I-1.829 J-2.595
G1 X-143.127 Y-98.374
G2 X-143.057 Y-98.428 I-1.913 J-2.534
G1 X-142.698 Y-98.715
G2 X-142.628 Y-98.773 I-1.983 J-2.48
G1 X-142.261 Y-99.084
G2 X-142.206 Y-99.132 I-2.053 J-2.422
G1 X-141.831 Y-99.465
G2 X-141.774 Y-99.516 I-2.108 J-2.374
G1 X-141.392 Y-99.872
G2 X-141.353 Y-99.909 I-2.165 J-2.323
G1 X-140.962 Y-100.286
G2 X-140.896 Y-100.352 I-2.204 J-2.286
G1 X-140.094 Y-101.172
G2 X-140.026 Y-101.244 I-2.27 J-2.22
G1 X-139.197 Y-102.146
G2 X-139.14 Y-102.209 I-2.338 J-2.148
G1 X-138.285 Y-103.191
G2 X-138.236 Y-103.25 I-2.395 J-2.085
G1 X-137.358 Y-104.309
G2 X-137.316 Y-104.36 I-2.444 J-2.026
G1 X-136.417 Y-105.492
G2 X-136.38 Y-105.54 I-2.486 J-1.975
G1 X-135.462 Y-106.742
G2 X-135.43 Y-106.784 I-2.523 J-1.927
G1 X-134.495 Y-108.051
G2 X-134.466 Y-108.091 I-2.555 J-1.885
G1 X-133.516 Y-109.421
G2 X-133.49 Y-109.457 I-2.584 J-1.845
G1 X-132.528 Y-110.845
G2 X-132.505 Y-110.88 I-2.61 J-1.809
G1 X-131.533 Y-112.323
G2 X-131.511 Y-112.356 I-2.633 J-1.774
G1 X-130.531 Y-113.85
G2 X-130.511 Y-113.88 I-2.655 J-1.741
G1 X-129.526 Y-115.42
G2 X-129.508 Y-115.449 I-2.675 J-1.711
G1 X-128.519 Y-117.033
G2 X-128.501 Y-117.062 I-2.693 J-1.682
G1 X-127.511 Y-118.686
G2 X-127.494 Y-118.714 I-2.711 J-1.653
G1 X-126.505 Y-120.374
G2 X-126.489 Y-120.401 I-2.728 J-1.625
G1 X-125.503 Y-122.094
G2 X-125.488 Y-122.12 I-2.744 J-1.598
G1 X-124.507 Y-123.842
G2 X-124.493 Y-123.869 I-2.759 J-1.572
G1 X-123.519 Y-125.617
G2 X-123.505 Y-125.642 I-2.773 J-1.545
G1 X-122.539 Y-127.413
G2 X-122.525 Y-127.439 I-2.787 J-1.52
G1 X-121.569 Y-129.231
G2 X-121.555 Y-129.257 I-2.801 J-1.494
G1 X-120.612 Y-131.065
G2 X-120.599 Y-131.09 I-2.815 J-1.468
G1 X-119.668 Y-132.914
G2 X-119.654 Y-132.941 I-2.828 J-1.443
G1 X-118.739 Y-134.777
G2 X-118.727 Y-134.802 I-2.842 J-1.416
G1 X-117.827 Y-136.648
G2 X-117.814 Y-136.674 I-2.854 J-1.391
G1 X-116.932 Y-138.527
G2 X-116.92 Y-138.554 I-2.867 J-1.365
G1 X-116.055 Y-140.414
G2 X-116.043 Y-140.442 I-2.88 J-1.338
G1 X-115.199 Y-142.305
G2 X-115.187 Y-142.332 I-2.892 J-1.31
G1 X-114.363 Y-144.197
G2 X-114.35 Y-144.226 I-2.904 J-1.283
G1 X-113.548 Y-146.091
G2 X-113.536 Y-146.121 I-2.917 J-1.254
G1 X-112.757 Y-147.985
G2 X-112.745 Y-148.013 I-2.929 J-1.224
G1 X-111.988 Y-149.874
G2 X-111.975 Y-149.905 I-2.941 J-1.196
G1 X-111.243 Y-151.761
G2 X-111.231 Y-151.792 I-2.954 J-1.165
G1 X-110.523 Y-153.644
G2 X-110.512 Y-153.675 I-2.966 J-1.134
G1 X-109.829 Y-155.519
G2 X-109.817 Y-155.552 I-2.977 J-1.103
G1 X-109.16 Y-157.388
G2 X-109.147 Y-157.423 I-2.989 J-1.07
G1 X-108.517 Y-159.251
G2 X-108.506 Y-159.284 I-3.002 J-1.035
G1 X-107.902 Y-161.101
G2 X-107.89 Y-161.139 I-3.013 J-1.002
G1 X-107.314 Y-162.946
G2 X-107.302 Y-162.983 I-3.025 J-0.964
G1 X-106.754 Y-164.779
G2 X-106.743 Y-164.815 I-3.037 J-0.927
G1 X-106.222 Y-166.598
G2 X-106.211 Y-166.639 I-3.048 J-0.891
G1 X-105.719 Y-168.41
G2 X-105.708 Y-168.449 I-3.059 J-0.85
G1 X-105.244 Y-170.206
G2 X-105.233 Y-170.25 I-3.07 J-0.811
G1 X-104.799 Y-171.993
G2 X-104.789 Y-172.034 I-3.081 J-0.767
G1 X-104.383 Y-173.763
G2 X-104.373 Y-173.807 I-3.091 J-0.726
G1 X-103.996 Y-175.521
G2 X-103.986 Y-175.568 I-3.101 J-0.682
G1 X-103.639 Y-177.267
G2 X-103.63 Y-177.313 I-3.111 J-0.635
G1 X-103.312 Y-178.996
G2 X-103.303 Y-179.045 I-3.12 J-0.589
G1 X-103.015 Y-180.713
G2 X-103.007 Y-180.761 I-3.129 J-0.54
G1 X-102.748 Y-182.413
G2 X-102.741 Y-182.465 I-3.137 J-0.492
G1 X-102.512 Y-184.101
G2 X-102.505 Y-184.154 I-3.144 J-0.44
G1 X-102.306 Y-185.774
G2 X-102.3 Y-185.826 I-3.151 J-0.387
G1 X-102.13 Y-187.43
G2 X-102.124 Y-187.486 I-3.157 J-0.335
G1 X-101.984 Y-189.073
G2 X-101.98 Y-189.13 I-3.163 J-0.279
G1 X-101.87 Y-190.7
G2 X-101.866 Y-190.759 I-3.167 J-0.222
G1 X-101.786 Y-192.314
G2 X-101.784 Y-192.372 I-3.171 J-0.163
G1 X-101.733 Y-193.909
G2 X-101.731 Y-193.97 I-3.173 J-0.105
G1 X-101.71 Y-195.492
G2 Y-195.555 I-3.175 J-0.044
G1 X-101.719 Y-197.059
G2 X-101.72 Y-197.121 I-3.175 J0.019
G1 X-101.758 Y-198.609
G2 X-101.76 Y-198.675 I-3.174 J0.081
G1 X-101.825 Y-200.073
G2 X-115.935 Y-234.065 I-48.175 J0.073
X-116.304 Y-234.382 I-2.245 J2.245
G1 X-120.099 Y-237.161
X-120.574 Y-237.509 Z14.979 F250
G2 X-120.892 Y-237.713 Z14.966 I-1.876 J2.562
G1 X-125.452 Y-240.282 Z14.783
G2 X-125.79 Y-240.447 Z14.77 I-1.558 J2.766
G1 X-130.568 Y-242.435 Z14.59
G2 X-130.925 Y-242.559 Z14.576 I-1.22 J2.931
G1 X-135.849 Y-243.95 Z14.398
G2 X-136.217 Y-244.031 Z14.385 I-0.863 J3.055
G1 X-141.214 Y-244.819 Z14.208
G2 X-141.59 Y-244.856 Z14.195 I-0.495 J3.136
G1 X-146.586 Y-245.044 Z14.02
G2 X-146.964 Y-245.035 Z14.007 I-0.119 J3.173
G1 X-151.888 Y-244.632 Z13.834
G2 X-152.262 Y-244.579 Z13.821 I0.259 J3.164
G1 X-157.047 Y-243.606 Z13.651
G2 X-157.412 Y-243.509 Z13.637 I0.633 J3.111
G1 X-161.149 Y-242.272 Z13.5
X-161.991 Y-241.993 F850
G2 X-162.342 Y-241.853 I0.998 J3.014
G1 X-166.656 Y-239.829
G2 X-166.987 Y-239.649 I1.349 J2.874
G1 X-170.981 Y-237.158
G2 X-171.29 Y-236.939 I1.68 J2.694
G1 X-174.913 Y-234.027
G2 X-175.193 Y-233.772 I1.989 J2.475
G1 X-178.403 Y-230.491
G2 X-178.651 Y-230.206 I2.269 J2.22
G1 X-181.412 Y-226.614
G2 X-181.624 Y-226.301 I2.517 J1.935
G1 X-183.909 Y-222.456
G2 X-184.083 Y-222.119 I2.729 J1.622
G1 X-185.87 Y-218.083
G2 X-186.003 Y-217.729 I2.903 J1.285
G1 X-187.28 Y-213.564
G2 X-187.369 Y-213.195 I3.036 J0.931
G1 X-188.13 Y-208.966
G2 X-188.175 Y-208.591 I3.125 J0.562
G1 X-188.424 Y-204.36
G2 X-188.423 Y-203.98 I3.17 J0.187
G1 X-188.175 Y-199.903
G2 X-176.994 Y-173.006 I38.175 J-0.096
X-174.188 Y-172.126 I2.245 J-2.245
G1 X-173.505 Y-172.249
X-172.859 Y-172.352
X-172.226 Y-172.442
X-171.607 Y-172.518
X-170.998 Y-172.581
X-170.402 Y-172.63
X-169.821 Y-172.666
X-169.252 Y-172.689
X-168.698 Y-172.699
X-168.156 Y-172.695
X-167.624 Y-172.68
X-167.107 Y-172.652
X-166.606 Y-172.612
X-166.116 Y-172.559
X-165.639 Y-172.494
X-165.173 Y-172.418
X-164.722 Y-172.331
X-164.282 Y-172.232
X-163.852 Y-172.122
X-163.44 Y-172.002
X-163.035 Y-171.87
X-162.64 Y-171.728
X-162.262 Y-171.576
X-161.888 Y-171.412
X-161.528 Y-171.239
X-161.178 Y-171.055
X-160.835 Y-170.86
X-160.503 Y-170.655
X-160.178 Y-170.438
X-159.859 Y-170.21
X-159.552 Y-169.973
X-159.251 Y-169.723
X-158.957 Y-169.462
X-158.669 Y-169.187
X-158.386 Y-168.899
X-158.117 Y-168.605
X-157.848 Y-168.291
X-157.584 Y-167.964
X-157.331 Y-167.627
X-157.082 Y-167.275
X-156.839 Y-166.907
X-156.603 Y-166.528
X-156.373 Y-166.133
X-156.148 Y-165.723
X-155.932 Y-165.301
X-155.722 Y-164.865
X-155.519 Y-164.411
X-155.322 Y-163.945
X-155.132 Y-163.464
X-154.949 Y-162.968
X-154.773 Y-162.459
X-154.605 Y-161.938
X-154.444 Y-161.399
X-154.289 Y-160.849
X-154.143 Y-160.285
X-154.004 Y-159.708
X-153.872 Y-159.117
X-153.747 Y-158.513
X-153.63 Y-157.898
X-153.522 Y-157.281
X-153.324 Y-155.978
X-153.154 Y-154.632
X-153.07 Y-153.85
X-152.995 Y-153.047
X-152.929 Y-152.232
X-152.873 Y-151.41
X-152.784 Y-149.704
X-152.729 Y-147.966
X-152.706 Y-146.187
X-152.711 Y-144.375
X-152.743 Y-142.533
X-152.8 Y-140.667
X-152.879 Y-138.783
X-152.976 Y-136.884
X-153.09 Y-134.978
X-153.218 Y-133.073
X-153.504 Y-129.262
X-153.811 Y-125.511
X-154.114 Y-121.862
G2 X-154.115 Y-121.85 I3.164 J0.263
G1 X-154.392 Y-118.353
G2 X-154.394 Y-118.332 I3.165 J0.251
G1 X-154.516 Y-116.655
G2 X-154.517 Y-116.632 I3.167 J0.23
G1 X-154.623 Y-115.009
G2 X-154.625 Y-114.982 I3.168 J0.207
G1 X-154.714 Y-113.417
G2 X-154.716 Y-113.383 I3.17 J0.18
G1 X-154.785 Y-111.882
G2 X-154.786 Y-111.838 I3.172 J0.146
G1 X-154.832 Y-110.406
G2 X-154.834 Y-110.353 I3.173 J0.102
G1 X-154.855 Y-108.992
G2 Y-108.926 I3.175 J0.049
G1 X-154.848 Y-107.642
G2 X-154.847 Y-107.567 I3.175 J-0.017
G1 X-154.812 Y-106.364
G2 X-154.807 Y-106.266 I3.174 J-0.092
G1 X-154.74 Y-105.147
G2 X-154.734 Y-105.066 I3.169 J-0.19
G1 X-154.689 Y-104.54
G2 X-154.683 Y-104.473 I3.163 J-0.271
G1 X-154.629 Y-103.968
G2 X-154.62 Y-103.895 I3.157 J-0.338
G1 X-154.557 Y-103.413
G2 X-154.547 Y-103.338 I3.148 J-0.411
G1 X-154.476 Y-102.88
G2 X-154.46 Y-102.786 I3.138 J-0.486
G1 X-154.379 Y-102.35
G2 X-154.359 Y-102.251 I3.122 J-0.58
G1 X-154.269 Y-101.84
G2 X-154.243 Y-101.734 I3.102 J-0.679
G1 X-154.144 Y-101.346
G2 X-154.109 Y-101.218 I3.076 J-0.785
G1 X-154 Y-100.855
G2 X-153.957 Y-100.722 I3.041 J-0.913
G1 X-153.839 Y-100.384
G2 X-153.781 Y-100.231 I2.998 J-1.046
G1 X-153.653 Y-99.917
G2 X-153.578 Y-99.748 I2.94 J-1.199
G1 X-153.44 Y-99.459
G2 X-153.349 Y-99.282 I2.865 J-1.368
G1 X-153.202 Y-99.018
G2 X-153.073 Y-98.807 I2.774 J-1.545
G1 X-152.915 Y-98.569
G2 X-152.763 Y-98.359 I2.645 J-1.756
G1 X-152.595 Y-98.146
G2 X-152.407 Y-97.928 I2.493 J-1.966
G1 X-152.23 Y-97.741
G2 X-151.995 Y-97.517 I2.305 J-2.184
G1 X-151.807 Y-97.356
G2 X-151.533 Y-97.145 I2.07 J-2.408
G1 X-151.335 Y-97.009
G2 X-151.024 Y-96.822 I1.796 J-2.618
G1 X-150.816 Y-96.712
G2 X-150.476 Y-96.556 I1.485 J-2.806
G1 X-150.258 Y-96.472
G2 X-149.903 Y-96.358 I1.145 J-2.961
G1 X-149.675 Y-96.3
G2 X-149.32 Y-96.23 I0.79 J-3.075
G1 X-149.082 Y-96.197
G2 X-148.739 Y-96.168 I0.435 J-3.145
G1 X-148.49 Y-96.161
G2 X-148.173 Y-96.168 I0.092 J-3.174
G1 X-147.915 Y-96.186
G2 X-147.626 Y-96.22 I-0.225 J-3.167
G1 X-147.359 Y-96.264
G2 X-147.107 Y-96.316 I-0.514 J-3.133
G1 X-146.829 Y-96.385
G2 X-146.604 Y-96.45 I-0.766 J-3.081
G1 X-146.317 Y-96.544
G2 X-146.125 Y-96.614 I-0.991 J-3.016
G1 X-145.828 Y-96.733
G2 X-145.659 Y-96.807 I-1.183 J-2.946
G1 X-145.353 Y-96.951
G2 X-145.206 Y-97.025 I-1.352 J-2.873
G1 X-144.891 Y-97.193
G2 X-144.766 Y-97.264 I-1.499 J-2.799
G1 X-144.442 Y-97.457
G2 X-144.333 Y-97.525 I-1.624 J-2.728
G1 X-144 Y-97.742
G2 X-143.904 Y-97.807 I-1.733 J-2.66
G1 X-143.562 Y-98.048
G2 X-143.478 Y-98.109 I-1.829 J-2.595
G1 X-143.127 Y-98.374
G2 X-143.057 Y-98.428 I-1.913 J-2.534
G1 X-142.698 Y-98.715
G2 X-142.628 Y-98.773 I-1.983 J-2.48
G1 X-142.261 Y-99.084
G2 X-142.206 Y-99.132 I-2.053 J-2.422
G1 X-141.831 Y-99.465
G2 X-141.774 Y-99.516 I-2.108 J-2.374
G1 X-141.392 Y-99.872
G2 X-141.353 Y-99.909 I-2.165 J-2.323
G1 X-140.962 Y-100.286
G2 X-140.896 Y-100.352 I-2.204 J-2.286
G1 X-140.094 Y-101.172
G2 X-140.026 Y-101.244 I-2.27 J-2.22
G1 X-139.197 Y-102.146
G2 X-139.14 Y-102.209 I-2.338 J-2.148
G1 X-138.285 Y-103.191
G2 X-138.236 Y-103.25 I-2.395 J-2.085
G1 X-137.358 Y-104.309
G2 X-137.316 Y-104.36 I-2.444 J-2.026
G1 X-136.417 Y-105.492
G2 X-136.38 Y-105.54 I-2.486 J-1.975
G1 X-135.462 Y-106.742
G2 X-135.43 Y-106.784 I-2.523 J-1.927
G1 X-134.495 Y-108.051
G2 X-134.466 Y-108.091 I-2.555 J-1.885
G1 X-133.516 Y-109.421
G2 X-133.49 Y-109.457 I-2.584 J-1.845
G1 X-132.528 Y-110.845
G2 X-132.505 Y-110.88 I-2.61 J-1.809
G1 X-131.533 Y-112.323
G2 X-131.511 Y-112.356 I-2.633 J-1.774
G1 X-130.531 Y-113.85
G2 X-130.511 Y-113.88 I-2.655 J-1.741
G1 X-129.526 Y-115.42
G2 X-129.508 Y-115.449 I-2.675 J-1.711
G1 X-128.519 Y-117.033
G2 X-128.501 Y-117.062 I-2.693 J-1.682
G1 X-127.511 Y-118.686
G2 X-127.494 Y-118.714 I-2.711 J-1.653
G1 X-126.505 Y-120.374
G2 X-126.489 Y-120.401 I-2.728 J-1.625
G1 X-125.503 Y-122.094
G2 X-125.488 Y-122.12 I-2.744 J-1.598
G1 X-124.507 Y-123.842
G2 X-124.493 Y-123.869 I-2.759 J-1.572
G1 X-123.519 Y-125.617
G2 X-123.505 Y-125.642 I-2.773 J-1.545
G1 X-122.539 Y-127.413
G2 X-122.525 Y-127.439 I-2.787 J-1.52
G1 X-121.569 Y-129.231
G2 X-121.555 Y-129.257 I-2.801 J-1.494
G1 X-120.612 Y-131.065
G2 X-120.599 Y-131.09 I-2.815 J-1.468
G1 X-119.668 Y-132.914
G2 X-119.654 Y-132.941 I-2.828 J-1.443
G1 X-118.739 Y-134.777
G2 X-118.727 Y-134.802 I-2.842 J-1.416
G1 X-117.827 Y-136.648
G2 X-117.814 Y-136.674 I-2.854 J-1.391
G1 X-116.932 Y-138.527
G2 X-116.92 Y-138.554 I-2.867 J-1.365
G1 X-116.055 Y-140.414
G2 X-116.043 Y-140.442 I-2.88 J-1.338
G1 X-115.199 Y-142.305
G2 X-115.187 Y-142.332 I-2.892 J-1.31
G1 X-114.363 Y-144.197
G2 X-114.35 Y-144.226 I-2.904 J-1.283
G1 X-113.548 Y-146.091
G2 X-113.536 Y-146.121 I-2.917 J-1.254
G1 X-112.757 Y-147.985
G2 X-112.745 Y-148.013 I-2.929 J-1.224
G1 X-111.988 Y-149.874
G2 X-111.975 Y-149.905 I-2.941 J-1.196
G1 X-111.243 Y-151.761
G2 X-111.231 Y-151.792 I-2.954 J-1.165
G1 X-110.523 Y-153.644
G2 X-110.512 Y-153.675 I-2.966 J-1.134
G1 X-109.829 Y-155.519
G2 X-109.817 Y-155.552 I-2.977 J-1.103
G1 X-109.16 Y-157.388
G2 X-109.147 Y-157.423 I-2.989 J-1.07
G1 X-108.517 Y-159.251
G2 X-108.506 Y-159.284 I-3.002 J-1.035
G1 X-107.902 Y-161.101
G2 X-107.89 Y-161.139 I-3.013 J-1.002
G1 X-107.314 Y-162.946
G2 X-107.302 Y-162.983 I-3.025 J-0.964
G1 X-106.754 Y-164.779
G2 X-106.743 Y-164.815 I-3.037 J-0.927
G1 X-106.222 Y-166.598
G2 X-106.211 Y-166.639 I-3.048 J-0.891
G1 X-105.719 Y-168.41
G2 X-105.708 Y-168.449 I-3.059 J-0.85
G1 X-105.244 Y-170.206
G2 X-105.233 Y-170.25 I-3.07 J-0.811
G1 X-104.799 Y-171.993
G2 X-104.789 Y-172.034 I-3.081 J-0.767
G1 X-104.383 Y-173.763
G2 X-104.373 Y-173.807 I-3.091 J-0.726
G1 X-103.996 Y-175.521
G2 X-103.986 Y-175.568 I-3.101 J-0.682
G1 X-103.639 Y-177.267
G2 X-103.63 Y-177.313 I-3.111 J-0.635
G1 X-103.312 Y-178.996
G2 X-103.303 Y-179.045 I-3.12 J-0.589
G1 X-103.015 Y-180.713
G2 X-103.007 Y-180.761 I-3.129 J-0.54
G1 X-102.748 Y-182.413
G2 X-102.741 Y-182.465 I-3.137 J-0.492
G1 X-102.512 Y-184.101
G2 X-102.505 Y-184.154 I-3.144 J-0.44
G1 X-102.306 Y-185.774
G2 X-102.3 Y-185.826 I-3.151 J-0.387
G1 X-102.13 Y-187.43
G2 X-102.124 Y-187.486 I-3.157 J-0.335
G1 X-101.984 Y-189.073
G2 X-101.98 Y-189.13 I-3.163 J-0.279
G1 X-101.87 Y-190.7
G2 X-101.866 Y-190.759 I-3.167 J-0.222
G1 X-101.786 Y-192.314
G2 X-101.784 Y-192.372 I-3.171 J-0.163
G1 X-101.733 Y-193.909
G2 X-101.731 Y-193.97 I-3.173 J-0.105
G1 X-101.71 Y-195.492
G2 Y-195.555 I-3.175 J-0.044
G1 X-101.719 Y-197.059
G2 X-101.72 Y-197.121 I-3.175 J0.019
G1 X-101.758 Y-198.609
G2 X-101.76 Y-198.675 I-3.174 J0.081
G1 X-101.825 Y-200.073
G2 X-115.935 Y-234.065 I-48.175 J0.073
X-116.304 Y-234.382 I-2.245 J2.245
G1 X-120.099 Y-237.161
X-120.574 Y-237.509
G2 X-120.892 Y-237.713 I-1.876 J2.562
G1 X-125.452 Y-240.282
G2 X-125.79 Y-240.447 I-1.558 J2.766
G1 X-130.568 Y-242.435
G2 X-130.925 Y-242.559 I-1.22 J2.931
G1 X-135.849 Y-243.95
G2 X-136.217 Y-244.031 I-0.863 J3.055
G1 X-141.214 Y-244.819
G2 X-141.59 Y-244.856 I-0.495 J3.136
G1 X-146.586 Y-245.044
G2 X-146.964 Y-245.035 I-0.119 J3.173
G1 X-151.888 Y-244.632
G2 X-152.262 Y-244.579 I0.259 J3.164
G1 X-157.047 Y-243.606
G2 X-157.412 Y-243.509 I0.633 J3.111
G1 X-161.149 Y-242.272
X-161.991 Y-241.993 Z13.469 F250
G2 X-162.342 Y-241.853 Z13.456 I0.998 J3.014
G1 X-166.656 Y-239.829 Z13.289
G2 X-166.987 Y-239.649 Z13.276 I1.349 J2.874
G1 X-170.981 Y-237.158 Z13.112
G2 X-171.29 Y-236.939 Z13.099 I1.68 J2.694
G1 X-174.913 Y-234.027 Z12.936
G2 X-175.193 Y-233.772 Z12.923 I1.989 J2.475
G1 X-178.403 Y-230.491 Z12.763
G2 X-178.651 Y-230.206 Z12.75 I2.269 J2.22
G1 X-181.412 Y-226.614 Z12.591
G2 X-181.624 Y-226.301 Z12.578 I2.517 J1.935
G1 X-183.909 Y-222.456 Z12.422
G2 X-184.083 Y-222.119 Z12.409 I2.729 J1.622
G1 X-185.87 Y-218.083 Z12.255
G2 X-186.003 Y-217.729 Z12.241 I2.903 J1.285
G1 X-187.28 Y-213.564 Z12.089
G2 X-187.369 Y-213.195 Z12.076 I3.036 J0.931
G1 X-187.754 Y-211.053 Z12
X-188.13 Y-208.966 F850
G2 X-188.175 Y-208.591 I3.125 J0.562
G1 X-188.424 Y-204.36
G2 X-188.423 Y-203.98 I3.17 J0.187
G1 X-188.175 Y-199.903
G2 X-176.994 Y-173.006 I38.175 J-0.096
X-174.188 Y-172.126 I2.245 J-2.245
G1 X-173.505 Y-172.249
X-172.859 Y-172.352
X-172.226 Y-172.442
X-171.607 Y-172.518
X-170.998 Y-172.581
X-170.402 Y-172.63
X-169.821 Y-172.666
X-169.252 Y-172.689
X-168.698 Y-172.699
X-168.156 Y-172.695
X-167.624 Y-172.68
X-167.107 Y-172.652
X-166.606 Y-172.612
X-166.116 Y-172.559
X-165.639 Y-172.494
X-165.173 Y-172.418
X-164.722 Y-172.331
X-164.282 Y-172.232
X-163.852 Y-172.122
X-163.44 Y-172.002
X-163.035 Y-171.87
X-162.64 Y-171.728
X-162.262 Y-171.576
X-161.888 Y-171.412
X-161.528 Y-171.239
X-161.178 Y-171.055
X-160.835 Y-170.86
X-160.503 Y-170.655
X-160.178 Y-170.438
X-159.859 Y-170.21
X-159.552 Y-169.973
X-159.251 Y-169.723
X-158.957 Y-169.462
X-158.669 Y-169.187
X-158.386 Y-168.899
X-158.117 Y-168.605
X-157.848 Y-168.291
X-157.584 Y-167.964
X-157.331 Y-167.627
X-157.082 Y-167.275
X-156.839 Y-166.907
X-156.603 Y-166.528
X-156.373 Y-166.133
X-156.148 Y-165.723
X-155.932 Y-165.301
X-155.722 Y-164.865
X-155.519 Y-164.411
X-155.322 Y-163.945
X-155.132 Y-163.464
X-154.949 Y-162.968
X-154.773 Y-162.459
X-154.605 Y-161.938
X-154.444 Y-161.399
X-154.289 Y-160.849
X-154.143 Y-160.285
X-154.004 Y-159.708
X-153.872 Y-159.117
X-153.747 Y-158.513
X-153.63 Y-157.898
X-153.522 Y-157.281
X-153.324 Y-155.978
X-153.154 Y-154.632
X-153.07 Y-153.85
X-152.995 Y-153.047
X-152.929 Y-152.232
X-152.873 Y-151.41
X-152.784 Y-149.704
X-152.729 Y-147.966
X-152.706 Y-146.187
X-152.711 Y-144.375
X-152.743 Y-142.533
X-152.8 Y-140.667
X-152.879 Y-138.783
X-152.976 Y-136.884
X-153.09 Y-134.978
X-153.218 Y-133.073
X-153.504 Y-129.262
X-153.811 Y-125.511
X-154.114 Y-121.862
G2 X-154.115 Y-121.85 I3.164 J0.263
G1 X-154.392 Y-118.353
G2 X-154.394 Y-118.332 I3.165 J0.251
G1 X-154.516 Y-116.655
G2 X-154.517 Y-116.632 I3.167 J0.23
G1 X-154.623 Y-115.009
G2 X-154.625 Y-114.982 I3.168 J0.207
G1 X-154.714 Y-113.417
G2 X-154.716 Y-113.383 I3.17 J0.18
G1 X-154.785 Y-111.882
G2 X-154.786 Y-111.838 I3.172 J0.146
G1 X-154.832 Y-110.406
G2 X-154.834 Y-110.353 I3.173 J0.102
G1 X-154.855 Y-108.992
G2 Y-108.926 I3.175 J0.049
G1 X-154.848 Y-107.642
G2 X-154.847 Y-107.567 I3.175 J-0.017
G1 X-154.812 Y-106.364
G2 X-154.807 Y-106.266 I3.174 J-0.092
G1 X-154.74 Y-105.147
G2 X-154.734 Y-105.066 I3.169 J-0.19
G1 X-154.689 Y-104.54
G2 X-154.683 Y-104.473 I3.163 J-0.271
G1 X-154.629 Y-103.968
G2 X-154.62 Y-103.895 I3.157 J-0.338
G1 X-154.557 Y-103.413
G2 X-154.547 Y-103.338 I3.148 J-0.411
G1 X-154.476 Y-102.88
G2 X-154.46 Y-102.786 I3.138 J-0.486
G1 X-154.379 Y-102.35
G2 X-154.359 Y-102.251 I3.122 J-0.58
G1 X-154.269 Y-101.84
G2 X-154.243 Y-101.734 I3.102 J-0.679
G1 X-154.144 Y-101.346
G2 X-154.109 Y-101.218 I3.076 J-0.785
G1 X-154 Y-100.855
G2 X-153.957 Y-100.722 I3.041 J-0.913
G1 X-153.839 Y-100.384
G2 X-153.781 Y-100.231 I2.998 J-1.046
G1 X-153.653 Y-99.917
G2 X-153.578 Y-99.748 I2.94 J-1.199
G1 X-153.44 Y-99.459
G2 X-153.349 Y-99.282 I2.865 J-1.368
G1 X-153.202 Y-99.018
G2 X-153.073 Y-98.807 I2.774 J-1.545
G1 X-152.915 Y-98.569
G2 X-152.763 Y-98.359 I2.645 J-1.756
G1 X-152.595 Y-98.146
G2 X-152.407 Y-97.928 I2.493 J-1.966
G1 X-152.23 Y-97.741
G2 X-151.995 Y-97.517 I2.305 J-2.184
G1 X-151.807 Y-97.356
G2 X-151.533 Y-97.145 I2.07 J-2.408
G1 X-151.335 Y-97.009
G2 X-151.024 Y-96.822 I1.796 J-2.618
G1 X-150.816 Y-96.712
G2 X-150.476 Y-96.556 I1.485 J-2.806
G1 X-150.258 Y-96.472
G2 X-149.903 Y-96.358 I1.145 J-2.961
G1 X-149.675 Y-96.3
G2 X-149.32 Y-96.23 I0.79 J-3.075
G1 X-149.082 Y-96.197
G2 X-148.739 Y-96.168 I0.435 J-3.145
G1 X-148.49 Y-96.161
G2 X-148.173 Y-96.168 I0.092 J-3.174
G1 X-147.915 Y-96.186
G2 X-147.626 Y-96.22 I-0.225 J-3.167
G1 X-147.359 Y-96.264
G2 X-147.107 Y-96.316 I-0.514 J-3.133
G1 X-146.829 Y-96.385
G2 X-146.604 Y-96.45 I-0.766 J-3.081
G1 X-146.317 Y-96.544
G2 X-146.125 Y-96.614 I-0.991 J-3.016
G1 X-145.828 Y-96.733
G2 X-145.659 Y-96.807 I-1.183 J-2.946
G1 X-145.353 Y-96.951
G2 X-145.206 Y-97.025 I-1.352 J-2.873
G1 X-144.891 Y-97.193
G2 X-144.766 Y-97.264 I-1.499 J-2.799
G1 X-144.442 Y-97.457
G2 X-144.333 Y-97.525 I-1.624 J-2.728
G1 X-144 Y-97.742
G2 X-143.904 Y-97.807 I-1.733 J-2.66
G1 X-143.562 Y-98.048
G2 X-143.478 Y-98.109 I-1.829 J-2.595
G1 X-143.127 Y-98.374
G2 X-143.057 Y-98.428 I-1.913 J-2.534
G1 X-142.698 Y-98.715
G2 X-142.628 Y-98.773 I-1.983 J-2.48
G1 X-142.261 Y-99.084
G2 X-142.206 Y-99.132 I-2.053 J-2.422
G1 X-141.831 Y-99.465
G2 X-141.774 Y-99.516 I-2.108 J-2.374
G1 X-141.392 Y-99.872
G2 X-141.353 Y-99.909 I-2.165 J-2.323
G1 X-140.962 Y-100.286
G2 X-140.896 Y-100.352 I-2.204 J-2.286
G1 X-140.094 Y-101.172
G2 X-140.026 Y-101.244 I-2.27 J-2.22
G1 X-139.197 Y-102.146
G2 X-139.14 Y-102.209 I-2.338 J-2.148
G1 X-138.285 Y-103.191
G2 X-138.236 Y-103.25 I-2.395 J-2.085
G1 X-137.358 Y-104.309
G2 X-137.316 Y-104.36 I-2.444 J-2.026
G1 X-136.417 Y-105.492
G2 X-136.38 Y-105.54 I-2.486 J-1.975
G1 X-135.462 Y-106.742
G2 X-135.43 Y-106.784 I-2.523 J-1.927
G1 X-134.495 Y-108.051
G2 X-134.466 Y-108.091 I-2.555 J-1.885
G1 X-133.516 Y-109.421
G2 X-133.49 Y-109.457 I-2.584 J-1.845
G1 X-132.528 Y-110.845
G2 X-132.505 Y-110.88 I-2.61 J-1.809
G1 X-131.533 Y-112.323
G2 X-131.511 Y-112.356 I-2.633 J-1.774
G1 X-130.531 Y-113.85
G2 X-130.511 Y-113.88 I-2.655 J-1.741
G1 X-129.526 Y-115.42
G2 X-129.508 Y-115.449 I-2.675 J-1.711
G1 X-128.519 Y-117.033
G2 X-128.501 Y-117.062 I-2.693 J-1.682
G1 X-127.511 Y-118.686
G2 X-127.494 Y-118.714 I-2.711 J-1.653
G1 X-126.505 Y-120.374
G2 X-126.489 Y-120.401 I-2.728 J-1.625
G1 X-125.503 Y-122.094
G2 X-125.488 Y-122.12 I-2.744 J-1.598
G1 X-124.507 Y-123.842
G2 X-124.493 Y-123.869 I-2.759 J-1.572
G1 X-123.519 Y-125.617
G2 X-123.505 Y-125.642 I-2.773 J-1.545
G1 X-122.539 Y-127.413
G2 X-122.525 Y-127.439 I-2.787 J-1.52
G1 X-121.569 Y-129.231
G2 X-121.555 Y-129.257 I-2.801 J-1.494
G1 X-120.612 Y-131.065
G2 X-120.599 Y-131.09 I-2.815 J-1.468
G1 X-119.668 Y-132.914
G2 X-119.654 Y-132.941 I-2.828 J-1.443
G1 X-118.739 Y-134.777
G2 X-118.727 Y-134.802 I-2.842 J-1.416
G1 X-117.827 Y-136.648
G2 X-117.814 Y-136.674 I-2.854 J-1.391
G1 X-116.932 Y-138.527
G2 X-116.92 Y-138.554 I-2.867 J-1.365
G1 X-116.055 Y-140.414
G2 X-116.043 Y-140.442 I-2.88 J-1.338
G1 X-115.199 Y-142.305
G2 X-115.187 Y-142.332 I-2.892 J-1.31
G1 X-114.363 Y-144.197
G2 X-114.35 Y-144.226 I-2.904 J-1.283
G1 X-113.548 Y-146.091
G2 X-113.536 Y-146.121 I-2.917 J-1.254
G1 X-112.757 Y-147.985
G2 X-112.745 Y-148.013 I-2.929 J-1.224
G1 X-111.988 Y-149.874
G2 X-111.975 Y-149.905 I-2.941 J-1.196
G1 X-111.243 Y-151.761
G2 X-111.231 Y-151.792 I-2.954 J-1.165
G1 X-110.523 Y-153.644
G2 X-110.512 Y-153.675 I-2.966 J-1.134
G1 X-109.829 Y-155.519
G2 X-109.817 Y-155.552 I-2.977 J-1.103
G1 X-109.16 Y-157.388
G2 X-109.147 Y-157.423 I-2.989 J-1.07
G1 X-108.517 Y-159.251
G2 X-108.506 Y-159.284 I-3.002 J-1.035
G1 X-107.902 Y-161.101
G2 X-107.89 Y-161.139 I-3.013 J-1.002
G1 X-107.314 Y-162.946
G2 X-107.302 Y-162.983 I-3.025 J-0.964
G1 X-106.754 Y-164.779
G2 X-106.743 Y-164.815 I-3.037 J-0.927
G1 X-106.222 Y-166.598
G2 X-106.211 Y-166.639 I-3.048 J-0.891
G1 X-105.719 Y-168.41
G2 X-105.708 Y-168.449 I-3.059 J-0.85
G1 X-105.244 Y-170.206
G2 X-105.233 Y-170.25 I-3.07 J-0.811
G1 X-104.799 Y-171.993
G2 X-104.789 Y-172.034 I-3.081 J-0.767
G1 X-104.383 Y-173.763
G2 X-104.373 Y-173.807 I-3.091 J-0.726
G1 X-103.996 Y-175.521
G2 X-103.986 Y-175.568 I-3.101 J-0.682
G1 X-103.639 Y-177.267
G2 X-103.63 Y-177.313 I-3.111 J-0.635
G1 X-103.312 Y-178.996
G2 X-103.303 Y-179.045 I-3.12 J-0.589
G1 X-103.015 Y-180.713
G2 X-103.007 Y-180.761 I-3.129 J-0.54
G1 X-102.748 Y-182.413
G2 X-102.741 Y-182.465 I-3.137 J-0.492
G1 X-102.512 Y-184.101
G2 X-102.505 Y-184.154 I-3.144 J-0.44
G1 X-102.306 Y-185.774
G2 X-102.3 Y-185.826 I-3.151 J-0.387
G1 X-102.13 Y-187.43
G2 X-102.124 Y-187.486 I-3.157 J-0.335
G1 X-101.984 Y-189.073
G2 X-101.98 Y-189.13 I-3.163 J-0.279
G1 X-101.87 Y-190.7
G2 X-101.866 Y-190.759 I-3.167 J-0.222
G1 X-101.786 Y-192.314
G2 X-101.784 Y-192.372 I-3.171 J-0.163
G1 X-101.733 Y-193.909
G2 X-101.731 Y-193.97 I-3.173 J-0.105
G1 X-101.71 Y-195.492
G2 Y-195.555 I-3.175 J-0.044
G1 X-101.719 Y-197.059
G2 X-101.72 Y-197.121 I-3.175 J0.019
G1 X-101.758 Y-198.609
G2 X-101.76 Y-198.675 I-3.174 J0.081
G1 X-101.825 Y-200.073
G2 X-115.935 Y-234.065 I-48.175 J0.073
X-116.304 Y-234.382 I-2.245 J2.245
G1 X-120.574 Y-237.509
G2 X-120.892 Y-237.713 I-1.876 J2.562
G1 X-125.452 Y-240.282
G2 X-125.79 Y-240.447 I-1.558 J2.766
G1 X-130.568 Y-242.435
G2 X-130.925 Y-242.559 I-1.22 J2.931
G1 X-135.849 Y-243.95
G2 X-136.217 Y-244.031 I-0.863 J3.055
G1 X-141.214 Y-244.819
G2 X-141.59 Y-244.856 I-0.495 J3.136
G1 X-146.586 Y-245.044
G2 X-146.964 Y-245.035 I-0.119 J3.173
G1 X-151.888 Y-244.632
G2 X-152.262 Y-244.579 I0.259 J3.164
G1 X-157.047 Y-243.606
G2 X-157.412 Y-243.509 I0.633 J3.111
G1 X-161.149 Y-242.272
X-161.991 Y-241.993
G2 X-162.342 Y-241.853 I0.998 J3.014
G1 X-166.656 Y-239.829
G2 X-166.987 Y-239.649 I1.349 J2.874
G1 X-170.981 Y-237.158
G2 X-171.29 Y-236.939 I1.68 J2.694
G1 X-174.913 Y-234.027
G2 X-175.193 Y-233.772 I1.989 J2.475
G1 X-178.403 Y-230.491
G2 X-178.651 Y-230.206 I2.269 J2.22
G1 X-181.412 Y-226.614
G2 X-181.624 Y-226.301 I2.517 J1.935
G1 X-183.909 Y-222.456
G2 X-184.083 Y-222.119 I2.729 J1.622
G1 X-185.87 Y-218.083
G2 X-186.003 Y-217.729 I2.903 J1.285
G1 X-187.28 Y-213.564
G2 X-187.369 Y-213.195 I3.036 J0.931
G1 X-187.754 Y-211.053
X-188.13 Y-208.966 Z11.926 F250
G2 X-188.175 Y-208.591 Z11.913 I3.125 J0.562
G1 X-188.424 Y-204.36 Z11.765
G2 X-188.423 Y-203.98 Z11.751 I3.17 J0.187
G1 X-188.175 Y-199.903 Z11.609
G2 X-176.994 Y-173.006 Z10.565 I38.175 J-0.096
X-175.372 Y-172.138 Z10.5 I2.245 J-2.245
X-174.188 Y-172.126 I0.623 J-3.113 F850
G1 X-173.505 Y-172.249
X-172.859 Y-172.352
X-172.226 Y-172.442
X-171.607 Y-172.518
X-170.998 Y-172.581
X-170.402 Y-172.63
X-169.821 Y-172.666
X-169.252 Y-172.689
X-168.698 Y-172.699
X-168.156 Y-172.695
X-167.624 Y-172.68
X-167.107 Y-172.652
X-166.606 Y-172.612
X-166.116 Y-172.559
X-165.639 Y-172.494
X-165.173 Y-172.418
X-164.722 Y-172.331
X-164.282 Y-172.232
X-163.852 Y-172.122
X-163.44 Y-172.002
X-163.035 Y-171.87
X-162.64 Y-171.728
X-162.262 Y-171.576
X-161.888 Y-171.412
X-161.528 Y-171.239
X-161.178 Y-171.055
X-160.835 Y-170.86
X-160.503 Y-170.655
X-160.178 Y-170.438
X-159.859 Y-170.21
X-159.552 Y-169.973
X-159.251 Y-169.723
X-158.957 Y-169.462
X-158.669 Y-169.187
X-158.386 Y-168.899
X-158.117 Y-168.605
X-157.848 Y-168.291
X-157.584 Y-167.964
X-157.331 Y-167.627
X-157.082 Y-167.275
X-156.839 Y-166.907
X-156.603 Y-166.528
X-156.373 Y-166.133
X-156.148 Y-165.723
X-155.932 Y-165.301
X-155.722 Y-164.865
X-155.519 Y-164.411
X-155.322 Y-163.945
X-155.132 Y-163.464
X-154.949 Y-162.968
X-154.773 Y-162.459
X-154.605 Y-161.938
X-154.444 Y-161.399
X-154.289 Y-160.849
X-154.143 Y-160.285
X-154.004 Y-159.708
X-153.872 Y-159.117
X-153.747 Y-158.513
X-153.63 Y-157.898
X-153.522 Y-157.281
X-153.324 Y-155.978
X-153.154 Y-154.632
X-153.07 Y-153.85
X-152.995 Y-153.047
X-152.929 Y-152.232
X-152.873 Y-151.41
X-152.784 Y-149.704
X-152.729 Y-147.966
X-152.706 Y-146.187
X-152.711 Y-144.375
X-152.743 Y-142.533
X-152.8 Y-140.667
X-152.879 Y-138.783
X-152.976 Y-136.884
X-153.09 Y-134.978
X-153.218 Y-133.073
X-153.504 Y-129.262
X-153.811 Y-125.511
X-154.114 Y-121.862
G2 X-154.115 Y-121.85 I3.164 J0.263
G1 X-154.392 Y-118.353
G2 X-154.394 Y-118.332 I3.165 J0.251
G1 X-154.516 Y-116.655
G2 X-154.517 Y-116.632 I3.167 J0.23
G1 X-154.623 Y-115.009
G2 X-154.625 Y-114.982 I3.168 J0.207
G1 X-154.714 Y-113.417
G2 X-154.716 Y-113.383 I3.17 J0.18
G1 X-154.785 Y-111.882
G2 X-154.786 Y-111.838 I3.172 J0.146
G1 X-154.832 Y-110.406
G2 X-154.834 Y-110.353 I3.173 J0.102
G1 X-154.855 Y-108.992
G2 Y-108.926 I3.175 J0.049
G1 X-154.848 Y-107.642
G2 X-154.847 Y-107.567 I3.175 J-0.017
G1 X-154.812 Y-106.364
G2 X-154.807 Y-106.266 I3.174 J-0.092
G1 X-154.74 Y-105.147
G2 X-154.734 Y-105.066 I3.169 J-0.19
G1 X-154.689 Y-104.54
G2 X-154.683 Y-104.473 I3.163 J-0.271
G1 X-154.629 Y-103.968
G2 X-154.62 Y-103.895 I3.157 J-0.338
G1 X-154.557 Y-103.413
G2 X-154.547 Y-103.338 I3.148 J-0.411
G1 X-154.476 Y-102.88
G2 X-154.46 Y-102.786 I3.138 J-0.486
G1 X-154.379 Y-102.35
G2 X-154.359 Y-102.251 I3.122 J-0.58
G1 X-154.269 Y-101.84
G2 X-154.243 Y-101.734 I3.102 J-0.679
G1 X-154.144 Y-101.346
G2 X-154.109 Y-101.218 I3.076 J-0.785
G1 X-154 Y-100.855
G2 X-153.957 Y-100.722 I3.041 J-0.913
G1 X-153.839 Y-100.384
G2 X-153.781 Y-100.231 I2.998 J-1.046
G1 X-153.653 Y-99.917
G2 X-153.578 Y-99.748 I2.94 J-1.199
G1 X-153.44 Y-99.459
G2 X-153.349 Y-99.282 I2.865 J-1.368
G1 X-153.202 Y-99.018
G2 X-153.073 Y-98.807 I2.774 J-1.545
G1 X-152.915 Y-98.569
G2 X-152.763 Y-98.359 I2.645 J-1.756
G1 X-152.595 Y-98.146
G2 X-152.407 Y-97.928 I2.493 J-1.966
G1 X-152.23 Y-97.741
G2 X-151.995 Y-97.517 I2.305 J-2.184
G1 X-151.807 Y-97.356
G2 X-151.533 Y-97.145 I2.07 J-2.408
G1 X-151.335 Y-97.009
G2 X-151.024 Y-96.822 I1.796 J-2.618
G1 X-150.816 Y-96.712
G2 X-150.476 Y-96.556 I1.485 J-2.806
G1 X-150.258 Y-96.472
G2 X-149.903 Y-96.358 I1.145 J-2.961
G1 X-149.675 Y-96.3
G2 X-149.32 Y-96.23 I0.79 J-3.075
G1 X-149.082 Y-96.197
G2 X-148.739 Y-96.168 I0.435 J-3.145
G1 X-148.49 Y-96.161
G2 X-148.173 Y-96.168 I0.092 J-3.174
G1 X-147.915 Y-96.186
G2 X-147.626 Y-96.22 I-0.225 J-3.167
G1 X-147.359 Y-96.264
G2 X-147.107 Y-96.316 I-0.514 J-3.133
G1 X-146.829 Y-96.385
G2 X-146.604 Y-96.45 I-0.766 J-3.081
G1 X-146.317 Y-96.544
G2 X-146.125 Y-96.614 I-0.991 J-3.016
G1 X-145.828 Y-96.733
G2 X-145.659 Y-96.807 I-1.183 J-2.946
G1 X-145.353 Y-96.951
G2 X-145.206 Y-97.025 I-1.352 J-2.873
G1 X-144.891 Y-97.193
G2 X-144.766 Y-97.264 I-1.499 J-2.799
G1 X-144.442 Y-97.457
G2 X-144.333 Y-97.525 I-1.624 J-2.728
G1 X-144 Y-97.742
G2 X-143.904 Y-97.807 I-1.733 J-2.66
G1 X-143.562 Y-98.048
G2 X-143.478 Y-98.109 I-1.829 J-2.595
G1 X-143.127 Y-98.374
G2 X-143.057 Y-98.428 I-1.913 J-2.534
G1 X-142.698 Y-98.715
G2 X-142.628 Y-98.773 I-1.983 J-2.48
G1 X-142.261 Y-99.084
G2 X-142.206 Y-99.132 I-2.053 J-2.422
G1 X-141.831 Y-99.465
G2 X-141.774 Y-99.516 I-2.108 J-2.374
G1 X-141.392 Y-99.872
G2 X-141.353 Y-99.909 I-2.165 J-2.323
G1 X-140.962 Y-100.286
G2 X-140.896 Y-100.352 I-2.204 J-2.286
G1 X-140.094 Y-101.172
G2 X-140.026 Y-101.244 I-2.27 J-2.22
G1 X-139.197 Y-102.146
G2 X-139.14 Y-102.209 I-2.338 J-2.148
G1 X-138.285 Y-103.191
G2 X-138.236 Y-103.25 I-2.395 J-2.085
G1 X-137.358 Y-104.309
G2 X-137.316 Y-104.36 I-2.444 J-2.026
G1 X-136.417 Y-105.492
G2 X-136.38 Y-105.54 I-2.486 J-1.975
G1 X-135.462 Y-106.742
G2 X-135.43 Y-106.784 I-2.523 J-1.927
G1 X-134.495 Y-108.051
G2 X-134.466 Y-108.091 I-2.555 J-1.885
G1 X-133.516 Y-109.421
G2 X-133.49 Y-109.457 I-2.584 J-1.845
G1 X-132.528 Y-110.845
G2 X-132.505 Y-110.88 I-2.61 J-1.809
G1 X-131.533 Y-112.323
G2 X-131.511 Y-112.356 I-2.633 J-1.774
G1 X-130.531 Y-113.85
G2 X-130.511 Y-113.88 I-2.655 J-1.741
G1 X-129.526 Y-115.42
G2 X-129.508 Y-115.449 I-2.675 J-1.711
G1 X-128.519 Y-117.033
G2 X-128.501 Y-117.062 I-2.693 J-1.682
G1 X-127.511 Y-118.686
G2 X-127.494 Y-118.714 I-2.711 J-1.653
G1 X-126.505 Y-120.374
G2 X-126.489 Y-120.401 I-2.728 J-1.625
G1 X-125.503 Y-122.094
G2 X-125.488 Y-122.12 I-2.744 J-1.598
G1 X-124.507 Y-123.842
G2 X-124.493 Y-123.869 I-2.759 J-1.572
G1 X-123.519 Y-125.617
G2 X-123.505 Y-125.642 I-2.773 J-1.545
G1 X-122.539 Y-127.413
G2 X-122.525 Y-127.439 I-2.787 J-1.52
G1 X-121.569 Y-129.231
G2 X-121.555 Y-129.257 I-2.801 J-1.494
G1 X-120.612 Y-131.065
G2 X-120.599 Y-131.09 I-2.815 J-1.468
G1 X-119.668 Y-132.914
G2 X-119.654 Y-132.941 I-2.828 J-1.443
G1 X-118.739 Y-134.777
G2 X-118.727 Y-134.802 I-2.842 J-1.416
G1 X-117.827 Y-136.648
G2 X-117.814 Y-136.674 I-2.854 J-1.391
G1 X-116.932 Y-138.527
G2 X-116.92 Y-138.554 I-2.867 J-1.365
G1 X-116.055 Y-140.414
G2 X-116.043 Y-140.442 I-2.88 J-1.338
G1 X-115.199 Y-142.305
G2 X-115.187 Y-142.332 I-2.892 J-1.31
G1 X-114.363 Y-144.197
G2 X-114.35 Y-144.226 I-2.904 J-1.283
G1 X-113.548 Y-146.091
G2 X-113.536 Y-146.121 I-2.917 J-1.254
G1 X-112.757 Y-147.985
G2 X-112.745 Y-148.013 I-2.929 J-1.224
G1 X-111.988 Y-149.874
G2 X-111.975 Y-149.905 I-2.941 J-1.196
G1 X-111.243 Y-151.761
G2 X-111.231 Y-151.792 I-2.954 J-1.165
G1 X-110.523 Y-153.644
G2 X-110.512 Y-153.675 I-2.966 J-1.134
G1 X-109.829 Y-155.519
G2 X-109.817 Y-155.552 I-2.977 J-1.103
G1 X-109.16 Y-157.388
G2 X-109.147 Y-157.423 I-2.989 J-1.07
G1 X-108.517 Y-159.251
G2 X-108.506 Y-159.284 I-3.002 J-1.035
G1 X-107.902 Y-161.101
G2 X-107.89 Y-161.139 I-3.013 J-1.002
G1 X-107.314 Y-162.946
G2 X-107.302 Y-162.983 I-3.025 J-0.964
G1 X-106.754 Y-164.779
G2 X-106.743 Y-164.815 I-3.037 J-0.927
G1 X-106.222 Y-166.598
G2 X-106.211 Y-166.639 I-3.048 J-0.891
G1 X-105.719 Y-168.41
G2 X-105.708 Y-168.449 I-3.059 J-0.85
G1 X-105.244 Y-170.206
G2 X-105.233 Y-170.25 I-3.07 J-0.811
G1 X-104.799 Y-171.993
G2 X-104.789 Y-172.034 I-3.081 J-0.767
G1 X-104.383 Y-173.763
G2 X-104.373 Y-173.807 I-3.091 J-0.726
G1 X-103.996 Y-175.521
G2 X-103.986 Y-175.568 I-3.101 J-0.682
G1 X-103.639 Y-177.267
G2 X-103.63 Y-177.313 I-3.111 J-0.635
G1 X-103.312 Y-178.996
G2 X-103.303 Y-179.045 I-3.12 J-0.589
G1 X-103.015 Y-180.713
G2 X-103.007 Y-180.761 I-3.129 J-0.54
G1 X-102.748 Y-182.413
G2 X-102.741 Y-182.465 I-3.137 J-0.492
G1 X-102.512 Y-184.101
G2 X-102.505 Y-184.154 I-3.144 J-0.44
G1 X-102.306 Y-185.774
G2 X-102.3 Y-185.826 I-3.151 J-0.387
G1 X-102.13 Y-187.43
G2 X-102.124 Y-187.486 I-3.157 J-0.335
G1 X-101.984 Y-189.073
G2 X-101.98 Y-189.13 I-3.163 J-0.279
G1 X-101.87 Y-190.7
G2 X-101.866 Y-190.759 I-3.167 J-0.222
G1 X-101.786 Y-192.314
G2 X-101.784 Y-192.372 I-3.171 J-0.163
G1 X-101.733 Y-193.909
G2 X-101.731 Y-193.97 I-3.173 J-0.105
G1 X-101.71 Y-195.492
G2 Y-195.555 I-3.175 J-0.044
G1 X-101.719 Y-197.059
G2 X-101.72 Y-197.121 I-3.175 J0.019
G1 X-101.758 Y-198.609
G2 X-101.76 Y-198.675 I-3.174 J0.081
G1 X-101.825 Y-200.073
G2 X-115.935 Y-234.065 I-48.175 J0.073
X-116.304 Y-234.382 I-2.245 J2.245
G1 X-120.574 Y-237.509
G2 X-120.892 Y-237.713 I-1.876 J2.562
G1 X-125.452 Y-240.282
G2 X-125.79 Y-240.447 I-1.558 J2.766
G1 X-130.568 Y-242.435
G2 X-130.925 Y-242.559 I-1.22 J2.931
G1 X-135.849 Y-243.95
G2 X-136.217 Y-244.031 I-0.863 J3.055
G1 X-141.214 Y-244.819
G2 X-141.59 Y-244.856 I-0.495 J3.136
G1 X-146.586 Y-245.044
G2 X-146.964 Y-245.035 I-0.119 J3.173
G1 X-151.888 Y-244.632
G2 X-152.262 Y-244.579 I0.259 J3.164
G1 X-157.047 Y-243.606
G2 X-157.412 Y-243.509 I0.633 J3.111
G1 X-161.991 Y-241.993
G2 X-162.342 Y-241.853 I0.998 J3.014
G1 X-166.656 Y-239.829
G2 X-166.987 Y-239.649 I1.349 J2.874
G1 X-170.981 Y-237.158
G2 X-171.29 Y-236.939 I1.68 J2.694
G1 X-174.913 Y-234.027
G2 X-175.193 Y-233.772 I1.989 J2.475
G1 X-178.403 Y-230.491
G2 X-178.651 Y-230.206 I2.269 J2.22
G1 X-181.412 Y-226.614
G2 X-181.624 Y-226.301 I2.517 J1.935
G1 X-183.909 Y-222.456
G2 X-184.083 Y-222.119 I2.729 J1.622
G1 X-185.87 Y-218.083
G2 X-186.003 Y-217.729 I2.903 J1.285
G1 X-187.28 Y-213.564
G2 X-187.369 Y-213.195 I3.036 J0.931
G1 X-187.754 Y-211.053
X-188.13 Y-208.966
G2 X-188.175 Y-208.591 I3.125 J0.562
G1 X-188.424 Y-204.36
G2 X-188.423 Y-203.98 I3.17 J0.187
G1 X-188.175 Y-199.903
G2 X-176.994 Y-173.006 I38.175 J-0.096
X-175.372 Y-172.138 I2.245 J-2.245
X-174.188 Y-172.126 Z10.458 I0.623 J-3.113 F250
G1 X-173.505 Y-172.249 Z10.434
X-172.859 Y-172.352 Z10.411
X-172.226 Y-172.442 Z10.389
X-171.607 Y-172.518 Z10.367
X-170.998 Y-172.581 Z10.346
X-170.402 Y-172.63 Z10.325
X-169.821 Y-172.666 Z10.305
X-169.252 Y-172.689 Z10.285
X-168.698 Y-172.699 Z10.265
X-168.156 Y-172.695 Z10.247
X-167.624 Y-172.68 Z10.228
X-167.107 Y-172.652 Z10.21
X-166.606 Y-172.612 Z10.192
X-166.116 Y-172.559 Z10.175
X-165.639 Y-172.494 Z10.158
X-165.173 Y-172.418 Z10.142
X-164.722 Y-172.331 Z10.126
X-164.282 Y-172.232 Z10.11
X-163.852 Y-172.122 Z10.094
X-163.44 Y-172.002 Z10.079
X-163.035 Y-171.87 Z10.065
X-162.64 Y-171.728 Z10.05
X-162.262 Y-171.576 Z10.036
X-161.888 Y-171.412 Z10.021
X-161.528 Y-171.239 Z10.008
X-161.178 Y-171.055 Z9.994
X-160.835 Y-170.86 Z9.98
X-160.503 Y-170.655 Z9.966
X-160.178 Y-170.438 Z9.953
X-159.859 Y-170.21 Z9.939
X-159.552 Y-169.973 Z9.925
X-159.251 Y-169.723 Z9.912
X-158.957 Y-169.462 Z9.898
X-158.669 Y-169.187 Z9.884
X-158.386 Y-168.899 Z9.87
X-158.117 Y-168.605 Z9.856
X-157.848 Y-168.291 Z9.842
X-157.584 Y-167.964 Z9.827
X-157.331 Y-167.627 Z9.812
X-157.082 Y-167.275 Z9.797
X-156.839 Y-166.907 Z9.782
X-156.603 Y-166.528 Z9.766
X-156.373 Y-166.133 Z9.75
X-156.148 Y-165.723 Z9.734
X-155.932 Y-165.301 Z9.717
X-155.722 Y-164.865 Z9.7
X-155.519 Y-164.411 Z9.683
X-155.322 Y-163.945 Z9.665
X-155.132 Y-163.464 Z9.647
X-154.949 Y-162.968 Z9.629
X-154.773 Y-162.459 Z9.61
X-154.605 Y-161.938 Z9.591
X-154.444 Y-161.399 Z9.571
X-154.289 Y-160.849 Z9.551
X-154.143 Y-160.285 Z9.531
X-154.004 Y-159.708 Z9.51
X-153.872 Y-159.117 Z9.489
X-153.747 Y-158.513 Z9.468
X-153.63 Y-157.898 Z9.446
X-153.522 Y-157.281 Z9.424
X-153.324 Y-155.978 Z9.378
X-153.154 Y-154.632 Z9.331
X-153.07 Y-153.85 Z9.303
X-152.995 Y-153.047 Z9.275
X-152.929 Y-152.232 Z9.246
X-152.873 Y-151.41 Z9.218
X-152.784 Y-149.704 Z9.158
X-152.729 Y-147.966 Z9.097
X-152.706 Y-146.187 Z9.035
X-152.709 Y-145.183 Z9
X-152.711 Y-144.375 F850
X-152.743 Y-142.533
X-152.8 Y-140.667
X-152.879 Y-138.783
X-152.976 Y-136.884
X-153.09 Y-134.978
X-153.218 Y-133.073
X-153.504 Y-129.262
X-153.811 Y-125.511
X-154.114 Y-121.862
G2 X-154.115 Y-121.85 I3.164 J0.263
G1 X-154.392 Y-118.353
G2 X-154.394 Y-118.332 I3.165 J0.251
G1 X-154.516 Y-116.655
G2 X-154.517 Y-116.632 I3.167 J0.23
G1 X-154.623 Y-115.009
G2 X-154.625 Y-114.982 I3.168 J0.207
G1 X-154.714 Y-113.417
G2 X-154.716 Y-113.383 I3.17 J0.18
G1 X-154.785 Y-111.882
G2 X-154.786 Y-111.838 I3.172 J0.146
G1 X-154.832 Y-110.406
G2 X-154.834 Y-110.353 I3.173 J0.102
G1 X-154.855 Y-108.992
G2 Y-108.926 I3.175 J0.049
G1 X-154.848 Y-107.642
G2 X-154.847 Y-107.567 I3.175 J-0.017
G1 X-154.812 Y-106.364
G2 X-154.807 Y-106.266 I3.174 J-0.092
G1 X-154.74 Y-105.147
G2 X-154.734 Y-105.066 I3.169 J-0.19
G1 X-154.689 Y-104.54
G2 X-154.683 Y-104.473 I3.163 J-0.271
G1 X-154.629 Y-103.968
G2 X-154.62 Y-103.895 I3.157 J-0.338
G1 X-154.557 Y-103.413
G2 X-154.547 Y-103.338 I3.148 J-0.411
G1 X-154.476 Y-102.88
G2 X-154.46 Y-102.786 I3.138 J-0.486
G1 X-154.379 Y-102.35
G2 X-154.359 Y-102.251 I3.122 J-0.58
G1 X-154.269 Y-101.84
G2 X-154.243 Y-101.734 I3.102 J-0.679
G1 X-154.144 Y-101.346
G2 X-154.109 Y-101.218 I3.076 J-0.785
G1 X-154 Y-100.855
G2 X-153.957 Y-100.722 I3.041 J-0.913
G1 X-153.839 Y-100.384
G2 X-153.781 Y-100.231 I2.998 J-1.046
G1 X-153.653 Y-99.917
G2 X-153.578 Y-99.748 I2.94 J-1.199
G1 X-153.44 Y-99.459
G2 X-153.349 Y-99.282 I2.865 J-1.368
G1 X-153.202 Y-99.018
G2 X-153.073 Y-98.807 I2.774 J-1.545
G1 X-152.915 Y-98.569
G2 X-152.763 Y-98.359 I2.645 J-1.756
G1 X-152.595 Y-98.146
G2 X-152.407 Y-97.928 I2.493 J-1.966
G1 X-152.23 Y-97.741
G2 X-151.995 Y-97.517 I2.305 J-2.184
G1 X-151.807 Y-97.356
G2 X-151.533 Y-97.145 I2.07 J-2.408
G1 X-151.335 Y-97.009
G2 X-151.024 Y-96.822 I1.796 J-2.618
G1 X-150.816 Y-96.712
G2 X-150.476 Y-96.556 I1.485 J-2.806
G1 X-150.258 Y-96.472
G2 X-149.903 Y-96.358 I1.145 J-2.961
G1 X-149.675 Y-96.3
G2 X-149.32 Y-96.23 I0.79 J-3.075
G1 X-149.082 Y-96.197
G2 X-148.739 Y-96.168 I0.435 J-3.145
G1 X-148.49 Y-96.161
G2 X-148.173 Y-96.168 I0.092 J-3.174
G1 X-147.915 Y-96.186
G2 X-147.626 Y-96.22 I-0.225 J-3.167
G1 X-147.359 Y-96.264
G2 X-147.107 Y-96.316 I-0.514 J-3.133
G1 X-146.829 Y-96.385
G2 X-146.604 Y-96.45 I-0.766 J-3.081
G1 X-146.317 Y-96.544
G2 X-146.125 Y-96.614 I-0.991 J-3.016
G1 X-145.828 Y-96.733
G2 X-145.659 Y-96.807 I-1.183 J-2.946
G1 X-145.353 Y-96.951
G2 X-145.206 Y-97.025 I-1.352 J-2.873
G1 X-144.891 Y-97.193
G2 X-144.766 Y-97.264 I-1.499 J-2.799
G1 X-144.442 Y-97.457
G2 X-144.333 Y-97.525 I-1.624 J-2.728
G1 X-144 Y-97.742
G2 X-143.904 Y-97.807 I-1.733 J-2.66
G1 X-143.562 Y-98.048
G2 X-143.478 Y-98.109 I-1.829 J-2.595
G1 X-143.127 Y-98.374
G2 X-143.057 Y-98.428 I-1.913 J-2.534
G1 X-142.698 Y-98.715
G2 X-142.628 Y-98.773 I-1.983 J-2.48
G1 X-142.261 Y-99.084
G2 X-142.206 Y-99.132 I-2.053 J-2.422
G1 X-141.831 Y-99.465
G2 X-141.774 Y-99.516 I-2.108 J-2.374
G1 X-141.392 Y-99.872
G2 X-141.353 Y-99.909 I-2.165 J-2.323
G1 X-140.962 Y-100.286
G2 X-140.896 Y-100.352 I-2.204 J-2.286
G1 X-140.094 Y-101.172
G2 X-140.026 Y-101.244 I-2.27 J-2.22
G1 X-139.197 Y-102.146
G2 X-139.14 Y-102.209 I-2.338 J-2.148
G1 X-138.285 Y-103.191
G2 X-138.236 Y-103.25 I-2.395 J-2.085
G1 X-137.358 Y-104.309
G2 X-137.316 Y-104.36 I-2.444 J-2.026
G1 X-136.417 Y-105.492
G2 X-136.38 Y-105.54 I-2.486 J-1.975
G1 X-135.462 Y-106.742
G2 X-135.43 Y-106.784 I-2.523 J-1.927
G1 X-134.495 Y-108.051
G2 X-134.466 Y-108.091 I-2.555 J-1.885
G1 X-133.516 Y-109.421
G2 X-133.49 Y-109.457 I-2.584 J-1.845
G1 X-132.528 Y-110.845
G2 X-132.505 Y-110.88 I-2.61 J-1.809
G1 X-131.533 Y-112.323
G2 X-131.511 Y-112.356 I-2.633 J-1.774
G1 X-130.531 Y-113.85
G2 X-130.511 Y-113.88 I-2.655 J-1.741
G1 X-129.526 Y-115.42
G2 X-129.508 Y-115.449 I-2.675 J-1.711
G1 X-128.519 Y-117.033
G2 X-128.501 Y-117.062 I-2.693 J-1.682
G1 X-127.511 Y-118.686
G2 X-127.494 Y-118.714 I-2.711 J-1.653
G1 X-126.505 Y-120.374
G2 X-126.489 Y-120.401 I-2.728 J-1.625
G1 X-125.503 Y-122.094
G2 X-125.488 Y-122.12 I-2.744 J-1.598
G1 X-124.507 Y-123.842
G2 X-124.493 Y-123.869 I-2.759 J-1.572
G1 X-123.519 Y-125.617
G2 X-123.505 Y-125.642 I-2.773 J-1.545
G1 X-122.539 Y-127.413
G2 X-122.525 Y-127.439 I-2.787 J-1.52
G1 X-121.569 Y-129.231
G2 X-121.555 Y-129.257 I-2.801 J-1.494
G1 X-120.612 Y-131.065
G2 X-120.599 Y-131.09 I-2.815 J-1.468
G1 X-119.668 Y-132.914
G2 X-119.654 Y-132.941 I-2.828 J-1.443
G1 X-118.739 Y-134.777
G2 X-118.727 Y-134.802 I-2.842 J-1.416
G1 X-117.827 Y-136.648
G2 X-117.814 Y-136.674 I-2.854 J-1.391
G1 X-116.932 Y-138.527
G2 X-116.92 Y-138.554 I-2.867 J-1.365
G1 X-116.055 Y-140.414
G2 X-116.043 Y-140.442 I-2.88 J-1.338
G1 X-115.199 Y-142.305
G2 X-115.187 Y-142.332 I-2.892 J-1.31
G1 X-114.363 Y-144.197
G2 X-114.35 Y-144.226 I-2.904 J-1.283
G1 X-113.548 Y-146.091
G2 X-113.536 Y-146.121 I-2.917 J-1.254
G1 X-112.757 Y-147.985
G2 X-112.745 Y-148.013 I-2.929 J-1.224
G1 X-111.988 Y-149.874
G2 X-111.975 Y-149.905 I-2.941 J-1.196
G1 X-111.243 Y-151.761
G2 X-111.231 Y-151.792 I-2.954 J-1.165
G1 X-110.523 Y-153.644
G2 X-110.512 Y-153.675 I-2.966 J-1.134
G1 X-109.829 Y-155.519
G2 X-109.817 Y-155.552 I-2.977 J-1.103
G1 X-109.16 Y-157.388
G2 X-109.147 Y-157.423 I-2.989 J-1.07
G1 X-108.517 Y-159.251
G2 X-108.506 Y-159.284 I-3.002 J-1.035
G1 X-107.902 Y-161.101
G2 X-107.89 Y-161.139 I-3.013 J-1.002
G1 X-107.314 Y-162.946
G2 X-107.302 Y-162.983 I-3.025 J-0.964
G1 X-106.754 Y-164.779
G2 X-106.743 Y-164.815 I-3.037 J-0.927
G1 X-106.222 Y-166.598
G2 X-106.211 Y-166.639 I-3.048 J-0.891
G1 X-105.719 Y-168.41
G2 X-105.708 Y-168.449 I-3.059 J-0.85
G1 X-105.244 Y-170.206
G2 X-105.233 Y-170.25 I-3.07 J-0.811
G1 X-104.799 Y-171.993
G2 X-104.789 Y-172.034 I-3.081 J-0.767
G1 X-104.383 Y-173.763
G2 X-104.373 Y-173.807 I-3.091 J-0.726
G1 X-103.996 Y-175.521
G2 X-103.986 Y-175.568 I-3.101 J-0.682
G1 X-103.639 Y-177.267
G2 X-103.63 Y-177.313 I-3.111 J-0.635
G1 X-103.312 Y-178.996
G2 X-103.303 Y-179.045 I-3.12 J-0.589
G1 X-103.015 Y-180.713
G2 X-103.007 Y-180.761 I-3.129 J-0.54
G1 X-102.748 Y-182.413
G2 X-102.741 Y-182.465 I-3.137 J-0.492
G1 X-102.512 Y-184.101
G2 X-102.505 Y-184.154 I-3.144 J-0.44
G1 X-102.306 Y-185.774
G2 X-102.3 Y-185.826 I-3.151 J-0.387
G1 X-102.13 Y-187.43
G2 X-102.124 Y-187.486 I-3.157 J-0.335
G1 X-101.984 Y-189.073
G2 X-101.98 Y-189.13 I-3.163 J-0.279
G1 X-101.87 Y-190.7
G2 X-101.866 Y-190.759 I-3.167 J-0.222
G1 X-101.786 Y-192.314
G2 X-101.784 Y-192.372 I-3.171 J-0.163
G1 X-101.733 Y-193.909
G2 X-101.731 Y-193.97 I-3.173 J-0.105
G1 X-101.71 Y-195.492
G2 Y-195.555 I-3.175 J-0.044
G1 X-101.719 Y-197.059
G2 X-101.72 Y-197.121 I-3.175 J0.019
G1 X-101.758 Y-198.609
G2 X-101.76 Y-198.675 I-3.174 J0.081
G1 X-101.825 Y-200.073
G2 X-115.935 Y-234.065 I-48.175 J0.073
X-116.304 Y-234.382 I-2.245 J2.245
G1 X-120.574 Y-237.509
G2 X-120.892 Y-237.713 I-1.876 J2.562
G1 X-125.452 Y-240.282
G2 X-125.79 Y-240.447 I-1.558 J2.766
G1 X-130.568 Y-242.435
G2 X-130.925 Y-242.559 I-1.22 J2.931
G1 X-135.849 Y-243.95
G2 X-136.217 Y-244.031 I-0.863 J3.055
G1 X-141.214 Y-244.819
G2 X-141.59 Y-244.856 I-0.495 J3.136
G1 X-146.586 Y-245.044
G2 X-146.964 Y-245.035 I-0.119 J3.173
G1 X-151.888 Y-244.632
G2 X-152.262 Y-244.579 I0.259 J3.164
G1 X-157.047 Y-243.606
G2 X-157.412 Y-243.509 I0.633 J3.111
G1 X-161.991 Y-241.993
G2 X-162.342 Y-241.853 I0.998 J3.014
G1 X-166.656 Y-239.829
G2 X-166.987 Y-239.649 I1.349 J2.874
G1 X-170.981 Y-237.158
G2 X-171.29 Y-236.939 I1.68 J2.694
G1 X-174.913 Y-234.027
G2 X-175.193 Y-233.772 I1.989 J2.475
G1 X-178.403 Y-230.491
G2 X-178.651 Y-230.206 I2.269 J2.22
G1 X-181.412 Y-226.614
G2 X-181.624 Y-226.301 I2.517 J1.935
G1 X-183.909 Y-222.456
G2 X-184.083 Y-222.119 I2.729 J1.622
G1 X-185.87 Y-218.083
G2 X-186.003 Y-217.729 I2.903 J1.285
G1 X-187.28 Y-213.564
G2 X-187.369 Y-213.195 I3.036 J0.931
G1 X-188.13 Y-208.966
G2 X-188.175 Y-208.591 I3.125 J0.562
G1 X-188.424 Y-204.36
G2 X-188.423 Y-203.98 I3.17 J0.187
G1 X-188.175 Y-199.903
G2 X-176.994 Y-173.006 I38.175 J-0.096
X-174.188 Y-172.126 I2.245 J-2.245
G1 X-173.505 Y-172.249
X-172.859 Y-172.352
X-172.226 Y-172.442
X-171.607 Y-172.518
X-170.998 Y-172.581
X-170.402 Y-172.63
X-169.821 Y-172.666
X-169.252 Y-172.689
X-168.698 Y-172.699
X-168.156 Y-172.695
X-167.624 Y-172.68
X-167.107 Y-172.652
X-166.606 Y-172.612
X-166.116 Y-172.559
X-165.639 Y-172.494
X-165.173 Y-172.418
X-164.722 Y-172.331
X-164.282 Y-172.232
X-163.852 Y-172.122
X-163.44 Y-172.002
X-163.035 Y-171.87
X-162.64 Y-171.728
X-162.262 Y-171.576
X-161.888 Y-171.412
X-161.528 Y-171.239
X-161.178 Y-171.055
X-160.835 Y-170.86
X-160.503 Y-170.655
X-160.178 Y-170.438
X-159.859 Y-170.21
X-159.552 Y-169.973
X-159.251 Y-169.723
X-158.957 Y-169.462
X-158.669 Y-169.187
X-158.386 Y-168.899
X-158.117 Y-168.605
X-157.848 Y-168.291
X-157.584 Y-167.964
X-157.331 Y-167.627
X-157.082 Y-167.275
X-156.839 Y-166.907
X-156.603 Y-166.528
X-156.373 Y-166.133
X-156.148 Y-165.723
X-155.932 Y-165.301
X-155.722 Y-164.865
X-155.519 Y-164.411
X-155.322 Y-163.945
X-155.132 Y-163.464
X-154.949 Y-162.968
X-154.773 Y-162.459
X-154.605 Y-161.938
X-154.444 Y-161.399
X-154.289 Y-160.849
X-154.143 Y-160.285
X-154.004 Y-159.708
X-153.872 Y-159.117
X-153.747 Y-158.513
X-153.63 Y-157.898
X-153.522 Y-157.281
X-153.324 Y-155.978
X-153.154 Y-154.632
X-153.07 Y-153.85
X-152.995 Y-153.047
X-152.929 Y-152.232
X-152.873 Y-151.41
X-152.784 Y-149.704
X-152.729 Y-147.966
X-152.706 Y-146.187
X-152.709 Y-145.183
X-152.711 Y-144.375 Z8.972 F250
X-152.743 Y-142.533 Z8.907
X-152.8 Y-140.667 Z8.842
X-152.879 Y-138.783 Z8.776
X-152.976 Y-136.884 Z8.71
X-153.09 Y-134.978 Z8.643
X-153.218 Y-133.073 Z8.577
X-153.504 Y-129.262 Z8.443
X-153.811 Y-125.511 Z8.312
X-154.114 Y-121.862 Z8.184
G2 X-154.115 Y-121.85 Z8.183 I3.164 J0.263
G1 X-154.392 Y-118.353 Z8.061
G2 X-154.394 Y-118.332 Z8.06 I3.165 J0.251
G1 X-154.516 Y-116.655 Z8.002
G2 X-154.517 Y-116.632 Z8.001 I3.167 J0.23
G1 X-154.623 Y-115.009 Z7.944
G2 X-154.625 Y-114.982 Z7.943 I3.168 J0.207
G1 X-154.714 Y-113.417 Z7.888
G2 X-154.716 Y-113.383 Z7.887 I3.17 J0.18
G1 X-154.785 Y-111.882 Z7.835
G2 X-154.786 Y-111.838 Z7.833 I3.172 J0.146
G1 X-154.832 Y-110.406 Z7.783
G2 X-154.834 Y-110.353 Z7.781 I3.173 J0.102
G1 X-154.855 Y-108.992 Z7.734
G2 Y-108.926 Z7.731 I3.175 J0.049
G1 X-154.848 Y-107.642 Z7.686
G2 X-154.847 Y-107.567 Z7.684 I3.175 J-0.017
G1 X-154.812 Y-106.364 Z7.642
G2 X-154.807 Y-106.266 Z7.638 I3.174 J-0.092
G1 X-154.74 Y-105.147 Z7.599
G2 X-154.734 Y-105.066 Z7.596 I3.169 J-0.19
G1 X-154.689 Y-104.54 Z7.578
G2 X-154.683 Y-104.473 Z7.576 I3.163 J-0.271
G1 X-154.629 Y-103.968 Z7.558
G2 X-154.62 Y-103.895 Z7.555 I3.157 J-0.338
G1 X-154.557 Y-103.413 Z7.538
G2 X-154.547 Y-103.338 Z7.536 I3.148 J-0.411
G1 X-154.476 Y-102.88 Z7.52
G2 X-154.46 Y-102.786 Z7.516 I3.138 J-0.486
G1 X-154.379 Y-102.35 Z7.501
G2 X-154.375 Y-102.33 Z7.5 I3.122 J-0.58
X-154.359 Y-102.251 I3.118 J-0.6 F850
G1 X-154.269 Y-101.84
G2 X-154.243 Y-101.734 I3.102 J-0.679
G1 X-154.144 Y-101.346
G2 X-154.109 Y-101.218 I3.076 J-0.785
G1 X-154 Y-100.855
G2 X-153.957 Y-100.722 I3.041 J-0.913
G1 X-153.839 Y-100.384
G2 X-153.781 Y-100.231 I2.998 J-1.046
G1 X-153.653 Y-99.917
G2 X-153.578 Y-99.748 I2.94 J-1.199
G1 X-153.44 Y-99.459
G2 X-153.349 Y-99.282 I2.865 J-1.368
G1 X-153.202 Y-99.018
G2 X-153.073 Y-98.807 I2.774 J-1.545
G1 X-152.915 Y-98.569
G2 X-152.763 Y-98.359 I2.645 J-1.756
G1 X-152.595 Y-98.146
G2 X-152.407 Y-97.928 I2.493 J-1.966
G1 X-152.23 Y-97.741
G2 X-151.995 Y-97.517 I2.305 J-2.184
G1 X-151.807 Y-97.356
G2 X-151.533 Y-97.145 I2.07 J-2.408
G1 X-151.335 Y-97.009
G2 X-151.024 Y-96.822 I1.796 J-2.618
G1 X-150.816 Y-96.712
G2 X-150.476 Y-96.556 I1.485 J-2.806
G1 X-150.258 Y-96.472
G2 X-149.903 Y-96.358 I1.145 J-2.961
G1 X-149.675 Y-96.3
G2 X-149.32 Y-96.23 I0.79 J-3.075
G1 X-149.082 Y-96.197
G2 X-148.739 Y-96.168 I0.435 J-3.145
G1 X-148.49 Y-96.161
G2 X-148.173 Y-96.168 I0.092 J-3.174
G1 X-147.915 Y-96.186
G2 X-147.626 Y-96.22 I-0.225 J-3.167
G1 X-147.359 Y-96.264
G2 X-147.107 Y-96.316 I-0.514 J-3.133
G1 X-146.829 Y-96.385
G2 X-146.604 Y-96.45 I-0.766 J-3.081
G1 X-146.317 Y-96.544
G2 X-146.125 Y-96.614 I-0.991 J-3.016
G1 X-145.828 Y-96.733
G2 X-145.659 Y-96.807 I-1.183 J-2.946
G1 X-145.353 Y-96.951
G2 X-145.206 Y-97.025 I-1.352 J-2.873
G1 X-144.891 Y-97.193
G2 X-144.766 Y-97.264 I-1.499 J-2.799
G1 X-144.442 Y-97.457
G2 X-144.333 Y-97.525 I-1.624 J-2.728
G1 X-144 Y-97.742
G2 X-143.904 Y-97.807 I-1.733 J-2.66
G1 X-143.562 Y-98.048
G2 X-143.478 Y-98.109 I-1.829 J-2.595
G1 X-143.127 Y-98.374
G2 X-143.057 Y-98.428 I-1.913 J-2.534
G1 X-142.698 Y-98.715
G2 X-142.628 Y-98.773 I-1.983 J-2.48
G1 X-142.261 Y-99.084
G2 X-142.206 Y-99.132 I-2.053 J-2.422
G1 X-141.831 Y-99.465
G2 X-141.774 Y-99.516 I-2.108 J-2.374
G1 X-141.392 Y-99.872
G2 X-141.353 Y-99.909 I-2.165 J-2.323
G1 X-140.962 Y-100.286
G2 X-140.896 Y-100.352 I-2.204 J-2.286
G1 X-140.094 Y-101.172
G2 X-140.026 Y-101.244 I-2.27 J-2.22
G1 X-139.197 Y-102.146
G2 X-139.14 Y-102.209 I-2.338 J-2.148
G1 X-138.285 Y-103.191
G2 X-138.236 Y-103.25 I-2.395 J-2.085
G1 X-137.358 Y-104.309
G2 X-137.316 Y-104.36 I-2.444 J-2.026
G1 X-136.417 Y-105.492
G2 X-136.38 Y-105.54 I-2.486 J-1.975
G1 X-135.462 Y-106.742
G2 X-135.43 Y-106.784 I-2.523 J-1.927
G1 X-134.495 Y-108.051
G2 X-134.466 Y-108.091 I-2.555 J-1.885
G1 X-133.516 Y-109.421
G2 X-133.49 Y-109.457 I-2.584 J-1.845
G1 X-132.528 Y-110.845
G2 X-132.505 Y-110.88 I-2.61 J-1.809
G1 X-131.533 Y-112.323
G2 X-131.511 Y-112.356 I-2.633 J-1.774
G1 X-130.531 Y-113.85
G2 X-130.511 Y-113.88 I-2.655 J-1.741
G1 X-129.526 Y-115.42
G2 X-129.508 Y-115.449 I-2.675 J-1.711
G1 X-128.519 Y-117.033
G2 X-128.501 Y-117.062 I-2.693 J-1.682
G1 X-127.511 Y-118.686
G2 X-127.494 Y-118.714 I-2.711 J-1.653
G1 X-126.505 Y-120.374
G2 X-126.489 Y-120.401 I-2.728 J-1.625
G1 X-125.503 Y-122.094
G2 X-125.488 Y-122.12 I-2.744 J-1.598
G1 X-124.507 Y-123.842
G2 X-124.493 Y-123.869 I-2.759 J-1.572
G1 X-123.519 Y-125.617
G2 X-123.505 Y-125.642 I-2.773 J-1.545
G1 X-122.539 Y-127.413
G2 X-122.525 Y-127.439 I-2.787 J-1.52
G1 X-121.569 Y-129.231
G2 X-121.555 Y-129.257 I-2.801 J-1.494
G1 X-120.612 Y-131.065
G2 X-120.599 Y-131.09 I-2.815 J-1.468
G1 X-119.668 Y-132.914
G2 X-119.654 Y-132.941 I-2.828 J-1.443
G1 X-118.739 Y-134.777
G2 X-118.727 Y-134.802 I-2.842 J-1.416
G1 X-117.827 Y-136.648
G2 X-117.814 Y-136.674 I-2.854 J-1.391
G1 X-116.932 Y-138.527
G2 X-116.92 Y-138.554 I-2.867 J-1.365
G1 X-116.055 Y-140.414
G2 X-116.043 Y-140.442 I-2.88 J-1.338
G1 X-115.199 Y-142.305
G2 X-115.187 Y-142.332 I-2.892 J-1.31
G1 X-114.363 Y-144.197
G2 X-114.35 Y-144.226 I-2.904 J-1.283
G1 X-113.548 Y-146.091
G2 X-113.536 Y-146.121 I-2.917 J-1.254
G1 X-112.757 Y-147.985
G2 X-112.745 Y-148.013 I-2.929 J-1.224
G1 X-111.988 Y-149.874
G2 X-111.975 Y-149.905 I-2.941 J-1.196
G1 X-111.243 Y-151.761
G2 X-111.231 Y-151.792 I-2.954 J-1.165
G1 X-110.523 Y-153.644
G2 X-110.512 Y-153.675 I-2.966 J-1.134
G1 X-109.829 Y-155.519
G2 X-109.817 Y-155.552 I-2.977 J-1.103
G1 X-109.16 Y-157.388
G2 X-109.147 Y-157.423 I-2.989 J-1.07
G1 X-108.517 Y-159.251
G2 X-108.506 Y-159.284 I-3.002 J-1.035
G1 X-107.902 Y-161.101
G2 X-107.89 Y-161.139 I-3.013 J-1.002
G1 X-107.314 Y-162.946
G2 X-107.302 Y-162.983 I-3.025 J-0.964
G1 X-106.754 Y-164.779
G2 X-106.743 Y-164.815 I-3.037 J-0.927
G1 X-106.222 Y-166.598
G2 X-106.211 Y-166.639 I-3.048 J-0.891
G1 X-105.719 Y-168.41
G2 X-105.708 Y-168.449 I-3.059 J-0.85
G1 X-105.244 Y-170.206
G2 X-105.233 Y-170.25 I-3.07 J-0.811
G1 X-104.799 Y-171.993
G2 X-104.789 Y-172.034 I-3.081 J-0.767
G1 X-104.383 Y-173.763
G2 X-104.373 Y-173.807 I-3.091 J-0.726
G1 X-103.996 Y-175.521
G2 X-103.986 Y-175.568 I-3.101 J-0.682
G1 X-103.639 Y-177.267
G2 X-103.63 Y-177.313 I-3.111 J-0.635
G1 X-103.312 Y-178.996
G2 X-103.303 Y-179.045 I-3.12 J-0.589
G1 X-103.015 Y-180.713
G2 X-103.007 Y-180.761 I-3.129 J-0.54
G1 X-102.748 Y-182.413
G2 X-102.741 Y-182.465 I-3.137 J-0.492
G1 X-102.512 Y-184.101
G2 X-102.505 Y-184.154 I-3.144 J-0.44
G1 X-102.306 Y-185.774
G2 X-102.3 Y-185.826 I-3.151 J-0.387
G1 X-102.13 Y-187.43
G2 X-102.124 Y-187.486 I-3.157 J-0.335
G1 X-101.984 Y-189.073
G2 X-101.98 Y-189.13 I-3.163 J-0.279
G1 X-101.87 Y-190.7
G2 X-101.866 Y-190.759 I-3.167 J-0.222
G1 X-101.786 Y-192.314
G2 X-101.784 Y-192.372 I-3.171 J-0.163
G1 X-101.733 Y-193.909
G2 X-101.731 Y-193.97 I-3.173 J-0.105
G1 X-101.71 Y-195.492
G2 Y-195.555 I-3.175 J-0.044
G1 X-101.719 Y-197.059
G2 X-101.72 Y-197.121 I-3.175 J0.019
G1 X-101.758 Y-198.609
G2 X-101.76 Y-198.675 I-3.174 J0.081
G1 X-101.825 Y-200.073
G2 X-115.935 Y-234.065 I-48.175 J0.073
X-116.304 Y-234.382 I-2.245 J2.245
G1 X-120.574 Y-237.509
G2 X-120.892 Y-237.713 I-1.876 J2.562
G1 X-125.452 Y-240.282
G2 X-125.79 Y-240.447 I-1.558 J2.766
G1 X-130.568 Y-242.435
G2 X-130.925 Y-242.559 I-1.22 J2.931
G1 X-135.849 Y-243.95
G2 X-136.217 Y-244.031 I-0.863 J3.055
G1 X-141.214 Y-244.819
G2 X-141.59 Y-244.856 I-0.495 J3.136
G1 X-146.586 Y-245.044
G2 X-146.964 Y-245.035 I-0.119 J3.173
G1 X-151.888 Y-244.632
G2 X-152.262 Y-244.579 I0.259 J3.164
G1 X-157.047 Y-243.606
G2 X-157.412 Y-243.509 I0.633 J3.111
G1 X-161.991 Y-241.993
G2 X-162.342 Y-241.853 I0.998 J3.014
G1 X-166.656 Y-239.829
G2 X-166.987 Y-239.649 I1.349 J2.874
G1 X-170.981 Y-237.158
G2 X-171.29 Y-236.939 I1.68 J2.694
G1 X-174.913 Y-234.027
G2 X-175.193 Y-233.772 I1.989 J2.475
G1 X-178.403 Y-230.491
G2 X-178.651 Y-230.206 I2.269 J2.22
G1 X-181.412 Y-226.614
G2 X-181.624 Y-226.301 I2.517 J1.935
G1 X-183.909 Y-222.456
G2 X-184.083 Y-222.119 I2.729 J1.622
G1 X-185.87 Y-218.083
G2 X-186.003 Y-217.729 I2.903 J1.285
G1 X-187.28 Y-213.564
G2 X-187.369 Y-213.195 I3.036 J0.931
G1 X-188.13 Y-208.966
G2 X-188.175 Y-208.591 I3.125 J0.562
G1 X-188.424 Y-204.36
G2 X-188.423 Y-203.98 I3.17 J0.187
G1 X-188.175 Y-199.903
G2 X-176.994 Y-173.006 I38.175 J-0.096
X-174.188 Y-172.126 I2.245 J-2.245
G1 X-173.505 Y-172.249
X-172.859 Y-172.352
X-172.226 Y-172.442
X-171.607 Y-172.518
X-170.998 Y-172.581
X-170.402 Y-172.63
X-169.821 Y-172.666
X-169.252 Y-172.689
X-168.698 Y-172.699
X-168.156 Y-172.695
X-167.624 Y-172.68
X-167.107 Y-172.652
X-166.606 Y-172.612
X-166.116 Y-172.559
X-165.639 Y-172.494
X-165.173 Y-172.418
X-164.722 Y-172.331
X-164.282 Y-172.232
X-163.852 Y-172.122
X-163.44 Y-172.002
X-163.035 Y-171.87
X-162.64 Y-171.728
X-162.262 Y-171.576
X-161.888 Y-171.412
X-161.528 Y-171.239
X-161.178 Y-171.055
X-160.835 Y-170.86
X-160.503 Y-170.655
X-160.178 Y-170.438
X-159.859 Y-170.21
X-159.552 Y-169.973
X-159.251 Y-169.723
X-158.957 Y-169.462
X-158.669 Y-169.187
X-158.386 Y-168.899
X-158.117 Y-168.605
X-157.848 Y-168.291
X-157.584 Y-167.964
X-157.331 Y-167.627
X-157.082 Y-167.275
X-156.839 Y-166.907
X-156.603 Y-166.528
X-156.373 Y-166.133
X-156.148 Y-165.723
X-155.932 Y-165.301
X-155.722 Y-164.865
X-155.519 Y-164.411
X-155.322 Y-163.945
X-155.132 Y-163.464
X-154.949 Y-162.968
X-154.773 Y-162.459
X-154.605 Y-161.938
X-154.444 Y-161.399
X-154.289 Y-160.849
X-154.143 Y-160.285
X-154.004 Y-159.708
X-153.872 Y-159.117
X-153.747 Y-158.513
X-153.63 Y-157.898
X-153.522 Y-157.281
X-153.324 Y-155.978
X-153.154 Y-154.632
X-153.07 Y-153.85
X-152.995 Y-153.047
X-152.929 Y-152.232
X-152.873 Y-151.41
X-152.784 Y-149.704
X-152.729 Y-147.966
X-152.706 Y-146.187
X-152.709 Y-145.183
X-152.711 Y-144.375
X-152.743 Y-142.533
X-152.8 Y-140.667
X-152.879 Y-138.783
X-152.976 Y-136.884
X-153.09 Y-134.978
X-153.218 Y-133.073
X-153.504 Y-129.262
X-153.811 Y-125.511
X-154.114 Y-121.862
G2 X-154.115 Y-121.85 I3.164 J0.263
G1 X-154.392 Y-118.353
G2 X-154.394 Y-118.332 I3.165 J0.251
G1 X-154.516 Y-116.655
G2 X-154.517 Y-116.632 I3.167 J0.23
G1 X-154.623 Y-115.009
G2 X-154.625 Y-114.982 I3.168 J0.207
G1 X-154.714 Y-113.417
G2 X-154.716 Y-113.383 I3.17 J0.18
G1 X-154.785 Y-111.882
G2 X-154.786 Y-111.838 I3.172 J0.146
G1 X-154.832 Y-110.406
G2 X-154.834 Y-110.353 I3.173 J0.102
G1 X-154.855 Y-108.992
G2 Y-108.926 I3.175 J0.049
G1 X-154.848 Y-107.642
G2 X-154.847 Y-107.567 I3.175 J-0.017
G1 X-154.812 Y-106.364
G2 X-154.807 Y-106.266 I3.174 J-0.092
G1 X-154.74 Y-105.147
G2 X-154.734 Y-105.066 I3.169 J-0.19
G1 X-154.689 Y-104.54
G2 X-154.683 Y-104.473 I3.163 J-0.271
G1 X-154.629 Y-103.968
G2 X-154.62 Y-103.895 I3.157 J-0.338
G1 X-154.557 Y-103.413
G2 X-154.547 Y-103.338 I3.148 J-0.411
G1 X-154.476 Y-102.88
G2 X-154.46 Y-102.786 I3.138 J-0.486
G1 X-154.379 Y-102.35
G2 X-154.375 Y-102.33 I3.122 J-0.58
X-154.359 Y-102.251 Z7.497 I3.118 J-0.6 F250
G1 X-154.269 Y-101.84 Z7.482
G2 X-154.243 Y-101.734 Z7.479 I3.102 J-0.679
G1 X-154.144 Y-101.346 Z7.465
G2 X-154.109 Y-101.218 Z7.46 I3.076 J-0.785
G1 X-154 Y-100.855 Z7.447
G2 X-153.957 Y-100.722 Z7.442 I3.041 J-0.913
G1 X-153.839 Y-100.384 Z7.429
G2 X-153.781 Y-100.231 Z7.424 I2.998 J-1.046
G1 X-153.653 Y-99.917 Z7.412
G2 X-153.578 Y-99.748 Z7.405 I2.94 J-1.199
G1 X-153.44 Y-99.459 Z7.394
G2 X-153.349 Y-99.282 Z7.387 I2.865 J-1.368
G1 X-153.202 Y-99.018 Z7.377
G2 X-153.073 Y-98.807 Z7.368 I2.774 J-1.545
G1 X-152.915 Y-98.569 Z7.358
G2 X-152.763 Y-98.359 Z7.349 I2.645 J-1.756
G1 X-152.595 Y-98.146 Z7.34
G2 X-152.407 Y-97.928 Z7.33 I2.493 J-1.966
G1 X-152.23 Y-97.741 Z7.321
G2 X-151.995 Y-97.517 Z7.309 I2.305 J-2.184
G1 X-151.807 Y-97.356 Z7.301
G2 X-151.533 Y-97.145 Z7.288 I2.07 J-2.408
G1 X-151.335 Y-97.009 Z7.28
G2 X-151.024 Y-96.822 Z7.267 I1.796 J-2.618
G1 X-150.816 Y-96.712 Z7.259
G2 X-150.476 Y-96.556 Z7.246 I1.485 J-2.806
G1 X-150.258 Y-96.472 Z7.238
G2 X-149.903 Y-96.358 Z7.225 I1.145 J-2.961
G1 X-149.675 Y-96.3 Z7.217
G2 X-149.32 Y-96.23 Z7.204 I0.79 J-3.075
G1 X-149.082 Y-96.197 Z7.196
G2 X-148.739 Y-96.168 Z7.184 I0.435 J-3.145
G1 X-148.49 Y-96.161 Z7.175
G2 X-148.173 Y-96.168 Z7.164 I0.092 J-3.174
G1 X-147.915 Y-96.186 Z7.155
G2 X-147.626 Y-96.22 Z7.145 I-0.225 J-3.167
G1 X-147.359 Y-96.264 Z7.135
G2 X-147.107 Y-96.316 Z7.126 I-0.514 J-3.133
G1 X-146.829 Y-96.385 Z7.116
G2 X-146.604 Y-96.45 Z7.108 I-0.766 J-3.081
G1 X-146.317 Y-96.544 Z7.098
G2 X-146.125 Y-96.614 Z7.09 I-0.991 J-3.016
G1 X-145.828 Y-96.733 Z7.079
G2 X-145.659 Y-96.807 Z7.073 I-1.183 J-2.946
G1 X-145.353 Y-96.951 Z7.061
G2 X-145.206 Y-97.025 Z7.055 I-1.352 J-2.873
G1 X-144.891 Y-97.193 Z7.043
G2 X-144.766 Y-97.264 Z7.038 I-1.499 J-2.799
G1 X-144.442 Y-97.457 Z7.025
G2 X-144.333 Y-97.525 Z7.02 I-1.624 J-2.728
G1 X-144 Y-97.742 Z7.006
G2 X-143.904 Y-97.807 Z7.002 I-1.733 J-2.66
G1 X-143.562 Y-98.048 Z6.988
G2 X-143.478 Y-98.109 Z6.984 I-1.829 J-2.595
G1 X-143.127 Y-98.374 Z6.969
G2 X-143.057 Y-98.428 Z6.965 I-1.913 J-2.534
G1 X-142.698 Y-98.715 Z6.949
G2 X-142.628 Y-98.773 Z6.946 I-1.983 J-2.48
G1 X-142.261 Y-99.084 Z6.929
G2 X-142.206 Y-99.132 Z6.927 I-2.053 J-2.422
G1 X-141.831 Y-99.465 Z6.909
G2 X-141.774 Y-99.516 Z6.907 I-2.108 J-2.374
G1 X-141.392 Y-99.872 Z6.888
G2 X-141.353 Y-99.909 Z6.887 I-2.165 J-2.323
G1 X-140.962 Y-100.286 Z6.868
G2 X-140.896 Y-100.352 Z6.864 I-2.204 J-2.286
G1 X-140.094 Y-101.172 Z6.824
G2 X-140.026 Y-101.244 Z6.821 I-2.27 J-2.22
G1 X-139.197 Y-102.146 Z6.778
G2 X-139.14 Y-102.209 Z6.775 I-2.338 J-2.148
G1 X-138.285 Y-103.191 Z6.73
G2 X-138.236 Y-103.25 Z6.727 I-2.395 J-2.085
G1 X-137.358 Y-104.309 Z6.679
G2 X-137.316 Y-104.36 Z6.677 I-2.444 J-2.026
G1 X-136.417 Y-105.492 Z6.626
G2 X-136.38 Y-105.54 Z6.624 I-2.486 J-1.975
G1 X-135.462 Y-106.742 Z6.571
G2 X-135.43 Y-106.784 Z6.569 I-2.523 J-1.927
G1 X-134.495 Y-108.051 Z6.514
G2 X-134.466 Y-108.091 Z6.513 I-2.555 J-1.885
G1 X-133.516 Y-109.421 Z6.456
G2 X-133.49 Y-109.457 Z6.454 I-2.584 J-1.845
G1 X-132.528 Y-110.845 Z6.395
G2 X-132.505 Y-110.88 Z6.394 I-2.61 J-1.809
G1 X-131.533 Y-112.323 Z6.333
G2 X-131.511 Y-112.356 Z6.331 I-2.633 J-1.774
G1 X-130.531 Y-113.85 Z6.269
G2 X-130.511 Y-113.88 Z6.268 I-2.655 J-1.741
G1 X-129.526 Y-115.42 Z6.204
G2 X-129.508 Y-115.449 Z6.203 I-2.675 J-1.711
G1 X-128.519 Y-117.033 Z6.138
G2 X-128.501 Y-117.062 Z6.136 I-2.693 J-1.682
G1 X-127.511 Y-118.686 Z6.07
G2 X-127.494 Y-118.714 Z6.069 I-2.711 J-1.653
G1 X-126.505 Y-120.374 Z6.001
G2 X-126.489 Y-120.401 Z6 I-2.728 J-1.625
G1 X-126.486 Y-120.407
X-125.503 Y-122.094 F850
G2 X-125.488 Y-122.12 I-2.744 J-1.598
G1 X-124.507 Y-123.842
G2 X-124.493 Y-123.869 I-2.759 J-1.572
G1 X-123.519 Y-125.617
G2 X-123.505 Y-125.642 I-2.773 J-1.545
G1 X-122.539 Y-127.413
G2 X-122.525 Y-127.439 I-2.787 J-1.52
G1 X-121.569 Y-129.231
G2 X-121.555 Y-129.257 I-2.801 J-1.494
G1 X-120.612 Y-131.065
G2 X-120.599 Y-131.09 I-2.815 J-1.468
G1 X-119.668 Y-132.914
G2 X-119.654 Y-132.941 I-2.828 J-1.443
G1 X-118.739 Y-134.777
G2 X-118.727 Y-134.802 I-2.842 J-1.416
G1 X-117.827 Y-136.648
G2 X-117.814 Y-136.674 I-2.854 J-1.391
G1 X-116.932 Y-138.527
G2 X-116.92 Y-138.554 I-2.867 J-1.365
G1 X-116.055 Y-140.414
G2 X-116.043 Y-140.442 I-2.88 J-1.338
G1 X-115.199 Y-142.305
G2 X-115.187 Y-142.332 I-2.892 J-1.31
G1 X-114.363 Y-144.197
G2 X-114.35 Y-144.226 I-2.904 J-1.283
G1 X-113.548 Y-146.091
G2 X-113.536 Y-146.121 I-2.917 J-1.254
G1 X-112.757 Y-147.985
G2 X-112.745 Y-148.013 I-2.929 J-1.224
G1 X-111.988 Y-149.874
G2 X-111.975 Y-149.905 I-2.941 J-1.196
G1 X-111.243 Y-151.761
G2 X-111.231 Y-151.792 I-2.954 J-1.165
G1 X-110.523 Y-153.644
G2 X-110.512 Y-153.675 I-2.966 J-1.134
G1 X-109.829 Y-155.519
G2 X-109.817 Y-155.552 I-2.977 J-1.103
G1 X-109.16 Y-157.388
G2 X-109.147 Y-157.423 I-2.989 J-1.07
G1 X-108.517 Y-159.251
G2 X-108.506 Y-159.284 I-3.002 J-1.035
G1 X-107.902 Y-161.101
G2 X-107.89 Y-161.139 I-3.013 J-1.002
G1 X-107.314 Y-162.946
G2 X-107.302 Y-162.983 I-3.025 J-0.964
G1 X-106.754 Y-164.779
G2 X-106.743 Y-164.815 I-3.037 J-0.927
G1 X-106.222 Y-166.598
G2 X-106.211 Y-166.639 I-3.048 J-0.891
G1 X-105.719 Y-168.41
G2 X-105.708 Y-168.449 I-3.059 J-0.85
G1 X-105.244 Y-170.206
G2 X-105.233 Y-170.25 I-3.07 J-0.811
G1 X-104.799 Y-171.993
G2 X-104.789 Y-172.034 I-3.081 J-0.767
G1 X-104.383 Y-173.763
G2 X-104.373 Y-173.807 I-3.091 J-0.726
G1 X-103.996 Y-175.521
G2 X-103.986 Y-175.568 I-3.101 J-0.682
G1 X-103.639 Y-177.267
G2 X-103.63 Y-177.313 I-3.111 J-0.635
G1 X-103.312 Y-178.996
G2 X-103.303 Y-179.045 I-3.12 J-0.589
G1 X-103.015 Y-180.713
G2 X-103.007 Y-180.761 I-3.129 J-0.54
G1 X-102.748 Y-182.413
G2 X-102.741 Y-182.465 I-3.137 J-0.492
G1 X-102.512 Y-184.101
G2 X-102.505 Y-184.154 I-3.144 J-0.44
G1 X-102.306 Y-185.774
G2 X-102.3 Y-185.826 I-3.151 J-0.387
G1 X-102.13 Y-187.43
G2 X-102.124 Y-187.486 I-3.157 J-0.335
G1 X-101.984 Y-189.073
G2 X-101.98 Y-189.13 I-3.163 J-0.279
G1 X-101.87 Y-190.7
G2 X-101.866 Y-190.759 I-3.167 J-0.222
G1 X-101.786 Y-192.314
G2 X-101.784 Y-192.372 I-3.171 J-0.163
G1 X-101.733 Y-193.909
G2 X-101.731 Y-193.97 I-3.173 J-0.105
G1 X-101.71 Y-195.492
G2 Y-195.555 I-3.175 J-0.044
G1 X-101.719 Y-197.059
G2 X-101.72 Y-197.121 I-3.175 J0.019
G1 X-101.758 Y-198.609
G2 X-101.76 Y-198.675 I-3.174 J0.081
G1 X-101.825 Y-200.073
G2 X-115.935 Y-234.065 I-48.175 J0.073
X-116.304 Y-234.382 I-2.245 J2.245
G1 X-120.574 Y-237.509
G2 X-120.892 Y-237.713 I-1.876 J2.562
G1 X-125.452 Y-240.282
G2 X-125.79 Y-240.447 I-1.558 J2.766
G1 X-130.568 Y-242.435
G2 X-130.925 Y-242.559 I-1.22 J2.931
G1 X-135.849 Y-243.95
G2 X-136.217 Y-244.031 I-0.863 J3.055
G1 X-141.214 Y-244.819
G2 X-141.59 Y-244.856 I-0.495 J3.136
G1 X-146.586 Y-245.044
G2 X-146.964 Y-245.035 I-0.119 J3.173
G1 X-151.888 Y-244.632
G2 X-152.262 Y-244.579 I0.259 J3.164
G1 X-157.047 Y-243.606
G2 X-157.412 Y-243.509 I0.633 J3.111
G1 X-161.991 Y-241.993
G2 X-162.342 Y-241.853 I0.998 J3.014
G1 X-166.656 Y-239.829
G2 X-166.987 Y-239.649 I1.349 J2.874
G1 X-170.981 Y-237.158
G2 X-171.29 Y-236.939 I1.68 J2.694
G1 X-174.913 Y-234.027
G2 X-175.193 Y-233.772 I1.989 J2.475
G1 X-178.403 Y-230.491
G2 X-178.651 Y-230.206 I2.269 J2.22
G1 X-181.412 Y-226.614
G2 X-181.624 Y-226.301 I2.517 J1.935
G1 X-183.909 Y-222.456
G2 X-184.083 Y-222.119 I2.729 J1.622
G1 X-185.87 Y-218.083
G2 X-186.003 Y-217.729 I2.903 J1.285
G1 X-187.28 Y-213.564
G2 X-187.369 Y-213.195 I3.036 J0.931
G1 X-188.13 Y-208.966
G2 X-188.175 Y-208.591 I3.125 J0.562
G1 X-188.424 Y-204.36
G2 X-188.423 Y-203.98 I3.17 J0.187
G1 X-188.175 Y-199.903
G2 X-176.994 Y-173.006 I38.175 J-0.096
X-174.188 Y-172.126 I2.245 J-2.245
G1 X-173.505 Y-172.249
X-172.859 Y-172.352
X-172.226 Y-172.442
X-171.607 Y-172.518
X-170.998 Y-172.581
X-170.402 Y-172.63
X-169.821 Y-172.666
X-169.252 Y-172.689
X-168.698 Y-172.699
X-168.156 Y-172.695
X-167.624 Y-172.68
X-167.107 Y-172.652
X-166.606 Y-172.612
X-166.116 Y-172.559
X-165.639 Y-172.494
X-165.173 Y-172.418
X-164.722 Y-172.331
X-164.282 Y-172.232
X-163.852 Y-172.122
X-163.44 Y-172.002
X-163.035 Y-171.87
X-162.64 Y-171.728
X-162.262 Y-171.576
X-161.888 Y-171.412
X-161.528 Y-171.239
X-161.178 Y-171.055
X-160.835 Y-170.86
X-160.503 Y-170.655
X-160.178 Y-170.438
X-159.859 Y-170.21
X-159.552 Y-169.973
X-159.251 Y-169.723
X-158.957 Y-169.462
X-158.669 Y-169.187
X-158.386 Y-168.899
X-158.117 Y-168.605
X-157.848 Y-168.291
X-157.584 Y-167.964
X-157.331 Y-167.627
X-157.082 Y-167.275
X-156.839 Y-166.907
X-156.603 Y-166.528
X-156.373 Y-166.133
X-156.148 Y-165.723
X-155.932 Y-165.301
X-155.722 Y-164.865
X-155.519 Y-164.411
X-155.322 Y-163.945
X-155.132 Y-163.464
X-154.949 Y-162.968
X-154.773 Y-162.459
X-154.605 Y-161.938
X-154.444 Y-161.399
X-154.289 Y-160.849
X-154.143 Y-160.285
X-154.004 Y-159.708
X-153.872 Y-159.117
X-153.747 Y-158.513
X-153.63 Y-157.898
X-153.522 Y-157.281
X-153.324 Y-155.978
X-153.154 Y-154.632
X-153.07 Y-153.85
X-152.995 Y-153.047
X-152.929 Y-152.232
X-152.873 Y-151.41
X-152.784 Y-149.704
X-152.729 Y-147.966
X-152.706 Y-146.187
X-152.711 Y-144.375
X-152.743 Y-142.533
X-152.8 Y-140.667
X-152.879 Y-138.783
X-152.976 Y-136.884
X-153.09 Y-134.978
X-153.218 Y-133.073
X-153.504 Y-129.262
X-153.811 Y-125.511
X-154.114 Y-121.862
G2 X-154.115 Y-121.85 I3.164 J0.263
G1 X-154.392 Y-118.353
G2 X-154.394 Y-118.332 I3.165 J0.251
G1 X-154.516 Y-116.655
G2 X-154.517 Y-116.632 I3.167 J0.23
G1 X-154.623 Y-115.009
G2 X-154.625 Y-114.982 I3.168 J0.207
G1 X-154.714 Y-113.417
G2 X-154.716 Y-113.383 I3.17 J0.18
G1 X-154.785 Y-111.882
G2 X-154.786 Y-111.838 I3.172 J0.146
G1 X-154.832 Y-110.406
G2 X-154.834 Y-110.353 I3.173 J0.102
G1 X-154.855 Y-108.992
G2 Y-108.926 I3.175 J0.049
G1 X-154.848 Y-107.642
G2 X-154.847 Y-107.567 I3.175 J-0.017
G1 X-154.812 Y-106.364
G2 X-154.807 Y-106.266 I3.174 J-0.092
G1 X-154.74 Y-105.147
G2 X-154.734 Y-105.066 I3.169 J-0.19
G1 X-154.689 Y-104.54
G2 X-154.683 Y-104.473 I3.163 J-0.271
G1 X-154.629 Y-103.968
G2 X-154.62 Y-103.895 I3.157 J-0.338
G1 X-154.557 Y-103.413
G2 X-154.547 Y-103.338 I3.148 J-0.411
G1 X-154.476 Y-102.88
G2 X-154.46 Y-102.786 I3.138 J-0.486
G1 X-154.379 Y-102.35
G2 X-154.359 Y-102.251 I3.122 J-0.58
G1 X-154.269 Y-101.84
G2 X-154.243 Y-101.734 I3.102 J-0.679
G1 X-154.144 Y-101.346
G2 X-154.109 Y-101.218 I3.076 J-0.785
G1 X-154 Y-100.855
G2 X-153.957 Y-100.722 I3.041 J-0.913
G1 X-153.839 Y-100.384
G2 X-153.781 Y-100.231 I2.998 J-1.046
G1 X-153.653 Y-99.917
G2 X-153.578 Y-99.748 I2.94 J-1.199
G1 X-153.44 Y-99.459
G2 X-153.349 Y-99.282 I2.865 J-1.368
G1 X-153.202 Y-99.018
G2 X-153.073 Y-98.807 I2.774 J-1.545
G1 X-152.915 Y-98.569
G2 X-152.763 Y-98.359 I2.645 J-1.756
G1 X-152.595 Y-98.146
G2 X-152.407 Y-97.928 I2.493 J-1.966
G1 X-152.23 Y-97.741
G2 X-151.995 Y-97.517 I2.305 J-2.184
G1 X-151.807 Y-97.356
G2 X-151.533 Y-97.145 I2.07 J-2.408
G1 X-151.335 Y-97.009
G2 X-151.024 Y-96.822 I1.796 J-2.618
G1 X-150.816 Y-96.712
G2 X-150.476 Y-96.556 I1.485 J-2.806
G1 X-150.258 Y-96.472
G2 X-149.903 Y-96.358 I1.145 J-2.961
G1 X-149.675 Y-96.3
G2 X-149.32 Y-96.23 I0.79 J-3.075
G1 X-149.082 Y-96.197
G2 X-148.739 Y-96.168 I0.435 J-3.145
G1 X-148.49 Y-96.161
G2 X-148.173 Y-96.168 I0.092 J-3.174
G1 X-147.915 Y-96.186
G2 X-147.626 Y-96.22 I-0.225 J-3.167
G1 X-147.359 Y-96.264
G2 X-147.107 Y-96.316 I-0.514 J-3.133
G1 X-146.829 Y-96.385
G2 X-146.604 Y-96.45 I-0.766 J-3.081
G1 X-146.317 Y-96.544
G2 X-146.125 Y-96.614 I-0.991 J-3.016
G1 X-145.828 Y-96.733
G2 X-145.659 Y-96.807 I-1.183 J-2.946
G1 X-145.353 Y-96.951
G2 X-145.206 Y-97.025 I-1.352 J-2.873
G1 X-144.891 Y-97.193
G2 X-144.766 Y-97.264 I-1.499 J-2.799
G1 X-144.442 Y-97.457
G2 X-144.333 Y-97.525 I-1.624 J-2.728
G1 X-144 Y-97.742
G2 X-143.904 Y-97.807 I-1.733 J-2.66
G1 X-143.562 Y-98.048
G2 X-143.478 Y-98.109 I-1.829 J-2.595
G1 X-143.127 Y-98.374
G2 X-143.057 Y-98.428 I-1.913 J-2.534
G1 X-142.698 Y-98.715
G2 X-142.628 Y-98.773 I-1.983 J-2.48
G1 X-142.261 Y-99.084
G2 X-142.206 Y-99.132 I-2.053 J-2.422
G1 X-141.831 Y-99.465
G2 X-141.774 Y-99.516 I-2.108 J-2.374
G1 X-141.392 Y-99.872
G2 X-141.353 Y-99.909 I-2.165 J-2.323
G1 X-140.962 Y-100.286
G2 X-140.896 Y-100.352 I-2.204 J-2.286
G1 X-140.094 Y-101.172
G2 X-140.026 Y-101.244 I-2.27 J-2.22
G1 X-139.197 Y-102.146
G2 X-139.14 Y-102.209 I-2.338 J-2.148
G1 X-138.285 Y-103.191
G2 X-138.236 Y-103.25 I-2.395 J-2.085
G1 X-137.358 Y-104.309
G2 X-137.316 Y-104.36 I-2.444 J-2.026
G1 X-136.417 Y-105.492
G2 X-136.38 Y-105.54 I-2.486 J-1.975
G1 X-135.462 Y-106.742
G2 X-135.43 Y-106.784 I-2.523 J-1.927
G1 X-134.495 Y-108.051
G2 X-134.466 Y-108.091 I-2.555 J-1.885
G1 X-133.516 Y-109.421
G2 X-133.49 Y-109.457 I-2.584 J-1.845
G1 X-132.528 Y-110.845
G2 X-132.505 Y-110.88 I-2.61 J-1.809
G1 X-131.533 Y-112.323
G2 X-131.511 Y-112.356 I-2.633 J-1.774
G1 X-130.531 Y-113.85
G2 X-130.511 Y-113.88 I-2.655 J-1.741
G1 X-129.526 Y-115.42
G2 X-129.508 Y-115.449 I-2.675 J-1.711
G1 X-128.519 Y-117.033
G2 X-128.501 Y-117.062 I-2.693 J-1.682
G1 X-127.511 Y-118.686
G2 X-127.494 Y-118.714 I-2.711 J-1.653
G1 X-126.505 Y-120.374
G2 X-126.489 Y-120.401 I-2.728 J-1.625
G1 X-126.486 Y-120.407
X-125.503 Y-122.094 Z5.932 F250
G2 X-125.488 Y-122.12 Z5.931 I-2.744 J-1.598
G1 X-124.507 Y-123.842 Z5.862
G2 X-124.493 Y-123.869 Z5.861 I-2.759 J-1.572
G1 X-123.519 Y-125.617 Z5.791
G2 X-123.505 Y-125.642 Z5.79 I-2.773 J-1.545
G1 X-122.539 Y-127.413 Z5.719
G2 X-122.525 Y-127.439 Z5.718 I-2.787 J-1.52
G1 X-121.569 Y-129.231 Z5.647
G2 X-121.555 Y-129.257 Z5.646 I-2.801 J-1.494
G1 X-120.612 Y-131.065 Z5.575
G2 X-120.599 Y-131.09 Z5.574 I-2.815 J-1.468
G1 X-119.668 Y-132.914 Z5.502
G2 X-119.654 Y-132.941 Z5.501 I-2.828 J-1.443
G1 X-118.739 Y-134.777 Z5.43
G2 X-118.727 Y-134.802 Z5.429 I-2.842 J-1.416
G1 X-117.827 Y-136.648 Z5.357
G2 X-117.814 Y-136.674 Z5.356 I-2.854 J-1.391
G1 X-116.932 Y-138.527 Z5.284
G2 X-116.92 Y-138.554 Z5.283 I-2.867 J-1.365
G1 X-116.055 Y-140.414 Z5.212
G2 X-116.043 Y-140.442 Z5.211 I-2.88 J-1.338
G1 X-115.199 Y-142.305 Z5.139
G2 X-115.187 Y-142.332 Z5.138 I-2.892 J-1.31
G1 X-114.363 Y-144.197 Z5.067
G2 X-114.35 Y-144.226 Z5.066 I-2.904 J-1.283
G1 X-113.548 Y-146.091 Z4.995
G2 X-113.536 Y-146.121 Z4.994 I-2.917 J-1.254
G1 X-112.757 Y-147.985 Z4.923
G2 X-112.745 Y-148.013 Z4.922 I-2.929 J-1.224
G1 X-111.988 Y-149.874 Z4.852
G2 X-111.975 Y-149.905 Z4.851 I-2.941 J-1.196
G1 X-111.243 Y-151.761 Z4.781
G2 X-111.231 Y-151.792 Z4.78 I-2.954 J-1.165
G1 X-110.523 Y-153.644 Z4.711
G2 X-110.512 Y-153.675 Z4.71 I-2.966 J-1.134
G1 X-109.829 Y-155.519 Z4.641
G2 X-109.817 Y-155.552 Z4.64 I-2.977 J-1.103
G1 X-109.16 Y-157.388 Z4.572
G2 X-109.147 Y-157.423 Z4.57 I-2.989 J-1.07
G1 X-108.517 Y-159.251 Z4.503
G2 X-108.506 Y-159.284 Z4.502 I-3.002 J-1.035
G1 X-108.491 Y-159.331 Z4.5
X-107.902 Y-161.101 F850
G2 X-107.89 Y-161.139 I-3.013 J-1.002
G1 X-107.314 Y-162.946
G2 X-107.302 Y-162.983 I-3.025 J-0.964
G1 X-106.754 Y-164.779
G2 X-106.743 Y-164.815 I-3.037 J-0.927
G1 X-106.222 Y-166.598
G2 X-106.211 Y-166.639 I-3.048 J-0.891
G1 X-105.719 Y-168.41
G2 X-105.708 Y-168.449 I-3.059 J-0.85
G1 X-105.244 Y-170.206
G2 X-105.233 Y-170.25 I-3.07 J-0.811
G1 X-104.799 Y-171.993
G2 X-104.789 Y-172.034 I-3.081 J-0.767
G1 X-104.383 Y-173.763
G2 X-104.373 Y-173.807 I-3.091 J-0.726
G1 X-103.996 Y-175.521
G2 X-103.986 Y-175.568 I-3.101 J-0.682
G1 X-103.639 Y-177.267
G2 X-103.63 Y-177.313 I-3.111 J-0.635
G1 X-103.312 Y-178.996
G2 X-103.303 Y-179.045 I-3.12 J-0.589
G1 X-103.015 Y-180.713
G2 X-103.007 Y-180.761 I-3.129 J-0.54
G1 X-102.748 Y-182.413
G2 X-102.741 Y-182.465 I-3.137 J-0.492
G1 X-102.512 Y-184.101
G2 X-102.505 Y-184.154 I-3.144 J-0.44
G1 X-102.306 Y-185.774
G2 X-102.3 Y-185.826 I-3.151 J-0.387
G1 X-102.13 Y-187.43
G2 X-102.124 Y-187.486 I-3.157 J-0.335
G1 X-101.984 Y-189.073
G2 X-101.98 Y-189.13 I-3.163 J-0.279
G1 X-101.87 Y-190.7
G2 X-101.866 Y-190.759 I-3.167 J-0.222
G1 X-101.811 Y-191.825
Z5
X-101.786 Y-192.314
G2 X-101.784 Y-192.372 I-3.171 J-0.163
G1 X-101.733 Y-193.909
G2 X-101.731 Y-193.97 I-3.173 J-0.105
G1 X-101.71 Y-195.492
G2 Y-195.555 I-3.175 J-0.044
G1 X-101.719 Y-197.059
G2 X-101.72 Y-197.121 I-3.175 J0.019
G1 X-101.758 Y-198.609
G2 X-101.76 Y-198.675 I-3.174 J0.081
G1 X-101.825 Y-200.073
G2 X-102.524 Y-208.175 I-48.175 J0.073
G1 Z4.5 F250
G2 X-115.935 Y-234.065 I-47.477 J8.175 F850
X-116.304 Y-234.382 I-2.245 J2.245
G1 X-120.574 Y-237.509
G2 X-120.892 Y-237.713 I-1.876 J2.562
G1 X-125.452 Y-240.282
G2 X-125.79 Y-240.447 I-1.558 J2.766
G1 X-130.568 Y-242.435
G2 X-130.925 Y-242.559 I-1.22 J2.931
G1 X-135.849 Y-243.95
G2 X-136.217 Y-244.031 I-0.863 J3.055
G1 X-141.214 Y-244.819
G2 X-141.59 Y-244.856 I-0.495 J3.136
G1 X-146.586 Y-245.044
G2 X-146.964 Y-245.035 I-0.119 J3.173
G1 X-151.888 Y-244.632
G2 X-152.262 Y-244.579 I0.259 J3.164
G1 X-157.047 Y-243.606
G2 X-157.412 Y-243.509 I0.633 J3.111
G1 X-161.991 Y-241.993
G2 X-162.342 Y-241.853 I0.998 J3.014
G1 X-166.656 Y-239.829
G2 X-166.987 Y-239.649 I1.349 J2.874
G1 X-170.981 Y-237.158
G2 X-171.29 Y-236.939 I1.68 J2.694
G1 X-174.913 Y-234.027
G2 X-175.193 Y-233.772 I1.989 J2.475
G1 X-178.403 Y-230.491
G2 X-178.651 Y-230.206 I2.269 J2.22
G1 X-181.412 Y-226.614
G2 X-181.624 Y-226.301 I2.517 J1.935
G1 X-183.909 Y-222.456
G2 X-184.083 Y-222.119 I2.729 J1.622
G1 X-185.87 Y-218.083
G2 X-186.003 Y-217.729 I2.903 J1.285
G1 X-187.28 Y-213.564
G2 X-187.369 Y-213.195 I3.036 J0.931
G1 X-188.015 Y-209.604
Z5
X-188.13 Y-208.966
G2 X-188.175 Y-208.591 I3.125 J0.562
G1 X-188.424 Y-204.36
G2 X-188.423 Y-203.98 I3.17 J0.187
G1 X-188.292 Y-201.825
Z4.5 F250
X-188.175 Y-199.903 F850
G2 X-186.004 Y-187.308 I38.175 J-0.096
G1 Z5
G2 X-177.392 Y-173.41 I36.004 J-12.691
G1 Z4.5 F250
G2 X-176.994 Y-173.006 I27.392 J-26.59 F850
X-174.188 Y-172.126 I2.245 J-2.245
G1 X-173.505 Y-172.249
X-172.859 Y-172.352
X-172.226 Y-172.442
X-171.607 Y-172.518
X-170.998 Y-172.581
X-170.402 Y-172.63
X-169.821 Y-172.666
X-169.252 Y-172.689
X-168.698 Y-172.699
X-168.156 Y-172.695
X-167.624 Y-172.68
X-167.107 Y-172.652
X-166.606 Y-172.612
X-166.116 Y-172.559
X-165.639 Y-172.494
X-165.173 Y-172.418
X-164.722 Y-172.331
X-164.282 Y-172.232
X-163.852 Y-172.122
X-163.44 Y-172.002
X-163.035 Y-171.87
X-162.64 Y-171.728
X-162.262 Y-171.576
X-161.888 Y-171.412
X-161.528 Y-171.239
X-161.178 Y-171.055
X-160.835 Y-170.86
X-160.503 Y-170.655
X-160.178 Y-170.438
X-159.859 Y-170.21
X-159.552 Y-169.973
X-159.251 Y-169.723
X-158.957 Y-169.462
X-158.669 Y-169.187
X-158.386 Y-168.899
X-158.117 Y-168.605
X-157.848 Y-168.291
X-157.584 Y-167.964
X-157.331 Y-167.627
X-157.082 Y-167.275
X-156.839 Y-166.907
X-156.603 Y-166.528
X-156.373 Y-166.133
X-156.148 Y-165.723
X-155.932 Y-165.301
X-155.722 Y-164.865
X-155.519 Y-164.411
X-155.322 Y-163.945
X-155.132 Y-163.464
X-154.949 Y-162.968
X-154.832 Y-162.63
Z5
X-154.773 Y-162.459
X-154.605 Y-161.938
X-154.444 Y-161.399
X-154.289 Y-160.849
X-154.143 Y-160.285
X-154.004 Y-159.708
X-153.872 Y-159.117
X-153.747 Y-158.513
X-153.63 Y-157.898
X-153.522 Y-157.281
X-153.324 Y-155.978
X-153.154 Y-154.632
X-153.07 Y-153.85
X-152.995 Y-153.047
X-152.929 Y-152.232
X-152.873 Y-151.41
X-152.784 Y-149.704
X-152.729 Y-147.966
X-152.709 Y-146.419
Z4.5 F250
X-152.706 Y-146.187 F850
X-152.711 Y-144.375
X-152.743 Y-142.533
X-152.8 Y-140.667
X-152.879 Y-138.783
X-152.976 Y-136.884
X-153.09 Y-134.978
X-153.218 Y-133.073
X-153.504 Y-129.262
X-153.811 Y-125.511
X-154.114 Y-121.862
G2 X-154.115 Y-121.85 I3.164 J0.263
G1 X-154.392 Y-118.353
G2 X-154.394 Y-118.332 I3.165 J0.251
G1 X-154.516 Y-116.655
G2 X-154.517 Y-116.632 I3.167 J0.23
G1 X-154.623 Y-115.009
G2 X-154.625 Y-114.982 I3.168 J0.207
G1 X-154.714 Y-113.417
G2 X-154.716 Y-113.383 I3.17 J0.18
G1 X-154.785 Y-111.882
G2 X-154.786 Y-111.838 I3.172 J0.146
G1 X-154.832 Y-110.406
G2 X-154.834 Y-110.353 I3.173 J0.102
G1 X-154.855 Y-108.992
G2 Y-108.926 I3.175 J0.049
G1 X-154.848 Y-107.642
G2 X-154.847 Y-107.567 I3.175 J-0.017
G1 X-154.812 Y-106.364
G2 X-154.807 Y-106.266 I3.174 J-0.092
G1 X-154.74 Y-105.147
G2 X-154.734 Y-105.066 I3.169 J-0.19
G1 X-154.689 Y-104.54
G2 X-154.683 Y-104.473 I3.163 J-0.271
G1 X-154.629 Y-103.968
G2 X-154.62 Y-103.895 I3.157 J-0.338
G1 X-154.557 Y-103.413
G2 X-154.547 Y-103.338 I3.148 J-0.411
G1 X-154.476 Y-102.88
G2 X-154.46 Y-102.786 I3.138 J-0.486
G1 X-154.379 Y-102.35
G2 X-154.359 Y-102.251 I3.122 J-0.58
G1 X-154.269 Y-101.84
G2 X-154.243 Y-101.734 I3.102 J-0.679
G1 X-154.144 Y-101.346
G2 X-154.109 Y-101.218 I3.076 J-0.785
G1 X-154 Y-100.855
G2 X-153.957 Y-100.722 I3.041 J-0.913
G1 X-153.839 Y-100.384
G2 X-153.781 Y-100.231 I2.998 J-1.046
G1 X-153.653 Y-99.917
G2 X-153.578 Y-99.748 I2.94 J-1.199
G1 X-153.44 Y-99.459
G2 X-153.349 Y-99.282 I2.865 J-1.368
G1 X-153.202 Y-99.018
G2 X-153.073 Y-98.807 I2.774 J-1.545
G1 X-152.915 Y-98.569
G2 X-152.763 Y-98.359 I2.645 J-1.756
G1 X-152.595 Y-98.146
G2 X-152.407 Y-97.928 I2.493 J-1.966
G1 X-152.23 Y-97.741
G2 X-151.995 Y-97.517 I2.305 J-2.184
G1 X-151.807 Y-97.356
G2 X-151.533 Y-97.145 I2.07 J-2.408
G1 X-151.335 Y-97.009
G2 X-151.024 Y-96.822 I1.796 J-2.618
G1 X-150.816 Y-96.712
G2 X-150.476 Y-96.556 I1.485 J-2.806
G1 X-150.258 Y-96.472
G2 X-149.903 Y-96.358 I1.145 J-2.961
G1 X-149.675 Y-96.3
G2 X-149.32 Y-96.23 I0.79 J-3.075
G1 X-149.082 Y-96.197
G2 X-148.739 Y-96.168 I0.435 J-3.145
G1 X-148.49 Y-96.161
G2 X-148.173 Y-96.168 I0.092 J-3.174
G1 X-147.915 Y-96.186
G2 X-147.626 Y-96.22 I-0.225 J-3.167
G1 X-147.359 Y-96.264
G2 X-147.107 Y-96.316 I-0.514 J-3.133
G1 X-146.829 Y-96.385
G2 X-146.604 Y-96.45 I-0.766 J-3.081
G1 X-146.317 Y-96.544
G2 X-146.125 Y-96.614 I-0.991 J-3.016
G1 X-145.828 Y-96.733
G2 X-145.659 Y-96.807 I-1.183 J-2.946
G1 X-145.353 Y-96.951
G2 X-145.206 Y-97.025 I-1.352 J-2.873
G1 X-144.891 Y-97.193
G2 X-144.766 Y-97.264 I-1.499 J-2.799
G1 X-144.442 Y-97.457
G2 X-144.333 Y-97.525 I-1.624 J-2.728
G1 X-144 Y-97.742
G2 X-143.904 Y-97.807 I-1.733 J-2.66
G1 X-143.562 Y-98.048
G2 X-143.478 Y-98.109 I-1.829 J-2.595
G1 X-143.127 Y-98.374
G2 X-143.057 Y-98.428 I-1.913 J-2.534
G1 X-142.698 Y-98.715
G2 X-142.628 Y-98.773 I-1.983 J-2.48
G1 X-142.261 Y-99.084
G2 X-142.206 Y-99.132 I-2.053 J-2.422
G1 X-141.831 Y-99.465
G2 X-141.774 Y-99.516 I-2.108 J-2.374
G1 X-141.392 Y-99.872
G2 X-141.353 Y-99.909 I-2.165 J-2.323
G1 X-140.962 Y-100.286
G2 X-140.896 Y-100.352 I-2.204 J-2.286
G1 X-140.094 Y-101.172
G2 X-140.026 Y-101.244 I-2.27 J-2.22
G1 X-139.197 Y-102.146
G2 X-139.14 Y-102.209 I-2.338 J-2.148
G1 X-138.285 Y-103.191
G2 X-138.236 Y-103.25 I-2.395 J-2.085
G1 X-137.358 Y-104.309
G2 X-137.316 Y-104.36 I-2.444 J-2.026
G1 X-136.417 Y-105.492
G2 X-136.38 Y-105.54 I-2.486 J-1.975
G1 X-135.462 Y-106.742
G2 X-135.43 Y-106.784 I-2.523 J-1.927
G1 X-134.495 Y-108.051
G2 X-134.466 Y-108.091 I-2.555 J-1.885
G1 X-133.516 Y-109.421
G2 X-133.49 Y-109.457 I-2.584 J-1.845
G1 X-132.528 Y-110.845
G2 X-132.505 Y-110.88 I-2.61 J-1.809
G1 X-131.533 Y-112.323
G2 X-131.511 Y-112.356 I-2.633 J-1.774
G1 X-130.531 Y-113.85
G2 X-130.511 Y-113.88 I-2.655 J-1.741
G1 X-129.526 Y-115.42
G2 X-129.508 Y-115.449 I-2.675 J-1.711
G1 X-128.519 Y-117.033
G2 X-128.501 Y-117.062 I-2.693 J-1.682
G1 X-127.511 Y-118.686
G2 X-127.494 Y-118.714 I-2.711 J-1.653
G1 X-126.505 Y-120.374
G2 X-126.489 Y-120.401 I-2.728 J-1.625
G1 X-126.486 Y-120.407
X-125.503 Y-122.094
G2 X-125.488 Y-122.12 I-2.744 J-1.598
G1 X-124.507 Y-123.842
G2 X-124.493 Y-123.869 I-2.759 J-1.572
G1 X-123.519 Y-125.617
G2 X-123.505 Y-125.642 I-2.773 J-1.545
G1 X-122.539 Y-127.413
G2 X-122.525 Y-127.439 I-2.787 J-1.52
G1 X-121.569 Y-129.231
G2 X-121.555 Y-129.257 I-2.801 J-1.494
G1 X-120.612 Y-131.065
G2 X-120.599 Y-131.09 I-2.815 J-1.468
G1 X-119.668 Y-132.914
G2 X-119.654 Y-132.941 I-2.828 J-1.443
G1 X-118.739 Y-134.777
G2 X-118.727 Y-134.802 I-2.842 J-1.416
G1 X-117.827 Y-136.648
G2 X-117.814 Y-136.674 I-2.854 J-1.391
G1 X-116.932 Y-138.527
