%
(1001)
(z0 botom machine -5-5)
(T1  D=6.35 CR=0 - ZMIN=6 - flat end mill)
G90 G94
G17
G21

(15mm bores)
M9
T1 M6
S6500 M3
G54
M9
G0 X-238.079 Y-112.073
Z33
Z23
Z18.685
G1 Z18.05 F750
Z6
X-238.117 Y-112.069 F850
X-238.142 Y-112.097
X-238.132 Y-112.133
X-238.104 Y-112.158
X-238.068 Y-112.168
X-238.031 Y-112.162
X-238 Y-112.142
X-237.978 Y-112.111
X-237.968 Y-112.075
X-237.971 Y-112.038
X-237.987 Y-112.003
X-238.013 Y-111.976
X-238.079 Y-111.942
X-238.154 Y-111.944
X-238.221 Y-111.979
X-238.266 Y-112.039
X-238.282 Y-112.112
X-238.271 Y-112.186
X-238.235 Y-112.252
X-238.18 Y-112.302
X-238.111 Y-112.333
X-238.037 Y-112.342
X-237.963 Y-112.33
X-237.895 Y-112.298
X-237.838 Y-112.249
X-237.753 Y-112.126
X-237.739 Y-111.977
X-237.788 Y-111.835
X-237.887 Y-111.723
X-238.021 Y-111.655
X-238.17 Y-111.637
X-238.317 Y-111.669
X-238.446 Y-111.744
X-238.547 Y-111.855
X-238.612 Y-111.99
X-238.636 Y-112.138
X-238.62 Y-112.287
X-238.566 Y-112.427
X-238.478 Y-112.549
X-238.363 Y-112.646
X-238.229 Y-112.713
X-238.083 Y-112.746
X-237.933
X-237.786 Y-112.717
X-237.649 Y-112.656
X-237.527 Y-112.569
X-237.424 Y-112.459
X-237.346 Y-112.331
X-237.293 Y-112.191
X-237.268 Y-112.043
X-237.27 Y-111.893
X-237.299 Y-111.746
X-237.353 Y-111.606
X-237.431 Y-111.478
X-237.529 Y-111.364
X-237.645 Y-111.269
X-237.774 Y-111.193
X-237.914 Y-111.139
X-238.061 Y-111.107
X-238.21 Y-111.098
X-238.36 Y-111.112
X-238.505 Y-111.148
X-238.644 Y-111.205
X-238.773 Y-111.281
X-238.89 Y-111.375
X-238.993 Y-111.484
X-239.08 Y-111.607
X-239.149 Y-111.74
X-239.2 Y-111.881
X-239.231 Y-112.028
X-239.243 Y-112.177
X-239.236 Y-112.327
X-239.21 Y-112.475
X-239.166 Y-112.618
X-239.104 Y-112.754
X-239.025 Y-112.882
X-238.932 Y-113
X-238.825 Y-113.105
X-238.707 Y-113.197
X-238.579 Y-113.275
X-238.442 Y-113.337
X-238.299 Y-113.384
X-238.153 Y-113.414
X-238.003 Y-113.428
X-237.853 Y-113.425
X-237.704 Y-113.406
X-237.559 Y-113.371
X-237.417 Y-113.32
X-237.282 Y-113.255
X-237.155 Y-113.175
X-237.036 Y-113.083
X-236.928 Y-112.98
X-236.831 Y-112.866
X-236.746 Y-112.742
X-236.673 Y-112.611
X-236.614 Y-112.473
X-236.569 Y-112.33
X-236.538 Y-112.183
X-236.522 Y-112.034
X-236.519 Y-111.884
X-236.532 Y-111.734
X-236.558 Y-111.587
X-236.597 Y-111.442
X-236.65 Y-111.302
X-236.716 Y-111.167
X-236.794 Y-111.039
X-236.883 Y-110.918
X-236.982 Y-110.806
X-237.091 Y-110.703
X-237.209 Y-110.61
X-237.334 Y-110.527
X-237.466 Y-110.456
X-237.604 Y-110.397
X-237.747 Y-110.349
X-237.892 Y-110.314
X-238.041 Y-110.292
X-238.19 Y-110.282
X-238.34 Y-110.284
X-238.49 Y-110.299
X-238.637 Y-110.326
X-238.782 Y-110.364
X-238.923 Y-110.415
X-239.06 Y-110.477
X-239.191 Y-110.549
X-239.316 Y-110.632
X-239.435 Y-110.724
X-239.545 Y-110.826
X-239.648 Y-110.935
X-239.741 Y-111.052
X-239.826 Y-111.176
X-239.9 Y-111.306
X-239.965 Y-111.442
X-240.019 Y-111.582
X-240.062 Y-111.726
X-240.095 Y-111.872
X-240.116 Y-112.02
X-240.126 Y-112.17
Y-112.32
X-240.114 Y-112.47
X-240.092 Y-112.618
X-240.059 Y-112.764
X-240.015 Y-112.908
X-239.962 Y-113.048
X-239.898 Y-113.184
X-239.826 Y-113.315
X-239.744 Y-113.441
X-239.653 Y-113.56
X-239.555 Y-113.673
X-239.449 Y-113.779
X-239.336 Y-113.878
X-239.216 Y-113.969
X-239.09 Y-114.051
X-238.96 Y-114.124
X-238.824 Y-114.189
X-238.685 Y-114.244
X-238.542 Y-114.29
X-238.393 Y-114.328
X-238.245 Y-114.354
X-238.095 Y-114.371
X-237.939 Y-114.378
X-237.788 Y-114.375
X-237.633 Y-114.361
X-237.479 Y-114.337
X-237.329 Y-114.304
X-237.177 Y-114.259
X-237.029 Y-114.204
X-236.887 Y-114.141
X-236.744 Y-114.065
X-236.608 Y-113.982
X-236.479 Y-113.89
X-236.352 Y-113.786
X-236.235 Y-113.677
X-236.125 Y-113.559
X-236.02 Y-113.431
X-235.924 Y-113.298
X-235.839 Y-113.159
X-235.76 Y-113.011
X-235.692 Y-112.858
X-235.634 Y-112.704
X-235.586 Y-112.541
X-235.549 Y-112.375
X-235.523 Y-112.209
X-235.507 Y-112.04
X-235.503 Y-111.867
X-235.511 Y-111.695
X-235.53 Y-111.525
X-235.56 Y-111.353
X-235.602 Y-111.182
X-235.656 Y-111.015
X-235.72 Y-110.853
X-235.796 Y-110.692
X-235.883 Y-110.535
X-235.98 Y-110.386
X-236.086 Y-110.243
X-236.203 Y-110.106
X-236.331 Y-109.975
X-236.467 Y-109.853
X-236.609 Y-109.741
X-236.761 Y-109.638
X-236.921 Y-109.544
X-237.087 Y-109.46
X-237.258 Y-109.388
X-237.433 Y-109.328
X-237.614 Y-109.278
X-237.801 Y-109.24
X-237.99 Y-109.215
X-238.179 Y-109.202
X-238.369
X-238.56 Y-109.214
X-238.752 Y-109.24
X-238.943 Y-109.278
X-239.131 Y-109.329
X-239.316 Y-109.393
X-239.496 Y-109.468
X-239.671 Y-109.556
X-239.842 Y-109.656
X-240.008 Y-109.768
X-240.166 Y-109.892
X-240.315 Y-110.025
X-240.456 Y-110.169
X-240.587 Y-110.322
X-240.708 Y-110.484
X-240.819 Y-110.654
X-240.919 Y-110.833
X-241.008 Y-111.019
X-241.084 Y-111.212
X-241.148 Y-111.409
X-241.198 Y-111.612
X-241.235 Y-111.817
X-241.258 Y-112.025
X-241.268 Y-112.236
X-241.263 Y-112.446
X-241.245 Y-112.658
X-241.212 Y-112.868
X-241.166 Y-113.077
X-241.105 Y-113.284
X-241.03 Y-113.487
X-240.942 Y-113.685
X-240.84 Y-113.878
X-240.725 Y-114.064
X-240.598 Y-114.244
X-240.458 Y-114.415
X-240.307 Y-114.577
X-240.144 Y-114.729
X-239.972 Y-114.871
X-239.789 Y-115.001
X-239.598 Y-115.12
X-239.398 Y-115.226
X-239.191 Y-115.319
X-238.977 Y-115.398
X-238.758 Y-115.463
X-238.534 Y-115.514
X-238.306 Y-115.549
X-238.076 Y-115.57
X-237.843 Y-115.576
X-237.61 Y-115.566
X-237.377 Y-115.54
X-237.146 Y-115.499
X-236.917 Y-115.442
X-236.691 Y-115.37
X-236.47 Y-115.283
X-236.254 Y-115.182
X-236.045 Y-115.065
X-235.843 Y-114.935
X-235.65 Y-114.79
X-235.465 Y-114.633
X-235.291 Y-114.463
X-235.128 Y-114.282
X-234.977 Y-114.089
X-234.839 Y-113.886
X-234.713 Y-113.673
X-234.602 Y-113.451
X-234.505 Y-113.222
X-234.424 Y-112.987
X-234.387 Y-112.854
X-234.365 Y-112.762
X-234.347 Y-112.668
X-234.334 Y-112.574
X-234.285 Y-112.139
X-234.283 Y-112.028
X-234.295 Y-111.916
X-234.361 Y-111.327
X-234.373 Y-111.247
X-234.444 Y-111.024
X-234.6 Y-110.578
X-234.64 Y-110.466
X-234.697 Y-110.355
X-235.03 Y-109.825
X-235.127 Y-109.686
X-235.253 Y-109.556
X-235.57 Y-109.24
X-235.699 Y-109.115
X-235.842 Y-109.017
X-236.369 Y-108.686
X-236.424 Y-108.655
X-236.48 Y-108.631
X-237.038 Y-108.435
X-237.261 Y-108.365
X-237.402 Y-108.348
X-237.93 Y-108.288
X-238.041 Y-108.277
X-238.153 Y-108.28
X-238.822 Y-108.355
X-238.933 Y-108.374
X-239.045 Y-108.409
X-239.508 Y-108.571
X-239.714 Y-108.646
X-239.937 Y-108.778
X-240.383 Y-109.059
X-240.435 Y-109.094
X-240.486 Y-109.137
X-240.829 Y-109.48
X-241.031 Y-109.686
X-241.052 Y-109.711
X-241.181 Y-109.909
X-241.462 Y-110.355
X-241.498 Y-110.421
X-241.559 Y-110.578
X-241.721 Y-111.043
X-241.785 Y-111.247
X-241.813 Y-111.47
X-241.875 Y-112.028
X-241.877 Y-112.083
X-241.873 Y-112.139
X-241.798 Y-112.808
X-241.781 Y-112.92
X-241.746 Y-113.031
X-241.59 Y-113.477
X-241.511 Y-113.7
X-241.498 Y-113.726
X-241.379 Y-113.923
X-241.098 Y-114.369
X-241.052 Y-114.436
X-240.903 Y-114.592
X-240.606 Y-114.889
X-240.452 Y-115.039
X-240.383 Y-115.088
X-239.937 Y-115.368
X-239.746 Y-115.485
X-239.714 Y-115.5
X-239.491 Y-115.581
X-239.045 Y-115.737
X-238.933 Y-115.773
X-238.822 Y-115.791
X-238.153 Y-115.866
X-238.041 Y-115.869
X-237.93 Y-115.858
X-237.484 Y-115.808
X-237.261 Y-115.781
X-237.029 Y-115.708
X-236.592 Y-115.555
X-236.412 Y-115.485
X-236.369 Y-115.46
X-235.923 Y-115.18
X-235.708 Y-115.039
X-235.699 Y-115.032
X-235.476 Y-114.813
X-235.144 Y-114.479
X-235.098 Y-114.424
X-235.061 Y-114.369
X-234.78 Y-113.923
X-234.648 Y-113.7
X-234.568 Y-113.477
X-234.412 Y-113.031
X-234.379 Y-112.925
X-234.361 Y-112.819
X-234.334 Y-112.574
X-234.332 Y-112.525 Z6.005 F750
X-234.34 Y-112.472 Z6.023
X-234.348 Y-112.424 Z6.052
X-234.354 Y-112.384 Z6.092
X-234.359 Y-112.354 Z6.139
X-234.362 Y-112.335 Z6.193
X-234.363 Y-112.328 Z6.249
G0 Z23
X-220 Y-210
Z18.685
G1 Z18.05 F750
Z6
X-220.036 Y-210.012 F850
X-220.046 Y-210.049
X-220.022 Y-210.077
X-219.986 Y-210.088
X-219.949 Y-210.081
X-219.918 Y-210.059
X-219.899 Y-210.027
X-219.892 Y-209.99
X-219.899 Y-209.953
X-219.918 Y-209.921
X-219.947 Y-209.897
X-219.982 Y-209.884
X-220.057 Y-209.882
X-220.124 Y-209.916
X-220.169 Y-209.977
X-220.183 Y-210.05
X-220.166 Y-210.124
X-220.124 Y-210.185
X-220.063 Y-210.229
X-219.991 Y-210.25
X-219.916 Y-210.248
X-219.845 Y-210.224
X-219.784 Y-210.181
X-219.736 Y-210.123
X-219.706 Y-210.054
X-219.684 Y-209.906
X-219.736 Y-209.765
X-219.841 Y-209.659
X-219.98 Y-209.601
X-220.13 Y-209.598
X-220.272 Y-209.647
X-220.39 Y-209.74
X-220.474 Y-209.864
X-220.517 Y-210.008
X-220.516 Y-210.158
X-220.473 Y-210.301
X-220.393 Y-210.428
X-220.284 Y-210.531
X-220.152 Y-210.602
X-220.007 Y-210.64
X-219.857 Y-210.641
X-219.71 Y-210.608
X-219.575 Y-210.542
X-219.456 Y-210.452
X-219.359 Y-210.337
X-219.287 Y-210.206
X-219.243 Y-210.062
X-219.228 Y-209.913
X-219.241 Y-209.764
X-219.283 Y-209.62
X-219.35 Y-209.485
X-219.44 Y-209.366
X-219.55 Y-209.263
X-219.676 Y-209.182
X-219.814 Y-209.122
X-219.959 Y-209.087
X-220.109 Y-209.075
X-220.258 Y-209.087
X-220.404 Y-209.122
X-220.543 Y-209.18
X-220.671 Y-209.257
X-220.787 Y-209.353
X-220.887 Y-209.465
X-220.97 Y-209.59
X-221.034 Y-209.725
X-221.079 Y-209.868
X-221.104 Y-210.016
X-221.108 Y-210.166
X-221.092 Y-210.315
X-221.057 Y-210.461
X-221.003 Y-210.601
X-220.931 Y-210.733
X-220.843 Y-210.854
X-220.741 Y-210.964
X-220.626 Y-211.06
X-220.499 Y-211.141
X-220.364 Y-211.206
X-220.222 Y-211.254
X-220.076 Y-211.285
X-219.926 Y-211.3
X-219.776 Y-211.296
X-219.628 Y-211.276
X-219.482 Y-211.239
X-219.342 Y-211.187
X-219.208 Y-211.119
X-219.082 Y-211.036
X-218.966 Y-210.941
X-218.862 Y-210.834
X-218.768 Y-210.717
X-218.688 Y-210.59
X-218.621 Y-210.456
X-218.569 Y-210.315
X-218.531 Y-210.17
X-218.508 Y-210.022
X-218.5 Y-209.872
X-218.507 Y-209.722
X-218.529 Y-209.574
X-218.565 Y-209.428
X-218.615 Y-209.287
X-218.678 Y-209.15
X-218.754 Y-209.021
X-218.842 Y-208.9
X-218.941 Y-208.787
X-219.05 Y-208.683
X-219.168 Y-208.591
X-219.294 Y-208.509
X-219.426 Y-208.439
X-219.565 Y-208.381
X-219.708 Y-208.336
X-219.854 Y-208.304
X-220.003 Y-208.284
X-220.153 Y-208.278
X-220.303 Y-208.284
X-220.451 Y-208.304
X-220.598 Y-208.336
X-220.741 Y-208.38
X-220.88 Y-208.436
X-221.014 Y-208.503
X-221.142 Y-208.581
X-221.263 Y-208.67
X-221.377 Y-208.768
X-221.482 Y-208.875
X-221.578 Y-208.99
X-221.665 Y-209.113
X-221.741 Y-209.242
X-221.808 Y-209.376
X-221.863 Y-209.516
X-221.908 Y-209.659
X-221.941 Y-209.805
X-221.963 Y-209.954
X-221.973 Y-210.103
X-221.972 Y-210.253
X-221.96 Y-210.403
X-221.936 Y-210.551
X-221.902 Y-210.697
X-221.857 Y-210.84
X-221.801 Y-210.979
X-221.735 Y-211.114
X-221.66 Y-211.243
X-221.575 Y-211.367
X-221.481 Y-211.485
X-221.38 Y-211.595
X-221.27 Y-211.698
X-221.154 Y-211.792
X-221.031 Y-211.879
X-220.903 Y-211.956
X-220.769 Y-212.024
X-220.632 Y-212.083
X-220.49 Y-212.133
X-220.345 Y-212.172
X-220.198 Y-212.202
X-220.049 Y-212.221
X-219.899 Y-212.23
X-219.749 Y-212.229
X-219.599 Y-212.218
X-219.451 Y-212.198
X-219.301 Y-212.166
X-219.156 Y-212.126
X-219.013 Y-212.075
X-218.87 Y-212.014
X-218.736 Y-211.945
X-218.602 Y-211.866
X-218.474 Y-211.777
X-218.354 Y-211.681
X-218.236 Y-211.575
X-218.127 Y-211.461
X-218.026 Y-211.342
X-217.93 Y-211.212
X-217.845 Y-211.078
X-217.769 Y-210.939
X-217.7 Y-210.79
X-217.642 Y-210.64
X-217.594 Y-210.487
X-217.555 Y-210.325
X-217.527 Y-210.164
X-217.51 Y-210.002
X-217.504 Y-209.834
X-217.509 Y-209.667
X-217.525 Y-209.503
X-217.552 Y-209.336
X-217.591 Y-209.17
X-217.64 Y-209.009
X-217.699 Y-208.85
X-217.771 Y-208.692
X-217.853 Y-208.541
X-217.944 Y-208.396
X-218.046 Y-208.255
X-218.159 Y-208.119
X-218.279 Y-207.992
X-218.407 Y-207.874
X-218.546 Y-207.762
X-218.693 Y-207.659
X-218.845 Y-207.567
X-219.003 Y-207.485
X-219.168 Y-207.412
X-219.34 Y-207.35
X-219.515 Y-207.3
X-219.692 Y-207.261
X-219.873 Y-207.234
X-220.059 Y-207.219
X-220.245 Y-207.216
X-220.431 Y-207.226
X-220.615 Y-207.248
X-220.799 Y-207.282
X-220.983 Y-207.329
X-221.164 Y-207.388
X-221.34 Y-207.459
X-221.512 Y-207.542
X-221.678 Y-207.636
X-221.839 Y-207.743
X-221.995 Y-207.861
X-222.142 Y-207.988
X-222.281 Y-208.126
X-222.41 Y-208.272
X-222.53 Y-208.428
X-222.64 Y-208.592
X-222.74 Y-208.765
X-222.828 Y-208.945
X-222.905 Y-209.131
X-222.969 Y-209.321
X-223.021 Y-209.516
X-223.059 Y-209.714
X-223.085 Y-209.916
X-223.097 Y-210.121
X-223.095 Y-210.327
X-223.08 Y-210.533
X-223.051 Y-210.739
X-223.009 Y-210.943
X-222.952 Y-211.144
X-222.883 Y-211.342
X-222.8 Y-211.535
X-222.704 Y-211.723
X-222.595 Y-211.905
X-222.474 Y-212.081
X-222.341 Y-212.248
X-222.196 Y-212.408
X-222.041 Y-212.558
X-221.875 Y-212.698
X-221.699 Y-212.827
X-221.515 Y-212.945
X-221.322 Y-213.051
X-221.122 Y-213.144
X-220.915 Y-213.224
X-220.702 Y-213.29
X-220.485 Y-213.343
X-220.264 Y-213.381
X-220.04 Y-213.404
X-219.814 Y-213.412
X-219.587 Y-213.406
X-219.361 Y-213.384
X-219.135 Y-213.347
X-218.911 Y-213.295
X-218.69 Y-213.228
X-218.474 Y-213.147
X-218.262 Y-213.05
X-218.057 Y-212.94
X-217.859 Y-212.815
X-217.668 Y-212.678
X-217.487 Y-212.527
X-217.315 Y-212.364
X-217.153 Y-212.189
X-217.004 Y-212.004
X-216.866 Y-211.808
X-216.741 Y-211.602
X-216.63 Y-211.388
X-216.532 Y-211.166
X-216.45 Y-210.938
X-216.382 Y-210.703
X-216.33 Y-210.464
X-216.294 Y-210.221
X-216.273 Y-209.974
X-216.27 Y-209.727
X-216.282 Y-209.478
X-216.312 Y-209.23
X-216.336 Y-209.097
X-216.356 Y-209.005
X-216.38 Y-208.914
X-216.409 Y-208.825
X-216.526 Y-208.489
X-216.567 Y-208.378
X-216.628 Y-208.266
X-216.965 Y-207.73
X-217.061 Y-207.597
X-217.283 Y-207.374
X-217.506 Y-207.151
X-217.634 Y-207.031
X-217.788 Y-206.928
X-218.303 Y-206.605
X-218.359 Y-206.576
X-218.414 Y-206.553
X-218.972 Y-206.357
X-219.195 Y-206.29
X-219.46 Y-206.259
X-219.864 Y-206.214
X-219.976 Y-206.203
X-220.087 Y-206.208
X-220.756 Y-206.283
X-220.868 Y-206.303
X-220.979 Y-206.34
X-221.425 Y-206.496
X-221.648 Y-206.579
X-221.871 Y-206.714
X-222.317 Y-206.995
X-222.406 Y-207.064
X-222.541 Y-207.198
X-222.764 Y-207.421
X-222.938 Y-207.597
X-222.987 Y-207.656
X-223.092 Y-207.82
X-223.372 Y-208.266
X-223.433 Y-208.377
X-223.474 Y-208.489
X-223.656 Y-209.009
X-223.703 Y-209.159
X-223.732 Y-209.382
X-223.795 Y-209.939
Y-210.051
X-223.721 Y-210.72
X-223.705 Y-210.831
X-223.673 Y-210.943
X-223.516 Y-211.389
X-223.437 Y-211.612
X-223.433 Y-211.622
X-223.309 Y-211.835
X-223.028 Y-212.281
X-222.987 Y-212.344
X-222.839 Y-212.504
X-222.541 Y-212.802
X-222.389 Y-212.95
X-222.317 Y-213.005
X-221.695 Y-213.396
X-221.648 Y-213.421
X-221.425 Y-213.504
X-220.979 Y-213.66
X-220.868 Y-213.696
X-220.756 Y-213.717
X-220.087 Y-213.792
X-219.976 Y-213.797
X-219.864 Y-213.786
X-219.418 Y-213.736
X-219.195 Y-213.71
X-218.972 Y-213.643
X-218.416 Y-213.448
X-218.303 Y-213.395
X-217.857 Y-213.115
X-217.634 Y-212.97
X-217.61 Y-212.95
X-217.384 Y-212.727
X-217.161 Y-212.504
X-217.052 Y-212.393
X-216.972 Y-212.281
X-216.691 Y-211.835
X-216.563 Y-211.612
X-216.519 Y-211.489
X-216.327 Y-210.943
X-216.296 Y-210.836
X-216.279 Y-210.72
X-216.205 Y-210.051
Y-209.939
X-216.268 Y-209.382
X-216.296 Y-209.165
X-216.297 Y-209.159
X-216.37 Y-208.936
X-216.409 Y-208.825
X-216.438 Y-208.778 Z6.006 F750
X-216.465 Y-208.733 Z6.025
X-216.489 Y-208.693 Z6.055
X-216.51 Y-208.659 Z6.094
X-216.525 Y-208.634 Z6.141
X-216.538 Y-208.621 Z6.194
X-216.542 Y-208.616 Z6.249
G0 Z23
X-174.931 Y-66.171
Z18.685
G1 Z18.05 F750
Z6
X-174.951 Y-66.203 F850
X-174.937 Y-66.237
X-174.9 Y-66.244
X-174.865 Y-66.231
X-174.841 Y-66.202
X-174.83 Y-66.166
X-174.835 Y-66.129
X-174.853 Y-66.096
X-174.881 Y-66.071
X-174.916 Y-66.058
X-174.953 Y-66.057
X-174.989 Y-66.069
X-175.049 Y-66.114
X-175.08 Y-66.182
X-175.078 Y-66.257
X-175.043 Y-66.324
X-174.985 Y-66.371
X-174.913 Y-66.393
X-174.838 Y-66.389
X-174.768 Y-66.361
X-174.711 Y-66.313
X-174.67 Y-66.25
X-174.649 Y-66.178
X-174.648 Y-66.103
X-174.667 Y-66.031
X-174.741 Y-65.9
X-174.869 Y-65.822
X-175.018 Y-65.804
X-175.163 Y-65.845
X-175.282 Y-65.936
X-175.363 Y-66.063
X-175.398 Y-66.208
X-175.387 Y-66.358
X-175.331 Y-66.497
X-175.238 Y-66.614
X-175.115 Y-66.701
X-174.974 Y-66.751
X-174.824 Y-66.763
X-174.676 Y-66.737
X-174.539 Y-66.676
X-174.421 Y-66.584
X-174.327 Y-66.468
X-174.261 Y-66.333
X-174.224 Y-66.187
X-174.219 Y-66.037
X-174.244 Y-65.889
X-174.298 Y-65.75
X-174.379 Y-65.623
X-174.483 Y-65.515
X-174.605 Y-65.427
X-174.74 Y-65.364
X-174.886 Y-65.326
X-175.035 Y-65.314
X-175.184 Y-65.328
X-175.329 Y-65.367
X-175.466 Y-65.429
X-175.59 Y-65.513
X-175.7 Y-65.615
X-175.793 Y-65.733
X-175.866 Y-65.864
X-175.918 Y-66.004
X-175.949 Y-66.151
X-175.959 Y-66.301
X-175.946 Y-66.45
X-175.913 Y-66.597
X-175.859 Y-66.737
X-175.787 Y-66.868
X-175.697 Y-66.988
X-175.592 Y-67.096
X-175.474 Y-67.188
X-175.345 Y-67.264
X-175.207 Y-67.323
X-175.062 Y-67.364
X-174.914 Y-67.386
X-174.764 Y-67.39
X-174.615 Y-67.375
X-174.469 Y-67.342
X-174.327 Y-67.292
X-174.193 Y-67.225
X-174.067 Y-67.144
X-173.951 Y-67.048
X-173.847 Y-66.94
X-173.756 Y-66.821
X-173.679 Y-66.693
X-173.616 Y-66.556
X-173.568 Y-66.414
X-173.536 Y-66.268
X-173.521 Y-66.118
X-173.52 Y-65.968
X-173.536 Y-65.819
X-173.567 Y-65.672
X-173.614 Y-65.53
X-173.674 Y-65.392
X-173.748 Y-65.262
X-173.834 Y-65.14
X-173.933 Y-65.026
X-174.042 Y-64.923
X-174.161 Y-64.832
X-174.288 Y-64.752
X-174.422 Y-64.684
X-174.561 Y-64.63
X-174.706 Y-64.589
X-174.853 Y-64.562
X-175.003 Y-64.549
X-175.153
X-175.302 Y-64.563
X-175.449 Y-64.59
X-175.594 Y-64.631
X-175.734 Y-64.684
X-175.869 Y-64.75
X-175.998 Y-64.827
X-176.119 Y-64.915
X-176.233 Y-65.013
X-176.338 Y-65.12
X-176.433 Y-65.236
X-176.518 Y-65.36
X-176.592 Y-65.49
X-176.655 Y-65.626
X-176.707 Y-65.767
X-176.747 Y-65.912
X-176.775 Y-66.059
X-176.791 Y-66.208
X-176.795 Y-66.358
X-176.787 Y-66.508
X-176.767 Y-66.656
X-176.736 Y-66.803
X-176.693 Y-66.947
X-176.639 Y-67.087
X-176.574 Y-67.222
X-176.499 Y-67.352
X-176.415 Y-67.476
X-176.321 Y-67.593
X-176.218 Y-67.702
X-176.108 Y-67.804
X-175.99 Y-67.897
X-175.866 Y-67.981
X-175.736 Y-68.056
X-175.601 Y-68.121
X-175.461 Y-68.175
X-175.318 Y-68.22
X-175.172 Y-68.254
X-175.023 Y-68.277
X-174.874 Y-68.29
X-174.724 Y-68.292
X-174.574 Y-68.284
X-174.425 Y-68.265
X-174.278 Y-68.236
X-174.134 Y-68.196
X-173.992 Y-68.147
X-173.854 Y-68.088
X-173.72 Y-68.02
X-173.592 Y-67.943
X-173.468 Y-67.857
X-173.351 Y-67.763
X-173.24 Y-67.662
X-173.137 Y-67.553
X-173.038 Y-67.435
X-172.95 Y-67.314
X-172.869 Y-67.186
X-172.795 Y-67.049
X-172.733 Y-66.912
X-172.677 Y-66.766
X-172.632 Y-66.617
X-172.597 Y-66.468
X-172.571 Y-66.311
X-172.555 Y-66.154
X-172.55 Y-65.998
X-172.556 Y-65.837
X-172.572 Y-65.679
X-172.599 Y-65.522
X-172.636 Y-65.363
X-172.684 Y-65.209
X-172.742 Y-65.059
X-172.811 Y-64.909
X-172.89 Y-64.765
X-172.977 Y-64.627
X-173.076 Y-64.492
X-173.184 Y-64.364
X-173.298 Y-64.245
X-173.423 Y-64.131
X-173.557 Y-64.025
X-173.695 Y-63.929
X-173.84 Y-63.842
X-173.995 Y-63.762
X-174.152 Y-63.694
X-174.314 Y-63.637
X-174.481 Y-63.59
X-174.654 Y-63.553
X-174.827 Y-63.528
X-175.001 Y-63.515
X-175.179 Y-63.514
X-175.358 Y-63.524
X-175.535 Y-63.546
X-175.709 Y-63.579
X-175.884 Y-63.625
X-176.058 Y-63.683
X-176.226 Y-63.752
X-176.389 Y-63.832
X-176.548 Y-63.923
X-176.703 Y-64.026
X-176.85 Y-64.139
X-176.99 Y-64.262
X-177.121 Y-64.393
X-177.244 Y-64.535
X-177.359 Y-64.686
X-177.464 Y-64.845
X-177.559 Y-65.01
X-177.642 Y-65.181
X-177.713 Y-65.358
X-177.774 Y-65.542
X-177.823 Y-65.731
X-177.859 Y-65.922
X-177.882 Y-66.116
X-177.893 Y-66.311
X-177.89 Y-66.507
X-177.875 Y-66.704
X-177.846 Y-66.902
X-177.804 Y-67.098
X-177.749 Y-67.291
X-177.681 Y-67.481
X-177.6 Y-67.665
X-177.507 Y-67.845
X-177.402 Y-68.019
X-177.285 Y-68.187
X-177.156 Y-68.347
X-177.016 Y-68.5
X-176.865 Y-68.643
X-176.705 Y-68.777
X-176.537 Y-68.9
X-176.359 Y-69.011
X-176.174 Y-69.112
X-175.982 Y-69.2
X-175.784 Y-69.275
X-175.58 Y-69.337
X-175.372 Y-69.386
X-175.16 Y-69.422
X-174.944 Y-69.443
X-174.727 Y-69.45
X-174.509 Y-69.442
X-174.292 Y-69.42
X-174.075 Y-69.383
X-173.86 Y-69.332
X-173.648 Y-69.267
X-173.44 Y-69.187
X-173.238 Y-69.093
X-173.041 Y-68.986
X-172.851 Y-68.865
X-172.668 Y-68.731
X-172.494 Y-68.585
X-172.33 Y-68.428
X-172.176 Y-68.259
X-172.032 Y-68.079
X-171.901 Y-67.89
X-171.782 Y-67.691
X-171.676 Y-67.485
X-171.583 Y-67.27
X-171.505 Y-67.05
X-171.441 Y-66.824
X-171.392 Y-66.593
X-171.358 Y-66.358
X-171.34 Y-66.121
X-171.338 Y-65.883
X-171.352 Y-65.644
X-171.381 Y-65.405
X-171.427 Y-65.168
X-171.488 Y-64.934
X-171.565 Y-64.703
X-171.657 Y-64.477
X-171.765 Y-64.257
X-171.887 Y-64.044
X-172.024 Y-63.838
X-172.175 Y-63.642
X-172.339 Y-63.455
X-172.516 Y-63.279
X-172.62 Y-63.188
X-172.694 Y-63.127
X-172.771 Y-63.069
X-172.851 Y-63.016
X-173.117 Y-62.849
X-173.25 Y-62.766
X-173.473 Y-62.678
X-174.031 Y-62.483
X-174.142 Y-62.458
X-174.811 Y-62.382
X-174.923 Y-62.373
X-175.034 Y-62.38
X-175.704 Y-62.456
X-175.815 Y-62.478
X-175.927 Y-62.516
X-176.373 Y-62.673
X-176.596 Y-62.758
X-176.745 Y-62.849
X-177.1 Y-63.072
X-177.265 Y-63.177
X-177.398 Y-63.295
X-177.844 Y-63.741
X-177.893 Y-63.795
X-177.934 Y-63.849
X-178.287 Y-64.41
X-178.341 Y-64.499
X-178.38 Y-64.588
X-178.603 Y-65.226
X-178.627 Y-65.302
X-178.66 Y-65.525
X-178.71 Y-65.971
X-178.728 Y-66.194
X-178.705 Y-66.417
X-178.655 Y-66.863
X-178.641 Y-66.975
X-178.63 Y-67.031
X-178.613 Y-67.086
X-178.379 Y-67.755
X-178.327 Y-67.867
X-177.934 Y-68.493
X-177.873 Y-68.57
X-177.711 Y-68.734
X-177.351 Y-69.094
X-177.308 Y-69.133
X-177.265 Y-69.165
X-176.67 Y-69.54
X-176.596 Y-69.584
X-176.373 Y-69.669
X-175.927 Y-69.825
X-175.815 Y-69.863
X-175.704 Y-69.885
X-175.034 Y-69.961
X-174.923 Y-69.968
X-174.811 Y-69.959
X-174.142 Y-69.883
X-174.031 Y-69.858
X-173.473 Y-69.663
X-173.25 Y-69.575
X-173.192 Y-69.54
X-172.804 Y-69.296
X-172.581 Y-69.153
X-172.512 Y-69.094
X-172.066 Y-68.648
X-171.978 Y-68.557
X-171.912 Y-68.466
X-171.536 Y-67.867
X-171.483 Y-67.755
X-171.243 Y-67.068
X-171.219 Y-66.966
X-171.182 Y-66.64
X-171.157 Y-66.417
X-171.134 Y-66.194
X-171.152 Y-65.971
X-171.202 Y-65.525
X-171.235 Y-65.302
X-171.243 Y-65.274
X-171.467 Y-64.633
X-171.511 Y-64.522
X-171.576 Y-64.41
X-171.912 Y-63.875
X-171.958 Y-63.808
X-172.019 Y-63.741
X-172.464 Y-63.295
X-172.581 Y-63.188
X-172.804 Y-63.045
X-172.851 Y-63.016
X-172.903 Y-62.997 Z6.006 F750
X-172.952 Y-62.979 Z6.025
X-172.996 Y-62.963 Z6.055
X-173.033 Y-62.95 Z6.094
X-173.061 Y-62.939 Z6.141
X-173.079 Y-62.937 Z6.194
X-173.085 Y-62.936 Z6.249
G0 Z23
X-150 Y-200
Z18.685
G1 Z18.05 F750
Z6
X-149.964 Y-200.013 F850
X-149.934 Y-199.991
X-149.935 Y-199.953
X-149.957 Y-199.922
X-149.99 Y-199.905
X-150.027 Y-199.903
X-150.062 Y-199.916
X-150.09 Y-199.941
X-150.108 Y-199.974
X-150.113 Y-200.011
X-150.105 Y-200.048
X-150.086 Y-200.08
X-150.028 Y-200.128
X-149.955 Y-200.143
X-149.882 Y-200.123
X-149.825 Y-200.074
X-149.793 Y-200.007
X-149.788 Y-199.932
X-149.808 Y-199.86
X-149.851 Y-199.798
X-149.911 Y-199.753
X-149.982 Y-199.728
X-150.057 Y-199.724
X-150.13 Y-199.74
X-150.196 Y-199.775
X-150.306 Y-199.877
X-150.353 Y-200.019
X-150.337 Y-200.168
X-150.264 Y-200.3
X-150.148 Y-200.395
X-150.007 Y-200.445
X-149.857 Y-200.447
X-149.714 Y-200.402
X-149.591 Y-200.316
X-149.498 Y-200.198
X-149.442 Y-200.059
X-149.425 Y-199.91
X-149.447 Y-199.761
X-149.506 Y-199.623
X-149.597 Y-199.504
X-149.713 Y-199.409
X-149.848 Y-199.344
X-149.995 Y-199.311
X-150.145 Y-199.308
X-150.292 Y-199.337
X-150.43 Y-199.395
X-150.554 Y-199.48
X-150.658 Y-199.587
X-150.741 Y-199.712
X-150.798 Y-199.851
X-150.829 Y-199.998
X-150.833 Y-200.148
X-150.811 Y-200.296
X-150.763 Y-200.438
X-150.692 Y-200.571
X-150.6 Y-200.689
X-150.491 Y-200.792
X-150.366 Y-200.875
X-150.23 Y-200.939
X-150.086 Y-200.98
X-149.937 Y-200.999
X-149.787 Y-200.996
X-149.639 Y-200.971
X-149.497 Y-200.925
X-149.362 Y-200.859
X-149.238 Y-200.775
X-149.126 Y-200.675
X-149.029 Y-200.56
X-148.949 Y-200.433
X-148.886 Y-200.297
X-148.841 Y-200.154
X-148.815 Y-200.007
X-148.808 Y-199.857
X-148.82 Y-199.707
X-148.851 Y-199.56
X-148.899 Y-199.418
X-148.964 Y-199.283
X-149.045 Y-199.157
X-149.141 Y-199.041
X-149.249 Y-198.937
X-149.368 Y-198.846
X-149.497 Y-198.77
X-149.634 Y-198.708
X-149.776 Y-198.662
X-149.923 Y-198.632
X-150.073 Y-198.618
X-150.223 Y-198.62
X-150.372 Y-198.638
X-150.518 Y-198.672
X-150.659 Y-198.722
X-150.795 Y-198.785
X-150.924 Y-198.863
X-151.044 Y-198.953
X-151.154 Y-199.054
X-151.253 Y-199.167
X-151.341 Y-199.288
X-151.417 Y-199.418
X-151.479 Y-199.554
X-151.528 Y-199.696
X-151.563 Y-199.842
X-151.584 Y-199.99
X-151.591 Y-200.14
X-151.584 Y-200.29
X-151.563 Y-200.439
X-151.529 Y-200.585
X-151.481 Y-200.727
X-151.421 Y-200.864
X-151.348 Y-200.995
X-151.265 Y-201.12
X-151.17 Y-201.237
X-151.066 Y-201.344
X-150.953 Y-201.443
X-150.831 Y-201.531
X-150.703 Y-201.608
X-150.568 Y-201.675
X-150.429 Y-201.729
X-150.285 Y-201.772
X-150.138 Y-201.803
X-149.989 Y-201.821
X-149.839 Y-201.827
X-149.69 Y-201.821
X-149.541 Y-201.803
X-149.394 Y-201.773
X-149.25 Y-201.731
X-149.109 Y-201.678
X-148.974 Y-201.614
X-148.844 Y-201.539
X-148.72 Y-201.455
X-148.603 Y-201.361
X-148.493 Y-201.258
X-148.392 Y-201.148
X-148.299 Y-201.03
X-148.216 Y-200.905
X-148.142 Y-200.775
X-148.078 Y-200.639
X-148.024 Y-200.499
X-147.981 Y-200.355
X-147.949 Y-200.209
X-147.927 Y-200.06
X-147.916 Y-199.911
Y-199.761
X-147.927 Y-199.611
X-147.949 Y-199.463
X-147.981 Y-199.316
X-148.023 Y-199.172
X-148.075 Y-199.032
X-148.137 Y-198.895
X-148.209 Y-198.763
X-148.289 Y-198.636
X-148.378 Y-198.515
X-148.474 Y-198.401
X-148.579 Y-198.293
X-148.69 Y-198.192
X-148.808 Y-198.1
X-148.932 Y-198.015
X-149.061 Y-197.938
X-149.199 Y-197.869
X-149.337 Y-197.811
X-149.48 Y-197.762
X-149.63 Y-197.721
X-149.778 Y-197.691
X-149.932 Y-197.67
X-150.088 Y-197.659
X-150.241
X-150.4 Y-197.669
X-150.556 Y-197.69
X-150.709 Y-197.721
X-150.865 Y-197.763
X-151.015 Y-197.815
X-151.161 Y-197.876
X-151.308 Y-197.949
X-151.447 Y-198.031
X-151.58 Y-198.121
X-151.711 Y-198.223
X-151.833 Y-198.332
X-151.947 Y-198.448
X-152.056 Y-198.576
X-152.156 Y-198.709
X-152.246 Y-198.848
X-152.329 Y-198.995
X-152.402 Y-199.149
X-152.464 Y-199.306
X-152.516 Y-199.467
X-152.558 Y-199.636
X-152.588 Y-199.805
X-152.608 Y-199.975
X-152.615 Y-200.149
X-152.612 Y-200.325
X-152.597 Y-200.5
X-152.57 Y-200.672
X-152.531 Y-200.846
X-152.48 Y-201.018
X-152.419 Y-201.185
X-152.347 Y-201.347
X-152.262 Y-201.507
X-152.166 Y-201.663
X-152.061 Y-201.811
X-151.946 Y-201.952
X-151.821 Y-202.086
X-151.685 Y-202.213
X-151.542 Y-202.331
X-151.39 Y-202.439
X-151.233 Y-202.536
X-151.067 Y-202.624
X-150.894 Y-202.702
X-150.715 Y-202.769
X-150.533 Y-202.823
X-150.348 Y-202.865
X-150.159 Y-202.894
X-149.966 Y-202.912
X-149.771 Y-202.916
X-149.576 Y-202.908
X-149.382 Y-202.887
X-149.19 Y-202.852
X-149 Y-202.805
X-148.811 Y-202.745
X-148.625 Y-202.672
X-148.444 Y-202.587
X-148.268 Y-202.489
X-148.099 Y-202.38
X-147.938 Y-202.26
X-147.784 Y-202.128
X-147.638 Y-201.986
X-147.502 Y-201.834
X-147.374 Y-201.672
X-147.258 Y-201.5
X-147.152 Y-201.322
X-147.059 Y-201.135
X-146.977 Y-200.943
X-146.909 Y-200.745
X-146.853 Y-200.542
X-146.811 Y-200.335
X-146.783 Y-200.125
X-146.768 Y-199.912
Y-199.698
X-146.782 Y-199.483
X-146.81 Y-199.269
X-146.853 Y-199.056
X-146.91 Y-198.846
X-146.981 Y-198.639
X-147.066 Y-198.436
X-147.165 Y-198.238
X-147.277 Y-198.047
X-147.402 Y-197.863
X-147.539 Y-197.686
X-147.688 Y-197.519
X-147.849 Y-197.361
X-148.021 Y-197.214
X-148.202 Y-197.078
X-148.393 Y-196.954
X-148.593 Y-196.842
X-148.801 Y-196.743
X-149.015 Y-196.658
X-149.235 Y-196.587
X-149.461 Y-196.531
X-149.69 Y-196.49
X-149.923 Y-196.464
X-150.158 Y-196.453
X-150.394 Y-196.458
X-150.629 Y-196.478
X-150.864 Y-196.515
X-151.097 Y-196.567
X-151.327 Y-196.634
X-151.553 Y-196.717
X-151.773 Y-196.815
X-151.987 Y-196.928
X-152.194 Y-197.056
X-152.394 Y-197.197
X-152.583 Y-197.352
X-152.763 Y-197.52
X-152.932 Y-197.7
X-153.089 Y-197.891
X-153.234 Y-198.094
X-153.365 Y-198.306
X-153.429 Y-198.425
X-153.47 Y-198.508
X-153.508 Y-198.593
X-153.541 Y-198.68
X-153.623 Y-198.917
X-153.694 Y-199.122
X-153.728 Y-199.345
X-153.778 Y-199.791
X-153.797 Y-200.014
X-153.775 Y-200.237
X-153.712 Y-200.795
X-153.685 Y-200.906
X-153.451 Y-201.575
X-153.429 Y-201.631
X-153.4 Y-201.687
X-153.332 Y-201.798
X-153.051 Y-202.245
X-152.954 Y-202.385
X-152.875 Y-202.468
X-152.429 Y-202.914
X-152.357 Y-202.977
X-152.285 Y-203.026
X-151.754 Y-203.36
X-151.616 Y-203.436
X-151.393 Y-203.515
X-150.947 Y-203.671
X-150.835 Y-203.704
X-150.724 Y-203.72
X-150.055 Y-203.795
X-149.943
X-149.386 Y-203.733
X-149.163 Y-203.704
X-148.94 Y-203.631
X-148.494 Y-203.475
X-148.382 Y-203.435
X-148.27 Y-203.375
X-147.824 Y-203.095
X-147.601 Y-202.943
X-147.571 Y-202.914
X-147.125 Y-202.468
X-147.022 Y-202.356
X-146.949 Y-202.245
X-146.668 Y-201.798
X-146.599 Y-201.687
X-146.571 Y-201.631
X-146.549 Y-201.575
X-146.315 Y-200.906
X-146.288 Y-200.795
X-146.225 Y-200.237
X-146.203 Y-200.014
X-146.222 Y-199.791
X-146.272 Y-199.345
X-146.306 Y-199.122
X-146.383 Y-198.899
X-146.539 Y-198.453
X-146.585 Y-198.341
X-146.651 Y-198.23
X-146.932 Y-197.782
X-147.003 Y-197.671
X-147.096 Y-197.561
X-147.542 Y-197.115
X-147.601 Y-197.058
X-147.824 Y-196.905
X-148.27 Y-196.625
X-148.382 Y-196.565
X-148.494 Y-196.525
X-148.94 Y-196.369
X-149.163 Y-196.296
X-149.386 Y-196.267
X-149.943 Y-196.205
X-150.055
X-150.724 Y-196.28
X-150.835 Y-196.296
X-150.947 Y-196.329
X-151.393 Y-196.485
X-151.616 Y-196.564
X-151.799 Y-196.669
X-152.285 Y-196.974
X-152.371 Y-197.034
X-152.458 Y-197.115
X-152.904 Y-197.561
X-152.954 Y-197.616
X-153.069 Y-197.784
X-153.349 Y-198.23
X-153.4 Y-198.314
X-153.435 Y-198.383
X-153.461 Y-198.453
X-153.541 Y-198.68
X-153.549 Y-198.734 Z6.006 F750
X-153.556 Y-198.785 Z6.024
X-153.563 Y-198.83 Z6.052
X-153.569 Y-198.869 Z6.09
X-153.568 Y-198.901 Z6.138
X-153.567 Y-198.92 Z6.192
Y-198.927 Z6.249
G0 Z23
X-90.526 Y-58.317
Z18.685
G1 Z18.05 F750
Z6
X-90.552 Y-58.343 F850
X-90.545 Y-58.38
X-90.511 Y-58.395
X-90.474 Y-58.389
X-90.444 Y-58.367
X-90.426 Y-58.334
X-90.422 Y-58.297
X-90.433 Y-58.261
X-90.455 Y-58.231
X-90.486 Y-58.21
X-90.523 Y-58.201
X-90.56 Y-58.205
X-90.628 Y-58.236
X-90.674 Y-58.296
X-90.687 Y-58.369
X-90.668 Y-58.442
X-90.621 Y-58.5
X-90.556 Y-58.537
X-90.482 Y-58.55
X-90.408 Y-58.538
X-90.341 Y-58.503
X-90.288 Y-58.451
X-90.252 Y-58.385
X-90.235 Y-58.312
X-90.237 Y-58.237
X-90.282 Y-58.094
X-90.39 Y-57.99
X-90.531 Y-57.94
X-90.681 Y-57.949
X-90.817 Y-58.012
X-90.923 Y-58.118
X-90.99 Y-58.252
X-91.011 Y-58.401
X-90.987 Y-58.549
X-90.921 Y-58.683
X-90.82 Y-58.794
X-90.693 Y-58.874
X-90.549 Y-58.918
X-90.399 Y-58.925
X-90.252 Y-58.895
X-90.117 Y-58.831
X-90 Y-58.737
X-89.907 Y-58.62
X-89.839 Y-58.486
X-89.801 Y-58.341
X-89.794 Y-58.191
X-89.817 Y-58.043
X-89.868 Y-57.902
X-89.945 Y-57.773
X-90.046 Y-57.662
X-90.165 Y-57.57
X-90.298 Y-57.502
X-90.441 Y-57.457
X-90.59 Y-57.439
X-90.74 Y-57.445
X-90.887 Y-57.477
X-91.027 Y-57.531
X-91.156 Y-57.608
X-91.272 Y-57.703
X-91.371 Y-57.815
X-91.453 Y-57.941
X-91.515 Y-58.077
X-91.557 Y-58.221
X-91.577 Y-58.37
X-91.576 Y-58.52
X-91.554 Y-58.668
X-91.512 Y-58.812
X-91.45 Y-58.949
X-91.371 Y-59.076
X-91.276 Y-59.192
X-91.166 Y-59.295
X-91.044 Y-59.382
X-90.912 Y-59.453
X-90.772 Y-59.507
X-90.626 Y-59.543
X-90.478 Y-59.561
X-90.328 Y-59.56
X-90.179 Y-59.542
X-90.033 Y-59.506
X-89.892 Y-59.454
X-89.759 Y-59.386
X-89.634 Y-59.303
X-89.519 Y-59.206
X-89.416 Y-59.098
X-89.325 Y-58.978
X-89.248 Y-58.849
X-89.185 Y-58.713
X-89.137 Y-58.571
X-89.104 Y-58.425
X-89.088 Y-58.276
X-89.086 Y-58.126
X-89.1 Y-57.976
X-89.129 Y-57.829
X-89.173 Y-57.686
X-89.232 Y-57.548
X-89.303 Y-57.416
X-89.387 Y-57.292
X-89.483 Y-57.176
X-89.59 Y-57.071
X-89.706 Y-56.976
X-89.831 Y-56.893
X-89.963 Y-56.822
X-90.101 Y-56.763
X-90.244 Y-56.718
X-90.39 Y-56.685
X-90.539 Y-56.667
X-90.689 Y-56.662
X-90.839 Y-56.67
X-90.987 Y-56.692
X-91.133 Y-56.726
X-91.276 Y-56.774
X-91.413 Y-56.833
X-91.545 Y-56.904
X-91.671 Y-56.987
X-91.789 Y-57.079
X-91.899 Y-57.181
X-91.999 Y-57.293
X-92.091 Y-57.412
X-92.172 Y-57.538
X-92.242 Y-57.67
X-92.301 Y-57.808
X-92.349 Y-57.95
X-92.386 Y-58.096
X-92.41 Y-58.244
X-92.423 Y-58.393
X-92.424 Y-58.543
X-92.413 Y-58.693
X-92.391 Y-58.841
X-92.357 Y-58.987
X-92.312 Y-59.13
X-92.256 Y-59.27
X-92.19 Y-59.404
X-92.114 Y-59.533
X-92.028 Y-59.656
X-91.933 Y-59.773
X-91.83 Y-59.882
X-91.719 Y-59.983
X-91.601 Y-60.075
X-91.477 Y-60.159
X-91.347 Y-60.234
X-91.211 Y-60.298
X-91.072 Y-60.353
X-90.929 Y-60.398
X-90.783 Y-60.433
X-90.635 Y-60.457
X-90.485 Y-60.471
X-90.335 Y-60.474
X-90.186 Y-60.467
X-90.037 Y-60.449
X-89.889 Y-60.422
X-89.744 Y-60.384
X-89.602 Y-60.337
X-89.463 Y-60.28
X-89.328 Y-60.214
X-89.198 Y-60.139
X-89.073 Y-60.055
X-88.952 Y-59.961
X-88.839 Y-59.862
X-88.733 Y-59.754
X-88.631 Y-59.637
X-88.54 Y-59.516
X-88.454 Y-59.386
X-88.377 Y-59.25
X-88.311 Y-59.112
X-88.251 Y-58.965
X-88.202 Y-58.815
X-88.164 Y-58.664
X-88.134 Y-58.505
X-88.116 Y-58.347
X-88.108 Y-58.189
X-88.11 Y-58.025
X-88.124 Y-57.865
X-88.147 Y-57.706
X-88.183 Y-57.544
X-88.228 Y-57.386
X-88.284 Y-57.233
X-88.351 Y-57.08
X-88.428 Y-56.931
X-88.514 Y-56.79
X-88.612 Y-56.652
X-88.719 Y-56.519
X-88.833 Y-56.396
X-88.956 Y-56.279
X-89.09 Y-56.168
X-89.229 Y-56.068
X-89.374 Y-55.977
X-89.527 Y-55.894
X-89.688 Y-55.821
X-89.852 Y-55.76
X-90.019 Y-55.709
X-90.192 Y-55.669
X-90.369 Y-55.64
X-90.546 Y-55.623
X-90.724 Y-55.618
X-90.905 Y-55.625
X-91.087 Y-55.644
X-91.266 Y-55.675
X-91.442 Y-55.717
X-91.617 Y-55.772
X-91.791 Y-55.839
X-91.959 Y-55.918
X-92.122 Y-56.007
X-92.278 Y-56.107
X-92.429 Y-56.219
X-92.575 Y-56.341
X-92.711 Y-56.474
X-92.839 Y-56.614
X-92.957 Y-56.763
X-93.066 Y-56.921
X-93.165 Y-57.087
X-93.253 Y-57.261
X-93.33 Y-57.44
X-93.395 Y-57.624
X-93.447 Y-57.812
X-93.487 Y-58.004
X-93.515 Y-58.2
X-93.529 Y-58.4
X-93.531 Y-58.6
X-93.519 Y-58.8
X-93.493 Y-59
X-93.455 Y-59.198
X-93.403 Y-59.393
X-93.338 Y-59.586
X-93.26 Y-59.775
X-93.169 Y-59.96
X-93.065 Y-60.139
X-92.949 Y-60.312
X-92.822 Y-60.477
X-92.684 Y-60.633
X-92.535 Y-60.781
X-92.376 Y-60.919
X-92.208 Y-61.046
X-92.031 Y-61.163
X-91.845 Y-61.268
X-91.652 Y-61.361
X-91.453 Y-61.441
X-91.247 Y-61.508
X-91.037 Y-61.562
X-90.822 Y-61.602
X-90.605 Y-61.627
X-90.385 Y-61.639
X-90.164 Y-61.635
X-89.943 Y-61.617
X-89.723 Y-61.584
X-89.505 Y-61.537
X-89.289 Y-61.474
X-89.078 Y-61.398
X-88.871 Y-61.307
X-88.669 Y-61.202
X-88.475 Y-61.084
X-88.288 Y-60.952
X-88.109 Y-60.808
X-87.939 Y-60.651
X-87.78 Y-60.483
X-87.632 Y-60.304
X-87.495 Y-60.115
X-87.371 Y-59.917
X-87.259 Y-59.71
X-87.162 Y-59.495
X-87.078 Y-59.274
X-87.009 Y-59.046
X-86.955 Y-58.814
X-86.917 Y-58.577
X-86.894 Y-58.338
X-86.887 Y-58.097
X-86.896 Y-57.855
X-86.921 Y-57.613
X-86.963 Y-57.372
X-87.02 Y-57.134
X-87.093 Y-56.9
X-87.182 Y-56.669
X-87.287 Y-56.445
X-87.407 Y-56.227
X-87.541 Y-56.016
X-87.622 Y-55.907
X-87.678 Y-55.834
X-87.738 Y-55.764
X-87.802 Y-55.697
X-88.052 Y-55.448
X-88.163 Y-55.344
X-88.28 Y-55.266
X-88.721 Y-54.989
X-88.832 Y-54.92
X-88.944 Y-54.868
X-89.613 Y-54.634
X-89.707 Y-54.609
X-89.836 Y-54.593
X-90.282 Y-54.542
X-90.505 Y-54.52
X-90.728 Y-54.538
X-91.25 Y-54.597
X-91.397 Y-54.621
X-91.62 Y-54.697
X-92.066 Y-54.853
X-92.178 Y-54.898
X-92.289 Y-54.963
X-92.77 Y-55.266
X-92.864 Y-55.326
X-92.958 Y-55.407
X-93.404 Y-55.853
X-93.482 Y-55.935
X-93.63 Y-56.158
X-93.911 Y-56.604
X-93.942 Y-56.66
X-93.967 Y-56.715
X-94.162 Y-57.273
X-94.233 Y-57.496
X-94.26 Y-57.719
X-94.31 Y-58.165
X-94.321 Y-58.277
X-94.319 Y-58.388
X-94.244 Y-59.057
X-94.226 Y-59.169
X-94.19 Y-59.28
X-94.034 Y-59.726
X-93.954 Y-59.949
X-93.85 Y-60.125
X-93.541 Y-60.618
X-93.482 Y-60.699
X-93.404 Y-60.78
X-92.958 Y-61.226
X-92.89 Y-61.288
X-92.735 Y-61.39
X-92.289 Y-61.67
X-92.181 Y-61.734
X-92.066 Y-61.78
X-91.561 Y-61.957
X-91.397 Y-62.012
X-91.174 Y-62.045
X-90.728 Y-62.096
X-90.505 Y-62.114
X-90.282 Y-62.091
X-89.836 Y-62.041
X-89.724 Y-62.027
X-89.669 Y-62.016
X-89.613 Y-62
X-88.944 Y-61.766
X-88.869 Y-61.734
X-88.721 Y-61.644
X-88.275 Y-61.364
X-88.161 Y-61.288
X-88.052 Y-61.186
X-87.605 Y-60.739
X-87.552 Y-60.679
X-87.51 Y-60.618
X-87.159 Y-60.061
X-87.097 Y-59.949
X-87.016 Y-59.726
X-86.86 Y-59.28
X-86.825 Y-59.169
X-86.807 Y-59.057
X-86.732 Y-58.388
X-86.729 Y-58.277
X-86.741 Y-58.165
X-86.791 Y-57.719
X-86.818 Y-57.496
X-86.888 Y-57.273
X-87.084 Y-56.715
X-87.109 Y-56.66
X-87.14 Y-56.604
X-87.42 Y-56.158
X-87.568 Y-55.935
X-87.605 Y-55.894
X-87.802 Y-55.697
X-87.849 Y-55.667 Z6.006 F750
X-87.893 Y-55.639 Z6.025
X-87.932 Y-55.613 Z6.055
X-87.965 Y-55.592 Z6.094
X-87.99 Y-55.576 Z6.141
X-88.007 Y-55.569 Z6.194
X-88.013 Y-55.567 Z6.249
G0 Z23
X-65 Y-200
Z18.685
G1 Z18.05 F750
Z6
X-64.987 Y-199.964 F850
X-65.009 Y-199.934
X-65.047 Y-199.935
X-65.078 Y-199.957
X-65.095 Y-199.99
X-65.097 Y-200.027
X-65.084 Y-200.062
X-65.059 Y-200.091
X-65.026 Y-200.108
X-64.989 Y-200.113
X-64.952 Y-200.105
X-64.92 Y-200.086
X-64.872 Y-200.028
X-64.857 Y-199.955
X-64.877 Y-199.882
X-64.926 Y-199.825
X-64.993 Y-199.793
X-65.068 Y-199.788
X-65.14 Y-199.808
X-65.202 Y-199.851
X-65.247 Y-199.911
X-65.272 Y-199.982
X-65.276 Y-200.057
X-65.26 Y-200.13
X-65.225 Y-200.196
X-65.123 Y-200.306
X-64.981 Y-200.353
X-64.832 Y-200.337
X-64.7 Y-200.264
X-64.605 Y-200.148
X-64.555 Y-200.007
X-64.553 Y-199.857
X-64.598 Y-199.714
X-64.684 Y-199.591
X-64.802 Y-199.498
X-64.941 Y-199.442
X-65.09 Y-199.425
X-65.239 Y-199.448
X-65.377 Y-199.506
X-65.496 Y-199.597
X-65.591 Y-199.713
X-65.656 Y-199.848
X-65.689 Y-199.995
X-65.692 Y-200.145
X-65.663 Y-200.292
X-65.605 Y-200.43
X-65.52 Y-200.554
X-65.413 Y-200.658
X-65.287 Y-200.741
X-65.149 Y-200.798
X-65.002 Y-200.829
X-64.852 Y-200.833
X-64.704 Y-200.811
X-64.562 Y-200.763
X-64.429 Y-200.692
X-64.311 Y-200.6
X-64.208 Y-200.491
X-64.125 Y-200.366
X-64.061 Y-200.23
X-64.02 Y-200.086
X-64.001 Y-199.937
X-64.004 Y-199.787
X-64.029 Y-199.639
X-64.075 Y-199.497
X-64.141 Y-199.362
X-64.225 Y-199.238
X-64.325 Y-199.126
X-64.44 Y-199.029
X-64.567 Y-198.949
X-64.703 Y-198.886
X-64.846 Y-198.841
X-64.994 Y-198.815
X-65.143 Y-198.808
X-65.293 Y-198.82
X-65.44 Y-198.851
X-65.582 Y-198.899
X-65.717 Y-198.964
X-65.843 Y-199.045
X-65.959 Y-199.141
X-66.063 Y-199.249
X-66.154 Y-199.368
X-66.23 Y-199.497
X-66.292 Y-199.634
X-66.338 Y-199.776
X-66.368 Y-199.923
X-66.382 Y-200.073
X-66.38 Y-200.223
X-66.362 Y-200.372
X-66.328 Y-200.518
X-66.278 Y-200.659
X-66.215 Y-200.795
X-66.137 Y-200.924
X-66.047 Y-201.044
X-65.946 Y-201.154
X-65.833 Y-201.253
X-65.712 Y-201.341
X-65.582 Y-201.417
X-65.446 Y-201.479
X-65.304 Y-201.528
X-65.158 Y-201.563
X-65.01 Y-201.584
X-64.86 Y-201.591
X-64.71 Y-201.584
X-64.561 Y-201.563
X-64.415 Y-201.529
X-64.273 Y-201.481
X-64.136 Y-201.421
X-64.004 Y-201.348
X-63.88 Y-201.265
X-63.763 Y-201.17
X-63.656 Y-201.066
X-63.557 Y-200.953
X-63.469 Y-200.831
X-63.391 Y-200.703
X-63.325 Y-200.568
X-63.271 Y-200.429
X-63.228 Y-200.285
X-63.197 Y-200.138
X-63.179 Y-199.989
X-63.173 Y-199.839
X-63.179 Y-199.689
X-63.197 Y-199.541
X-63.227 Y-199.394
X-63.269 Y-199.25
X-63.322 Y-199.109
X-63.386 Y-198.974
X-63.461 Y-198.844
X-63.545 Y-198.719
X-63.639 Y-198.602
X-63.742 Y-198.493
X-63.852 Y-198.392
X-63.97 Y-198.299
X-64.095 Y-198.215
X-64.225 Y-198.142
X-64.361 Y-198.078
X-64.501 Y-198.024
X-64.645 Y-197.981
X-64.791 Y-197.949
X-64.94 Y-197.927
X-65.089 Y-197.916
X-65.239
X-65.389 Y-197.927
X-65.538 Y-197.949
X-65.684 Y-197.981
X-65.828 Y-198.023
X-65.969 Y-198.075
X-66.105 Y-198.137
X-66.237 Y-198.209
X-66.364 Y-198.289
X-66.485 Y-198.378
X-66.6 Y-198.474
X-66.707 Y-198.579
X-66.808 Y-198.69
X-66.901 Y-198.808
X-66.985 Y-198.932
X-67.062 Y-199.061
X-67.131 Y-199.199
X-67.189 Y-199.337
X-67.238 Y-199.48
X-67.279 Y-199.63
X-67.309 Y-199.778
X-67.33 Y-199.932
X-67.341 Y-200.088
Y-200.242
X-67.33 Y-200.4
X-67.31 Y-200.556
X-67.279 Y-200.709
X-67.237 Y-200.865
X-67.185 Y-201.015
X-67.124 Y-201.162
X-67.051 Y-201.308
X-66.969 Y-201.447
X-66.879 Y-201.58
X-66.777 Y-201.711
X-66.668 Y-201.833
X-66.552 Y-201.947
X-66.424 Y-202.056
X-66.291 Y-202.156
X-66.152 Y-202.246
X-66.004 Y-202.329
X-65.85 Y-202.402
X-65.694 Y-202.464
X-65.533 Y-202.516
X-65.364 Y-202.558
X-65.195 Y-202.588
X-65.025 Y-202.608
X-64.851 Y-202.615
X-64.675 Y-202.612
X-64.5 Y-202.597
X-64.328 Y-202.57
X-64.154 Y-202.531
X-63.982 Y-202.48
X-63.815 Y-202.419
X-63.653 Y-202.346
X-63.493 Y-202.262
X-63.337 Y-202.166
X-63.189 Y-202.061
X-63.048 Y-201.946
X-62.914 Y-201.821
X-62.787 Y-201.685
X-62.669 Y-201.541
X-62.561 Y-201.39
X-62.463 Y-201.233
X-62.375 Y-201.067
X-62.298 Y-200.893
X-62.231 Y-200.715
X-62.177 Y-200.533
X-62.135 Y-200.347
X-62.106 Y-200.159
X-62.088 Y-199.966
X-62.084 Y-199.771
X-62.092 Y-199.576
X-62.113 Y-199.382
X-62.148 Y-199.19
X-62.195 Y-198.999
X-62.255 Y-198.811
X-62.328 Y-198.625
X-62.414 Y-198.443
X-62.511 Y-198.268
X-62.62 Y-198.099
X-62.741 Y-197.938
X-62.872 Y-197.784
X-63.014 Y-197.638
X-63.166 Y-197.501
X-63.329 Y-197.374
X-63.5 Y-197.257
X-63.679 Y-197.152
X-63.865 Y-197.059
X-64.057 Y-196.977
X-64.255 Y-196.909
X-64.458 Y-196.853
X-64.665 Y-196.811
X-64.875 Y-196.783
X-65.088 Y-196.768
X-65.302
X-65.517 Y-196.782
X-65.731 Y-196.811
X-65.944 Y-196.853
X-66.155 Y-196.91
X-66.362 Y-196.981
X-66.564 Y-197.066
X-66.762 Y-197.165
X-66.953 Y-197.277
X-67.138 Y-197.402
X-67.314 Y-197.539
X-67.481 Y-197.689
X-67.639 Y-197.849
X-67.786 Y-198.021
X-67.922 Y-198.203
X-68.046 Y-198.394
X-68.158 Y-198.593
X-68.257 Y-198.801
X-68.342 Y-199.015
X-68.413 Y-199.235
X-68.469 Y-199.461
X-68.51 Y-199.69
X-68.536 Y-199.923
X-68.547 Y-200.158
X-68.542 Y-200.394
X-68.522 Y-200.63
X-68.485 Y-200.865
X-68.433 Y-201.097
X-68.366 Y-201.327
X-68.283 Y-201.553
X-68.185 Y-201.773
X-68.072 Y-201.988
X-67.944 Y-202.195
X-67.803 Y-202.394
X-67.648 Y-202.583
X-67.48 Y-202.763
X-67.3 Y-202.932
X-67.108 Y-203.089
X-66.906 Y-203.234
X-66.694 Y-203.366
X-66.575 Y-203.429
X-66.492 Y-203.47
X-66.406 Y-203.508
X-66.32 Y-203.541
X-65.971 Y-203.663
X-65.86 Y-203.699
X-65.748 Y-203.717
X-65.079 Y-203.793
X-64.968 Y-203.797
X-64.856 Y-203.786
X-64.41 Y-203.735
X-64.187 Y-203.709
X-63.964 Y-203.64
X-63.406 Y-203.444
X-63.351 Y-203.421
X-63.295 Y-203.39
X-62.849 Y-203.11
X-62.626 Y-202.963
X-62.571 Y-202.914
X-62.125 Y-202.468
X-62.027 Y-202.362
X-61.949 Y-202.245
X-61.668 Y-201.798
X-61.599 Y-201.687
X-61.571 Y-201.631
X-61.549 Y-201.575
X-61.315 Y-200.906
X-61.288 Y-200.79
X-61.225 Y-200.237
X-61.203 Y-200.014
X-61.222 Y-199.791
X-61.288 Y-199.211
X-61.306 Y-199.122
X-61.383 Y-198.899
X-61.539 Y-198.453
X-61.584 Y-198.341
X-61.651 Y-198.23
X-61.957 Y-197.743
X-62.016 Y-197.652
X-62.097 Y-197.561
X-62.542 Y-197.115
X-62.626 Y-197.036
X-62.849 Y-196.89
X-63.295 Y-196.61
X-63.351 Y-196.579
X-63.406 Y-196.556
X-63.964 Y-196.36
X-64.187 Y-196.291
X-64.41 Y-196.265
X-64.856 Y-196.214
X-64.968 Y-196.203
X-65.079 Y-196.207
X-65.748 Y-196.283
X-65.86 Y-196.301
X-65.971 Y-196.337
X-66.417 Y-196.494
X-66.64 Y-196.576
X-66.799 Y-196.669
X-67.309 Y-196.989
X-67.383 Y-197.044
X-67.458 Y-197.115
X-67.903 Y-197.561
X-67.979 Y-197.645
X-68.069 Y-197.784
X-68.349 Y-198.23
X-68.425 Y-198.36
X-68.461 Y-198.453
X-68.648 Y-198.986
X-68.694 Y-199.122
X-68.728 Y-199.345
X-68.778 Y-199.791
X-68.798 Y-200.014
X-68.775 Y-200.237
X-68.712 Y-200.795
X-68.685 Y-200.906
X-68.451 Y-201.575
X-68.425 Y-201.641
X-68.332 Y-201.798
X-68.051 Y-202.245
X-67.979 Y-202.354
X-67.875 Y-202.468
X-67.429 Y-202.914
X-67.369 Y-202.967
X-67.309 Y-203.011
X-66.754 Y-203.36
X-66.64 Y-203.424
X-66.417 Y-203.506
X-66.32 Y-203.541
G3 X-66.073 Y-203.567 I0.189 J0.606 F750
G1 X-65.974 Y-203.558 Z6.008
X-65.878 Y-203.549 Z6.031
X-65.786 Y-203.541 Z6.069
X-65.701 Y-203.533 Z6.121
X-65.626 Y-203.526 Z6.186
X-65.562 Y-203.52 Z6.262
X-65.51 Y-203.515 Z6.347
X-65.472 Y-203.512 Z6.439
X-65.449 Y-203.51 Z6.536
X-65.441 Y-203.509 Z6.635
G0 Z33

(15mm bores finish)
S8000 M3
M9
X-147.58 Y-200.635
Z33
Z23
G1 Z19 F250
Z6.635
G18 G2 X-146.945 Z6 I0.635
G1 X-146.31 F750
G17 G3 X-145.675 Y-200 J0.635
X-154.325 I-4.325 F850
X-145.675 I4.325
X-154.325 I-4.325
X-145.675 I4.325
G0 Z23
X-217.58 Y-210.635
G1 Z19 F250
Z6.635
G18 G2 X-216.945 Z6 I0.635
G1 X-216.31 F750
G17 G3 X-215.675 Y-210 J0.635
X-224.325 I-4.325 F850
X-215.675 I4.325
X-224.325 I-4.325
X-215.675 I4.325
G0 Z23
X-235.659 Y-112.708
G1 Z19 F250
Z6.635
G18 G2 X-235.024 Z6 I0.635
G1 X-234.389 F750
G17 G3 X-233.754 Y-112.073 J0.635
X-242.404 I-4.325 F850
X-233.754 I4.325
X-242.404 I-4.325
X-233.754 I4.325
G0 Z23
X-172.511 Y-66.806
G1 Z19 F250
Z6.635
G18 G2 X-171.876 Z6 I0.635
G1 X-171.241 F750
G17 G3 X-170.606 Y-66.171 J0.635
X-179.256 I-4.325 F850
X-170.606 I4.325
X-179.256 I-4.325
X-170.606 I4.325
G0 Z23
X-88.09 Y-58.892
G1 Z19 F250
Z6.635
X-88.083 Z6.536
X-88.059 Y-58.891 Z6.439
X-88.021 Y-58.89 Z6.347
X-87.969 Y-58.889 Z6.262
X-87.905 Y-58.887 Z6.186
X-87.829 Y-58.886 Z6.121
X-87.744 Y-58.884 Z6.069
X-87.652 Y-58.881 Z6.031
X-87.555 Y-58.879 Z6.008
X-87.456 Y-58.876 Z6
X-86.821 Y-58.861 F750
G3 X-86.202 Y-58.21 I-0.016 J0.635
X-94.849 Y-58.423 I-4.324 J-0.106 F850
X-86.202 Y-58.21 I4.324 J0.106
X-94.849 Y-58.423 I-4.324 J-0.106
X-86.202 Y-58.21 I4.324 J0.106
G0 Z23
X-62.58 Y-200.635
G1 Z19 F250
Z6.635
G18 G2 X-61.945 Z6 I0.635
G1 X-61.31 F750
G17 G3 X-60.675 Y-200 J0.635
X-69.325 I-4.325 F850
X-60.675 I4.325
X-69.325 I-4.325
X-60.675 I4.325
G0 Z33

(handle thickness)
S6500 M3
M9
X-245.577 Y-145.303
Z33
Z23
Z21.185
G1 Z20.55 F750
G3 X-251.584 Y-145.86 Z20.219 I-3.003 J-0.279 F250
X-245.577 Y-145.303 Z19.888 I3.003 J0.279
X-251.584 Y-145.86 Z19.557 I-3.003 J-0.279
X-245.577 Y-145.303 Z19.226 I3.003 J0.279
X-251.584 Y-145.86 Z18.895 I-3.003 J-0.279
X-245.577 Y-145.303 Z18.565 I3.003 J0.279
X-251.584 Y-145.86 Z18.234 I-3.003 J-0.279
X-246.203 Y-147.438 Z17.982 I3.003 J0.279
X-247.974 Y-142.627 Z17.768 I-2.377 J1.857
X-249.186 Y-148.536 Z17.437 I-0.606 J-2.955
X-247.974 Y-142.627 Z17.107 I0.606 J2.955
X-249.186 Y-148.536 Z16.776 I-0.606 J-2.955
X-247.974 Y-142.627 Z16.445 I0.606 J2.955
X-249.186 Y-148.536 Z16.114 I-0.606 J-2.955
X-247.974 Y-142.627 Z15.783 I0.606 J2.955
X-249.186 Y-148.536 Z15.452 I-0.606 J-2.955
X-247.974 Y-142.627 Z15.121 I0.606 J2.955
X-249.186 Y-148.536 Z14.79 I-0.606 J-2.955
X-247.974 Y-142.627 Z14.459 I0.606 J2.955
X-250.914 Y-143.67 Z14.345 I-0.606 J-2.955
X-249.255 Y-148.521 Z14.131 I2.334 J-1.911
X-247.906 Y-142.641 Z13.8 I0.674 J2.94
X-249.255 Y-148.521 Z13.469 I-0.674 J-2.94
X-247.906 Y-142.641 Z13.138 I0.674 J2.94
X-249.255 Y-148.521 Z12.807 I-0.674 J-2.94
X-247.906 Y-142.641 Z12.476 I0.674 J2.94
X-249.255 Y-148.521 Z12.145 I-0.674 J-2.94
X-247.906 Y-142.641 Z11.815 I0.674 J2.94
X-249.255 Y-148.521 Z11.484 I-0.674 J-2.94
X-247.906 Y-142.641 Z11.153 I0.674 J2.94
X-249.255 Y-148.521 Z10.822 I-0.674 J-2.94
X-247.906 Y-142.641 Z10.491 I0.674 J2.94
X-249.255 Y-148.521 Z10.16 I-0.674 J-2.94
X-247.906 Y-142.641 Z9.829 I0.674 J2.94
X-249.255 Y-148.521 Z9.498 I-0.674 J-2.94
X-247.906 Y-142.641 Z9.167 I0.674 J2.94
X-249.255 Y-148.521 Z8.836 I-0.674 J-2.94
X-247.906 Y-142.641 Z8.506 I0.674 J2.94
X-249.255 Y-148.521 Z8.175 I-0.674 J-2.94
X-247.906 Y-142.641 Z7.844 I0.674 J2.94
X-249.255 Y-148.521 Z7.513 I-0.674 J-2.94
X-247.906 Y-142.641 Z7.182 I0.674 J2.94
X-249.255 Y-148.521 Z6.851 I-0.674 J-2.94
X-247.906 Y-142.641 Z6.52 I0.674 J2.94
X-249.255 Y-148.521 Z6.189 I-0.674 J-2.94
X-245.564 Y-145.581 Z6 I0.674 J2.94
X-251.596 I-3.016
X-245.591 Y-145.984 I3.016
X-245.564 Y-145.581 I-2.989 J0.402
G1 X-245.56 Y-145.353 F850
X-245.432 Y-144.45
X-245.401 Y-144.304
X-245.386 Y-144.155
X-245.385 Y-144.005
X-245.397 Y-143.855
X-245.421 Y-143.707
X-245.455 Y-143.561
X-245.5 Y-143.413
X-245.558 Y-143.26
X-245.63 Y-143.105
X-245.715 Y-142.948
X-245.814 Y-142.791
X-245.928 Y-142.635
X-246.056 Y-142.481
X-246.199 Y-142.331
X-246.357 Y-142.187
X-246.528 Y-142.049
X-246.713 Y-141.92
X-246.91 Y-141.801
X-247.12 Y-141.693
X-247.341 Y-141.597
X-247.571 Y-141.514
X-247.811 Y-141.446
X-248.058 Y-141.393
X-248.312 Y-141.356
X-248.571 Y-141.336
X-248.833 Y-141.332
X-249.098 Y-141.347
X-249.364 Y-141.379
X-249.629 Y-141.429
X-249.892 Y-141.497
X-250.151 Y-141.583
X-250.406 Y-141.687
X-250.655 Y-141.808
X-250.896 Y-141.945
X-251.128 Y-142.099
X-251.351 Y-142.269
X-251.563 Y-142.454
X-251.762 Y-142.653
X-251.948 Y-142.865
X-252.121 Y-143.09
X-252.278 Y-143.326
X-252.419 Y-143.573
X-252.544 Y-143.829
X-252.652 Y-144.092
X-252.743 Y-144.363
X-252.815 Y-144.64
X-252.869 Y-144.921
X-252.904 Y-145.205
X-252.92 Y-145.491
X-252.917 Y-145.778
X-252.895 Y-146.064
X-252.854 Y-146.348
X-252.795 Y-146.629
X-252.717 Y-146.906
X-252.62 Y-147.177
X-252.506 Y-147.441
X-252.375 Y-147.697
X-252.226 Y-147.944
X-252.062 Y-148.18
X-251.882 Y-148.405
X-251.688 Y-148.618
X-251.48 Y-148.817
X-251.26 Y-149.002
X-251.027 Y-149.172
X-250.784 Y-149.327
X-250.531 Y-149.465
X-250.269 Y-149.586
X-250 Y-149.689
X-249.725 Y-149.774
X-249.444 Y-149.841
X-249.16 Y-149.889
X-248.873 Y-149.918
X-248.585 Y-149.927
X-248.297 Y-149.918
X-248.01 Y-149.89
X-247.725 Y-149.843
X-247.445 Y-149.777
X-247.169 Y-149.692
X-246.899 Y-149.59
X-246.637 Y-149.469
X-246.384 Y-149.332
X-246.14 Y-149.178
X-245.907 Y-149.008
X-245.685 Y-148.823
X-245.477 Y-148.624
X-245.282 Y-148.412
X-245.101 Y-148.187
X-244.936 Y-147.95
X-244.787 Y-147.704
X-244.563 Y-147.27
X-244.317 Y-146.705
X-244.159 Y-146.265
X-244.048 Y-145.876
X-243.97 Y-145.513
X-243.921 Y-145.173
X-243.895 Y-144.847
X-243.891 Y-144.529
X-243.908 Y-144.219
X-243.945 Y-143.914
X-244.001 Y-143.616
X-244.077 Y-143.324
X-244.171 Y-143.038
X-244.284 Y-142.759
X-244.417 Y-142.487
X-244.567 Y-142.223
X-244.737 Y-141.968
X-244.924 Y-141.722
X-245.129 Y-141.487
X-245.352 Y-141.263
X-245.591 Y-141.053
X-245.847 Y-140.857
X-246.118 Y-140.676
X-246.404 Y-140.512
X-246.703 Y-140.366
X-247.014 Y-140.239
X-247.336 Y-140.131
X-247.667 Y-140.045
X-248.006 Y-139.98
X-248.351 Y-139.937
X-248.701 Y-139.917
X-249.055 Y-139.921
X-249.41 Y-139.948
X-249.765 Y-139.998
X-250.117 Y-140.073
X-250.467 Y-140.172
X-250.811 Y-140.294
X-251.148 Y-140.44
X-251.476 Y-140.608
X-251.794 Y-140.799
X-252.1 Y-141.011
X-252.392 Y-141.244
X-252.669 Y-141.497
X-252.929 Y-141.768
X-253.171 Y-142.057
X-253.395 Y-142.362
X-253.598 Y-142.682
X-253.779 Y-143.015
X-253.939 Y-143.36
X-254.076 Y-143.716
X-254.188 Y-144.08
X-254.277 Y-144.452
X-254.341 Y-144.829
X-254.379 Y-145.21
X-254.392 Y-145.593
X-254.38 Y-145.976
X-254.343 Y-146.358
X-254.28 Y-146.737
X-254.192 Y-147.111
X-254.079 Y-147.479
X-253.942 Y-147.839
X-253.782 Y-148.189
X-253.599 Y-148.527
X-253.393 Y-148.853
X-253.166 Y-149.165
X-252.919 Y-149.461
X-252.653 Y-149.74
X-252.369 Y-150.001
X-252.068 Y-150.242
X-251.752 Y-150.463
X-251.422 Y-150.663
X-251.079 Y-150.84
X-250.725 Y-150.994
X-250.362 Y-151.125
X-249.99 Y-151.231
X-249.613 Y-151.312
X-249.231 Y-151.368
X-248.846 Y-151.398
X-248.459 Y-151.403
X-248.074 Y-151.383
X-247.69 Y-151.336
X-247.311 Y-151.265
X-246.936 Y-151.168
X-246.57 Y-151.047
X-246.212 Y-150.901
X-245.864 Y-150.733
X-245.528 Y-150.541
X-245.206 Y-150.328
X-244.899 Y-150.094
X-244.585 Y-149.82
X-244.28 Y-149.516
X-243.97 Y-149.164
X-243.674 Y-148.777
X-243.401 Y-148.367
X-243.157 Y-147.944
X-242.946 Y-147.511
X-242.767 Y-147.074
X-242.62 Y-146.634
X-242.505 Y-146.195
X-242.421 Y-145.757
X-242.367 Y-145.323
X-242.342 Y-144.893
X-242.346 Y-144.467
X-242.378 Y-144.047
X-242.437 Y-143.632
X-242.524 Y-143.225
X-242.636 Y-142.825
X-242.775 Y-142.434
X-242.94 Y-142.053
X-243.129 Y-141.683
X-243.344 Y-141.326
X-243.582 Y-140.982
X-243.844 Y-140.654
X-244.128 Y-140.342
X-244.434 Y-140.049
X-244.76 Y-139.775
X-245.106 Y-139.521
X-245.47 Y-139.29
X-245.554 Y-139.244
X-245.663 Y-139.19
X-245.774 Y-139.142
X-245.889 Y-139.102
X-246.974 Y-138.765
X-247.688 Y-138.581
X-248.083 Y-138.507
X-248.489 Y-138.458
X-248.905 Y-138.436
X-249.329 Y-138.442
X-249.759 Y-138.476
X-250.192 Y-138.54
X-250.626 Y-138.634
X-251.058 Y-138.757
X-251.486 Y-138.911
X-251.905 Y-139.095
X-252.315 Y-139.307
X-252.713 Y-139.548
X-253.096 Y-139.816
X-253.463 Y-140.111
X-253.811 Y-140.431
X-254.138 Y-140.775
X-254.443 Y-141.141
X-254.724 Y-141.528
X-254.98 Y-141.933
X-255.208 Y-142.356
X-255.409 Y-142.795
X-255.58 Y-143.246
X-255.721 Y-143.709
X-255.832 Y-144.181
X-255.911 Y-144.66
X-255.912 Y-144.673
X-255.92 Y-144.883
X-255.905 Y-145.092
X-255.866 Y-145.298
X-255.675 Y-146.061
X-255.26 Y-147.65
X-255.069 Y-148.362
X-254.934 Y-148.78
X-254.802 Y-149.108
X-254.641 Y-149.443
X-254.45 Y-149.783
X-254.229 Y-150.12
X-253.979 Y-150.452
X-253.703 Y-150.771
X-253.4 Y-151.078
X-253.072 Y-151.369
X-252.718 Y-151.643
X-252.341 Y-151.896
X-251.943 Y-152.128
X-251.526 Y-152.335
X-251.091 Y-152.515
X-250.643 Y-152.667
X-250.182 Y-152.79
X-249.712 Y-152.883
X-249.235 Y-152.944
X-248.753 Y-152.974
X-248.268 Y-152.972
X-247.784 Y-152.938
X-247.302 Y-152.871
X-246.825 Y-152.772
X-246.354 Y-152.642
X-245.893 Y-152.481
X-245.438 Y-152.287
X-244.99 Y-152.06
X-244.547 Y-151.797
X-244.113 Y-151.498
X-243.691 Y-151.166
X-243.286 Y-150.8
X-242.901 Y-150.402
X-242.537 Y-149.974
X-242.201 Y-149.519
X-241.894 Y-149.041
X-241.8 Y-148.87
X-241.671 Y-148.581
X-241.594 Y-148.273
X-241.571 Y-147.958
X-241.594 Y-146.083
Y-145.462
X-241.592 Y-145.255
X-241.549 Y-142.976
X-241.559 Y-142.655
X-241.586 Y-142.369
X-241.637 Y-142.06
X-241.715 Y-141.73
X-241.816 Y-141.397
X-241.946 Y-141.055
X-242.109 Y-140.7
X-242.149 Y-140.625
X-242.331 Y-140.351
X-242.558 Y-140.113
X-242.824 Y-139.92
X-243.12 Y-139.777
X-243.437 Y-139.689
G3 X-243.684 Y-139.701 I-0.093 J-0.628 F750
X-244.095 Y-140.607 I0.155 J-0.616 F850
G1 X-242.748 Y-143.232
G3 X-241.61 Y-143.216 I0.565 J0.29
X-241.549 Y-142.976 I-0.573 J0.274 F750
G1 X-241.517 Y-141.319 F850
X-241.51 Y-141.111
X-241.502 Y-140.904
X-241.498 Y-140.842
X-241.496 Y-140.692
X-241.541 Y-140.473
X-241.641 Y-140.274
X-241.79 Y-140.108
X-241.977 Y-139.987
X-242.189 Y-139.918
G3 X-242.437 Y-139.917 I-0.129 J-0.869 F750
X-242.844 Y-140.084 I0.12 J-0.87 F850
X-241.892 Y-141.476 I0.506 J-0.676
X-241.558 Y-141.083 I-0.446 J0.717
X-241.498 Y-140.842 I-0.78 J0.323 F750
G1 X-241.483 Y-140.594 F850
X-241.49 Y-140.49
X-241.515 Y-140.386
X-241.534 Y-140.335
X-241.56 Y-140.283
X-241.587 Y-140.236
X-241.65 Y-140.156
X-241.736 Y-140.076
X-241.794 Y-140.035
X-241.846 Y-140.006
X-241.898 Y-139.983
X-242.002 Y-139.952
X-244.488 Y-139.496
X-244.675 Y-139.454
X-245.109 Y-139.339
X-245.316 Y-139.281
X-245.889 Y-139.102
G3 X-246.136 Y-139.085 I-0.168 J-0.612 F750
X-246.308 Y-139.132 I0.08 J-0.63 F850
G1 X-246.516 Y-139.222
G2 X-246.842 Y-138.977 I-0.093 J0.216
G3 X-246.841 Y-138.956 I-0.197 J0.025
X-246.974 Y-138.765 I-0.198 J0.004 F750
G1 X-247.802 Y-138.506 F850
X-248.009 Y-138.434
X-248.538 Y-138.211
X-248.631 Y-138.171
X-249.366 Y-137.84
X-249.592 Y-137.752
X-249.774 Y-137.694
X-249.989 Y-137.641
X-250.215 Y-137.602
X-250.474 Y-137.574
X-250.749 Y-137.563
X-251.046 Y-137.57
X-251.374 Y-137.6
X-251.708 Y-137.653
X-252.064 Y-137.735
X-252.443 Y-137.848
X-252.831 Y-137.993
X-253.219 Y-138.168
X-253.616 Y-138.38
X-254.018 Y-138.63
X-254.418 Y-138.917
X-254.81 Y-139.24
X-255.188 Y-139.596
X-255.548 Y-139.983
X-255.888 Y-140.4
X-256.204 Y-140.847
X-256.335 Y-141.061
X-256.492 Y-141.383
X-256.583 Y-141.73
X-256.606 Y-142.088
X-256.559 Y-142.443
X-256.482 Y-142.769
X-256.185 Y-144.012
X-256.089 Y-144.403
X-255.866 Y-145.298
X-255.803 Y-145.54 F750
X-255.132 Y-148.121 F850
X-255.069 Y-148.362 F750
X-254.733 Y-149.605 F850
X-254.326 Y-151.055
X-254.243 Y-151.299
X-254.162 Y-151.494
X-254.061 Y-151.698
X-253.936 Y-151.913
X-253.783 Y-152.142
X-253.607 Y-152.368
X-253.394 Y-152.609
X-253.155 Y-152.846
X-252.884 Y-153.079
X-252.573 Y-153.314
X-252.228 Y-153.541
X-251.86 Y-153.749
X-251.457 Y-153.942
X-251.019 Y-154.118
X-250.551 Y-154.27
X-250.057 Y-154.395
X-249.545 Y-154.49
X-249.018 Y-154.551
X-248.478 Y-154.578
X-247.928 Y-154.568
X-247.37 Y-154.522
X-246.807 Y-154.437
X-246.242 Y-154.313
X-245.677 Y-154.149
X-245.115 Y-153.945
X-244.558 Y-153.699
X-244.01 Y-153.413
X-243.473 Y-153.085
X-242.952 Y-152.717
X-242.45 Y-152.311
X-242.121 Y-152.006
X-241.91 Y-151.774
X-241.741 Y-151.51
X-241.619 Y-151.221
X-241.549 Y-150.915
X-241.531 Y-150.602
X-241.542 Y-150.227
X-241.548 Y-149.812
X-241.571 Y-147.958
G3 X-241.63 Y-147.717 I-0.634 J-0.03 F750
X-241.703 Y-147.598 I-0.575 J-0.27 F850
G1 X-249.146 Y-138.02
G3 X-249.17 Y-137.991 I-0.501 J-0.39
X-249.366 Y-137.84 I-0.477 J-0.419 F750
G1 X-250.703 Y-137.239 F850
X-250.841 Y-137.175
X-251.117 Y-137.039
X-251.255 Y-136.979
X-251.416 Y-136.924
X-251.59 Y-136.878
X-251.793 Y-136.838
X-252.005 Y-136.81
X-252.251 Y-136.795
X-252.504 Y-136.796
X-252.792 Y-136.816
X-253.093 Y-136.857
X-253.413 Y-136.923
X-253.765 Y-137.02
X-254.119 Y-137.144
X-254.492 Y-137.303
X-254.887 Y-137.502
X-255.287 Y-137.739
X-255.681 Y-138.009
X-256.08 Y-138.324
X-256.415 Y-138.626
X-256.539 Y-138.754
X-256.765 Y-139.038
X-256.931 Y-139.36
X-257.03 Y-139.708
X-257.059 Y-140.07
X-257.017 Y-140.43
X-256.958 Y-140.697
X-256.675 Y-141.94
X-256.559 Y-142.443
G3 X-256.448 Y-142.665 I0.613 J0.166 F750
X-255.489 Y-142.718 I0.503 J0.388 F850
G1 X-250.962 Y-138.04
G3 X-250.926 Y-137.197 I-0.456 J0.442
X-251.117 Y-137.039 I-0.492 J-0.401 F750
G1 X-251.26 Y-136.968 F850
X-251.324 Y-136.936
X-252.299 Y-136.347
X-252.454 Y-136.263
X-252.591 Y-136.201
X-252.746 Y-136.143
X-252.911 Y-136.094
X-253.105 Y-136.049
X-253.308 Y-136.017
X-253.544 Y-135.995
X-253.789 Y-135.989
X-254.064 Y-136
X-254.359 Y-136.032
X-254.667 Y-136.086
X-255.01 Y-136.17
X-255.357 Y-136.28
X-255.71 Y-136.418
X-256.024 Y-136.565
X-256.336 Y-136.738
X-256.584 Y-136.898
X-256.66 Y-136.954
X-256.92 Y-137.189
X-257.131 Y-137.468
X-257.286 Y-137.782
X-257.378 Y-138.12
X-257.405 Y-138.469
X-257.365 Y-138.816
X-257.228 Y-139.454
X-257.017 Y-140.43
G3 X-256.91 Y-140.653 I0.615 J0.157 F750
X-255.976 Y-140.744 I0.508 J0.381 F850
G1 X-252.221 Y-137.349
G3 X-252.122 Y-136.52 I-0.426 J0.471
X-252.299 Y-136.347 I-0.524 J-0.358 F750
G1 X-253.396 Y-135.684 F850
X-253.603 Y-135.558
X-253.801 Y-135.45
X-253.937 Y-135.387
X-254.089 Y-135.33
X-254.26 Y-135.277
X-254.445 Y-135.234
X-254.655 Y-135.199
X-254.873 Y-135.178
X-255.113 Y-135.17
X-255.368 Y-135.179
X-255.615 Y-135.204
X-255.855 Y-135.245
X-256.106 Y-135.305
X-256.323 Y-135.372
X-256.55 Y-135.459
X-256.6 Y-135.482
X-256.904 Y-135.66
X-257.168 Y-135.892
X-257.384 Y-136.17
X-257.543 Y-136.484
X-257.639 Y-136.823
X-257.669 Y-137.173
X-257.631 Y-137.523
X-257.405 Y-138.625
X-257.365 Y-138.816
G3 X-257.259 Y-139.04 I0.616 J0.154 F750
X-256.318 Y-139.13 I0.51 J0.378 F850
G1 X-253.522 Y-136.555
G3 X-253.427 Y-135.732 I-0.43 J0.467
X-253.603 Y-135.558 I-0.526 J-0.356 F750
G1 X-254.017 Y-135.305 F850
X-254.224 Y-135.158
X-254.695 Y-134.79
X-254.817 Y-134.704
X-254.947 Y-134.628
X-255.082 Y-134.563
X-255.221 Y-134.507
X-255.37 Y-134.459
X-255.516 Y-134.423
X-255.675 Y-134.395
X-255.848 Y-134.376
X-256.007 Y-134.369
X-256.172 Y-134.372
X-256.353 Y-134.388
X-256.517 Y-134.414
X-256.682 Y-134.451
X-257.008 Y-134.586
X-257.299 Y-134.787
X-257.542 Y-135.043
X-257.726 Y-135.345
X-257.842 Y-135.679
X-257.886 Y-136.029
X-257.857 Y-136.381
X-257.743 Y-136.968
X-257.702 Y-137.175
X-257.631 Y-137.523
G3 X-257.527 Y-137.748 I0.617 J0.149 F750
X-256.545 Y-137.802 I0.513 J0.374 F850
G1 X-254.634 Y-135.704
G3 X-254.54 Y-134.984 I-0.469 J0.428
X-254.695 Y-134.79 I-0.564 J-0.293 F750
G1 X-255.675 Y-134.022 F850
X-255.797 Y-133.936
X-255.929 Y-133.864
X-256.067 Y-133.806
X-256.21 Y-133.761
X-256.357 Y-133.73
X-256.506 Y-133.711
X-256.838 Y-133.734
X-257.158 Y-133.83
X-257.447 Y-133.995
X-257.693 Y-134.221
X-257.882 Y-134.496
X-258.005 Y-134.806
X-258.055 Y-135.136
X-258.031 Y-135.468
G3 X-257.93 Y-135.695 I0.62 J0.139 F750
X-257.077 Y-135.869 I0.519 J0.366 F850
G1 X-255.749 Y-135.048
G3 X-255.52 Y-134.216 I-0.334 J0.54
X-255.675 Y-134.022 I-0.564 J-0.292 F750
G1 X-256.145 Y-133.653 F850
X-256.357 Y-133.486
X-256.479 Y-133.398
X-256.611 Y-133.327
X-256.879 Y-133.263
X-257.154 Y-133.264
X-257.422 Y-133.328
X-257.668 Y-133.452
X-257.879 Y-133.629
X-258.043 Y-133.851
X-258.151 Y-134.104
X-258.198 Y-134.376
X-258.181 Y-134.651
G3 X-258.1 Y-134.886 I1.033 J0.224 F750
X-257.768 Y-135.282 I0.952 J0.459 F850
X-256.186 Y-133.666 I0.671 J0.925
X-256.357 Y-133.486 I-0.911 J-0.691 F750
G1 X-256.71 Y-133.206 F850
X-256.813 Y-133.11
X-256.928 Y-133.014
X-257.057 Y-132.937
X-257.198 Y-132.884
X-257.457 Y-132.867
X-257.71 Y-132.923
X-257.939 Y-133.046
X-258.124 Y-133.227
X-258.253 Y-133.453
X-258.315 Y-133.705
X-258.305 Y-133.964
G3 X-258.217 Y-134.197 I0.822 J0.178 F750
X-258.044 Y-134.412 I0.735 J0.411 F850
X-256.663 Y-133.308 I0.598 J0.667
X-256.813 Y-133.11 I-0.782 J-0.437 F750
G1 X-256.918 Y-133.013 F850
X-257.125 Y-132.808
X-257.205 Y-132.729
X-257.316 Y-132.628
X-257.54 Y-132.553
X-257.776 Y-132.551
X-258.001 Y-132.623
X-258.192 Y-132.761
X-258.33 Y-132.952
X-258.402 Y-133.177
X-258.4 Y-133.413
G3 X-258.304 Y-133.641 I0.608 J0.124 F750
X-258.201 Y-133.757 I0.512 J0.352 F850
X-257.069 Y-132.937 I0.472 J0.539
X-257.205 Y-132.729 I-0.659 J-0.281 F750
G1 X-257.332 Y-132.601 F850
X-257.436 Y-132.51
X-257.487 Y-132.477
X-257.539 Y-132.451
X-257.598 Y-132.427
X-257.657 Y-132.41
X-257.746 Y-132.396
X-257.847 Y-132.395
X-257.953 Y-132.412
X-258.057 Y-132.447
X-258.109 Y-132.472
X-258.161 Y-132.504
X-258.226 Y-132.555
X-258.291 Y-132.618
X-258.333 Y-132.67
X-258.368 Y-132.723
X-258.394 Y-132.774
X-258.415 Y-132.825
X-258.443 Y-132.928
X-258.454 Y-133.032
X-258.447 Y-133.135
X-258.36 Y-133.653
X-258.286 Y-134.068
X-258.099 Y-135.104
X-257.943 Y-135.932
X-257.857 Y-136.381
G3 X-257.745 Y-136.601 I0.495 J0.113 F750
X-257.631 Y-136.698 I0.383 J0.333 F850
G2 X-254.983 Y-139.093 I-5.466 J-8.708
X-254.866 Y-139.334 I-0.501 J-0.39
G1 X-253.005 Y-147.07
G2 X-252.999 Y-147.337 I-0.617 J-0.149
X-254.268 Y-150.675 I-10.098 J1.931
G3 X-254.324 Y-150.809 I0.436 J-0.26
X-254.326 Y-151.055 I0.492 J-0.127 F750
G1 X-254.148 Y-151.677 F850
X-253.755 Y-153.034
X-253.689 Y-153.223
X-253.618 Y-153.392
X-253.533 Y-153.561
X-253.421 Y-153.751
X-253.294 Y-153.938
X-253.132 Y-154.144
X-252.951 Y-154.346
X-252.735 Y-154.557
X-252.484 Y-154.772
X-252.209 Y-154.977
X-251.886 Y-155.186
X-251.53 Y-155.384
X-251.148 Y-155.565
X-250.719 Y-155.734
X-250.249 Y-155.884
X-249.75 Y-156.007
X-249.231 Y-156.1
X-248.677 Y-156.161
X-248.094 Y-156.186
X-247.487 Y-156.172
X-246.861 Y-156.116
X-246.221 Y-156.015
X-245.575 Y-155.87
X-244.929 Y-155.678
X-244.285 Y-155.439
X-243.647 Y-155.153
X-243.02 Y-154.821
X-242.5 Y-154.5
X-242.229 Y-154.306
X-241.957 Y-154.067
X-241.736 Y-153.78
X-241.576 Y-153.455
X-241.482 Y-153.106
X-241.459 Y-152.744
X-241.524 Y-150.848
X-241.531 Y-150.602
G3 X-241.595 Y-150.363 I-0.634 J-0.04 F750
X-242.292 Y-150.02 I-0.57 J-0.28 F850
G1 X-253.266 Y-152.256
G3 X-253.767 Y-152.786 I0.127 J-0.622
X-253.755 Y-153.034 I0.628 J-0.092 F750
G1 X-253.728 Y-153.127 F850
X-253.355 Y-154.37
X-253.229 Y-154.784
X-253.153 Y-154.998
X-253.087 Y-155.148
X-253.001 Y-155.315
X-252.899 Y-155.484
X-252.769 Y-155.67
X-252.621 Y-155.853
X-252.437 Y-156.053
X-252.235 Y-156.246
X-251.991 Y-156.45
X-251.719 Y-156.648
X-251.412 Y-156.841
X-251.056 Y-157.033
X-250.677 Y-157.207
X-250.253 Y-157.368
X-249.777 Y-157.514
X-249.264 Y-157.634
X-248.728 Y-157.723
X-248.144 Y-157.78
X-247.518 Y-157.8
X-246.858 Y-157.777
X-246.176 Y-157.707
X-245.487 Y-157.591
X-244.786 Y-157.423
X-244.071 Y-157.202
X-243.4 Y-156.944
X-242.867 Y-156.697
X-242.476 Y-156.484
X-242.244 Y-156.337
X-241.991 Y-156.144
X-241.775 Y-155.909
X-241.603 Y-155.641
X-241.479 Y-155.348
X-241.408 Y-155.037
X-241.391 Y-154.719
X-241.459 Y-152.744
G3 X-241.524 Y-152.505 I-0.633 J-0.044 F750
X-242.202 Y-152.162 I-0.568 J-0.283 F850
G1 X-252.725 Y-153.996
G3 X-253.245 Y-154.537 I0.109 J-0.626
X-253.229 Y-154.784 I0.629 J-0.084 F750
G1 X-253.103 Y-155.199 F850
X-252.684 Y-156.556
X-252.632 Y-156.696
X-252.566 Y-156.842
X-252.478 Y-157.007
X-252.376 Y-157.171
X-252.244 Y-157.353
X-252.097 Y-157.531
X-251.912 Y-157.727
X-251.709 Y-157.916
X-251.465 Y-158.114
X-251.188 Y-158.309
X-250.881 Y-158.496
X-250.52 Y-158.685
X-250.136 Y-158.855
X-249.7 Y-159.014
X-249.205 Y-159.158
X-248.686 Y-159.272
X-248.12 Y-159.358
X-247.5 Y-159.41
X-246.833 Y-159.421
X-246.137 Y-159.387
X-245.428 Y-159.305
X-244.698 Y-159.171
X-244 Y-158.995
X-243.411 Y-158.803
X-242.914 Y-158.604
X-242.526 Y-158.418
X-242.2 Y-158.234
X-242.138 Y-158.194
X-241.887 Y-157.996
X-241.674 Y-157.759
X-241.505 Y-157.488
X-241.386 Y-157.192
X-241.319 Y-156.881
X-241.307 Y-156.562
X-241.354 Y-155.613
X-241.382 Y-154.992
X-241.391 Y-154.719
G3 X-241.456 Y-154.48 I-0.633 J-0.044 F750
X-242.126 Y-154.136 I-0.568 J-0.283 F850
G1 X-252.173 Y-155.761
G3 X-252.701 Y-156.309 I0.101 J-0.627
X-252.684 Y-156.556 I0.63 J-0.079 F750
G1 X-252.36 Y-157.576 F850
X-252.153 Y-158.223
X-252.1 Y-158.363
X-252.033 Y-158.507
X-251.944 Y-158.67
X-251.84 Y-158.832
X-251.708 Y-159.013
X-251.559 Y-159.189
X-251.372 Y-159.383
X-251.167 Y-159.569
X-250.918 Y-159.767
X-250.644 Y-159.957
X-250.328 Y-160.146
X-249.961 Y-160.333
X-249.572 Y-160.501
X-249.116 Y-160.661
X-248.613 Y-160.802
X-248.083 Y-160.914
X-247.488 Y-160.998
X-246.837 Y-161.046
X-246.154 Y-161.051
X-245.46 Y-161.01
X-244.767 Y-160.923
X-244.113 Y-160.797
X-243.513 Y-160.639
X-243.037 Y-160.479
X-242.649 Y-160.319
X-242.295 Y-160.144
X-242.137 Y-160.053
X-241.862 Y-159.86
X-241.627 Y-159.619
X-241.44 Y-159.34
X-241.307 Y-159.031
X-241.232 Y-158.703
X-241.218 Y-158.367
X-241.307 Y-156.562
G3 X-241.376 Y-156.324 I-0.633 J-0.054 F750
X-242.034 Y-155.987 I-0.564 J-0.292 F850
G1 X-251.636 Y-157.422
G3 X-252.173 Y-157.976 I0.094 J-0.628
X-252.153 Y-158.223 I0.631 J-0.073 F750
G1 X-251.992 Y-158.721 F850
X-251.615 Y-159.87
X-251.561 Y-160.01
X-251.494 Y-160.154
X-251.404 Y-160.316
X-251.3 Y-160.478
X-251.167 Y-160.657
X-251.016 Y-160.834
X-250.828 Y-161.027
X-250.621 Y-161.213
X-250.368 Y-161.412
X-250.094 Y-161.599
X-249.769 Y-161.791
X-249.406 Y-161.974
X-249.002 Y-162.145
X-248.532 Y-162.308
X-248.036 Y-162.445
X-247.49 Y-162.556
X-246.886 Y-162.638
X-246.243 Y-162.683
X-245.583 Y-162.684
X-244.93 Y-162.642
X-244.307 Y-162.561
X-243.716 Y-162.443
X-243.223 Y-162.31
X-242.8 Y-162.166
X-242.439 Y-162.015
X-242.131 Y-161.861
X-242.04 Y-161.808
X-241.766 Y-161.613
X-241.532 Y-161.371
X-241.347 Y-161.09
X-241.215 Y-160.781
X-241.142 Y-160.453
X-241.129 Y-160.116
X-241.149 Y-159.756
X-241.218 Y-158.367
G3 X-241.286 Y-158.129 I-0.633 J-0.054 F750
X-241.938 Y-157.792 I-0.564 J-0.292 F850
G1 X-251.093 Y-159.065
G3 X-251.636 Y-159.624 I0.087 J-0.629
X-251.615 Y-159.87 I0.631 J-0.07 F750
G1 X-251.516 Y-160.171 F850
X-251.059 Y-161.528
X-251.003 Y-161.667
X-250.934 Y-161.811
X-250.843 Y-161.973
X-250.736 Y-162.135
X-250.6 Y-162.314
X-250.446 Y-162.493
X-250.255 Y-162.686
X-250.045 Y-162.871
X-249.787 Y-163.071
X-249.51 Y-163.257
X-249.178 Y-163.449
X-248.81 Y-163.631
X-248.402 Y-163.8
X-247.93 Y-163.96
X-247.428 Y-164.093
X-246.89 Y-164.198
X-246.308 Y-164.273
X-245.696 Y-164.31
X-245.08 Y-164.306
X-244.479 Y-164.263
X-243.902 Y-164.183
X-243.388 Y-164.076
X-242.946 Y-163.953
X-242.589 Y-163.828
X-242.245 Y-163.681
X-241.966 Y-163.539
X-241.928 Y-163.516
X-241.657 Y-163.319
X-241.426 Y-163.077
X-241.243 Y-162.797
X-241.113 Y-162.488
X-241.042 Y-162.161
X-241.031 Y-161.826
X-241.115 Y-160.378
X-241.129 Y-160.116
G3 X-241.199 Y-159.879 I-0.632 J-0.057 F750
X-241.847 Y-159.544 I-0.562 J-0.295 F850
G1 X-250.535 Y-160.715
G3 X-251.083 Y-161.281 I0.085 J-0.629
X-251.059 Y-161.528 I0.632 J-0.063 F750
G1 X-250.814 Y-162.242 F850
X-250.495 Y-163.164
X-250.435 Y-163.314
X-250.365 Y-163.458
X-250.275 Y-163.617
X-250.167 Y-163.781
X-250.033 Y-163.957
X-249.877 Y-164.137
X-249.689 Y-164.327
X-249.477 Y-164.514
X-249.22 Y-164.711
X-248.945 Y-164.896
X-248.614 Y-165.086
X-248.254 Y-165.264
X-247.852 Y-165.43
X-247.394 Y-165.584
X-246.904 Y-165.713
X-246.388 Y-165.813
X-245.834 Y-165.883
X-245.261 Y-165.917
X-244.689 Y-165.912
X-244.135 Y-165.871
X-243.602 Y-165.796
X-243.156 Y-165.703
X-242.744 Y-165.588
X-242.416 Y-165.472
X-242.089 Y-165.331
X-241.934 Y-165.252
X-241.635 Y-165.061
X-241.378 Y-164.817
X-241.173 Y-164.527
X-241.027 Y-164.204
X-240.946 Y-163.859
X-240.933 Y-163.504
X-241.031 Y-161.826
G3 X-241.102 Y-161.589 I-0.632 J-0.059 F750
X-241.747 Y-161.256 I-0.561 J-0.297 F850
G1 X-249.972 Y-162.348
G3 X-250.521 Y-162.918 I0.084 J-0.629
X-250.495 Y-163.164 I0.632 J-0.06 F750
G1 X-250.384 Y-163.485 F850
X-249.905 Y-164.835
X-249.846 Y-164.977
X-249.776 Y-165.12
X-249.683 Y-165.28
X-249.575 Y-165.441
X-249.437 Y-165.619
X-249.283 Y-165.794
X-249.091 Y-165.984
X-248.881 Y-166.166
X-248.625 Y-166.359
X-248.347 Y-166.542
X-248.027 Y-166.723
X-247.659 Y-166.9
X-247.272 Y-167.056
X-246.835 Y-167.198
X-246.357 Y-167.32
X-245.85 Y-167.414
X-245.33 Y-167.475
X-244.801 Y-167.501
X-244.277 Y-167.493
X-243.77 Y-167.451
X-243.315 Y-167.383
X-242.886 Y-167.289
X-242.544 Y-167.19
X-242.205 Y-167.067
X-241.925 Y-166.944
X-241.823 Y-166.891
X-241.527 Y-166.699
X-241.274 Y-166.454
X-241.071 Y-166.165
X-240.928 Y-165.843
X-240.848 Y-165.499
X-240.836 Y-165.147
X-240.91 Y-163.9
X-240.933 Y-163.504
G3 X-241.004 Y-163.267 I-0.632 J-0.059 F750
X-241.653 Y-162.935 I-0.561 J-0.297 F850
G1 X-249.387 Y-164.014
G3 X-249.932 Y-164.589 I0.088 J-0.629
X-249.905 Y-164.835 I0.633 J-0.054 F750
G1 X-249.569 Y-165.764 F850
X-249.343 Y-166.386
X-249.301 Y-166.5
X-249.242 Y-166.638
X-249.17 Y-166.779
X-249.075 Y-166.939
X-248.966 Y-167.097
X-248.827 Y-167.273
X-248.672 Y-167.444
X-248.48 Y-167.63
X-248.269 Y-167.808
X-248.018 Y-167.994
X-247.735 Y-168.175
X-247.424 Y-168.346
X-247.066 Y-168.513
X-246.678 Y-168.664
X-246.265 Y-168.793
X-245.815 Y-168.902
X-245.34 Y-168.984
X-244.851 Y-169.036
X-244.365 Y-169.054
X-243.882 Y-169.041
X-243.414 Y-168.997
X-243.016 Y-168.932
X-242.631 Y-168.843
X-242.317 Y-168.748
X-242.001 Y-168.63
X-241.742 Y-168.512
X-241.705 Y-168.492
X-241.414 Y-168.298
X-241.165 Y-168.053
X-240.967 Y-167.766
X-240.827 Y-167.446
X-240.749 Y-167.105
X-240.737 Y-166.756
X-240.836 Y-165.147
G3 X-240.907 Y-164.91 I-0.632 J-0.06 F750
X-241.563 Y-164.579 I-0.561 J-0.298 F850
G1 X-248.793 Y-165.674
G3 X-249.331 Y-166.254 I0.095 J-0.628
X-249.301 Y-166.5 I0.633 J-0.048 F750
G1 X-249.114 Y-167.007 F850
X-248.728 Y-168.043
X-248.63 Y-168.269
X-248.559 Y-168.407
X-248.464 Y-168.564
X-248.357 Y-168.718
X-248.22 Y-168.889
X-248.067 Y-169.056
X-247.88 Y-169.234
X-247.673 Y-169.408
X-247.432 Y-169.584
X-247.154 Y-169.759
X-246.857 Y-169.92
X-246.519 Y-170.076
X-246.144 Y-170.219
X-245.752 Y-170.34
X-245.331 Y-170.439
X-244.893 Y-170.512
X-244.441 Y-170.557
X-243.992 Y-170.572
X-243.544 Y-170.557
X-243.127 Y-170.515
X-242.758 Y-170.453
X-242.42 Y-170.373
X-242.12 Y-170.28
X-241.829 Y-170.169
X-241.708 Y-170.113
X-241.391 Y-169.927
X-241.118 Y-169.681
X-240.898 Y-169.386
X-240.742 Y-169.053
X-240.655 Y-168.695
X-240.641 Y-168.328
X-240.737 Y-166.756
G3 X-240.809 Y-166.519 I-0.632 J-0.061 F750
X-241.465 Y-166.19 I-0.561 J-0.298 F850
G1 X-248.221 Y-167.214
G3 X-248.76 Y-167.797 I0.095 J-0.628
X-248.728 Y-168.043 I0.633 J-0.044 F750
G1 X-248.572 Y-168.457 F850
X-248.097 Y-169.7
X-248.017 Y-169.878
X-247.944 Y-170.015
X-247.851 Y-170.167
X-247.741 Y-170.32
X-247.607 Y-170.483
X-247.452 Y-170.649
X-247.273 Y-170.816
X-247.061 Y-170.989
X-246.832 Y-171.151
X-246.565 Y-171.316
X-246.268 Y-171.472
X-245.952 Y-171.613
X-245.6 Y-171.743
X-245.22 Y-171.855
X-244.823 Y-171.944
X-244.416 Y-172.007
X-244.003 Y-172.043
X-243.588 Y-172.052
X-243.2 Y-172.034
X-242.831 Y-171.993
X-242.496 Y-171.932
X-242.199 Y-171.858
X-241.9 Y-171.762
X-241.652 Y-171.664
X-241.596 Y-171.637
X-241.284 Y-171.449
X-241.016 Y-171.204
X-240.801 Y-170.911
X-240.648 Y-170.581
X-240.562 Y-170.228
X-240.548 Y-169.865
X-240.608 Y-168.872
X-240.641 Y-168.328
G3 X-240.712 Y-168.091 I-0.632 J-0.061 F750
X-241.384 Y-167.764 I-0.561 J-0.298 F850
G1 X-247.607 Y-168.869
G3 X-248.13 Y-169.455 I0.111 J-0.625
X-248.097 Y-169.7 I0.634 J-0.04 F750
G1 X-247.53 Y-171.151 F850
X-247.484 Y-171.265
X-247.402 Y-171.445
X-247.329 Y-171.58
X-247.238 Y-171.724
X-247.129 Y-171.874
X-247.001 Y-172.028
X-246.846 Y-172.191
X-246.675 Y-172.348
X-246.471 Y-172.512
X-246.248 Y-172.668
X-245.997 Y-172.82
X-245.712 Y-172.968
X-245.408 Y-173.1
X-245.085 Y-173.217
X-244.737 Y-173.316
X-244.372 Y-173.395
X-243.998 Y-173.45
X-243.617 Y-173.481
X-243.237 Y-173.486
X-242.905 Y-173.468
X-242.561 Y-173.427
X-242.272 Y-173.373
X-241.982 Y-173.298
X-241.715 Y-173.21
X-241.608 Y-173.167
X-241.317 Y-173.017
X-241.057 Y-172.819
X-240.836 Y-172.578
X-240.661 Y-172.302
X-240.538 Y-171.999
X-240.47 Y-171.679
X-240.46 Y-171.352
X-240.548 Y-169.865
G3 X-240.619 Y-169.627 I-0.632 J-0.06 F750
X-241.303 Y-169.301 I-0.561 J-0.297 F850
G1 X-247.01 Y-170.427
G3 X-247.521 Y-171.019 I0.123 J-0.623
X-247.484 Y-171.265 I0.634 J-0.031 F750
G1 X-246.974 Y-172.543 F850
X-246.866 Y-172.808
X-246.79 Y-172.97
X-246.716 Y-173.104
X-246.63 Y-173.238
X-246.52 Y-173.386
X-246.398 Y-173.531
X-246.249 Y-173.685
X-246.082 Y-173.836
X-245.892 Y-173.986
X-245.671 Y-174.137
X-245.435 Y-174.277
X-245.173 Y-174.411
X-244.887 Y-174.533
X-244.579 Y-174.64
X-244.258 Y-174.729
X-243.927 Y-174.798
X-243.585 Y-174.845
X-243.242 Y-174.87
X-242.924 Y-174.871
X-242.604 Y-174.852
X-242.325 Y-174.816
X-242.037 Y-174.759
X-241.79 Y-174.693
X-241.53 Y-174.605
X-241.509 Y-174.596
X-241.221 Y-174.446
X-240.965 Y-174.247
X-240.747 Y-174.007
X-240.574 Y-173.731
X-240.453 Y-173.43
X-240.386 Y-173.112
X-240.376 Y-172.788
X-240.46 Y-171.352
G3 X-240.531 Y-171.115 I-0.632 J-0.059 F750
X-241.233 Y-170.792 I-0.561 J-0.297 F850
G1 X-246.411 Y-171.969
G3 X-246.904 Y-172.563 I0.141 J-0.619
X-246.866 Y-172.808 I0.634 J-0.025 F750
G1 X-246.442 Y-173.844 F850
X-246.269 Y-174.258
X-246.178 Y-174.446
X-246.105 Y-174.577
X-246.02 Y-174.707
X-245.915 Y-174.845
X-245.793 Y-174.986
X-245.654 Y-175.127
X-245.489 Y-175.273
X-245.309 Y-175.412
X-245.106 Y-175.549
X-244.878 Y-175.681
X-244.633 Y-175.802
X-244.372 Y-175.91
X-244.095 Y-176.004
X-243.8 Y-176.083
X-243.496 Y-176.142
X-243.181 Y-176.183
X-242.897 Y-176.2
X-242.599 Y-176.198
X-242.337 Y-176.18
X-242.068 Y-176.142
X-241.819 Y-176.091
X-241.584 Y-176.026
X-241.527 Y-176.005
X-241.218 Y-175.864
X-240.941 Y-175.669
X-240.705 Y-175.426
X-240.517 Y-175.145
X-240.383 Y-174.833
X-240.309 Y-174.502
X-240.297 Y-174.163
X-240.351 Y-173.222
X-240.376 Y-172.788
G3 X-240.447 Y-172.55 I-0.632 J-0.059 F750
X-241.165 Y-172.232 I-0.561 J-0.297 F850
G1 X-245.831 Y-173.418
G3 X-246.309 Y-174.014 I0.156 J-0.615
X-246.269 Y-174.258 I0.635 J-0.02 F750
G1 X-245.833 Y-175.294 F850
X-245.655 Y-175.708
X-245.576 Y-175.868
X-245.501 Y-175.998
X-245.414 Y-176.126
X-245.315 Y-176.252
X-245.195 Y-176.387
X-245.059 Y-176.52
X-244.905 Y-176.652
X-244.73 Y-176.783
X-244.537 Y-176.908
X-244.329 Y-177.024
X-244.103 Y-177.132
X-243.859 Y-177.228
X-243.601 Y-177.311
X-243.333 Y-177.378
X-243.07 Y-177.425
X-242.811 Y-177.454
X-242.544 Y-177.466
X-242.308 Y-177.461
X-242.051 Y-177.439
X-241.822 Y-177.403
X-241.594 Y-177.352
X-241.551 Y-177.339
X-241.226 Y-177.209
X-240.932 Y-177.019
X-240.679 Y-176.777
X-240.476 Y-176.492
X-240.331 Y-176.174
X-240.249 Y-175.833
X-240.232 Y-175.484
X-240.292 Y-174.258
X-240.297 Y-174.163
G3 X-240.367 Y-173.926 I-0.632 J-0.058 F750
X-241.114 Y-173.614 I-0.562 J-0.296 F850
G1 X-245.248 Y-174.87
G3 X-245.698 Y-175.464 I0.185 J-0.608
X-245.655 Y-175.708 I0.635 J-0.013 F750
G1 X-245.475 Y-176.123 F850
X-245.061 Y-177.069
X-244.99 Y-177.212
X-244.914 Y-177.341
X-244.829 Y-177.464
X-244.732 Y-177.586
X-244.621 Y-177.706
X-244.491 Y-177.831
X-244.347 Y-177.952
X-244.188 Y-178.068
X-244.011 Y-178.179
X-243.816 Y-178.285
X-243.609 Y-178.38
X-243.391 Y-178.464
X-243.162 Y-178.534
X-242.946 Y-178.585
X-242.705 Y-178.625
X-242.482 Y-178.648
X-242.265 Y-178.655
X-242.031 Y-178.647
X-241.823 Y-178.626
X-241.606 Y-178.59
X-241.55 Y-178.576
X-241.215 Y-178.461
X-240.908 Y-178.282
X-240.643 Y-178.046
X-240.43 Y-177.762
X-240.277 Y-177.442
X-240.189 Y-177.098
X-240.171 Y-176.744
X-240.232 Y-175.484
G3 X-240.301 Y-175.246 I-0.633 J-0.053 F750
X-241.08 Y-174.939 I-0.564 J-0.291 F850
G1 X-244.686 Y-176.237
G3 X-245.106 Y-176.825 I0.215 J-0.597
X-245.061 Y-177.069 I0.635 J-0.01 F750
G1 X-244.658 Y-177.987 F850
X-244.563 Y-178.194
X-244.488 Y-178.357
X-244.41 Y-178.503
X-244.332 Y-178.631
X-244.243 Y-178.752
X-244.146 Y-178.866
X-244.035 Y-178.979
X-243.912 Y-179.089
X-243.777 Y-179.194
X-243.625 Y-179.297
X-243.458 Y-179.395
X-243.279 Y-179.485
X-243.093 Y-179.562
X-242.913 Y-179.624
X-242.706 Y-179.68
X-242.508 Y-179.72
X-242.321 Y-179.745
X-242.108 Y-179.759
X-241.911 Y-179.758
X-241.724 Y-179.746
X-241.514 Y-179.718
X-241.177 Y-179.613
X-240.867 Y-179.442
X-240.598 Y-179.212
X-240.38 Y-178.933
X-240.224 Y-178.616
X-240.134 Y-178.274
X-240.115 Y-177.92
X-240.171 Y-176.744
G3 X-240.24 Y-176.506 I-0.633 J-0.053 F750
X-241.052 Y-176.212 I-0.564 J-0.291 F850
G1 X-244.151 Y-177.524
G3 X-244.538 Y-178.114 I0.248 J-0.585
X-244.488 Y-178.357 I0.635 J0.005 F750
G1 X-243.932 Y-179.551 F850
X-243.861 Y-179.684
X-243.781 Y-179.811
X-243.69 Y-179.93
X-243.59 Y-180.041
X-243.481 Y-180.145
X-243.364 Y-180.242
X-243.234 Y-180.337
X-243.092 Y-180.426
X-242.943 Y-180.506
X-242.799 Y-180.571
X-242.631 Y-180.635
X-242.462 Y-180.687
X-242.304 Y-180.723
X-242.126 Y-180.752
X-241.944 Y-180.77
X-241.777 Y-180.775
X-241.599 Y-180.768
X-241.244 Y-180.693
X-240.913 Y-180.543
X-240.621 Y-180.327
X-240.382 Y-180.054
X-240.206 Y-179.736
X-240.101 Y-179.389
X-240.073 Y-179.027
X-240.085 Y-178.609
X-240.092 Y-178.401
X-240.115 Y-177.92
G3 X-240.183 Y-177.682 I-0.633 J-0.052 F750
X-241.037 Y-177.407 I-0.565 J-0.29 F850
G1 X-243.636 Y-178.738
G3 X-243.982 Y-179.309 I0.289 J-0.565
X-243.932 Y-179.551 I0.635 J0.005 F750
G1 X-243.426 Y-180.636 F850
X-243.356 Y-180.768
X-243.273 Y-180.893
X-243.179 Y-181.01
X-243.074 Y-181.117
X-242.962 Y-181.216
X-242.842 Y-181.307
X-242.715 Y-181.387
X-242.581 Y-181.459
X-242.445 Y-181.521
X-242.304 Y-181.574
X-242.151 Y-181.618
X-241.999 Y-181.651
X-241.851 Y-181.674
X-241.696 Y-181.686
X-241.647 Y-181.687
X-241.33 Y-181.659
X-241.024 Y-181.568
X-240.743 Y-181.418
X-240.498 Y-181.215
X-240.298 Y-180.967
X-240.152 Y-180.683
X-240.066 Y-180.377
X-240.043 Y-180.059
X-240.073 Y-179.027
G3 X-240.137 Y-178.787 I-0.634 J-0.04 F750
X-241.041 Y-178.527 I-0.57 J-0.28 F850
G1 X-243.176 Y-179.848
G3 X-243.477 Y-180.393 I0.334 J-0.54
X-243.426 Y-180.636 I0.635 J0.005 F750
G1 X-243.245 Y-181.026 F850
X-243.212 Y-181.095
X-242.944 Y-181.623
X-242.869 Y-181.753
X-242.782 Y-181.875
X-242.683 Y-181.987
X-242.572 Y-182.088
X-242.452 Y-182.179
X-242.326 Y-182.259
X-242.192 Y-182.327
X-242.053 Y-182.385
X-241.911 Y-182.431
X-241.765 Y-182.465
X-241.434 Y-182.482
X-241.108 Y-182.427
X-240.802 Y-182.301
X-240.531 Y-182.112
X-240.308 Y-181.868
X-240.143 Y-181.582
X-240.045 Y-181.266
X-240.018 Y-180.936
X-240.043 Y-180.059
G3 X-240.107 Y-179.819 I-0.634 J-0.04 F750
X-241.056 Y-179.589 I-0.57 J-0.28 F850
G1 X-242.747 Y-180.845
G3 X-243.003 Y-181.382 I0.378 J-0.51
X-242.944 Y-181.623 I0.634 J0.028 F750
G1 X-242.522 Y-182.452 F850
X-242.447 Y-182.582
X-242.358 Y-182.702
X-242.254 Y-182.811
X-242.137 Y-182.905
X-242.012 Y-182.987
X-241.878 Y-183.054
X-241.586 Y-183.133
X-241.285 Y-183.146
X-240.988 Y-183.094
X-240.709 Y-182.978
X-240.462 Y-182.804
X-240.259 Y-182.581
X-240.109 Y-182.319
X-240.02 Y-182.031
X-239.995 Y-181.73
X-240.018 Y-180.936
G3 X-240.082 Y-180.697 I-0.634 J-0.04 F750
X-241.085 Y-180.512 I-0.57 J-0.28 F850
G1 X-242.379 Y-181.719
G3 X-242.58 Y-182.211 I0.433 J-0.465
X-242.522 Y-182.452 I0.634 J0.028 F750
G1 X-242.157 Y-183.166 F850
X-242.083 Y-183.296
X-241.987 Y-183.412
X-241.874 Y-183.511
X-241.75 Y-183.595
X-241.49 Y-183.691
X-241.216 Y-183.726
X-240.941 Y-183.698
X-240.679 Y-183.609
X-240.444 Y-183.463
X-240.248 Y-183.267
X-240.102 Y-183.033
X-240.012 Y-182.771
X-239.983 Y-182.496
G3 X-240.029 Y-182.251 I-0.899 J-0.042 F750
X-240.118 Y-182.061 I-0.854 J-0.286 F850
X-242.238 Y-182.931 I-0.986 J-0.614
X-242.157 Y-183.166 I1.133 J0.255 F750
G1 X-241.862 Y-183.746 F850
X-241.787 Y-183.876
X-241.688 Y-183.989
X-241.573 Y-184.085
X-241.321 Y-184.194
X-241.049 Y-184.235
X-240.775 Y-184.203
X-240.52 Y-184.101
X-240.3 Y-183.936
X-240.13 Y-183.719
X-240.023 Y-183.466
X-239.985 Y-183.193
G3 X-240.031 Y-182.949 I-0.796 J-0.024 F750
X-240.101 Y-182.802 I-0.75 J-0.268 F850
X-241.938 Y-183.509 I-0.854 J-0.521
X-241.862 Y-183.746 I0.983 J0.186 F750
G1 X-241.606 Y-184.248 F850
X-241.532 Y-184.378
X-241.432 Y-184.49
X-241.314 Y-184.582
X-241.099 Y-184.666
X-240.87 Y-184.692
X-240.641 Y-184.658
X-240.429 Y-184.568
X-240.247 Y-184.426
X-240.107 Y-184.242
X-240.019 Y-184.029
X-239.988 Y-183.801
G3 X-240.038 Y-183.557 I-0.73 J-0.022 F750
X-240.082 Y-183.463 I-0.68 J-0.265 F850
X-241.678 Y-184.01 I-0.747 J-0.422
X-241.606 Y-184.248 I0.848 J0.124 F750
G1 X-241.587 Y-184.285 F850
X-241.516 Y-184.409
X-241.322 Y-184.743
X-241.24 Y-184.868
X-241.13 Y-184.971
X-240.922 Y-185.057
X-240.698 Y-185.077
X-240.477 Y-185.03
X-240.281 Y-184.92
X-240.126 Y-184.756
X-240.026 Y-184.554
X-239.991 Y-184.331
G3 X-240.048 Y-184.09 I-0.621 J-0.018 F750
X-240.091 Y-184.011 I-0.564 J-0.26 F850
X-241.4 Y-184.507 I-0.6 J-0.391
X-241.322 Y-184.743 I0.709 J0.105 F750
G1 X-241.173 Y-184.995 F850
X-241.148 Y-185.031
X-241.108 Y-185.08
X-241.057 Y-185.129
X-241.011 Y-185.166
X-240.966 Y-185.196
X-240.882 Y-185.238
X-240.82 Y-185.26
X-240.759 Y-185.275
X-240.655 Y-185.286
X-240.551 Y-185.28
X-240.474 Y-185.264
X-240.397 Y-185.238
X-240.344 Y-185.213
X-240.292 Y-185.183
X-240.241 Y-185.145
X-240.189 Y-185.1
X-240.137 Y-185.044
X-240.127 Y-185.031
X-240.09 Y-184.979
X-240.061 Y-184.927
X-240.038 Y-184.875
X-240.02 Y-184.824
X-239.998 Y-184.72
X-239.993 Y-184.616
X-239.983 Y-182.752
Y-182.545
X-239.99 Y-181.923
X-239.995 Y-181.73
X-240.008 Y-181.677 Z6.006 F750
X-240.021 Y-181.626 Z6.025
X-240.032 Y-181.58 Z6.055
X-240.041 Y-181.542 Z6.094
X-240.048 Y-181.513 Z6.141
X-240.056 Y-181.496 Z6.194
X-240.059 Y-181.491 Z6.249
G0 Z23
X-206.494 Y-176.215
Z21.185
G1 Z20.55 F750
G3 X-212.501 Y-176.772 Z20.219 I-3.003 J-0.279 F250
X-206.494 Y-176.215 Z19.888 I3.003 J0.279
X-212.501 Y-176.772 Z19.557 I-3.003 J-0.279
X-206.494 Y-176.215 Z19.226 I3.003 J0.279
X-212.501 Y-176.772 Z18.895 I-3.003 J-0.279
X-206.494 Y-176.215 Z18.565 I3.003 J0.279
X-212.501 Y-176.772 Z18.234 I-3.003 J-0.279
X-206.494 Y-176.215 Z17.903 I3.003 J0.279
X-212.501 Y-176.772 Z17.572 I-3.003 J-0.279
X-206.494 Y-176.215 Z17.241 I3.003 J0.279
X-212.501 Y-176.772 Z16.91 I-3.003 J-0.279
X-206.494 Y-176.215 Z16.579 I3.003 J0.279
X-212.501 Y-176.772 Z16.248 I-3.003 J-0.279
X-206.494 Y-176.215 Z15.917 I3.003 J0.279
X-212.501 Y-176.772 Z15.586 I-3.003 J-0.279
X-206.494 Y-176.215 Z15.256 I3.003 J0.279
X-212.501 Y-176.772 Z14.925 I-3.003 J-0.279
X-206.494 Y-176.215 Z14.594 I3.003 J0.279
X-212.501 Y-176.772 Z14.263 I-3.003 J-0.279
X-206.494 Y-176.215 Z13.932 I3.003 J0.279
X-212.501 Y-176.772 Z13.601 I-3.003 J-0.279
X-206.494 Y-176.215 Z13.27 I3.003 J0.279
X-212.501 Y-176.772 Z12.939 I-3.003 J-0.279
X-206.494 Y-176.215 Z12.608 I3.003 J0.279
X-212.501 Y-176.772 Z12.277 I-3.003 J-0.279
X-206.494 Y-176.215 Z11.947 I3.003 J0.279
X-212.501 Y-176.772 Z11.616 I-3.003 J-0.279
X-206.494 Y-176.215 Z11.285 I3.003 J0.279
X-210.234 Y-173.568 Z11.103 I-3.003 J-0.279
X-212.274 Y-177.67 Z10.921 I0.737 J-2.925
X-207.208 Y-178.458 Z10.707 I2.777 J1.177
X-211.786 Y-174.529 Z10.376 I-2.289 J1.964
X-207.208 Y-178.458 Z10.046 I2.289 J-1.964
X-211.786 Y-174.529 Z9.715 I-2.289 J1.964
X-207.208 Y-178.458 Z9.384 I2.289 J-1.964
X-211.786 Y-174.529 Z9.053 I-2.289 J1.964
X-207.208 Y-178.458 Z8.722 I2.289 J-1.964
X-211.786 Y-174.529 Z8.391 I-2.289 J1.964
X-207.208 Y-178.458 Z8.06 I2.289 J-1.964
X-211.786 Y-174.529 Z7.729 I-2.289 J1.964
X-207.208 Y-178.458 Z7.398 I2.289 J-1.964
X-211.786 Y-174.529 Z7.067 I-2.289 J1.964
X-207.208 Y-178.458 Z6.737 I2.289 J-1.964
X-211.786 Y-174.529 Z6.406 I-2.289 J1.964
X-207.208 Y-178.458 Z6.075 I2.289 J-1.964
X-206.481 Y-176.493 Z6 I-2.289 J1.964
X-212.514 I-3.016
X-206.508 Y-176.896 I3.016
X-206.481 Y-176.493 I-2.989 J0.402
G1 X-206.477 Y-176.265 F850
X-206.35 Y-175.362
X-206.326 Y-175.251
X-206.307 Y-175.102
X-206.303 Y-174.952
X-206.312 Y-174.802
X-206.332 Y-174.654
X-206.364 Y-174.507
X-206.406 Y-174.36
X-206.461 Y-174.209
X-206.529 Y-174.055
X-206.611 Y-173.898
X-206.707 Y-173.741
X-206.817 Y-173.584
X-206.942 Y-173.43
X-207.081 Y-173.279
X-207.235 Y-173.133
X-207.403 Y-172.994
X-207.584 Y-172.863
X-207.779 Y-172.741
X-207.986 Y-172.63
X-208.204 Y-172.531
X-208.432 Y-172.445
X-208.669 Y-172.373
X-208.915 Y-172.316
X-209.167 Y-172.276
X-209.425 Y-172.251
X-209.686 Y-172.244
X-209.951 Y-172.254
X-210.216 Y-172.282
X-210.481 Y-172.327
X-210.745 Y-172.391
X-211.006 Y-172.473
X-211.262 Y-172.572
X-211.512 Y-172.689
X-211.755 Y-172.822
X-211.99 Y-172.972
X-212.215 Y-173.138
X-212.429 Y-173.32
X-212.632 Y-173.515
X-212.821 Y-173.724
X-212.997 Y-173.946
X-213.158 Y-174.18
X-213.303 Y-174.424
X-213.432 Y-174.677
X-213.545 Y-174.939
X-213.639 Y-175.209
X-213.716 Y-175.484
X-213.774 Y-175.764
X-213.814 Y-176.047
X-213.835 Y-176.333
X-213.837 Y-176.62
X-213.819 Y-176.906
X-213.783 Y-177.191
X-213.728 Y-177.473
X-213.654 Y-177.751
X-213.562 Y-178.023
X-213.453 Y-178.289
X-213.325 Y-178.547
X-213.181 Y-178.796
X-213.021 Y-179.035
X-212.845 Y-179.263
X-212.654 Y-179.479
X-212.449 Y-179.682
X-212.232 Y-179.87
X-212.002 Y-180.044
X-211.761 Y-180.203
X-211.511 Y-180.345
X-211.251 Y-180.47
X-210.983 Y-180.577
X-210.709 Y-180.667
X-210.43 Y-180.738
X-210.147 Y-180.791
X-209.86 Y-180.824
X-209.572 Y-180.839
X-209.284 Y-180.834
X-208.997 Y-180.811
X-208.712 Y-180.768
X-208.43 Y-180.706
X-208.153 Y-180.626
X-207.882 Y-180.528
X-207.618 Y-180.412
X-207.362 Y-180.279
X-207.116 Y-180.129
X-206.88 Y-179.963
X-206.655 Y-179.782
X-206.444 Y-179.586
X-206.245 Y-179.377
X-206.061 Y-179.155
X-205.892 Y-178.921
X-205.739 Y-178.677
X-205.539 Y-178.304
X-205.286 Y-177.748
X-205.111 Y-177.283
X-204.99 Y-176.884
X-204.904 Y-176.514
X-204.848 Y-176.169
X-204.817 Y-175.839
X-204.807 Y-175.52
X-204.819 Y-175.207
X-204.851 Y-174.901
X-204.903 Y-174.601
X-204.974 Y-174.307
X-205.064 Y-174.02
X-205.173 Y-173.739
X-205.3 Y-173.465
X-205.446 Y-173.199
X-205.611 Y-172.941
X-205.794 Y-172.693
X-205.995 Y-172.455
X-206.214 Y-172.229
X-206.449 Y-172.015
X-206.701 Y-171.816
X-206.968 Y-171.631
X-207.251 Y-171.463
X-207.547 Y-171.312
X-207.855 Y-171.18
X-208.174 Y-171.068
X-208.503 Y-170.976
X-208.84 Y-170.906
X-209.184 Y-170.858
X-209.533 Y-170.832
X-209.886 Y-170.83
X-210.24 Y-170.851
X-210.595 Y-170.896
X-210.949 Y-170.965
X-211.299 Y-171.058
X-211.645 Y-171.174
X-211.984 Y-171.314
X-212.314 Y-171.477
X-212.635 Y-171.663
X-212.944 Y-171.87
X-213.239 Y-172.098
X-213.52 Y-172.346
X-213.784 Y-172.612
X-214.031 Y-172.897
X-214.259 Y-173.198
X-214.467 Y-173.514
X-214.654 Y-173.845
X-214.819 Y-174.187
X-214.961 Y-174.54
X-215.08 Y-174.903
X-215.175 Y-175.273
X-215.244 Y-175.648
X-215.289 Y-176.029
X-215.309 Y-176.411
X-215.303 Y-176.795
X-215.271 Y-177.177
X-215.215 Y-177.557
X-215.133 Y-177.932
X-215.026 Y-178.302
X-214.895 Y-178.664
X-214.74 Y-179.016
X-214.563 Y-179.358
X-214.362 Y-179.687
X-214.141 Y-180.002
X-213.899 Y-180.302
X-213.637 Y-180.585
X-213.357 Y-180.851
X-213.06 Y-181.097
X-212.748 Y-181.323
X-212.421 Y-181.528
X-212.081 Y-181.711
X-211.729 Y-181.871
X-211.368 Y-182.007
X-210.999 Y-182.119
X-210.622 Y-182.206
X-210.241 Y-182.269
X-209.857 Y-182.305
X-209.471 Y-182.316
X-209.085 Y-182.302
X-208.701 Y-182.262
X-208.32 Y-182.196
X-207.944 Y-182.106
X-207.576 Y-181.991
X-207.215 Y-181.851
X-206.865 Y-181.688
X-206.526 Y-181.502
X-206.201 Y-181.294
X-205.89 Y-181.065
X-205.578 Y-180.802
X-205.269 Y-180.504
X-204.961 Y-180.164
X-204.661 Y-179.785
X-204.382 Y-179.381
X-204.131 Y-178.961
X-203.912 Y-178.53
X-203.725 Y-178.094
X-203.57 Y-177.655
X-203.447 Y-177.215
X-203.355 Y-176.777
X-203.294 Y-176.342
X-203.263 Y-175.911
X-203.26 Y-175.484
X-203.285 Y-175.062
X-203.338 Y-174.646
X-203.417 Y-174.236
X-203.524 Y-173.834
X-203.656 Y-173.441
X-203.815 Y-173.057
X-203.998 Y-172.684
X-204.207 Y-172.324
X-204.439 Y-171.977
X-204.695 Y-171.645
X-204.974 Y-171.329
X-205.275 Y-171.031
X-205.596 Y-170.752
X-205.937 Y-170.493
X-206.297 Y-170.257
X-206.674 Y-170.043
X-207.066 Y-169.854
X-207.473 Y-169.69
X-207.893 Y-169.552
X-208.323 Y-169.442
X-208.762 Y-169.361
X-209.208 Y-169.308
X-209.66 Y-169.285
X-210.115 Y-169.292
X-210.571 Y-169.329
X-211.027 Y-169.397
X-211.479 Y-169.495
X-211.926 Y-169.624
X-212.365 Y-169.783
X-212.794 Y-169.972
X-213.212 Y-170.189
X-213.616 Y-170.435
X-214.004 Y-170.707
X-214.375 Y-171.006
X-214.726 Y-171.33
X-215.055 Y-171.677
X-215.361 Y-172.046
X-215.643 Y-172.436
X-215.899 Y-172.844
X-216.128 Y-173.269
X-216.329 Y-173.709
X-216.385 Y-173.858
X-216.452 Y-174.077
X-216.492 Y-174.302
X-216.503 Y-174.531
X-216.481 Y-176.33
X-216.483 Y-176.537
X-216.497 Y-177.366
X-216.484 Y-177.797
X-216.45 Y-178.147
X-216.389 Y-178.514
X-216.301 Y-178.892
X-216.183 Y-179.277
X-216.036 Y-179.664
X-215.861 Y-180.047
X-215.657 Y-180.425
X-215.424 Y-180.795
X-215.161 Y-181.156
X-214.871 Y-181.505
X-214.553 Y-181.839
X-214.211 Y-182.154
X-214.055 Y-182.279
X-213.817 Y-182.441
X-213.557 Y-182.565
X-213.28 Y-182.646
G3 X-213.032 Y-182.64 I0.109 J0.626 F750
X-212.623 Y-181.701 I-0.139 J0.62 F850
G1 X-215.314 Y-177.08
G3 X-216.436 Y-177.126 I-0.549 J-0.32
X-216.497 Y-177.366 I0.573 J-0.274 F750
G1 X-216.549 Y-180.059 F850
X-216.54 Y-180.352
X-216.519 Y-180.563
X-216.483 Y-180.781
X-216.426 Y-181.024
X-216.42 Y-181.046
X-216.293 Y-181.356
X-216.112 Y-181.639
X-215.883 Y-181.883
X-215.614 Y-182.083
X-215.313 Y-182.23
X-214.99 Y-182.32
G3 X-214.743 Y-182.308 I0.093 J0.628 F750
X-214.362 Y-181.351 I-0.155 J0.616 F850
G1 X-215.379 Y-179.752
G3 X-216.487 Y-179.819 I-0.536 J-0.341
X-216.549 Y-180.059 I0.573 J-0.274 F750
G1 X-216.557 Y-180.473 F850
X-216.576 Y-181.095
X-216.594 Y-181.467
X-216.596 Y-181.509
X-216.584 Y-181.613
X-216.554 Y-181.716
X-216.52 Y-181.79
X-216.479 Y-181.856
X-216.424 Y-181.923
X-216.368 Y-181.975
X-216.313 Y-182.017
X-216.261 Y-182.05
X-216.209 Y-182.077
X-216.106 Y-182.114
X-216.025 Y-182.13
X-213.763 Y-182.545
X-213.205 Y-182.661
X-212.998 Y-182.719
X-211.755 Y-183.106
X-210.719 Y-183.429
X-210.187 Y-183.566
X-209.834 Y-183.632
X-209.467 Y-183.677
X-209.088 Y-183.697
X-208.692 Y-183.692
X-208.283 Y-183.659
X-207.865 Y-183.598
X-207.442 Y-183.506
X-207.017 Y-183.385
X-206.593 Y-183.232
X-206.171 Y-183.048
X-205.754 Y-182.832
X-205.339 Y-182.581
X-204.926 Y-182.292
X-204.519 Y-181.965
X-204.124 Y-181.603
X-203.747 Y-181.207
X-203.393 Y-180.782
X-203.065 Y-180.331
X-202.767 Y-179.858
X-202.502 Y-179.367
X-202.27 Y-178.861
X-202.127 Y-178.485
X-202.048 Y-178.217
X-202.01 Y-177.94
X-202.015 Y-177.661
X-202.062 Y-177.385
X-202.325 Y-176.33
X-202.538 Y-175.501
X-202.862 Y-174.258
X-202.974 Y-173.844
X-203.311 Y-172.601
X-203.425 Y-172.186
X-203.541 Y-171.772
X-203.676 Y-171.371
X-203.777 Y-171.126
X-203.9 Y-170.876
X-204.054 Y-170.608
X-204.234 Y-170.339
X-204.441 Y-170.07
X-204.684 Y-169.794
X-204.961 Y-169.519
X-205.263 Y-169.256
X-205.595 Y-169.004
X-205.961 Y-168.762
X-206.359 Y-168.536
X-206.785 Y-168.33
X-207.236 Y-168.148
X-207.708 Y-167.993
X-208.198 Y-167.867
X-208.703 Y-167.772
X-209.223 Y-167.71
X-209.755 Y-167.682
X-210.296 Y-167.69
X-210.842 Y-167.734
X-211.389 Y-167.815
X-211.936 Y-167.933
X-212.477 Y-168.089
X-213.011 Y-168.281
X-213.534 Y-168.51
X-214.044 Y-168.774
X-214.537 Y-169.074
X-215.012 Y-169.406
X-215.465 Y-169.771
X-215.894 Y-170.166
X-216.035 Y-170.315
X-216.256 Y-170.597
X-216.418 Y-170.917
X-216.514 Y-171.262
X-216.542 Y-171.619
X-216.53 Y-172.394
X-216.503 Y-174.531
G3 X-216.444 Y-174.772 I0.634 J0.03 F750
X-216.403 Y-174.845 I0.575 J0.27 F850
G1 X-211.043 Y-183.173
G3 X-210.933 Y-183.303 I0.534 J0.344
X-210.719 Y-183.429 I0.423 J0.473 F750
G1 X-210.512 Y-183.493 F850
X-210.305 Y-183.564
X-209.891 Y-183.714
X-209.703 Y-183.788
X-208.648 Y-184.263
X-208.397 Y-184.361
X-208.217 Y-184.418
X-208.01 Y-184.468
X-207.786 Y-184.508
X-207.536 Y-184.535
X-207.261 Y-184.546
X-206.973 Y-184.539
X-206.648 Y-184.509
X-206.316 Y-184.456
X-205.959 Y-184.374
X-205.572 Y-184.259
X-205.182 Y-184.113
X-204.778 Y-183.931
X-204.355 Y-183.705
X-203.922 Y-183.436
X-203.494 Y-183.129
X-203.076 Y-182.785
X-202.664 Y-182.396
X-202.264 Y-181.966
X-201.882 Y-181.497
X-201.761 Y-181.326
X-201.604 Y-181.06
X-201.494 Y-180.771
X-201.434 Y-180.468
X-201.425 Y-180.159
X-201.468 Y-179.853
X-201.517 Y-179.644
X-201.864 Y-178.194
X-202.018 Y-177.559
X-202.062 Y-177.385
X-202.125 Y-177.144 F750
X-203.478 Y-172.013 F850
X-203.541 Y-171.772 F750
X-203.832 Y-170.736 F850
X-204.226 Y-169.379
X-204.289 Y-169.197
X-204.363 Y-169.024
X-204.46 Y-168.83
X-204.575 Y-168.635
X-204.72 Y-168.423
X-204.889 Y-168.208
X-205.087 Y-167.987
X-205.324 Y-167.757
X-205.582 Y-167.537
X-205.883 Y-167.313
X-206.225 Y-167.092
X-206.589 Y-166.89
X-206.994 Y-166.699
X-207.441 Y-166.523
X-207.925 Y-166.369
X-208.433 Y-166.244
X-208.962 Y-166.15
X-209.522 Y-166.089
X-210.107 Y-166.064
X-210.71 Y-166.078
X-211.326 Y-166.134
X-211.951 Y-166.233
X-212.579 Y-166.375
X-213.204 Y-166.561
X-213.824 Y-166.791
X-214.433 Y-167.065
X-215.028 Y-167.381
X-215.526 Y-167.689
X-215.846 Y-167.919
X-216.119 Y-168.158
X-216.339 Y-168.445
X-216.499 Y-168.769
X-216.592 Y-169.119
X-216.615 Y-169.48
X-216.543 Y-171.595
X-216.542 Y-171.619
G3 X-216.481 Y-171.859 I0.634 J0.034 F750
X-215.793 Y-172.209 I0.573 J0.274 F850
G1 X-204.726 Y-170.16
G3 X-204.213 Y-169.627 I-0.116 J0.624
X-204.226 Y-169.379 I-0.628 J0.091 F750
G1 X-204.436 Y-168.665 F850
X-204.781 Y-167.515
X-204.839 Y-167.353
X-204.909 Y-167.19
X-204.994 Y-167.024
X-205.104 Y-166.841
X-205.232 Y-166.656
X-205.39 Y-166.458
X-205.574 Y-166.257
X-205.788 Y-166.052
X-206.041 Y-165.839
X-206.316 Y-165.638
X-206.639 Y-165.432
X-207 Y-165.236
X-207.387 Y-165.057
X-207.828 Y-164.887
X-208.316 Y-164.736
X-208.824 Y-164.615
X-209.373 Y-164.523
X-209.965 Y-164.463
X-210.592 Y-164.441
X-211.248 Y-164.461
X-211.92 Y-164.527
X-212.599 Y-164.64
X-213.287 Y-164.802
X-213.982 Y-165.015
X-214.643 Y-165.266
X-215.181 Y-165.513
X-215.579 Y-165.728
X-215.825 Y-165.883
X-216.08 Y-166.077
X-216.297 Y-166.311
X-216.471 Y-166.58
X-216.595 Y-166.874
X-216.667 Y-167.186
X-216.683 Y-167.505
X-216.615 Y-169.48
G3 X-216.55 Y-169.719 I0.633 J0.044 F750
X-215.878 Y-170.063 I0.568 J0.283 F850
G1 X-205.291 Y-168.302
G3 X-204.766 Y-167.762 I-0.104 J0.626
X-204.781 Y-167.515 I-0.629 J0.086 F750
G1 X-204.871 Y-167.214 F850
X-205.255 Y-165.971
X-205.32 Y-165.764
X-205.377 Y-165.609
X-205.443 Y-165.46
X-205.53 Y-165.295
X-205.633 Y-165.127
X-205.764 Y-164.942
X-205.913 Y-164.759
X-206.099 Y-164.56
X-206.304 Y-164.367
X-206.553 Y-164.162
X-206.825 Y-163.967
X-207.14 Y-163.772
X-207.504 Y-163.579
X-207.889 Y-163.406
X-208.334 Y-163.24
X-208.831 Y-163.092
X-209.348 Y-162.974
X-209.919 Y-162.884
X-210.541 Y-162.828
X-211.206 Y-162.811
X-211.893 Y-162.84
X-212.595 Y-162.917
X-213.32 Y-163.045
X-214.02 Y-163.217
X-214.617 Y-163.407
X-215.123 Y-163.605
X-215.513 Y-163.789
X-215.847 Y-163.975
X-215.924 Y-164.024
X-216.178 Y-164.221
X-216.393 Y-164.459
X-216.564 Y-164.731
X-216.686 Y-165.028
X-216.753 Y-165.342
X-216.765 Y-165.663
X-216.709 Y-166.8
X-216.683 Y-167.505
G3 X-216.618 Y-167.744 I0.633 J0.044 F750
X-215.955 Y-168.089 I0.568 J0.283 F850
G1 X-205.837 Y-166.559
G3 X-205.302 Y-166.011 I-0.095 J0.628
X-205.32 Y-165.764 I-0.63 J0.08 F750
G1 X-205.449 Y-165.35 F850
X-205.844 Y-164.107
X-205.913 Y-163.923
X-205.979 Y-163.778
X-206.066 Y-163.615
X-206.168 Y-163.452
X-206.299 Y-163.27
X-206.446 Y-163.092
X-206.632 Y-162.896
X-206.835 Y-162.707
X-207.083 Y-162.506
X-207.354 Y-162.315
X-207.671 Y-162.121
X-208.033 Y-161.931
X-208.423 Y-161.759
X-208.88 Y-161.593
X-209.376 Y-161.449
X-209.906 Y-161.332
X-210.499 Y-161.242
X-211.148 Y-161.188
X-211.823 Y-161.176
X-212.516 Y-161.21
X-213.214 Y-161.29
X-213.877 Y-161.412
X-214.483 Y-161.566
X-214.97 Y-161.724
X-215.374 Y-161.886
X-215.732 Y-162.057
X-216.024 Y-162.222
X-216.275 Y-162.419
X-216.488 Y-162.657
X-216.657 Y-162.928
X-216.776 Y-163.223
X-216.843 Y-163.535
X-216.855 Y-163.854
X-216.765 Y-165.663
G3 X-216.697 Y-165.901 I0.633 J0.054 F750
X-216.046 Y-166.238 I0.564 J0.292 F850
G1 X-206.369 Y-164.908
G3 X-205.825 Y-164.354 I-0.087 J0.629
X-205.844 Y-164.107 I-0.631 J0.075 F750
G1 X-205.977 Y-163.693 F850
X-206.369 Y-162.495
X-206.384 Y-162.45
X-206.462 Y-162.248
X-206.529 Y-162.105
X-206.618 Y-161.942
X-206.721 Y-161.78
X-206.855 Y-161.599
X-207.004 Y-161.421
X-207.192 Y-161.226
X-207.398 Y-161.039
X-207.65 Y-160.839
X-207.926 Y-160.649
X-208.249 Y-160.456
X-208.617 Y-160.268
X-209.017 Y-160.097
X-209.484 Y-159.932
X-209.988 Y-159.791
X-210.53 Y-159.678
X-211.132 Y-159.593
X-211.775 Y-159.545
X-212.439 Y-159.541
X-213.094 Y-159.58
X-213.722 Y-159.659
X-214.318 Y-159.775
X-214.831 Y-159.91
X-215.261 Y-160.055
X-215.604 Y-160.196
X-215.933 Y-160.359
X-216.024 Y-160.411
X-216.299 Y-160.605
X-216.533 Y-160.846
X-216.721 Y-161.125
X-216.854 Y-161.434
X-216.928 Y-161.762
X-216.942 Y-162.098
X-216.855 Y-163.854
G3 X-216.786 Y-164.092 I0.633 J0.054 F750
X-216.142 Y-164.43 I0.564 J0.292 F850
G1 X-206.914 Y-163.256
G3 X-206.363 Y-162.696 I-0.08 J0.63
X-206.384 Y-162.45 I-0.631 J0.07 F750
G1 X-206.658 Y-161.621 F850
X-206.937 Y-160.792
X-207.017 Y-160.59
X-207.085 Y-160.446
X-207.174 Y-160.284
X-207.279 Y-160.122
X-207.413 Y-159.943
X-207.565 Y-159.764
X-207.754 Y-159.57
X-207.963 Y-159.383
X-208.218 Y-159.182
X-208.493 Y-158.994
X-208.823 Y-158.8
X-209.187 Y-158.617
X-209.594 Y-158.445
X-210.064 Y-158.282
X-210.56 Y-158.146
X-211.098 Y-158.036
X-211.682 Y-157.957
X-212.296 Y-157.916
X-212.917 Y-157.914
X-213.525 Y-157.954
X-214.103 Y-158.03
X-214.633 Y-158.136
X-215.079 Y-158.256
X-215.444 Y-158.381
X-215.791 Y-158.526
X-216.075 Y-158.668
X-216.131 Y-158.701
X-216.405 Y-158.897
X-216.639 Y-159.14
X-216.825 Y-159.421
X-216.956 Y-159.732
X-217.029 Y-160.061
X-217.04 Y-160.398
X-216.957 Y-161.828
X-216.942 Y-162.098
G3 X-216.873 Y-162.336 I0.633 J0.054 F750
X-216.233 Y-162.674 I0.564 J0.292 F850
G1 X-207.469 Y-161.604
G3 X-206.914 Y-161.039 I-0.077 J0.63
X-206.937 Y-160.792 I-0.632 J0.065 F750
G1 X-207.076 Y-160.378 F850
X-207.506 Y-159.135
X-207.593 Y-158.919
X-207.662 Y-158.776
X-207.754 Y-158.614
X-207.861 Y-158.452
X-207.997 Y-158.272
X-208.152 Y-158.094
X-208.344 Y-157.901
X-208.554 Y-157.715
X-208.812 Y-157.517
X-209.09 Y-157.33
X-209.419 Y-157.141
X-209.788 Y-156.959
X-210.188 Y-156.794
X-210.646 Y-156.64
X-211.147 Y-156.508
X-211.666 Y-156.407
X-212.22 Y-156.337
X-212.797 Y-156.303
X-213.373 Y-156.307
X-213.931 Y-156.349
X-214.463 Y-156.424
X-214.907 Y-156.517
X-215.322 Y-156.633
X-215.652 Y-156.749
X-215.979 Y-156.89
X-216.137 Y-156.97
X-216.435 Y-157.161
X-216.692 Y-157.406
X-216.897 Y-157.695
X-217.043 Y-158.018
X-217.124 Y-158.363
X-217.138 Y-158.718
X-217.04 Y-160.398
G3 X-216.969 Y-160.635 I0.632 J0.059 F750
X-216.33 Y-160.969 I0.562 J0.296 F850
G1 X-208.035 Y-159.952
G3 X-207.481 Y-159.381 I-0.077 J0.63
X-207.506 Y-159.135 I-0.632 J0.06 F750
G1 X-207.65 Y-158.721 F850
X-207.869 Y-158.099
X-208.089 Y-157.478
X-208.181 Y-157.255
X-208.251 Y-157.112
X-208.344 Y-156.951
X-208.452 Y-156.79
X-208.589 Y-156.612
X-208.744 Y-156.437
X-208.936 Y-156.246
X-209.146 Y-156.063
X-209.403 Y-155.868
X-209.68 Y-155.685
X-210.003 Y-155.502
X-210.37 Y-155.325
X-210.759 Y-155.168
X-211.198 Y-155.023
X-211.68 Y-154.9
X-212.186 Y-154.805
X-212.709 Y-154.743
X-213.24 Y-154.716
X-213.769 Y-154.723
X-214.279 Y-154.765
X-214.738 Y-154.833
X-215.169 Y-154.926
X-215.514 Y-155.026
X-215.855 Y-155.148
X-216.137 Y-155.272
X-216.244 Y-155.328
X-216.54 Y-155.52
X-216.794 Y-155.764
X-216.997 Y-156.053
X-217.141 Y-156.375
X-217.221 Y-156.719
X-217.234 Y-157.071
X-217.138 Y-158.718
G3 X-217.067 Y-158.955 I0.632 J0.059 F750
X-216.426 Y-159.289 I0.562 J0.296 F850
G1 X-208.615 Y-158.299
G3 X-208.062 Y-157.724 I-0.08 J0.63
X-208.089 Y-157.478 I-0.633 J0.055 F750
G1 X-208.236 Y-157.063 F850
X-208.687 Y-155.82
X-208.781 Y-155.599
X-208.851 Y-155.458
X-208.945 Y-155.298
X-209.053 Y-155.14
X-209.19 Y-154.964
X-209.344 Y-154.793
X-209.535 Y-154.606
X-209.744 Y-154.427
X-209.995 Y-154.24
X-210.273 Y-154.06
X-210.585 Y-153.886
X-210.943 Y-153.716
X-211.326 Y-153.566
X-211.74 Y-153.433
X-212.193 Y-153.321
X-212.669 Y-153.236
X-213.161 Y-153.181
X-213.65 Y-153.16
X-214.136 Y-153.171
X-214.607 Y-153.213
X-215.012 Y-153.276
X-215.405 Y-153.364
X-215.721 Y-153.458
X-216.042 Y-153.577
X-216.304 Y-153.694
X-216.357 Y-153.722
X-216.65 Y-153.915
X-216.901 Y-154.16
X-217.101 Y-154.449
X-217.243 Y-154.77
X-217.321 Y-155.112
X-217.333 Y-155.463
X-217.234 Y-157.071
G3 X-217.163 Y-157.309 I0.632 J0.06 F750
X-216.516 Y-157.641 I0.561 J0.297 F850
G1 X-209.206 Y-156.645
