%
(1001)
(z0 botom machine -5-5)
(T7  D=16 CR=0 TAPER=45deg - ZMIN=4 - chamfer mill)
G90 G94
G17
G21

(2D Chamfer2)
M9
T7 M6
S8000 M3
G54
M9
G0 X-119.676 Y-165.079
Z33
Z23
G1 Z20 F283.3
Z16
G2 X-117.296 Y-232.704 I-30.324 J-34.922 F850
X-117.441 Y-232.828 I-0.884 J0.884
G1 X-121.711 Y-235.955
G2 X-121.836 Y-236.036 I-0.739 J1.008
G1 X-126.396 Y-238.605
G2 X-126.53 Y-238.67 I-0.614 J1.089
G1 X-131.308 Y-240.658
G2 X-131.448 Y-240.707 I-0.48 J1.154
G1 X-136.372 Y-242.098
G2 X-136.517 Y-242.13 I-0.34 J1.203
G1 X-141.514 Y-242.918
G2 X-141.662 Y-242.932 I-0.195 J1.235
G1 X-146.658 Y-243.12
G2 X-146.807 Y-243.117 I-0.047 J1.249
G1 X-151.731 Y-242.714
G2 X-151.878 Y-242.693 I0.102 J1.246
G1 X-156.663 Y-241.72
G2 X-156.807 Y-241.682 I0.249 J1.225
G1 X-161.386 Y-240.166
G2 X-161.524 Y-240.111 I0.393 J1.187
G1 X-165.838 Y-238.087
G2 X-165.968 Y-238.016 I0.531 J1.132
G1 X-169.962 Y-235.525
G2 X-170.084 Y-235.438 I0.661 J1.061
G1 X-173.707 Y-232.526
G2 X-173.818 Y-232.426 I0.783 J0.974
G1 X-177.027 Y-229.145
G2 X-177.125 Y-229.033 I0.893 J0.874
G1 X-179.886 Y-225.441
G2 X-179.97 Y-225.318 I0.991 J0.762
G1 X-182.255 Y-221.473
G2 X-182.323 Y-221.34 I1.075 J0.639
G1 X-184.11 Y-217.304
G2 X-184.162 Y-217.164 I1.143 J0.506
G1 X-185.439 Y-212.999
G2 X-185.474 Y-212.854 I1.195 J0.366
G1 X-186.235 Y-208.625
G2 X-186.253 Y-208.477 I1.23 J0.221
G1 X-186.502 Y-204.246
G2 Y-204.097 I1.248 J0.073
G1 X-186.25 Y-199.962
G2 X-175.633 Y-174.367 I36.25 J-0.038
X-174.528 Y-174.021 I0.884 J-0.884
G1 X-173.827 Y-174.147
X-173.147 Y-174.255
X-172.479 Y-174.351
X-171.822 Y-174.431
X-171.176 Y-174.497
X-170.542 Y-174.55
X-169.919 Y-174.589
X-169.308 Y-174.613
X-168.709 Y-174.624
X-168.122 Y-174.62
X-167.544 Y-174.603
X-166.978 Y-174.573
X-166.426 Y-174.528
X-165.884 Y-174.47
X-165.355 Y-174.399
X-164.835 Y-174.313
X-164.328 Y-174.215
X-163.831 Y-174.104
X-163.345 Y-173.979
X-162.873 Y-173.842
X-162.409 Y-173.691
X-161.956 Y-173.527
X-161.516 Y-173.351
X-161.084 Y-173.161
X-160.664 Y-172.96
X-160.254 Y-172.744
X-159.853 Y-172.516
X-159.463 Y-172.276
X-159.082 Y-172.022
X-158.71 Y-171.755
X-158.348 Y-171.476
X-157.996 Y-171.183
X-157.652 Y-170.878
X-157.318 Y-170.558
X-156.99 Y-170.225
X-156.675 Y-169.881
X-156.367 Y-169.521
X-156.066 Y-169.147
X-155.775 Y-168.761
X-155.493 Y-168.362
X-155.219 Y-167.948
X-154.953 Y-167.52
X-154.697 Y-167.079
X-154.447 Y-166.624
X-154.208 Y-166.157
X-153.977 Y-165.676
X-153.754 Y-165.181
X-153.539 Y-164.673
X-153.334 Y-164.151
X-153.136 Y-163.616
X-152.947 Y-163.068
X-152.767 Y-162.509
X-152.595 Y-161.935
X-152.431 Y-161.35
X-152.276 Y-160.753
X-152.129 Y-160.143
X-151.99 Y-159.521
X-151.859 Y-158.888
X-151.737 Y-158.244
X-151.623 Y-157.592
X-151.417 Y-156.243
X-151.24 Y-154.843
G2 X-150 Y-153.75 I1.24 J-0.157
X-119.676 Y-165.079 J-46.25
G3 X-117.419 Y-164.919 I1.049 J1.208
G1 X-118.627 Y-163.87
X-118.745 Y-163.768 Z16.008
X-118.862 Y-163.666 Z16.031
X-118.977 Y-163.566 Z16.069
X-119.089 Y-163.469 Z16.122
X-119.196 Y-163.376 Z16.189
X-119.298 Y-163.288 Z16.27
X-119.393 Y-163.205 Z16.363
X-119.481 Y-163.129 Z16.469
X-119.561 Y-163.06 Z16.585
X-119.631 Y-162.998 Z16.711
X-119.692 Y-162.945 Z16.846
X-119.743 Y-162.901 Z16.988
X-119.783 Y-162.867 Z17.136
X-119.812 Y-162.842 Z17.288
X-119.829 Y-162.826 Z17.443
X-119.835 Y-162.821 Z17.6
G0 Z23
X-65.854 Y-164.087
G1 Z20 F283.3
Z16
G2 X-65 Y-163.75 I0.854 J-0.913 F850
X-39.367 Y-225.633 J-36.25
X-39.54 Y-225.777 I-0.884 J0.884
G1 X-42.93 Y-228.121
G2 X-43.058 Y-228.198 I-0.711 J1.028
G1 X-46.651 Y-230.095
G2 X-46.788 Y-230.157 I-0.584 J1.105
G1 X-50.528 Y-231.59
G2 X-50.67 Y-231.635 I-0.447 J1.167
G1 X-54.498 Y-232.597
G2 X-54.645 Y-232.625 I-0.305 J1.212
G1 X-58.502 Y-233.116
G2 X-58.651 Y-233.126 I-0.158 J1.24
G1 X-62.481 Y-233.151
G2 X-62.63 Y-233.143 I-0.008 J1.25
G1 X-66.378 Y-232.718
G2 X-66.526 Y-232.692 I0.141 J1.242
G1 X-70.138 Y-231.834
G2 X-70.281 Y-231.791 I0.289 J1.216
G1 X-73.711 Y-230.528
G2 X-73.849 Y-230.468 I0.432 J1.173
G1 X-77.05 Y-228.829
G2 X-77.179 Y-228.753 I0.57 J1.113
G1 X-80.113 Y-226.776
G2 X-80.232 Y-226.684 I0.699 J1.037
G1 X-82.864 Y-224.406
G2 X-82.971 Y-224.301 I0.818 J0.945
G1 X-85.271 Y-221.768
G2 X-85.365 Y-221.651 I0.925 J0.84
G1 X-87.311 Y-218.908
G2 X-87.391 Y-218.78 I1.02 J0.723
G1 X-88.965 Y-215.873
G2 X-89.028 Y-215.737 I1.099 J0.595
G1 X-90.22 Y-212.717
G2 X-90.267 Y-212.573 I1.163 J0.459
G1 X-91.072 Y-209.487
G2 X-91.101 Y-209.34 I1.21 J0.315
G1 X-91.52 Y-206.238
G2 X-91.531 Y-206.087 I1.239 J0.168
G1 X-91.573 Y-203.014
G2 X-91.566 Y-202.863 I1.25 J0.017
G1 X-91.25 Y-199.933
G2 X-83.562 Y-181.438 I26.25 J-0.067
X-82.36 Y-181.113 I0.884 J-0.884
G1 X-81.857 Y-181.245
X-81.376 Y-181.359
X-80.904 Y-181.459
X-80.44 Y-181.544
X-79.986 Y-181.616
X-79.542 Y-181.673
X-79.105 Y-181.716
X-78.68 Y-181.747
X-78.263 Y-181.762
X-77.853 Y-181.765
X-77.455 Y-181.755
X-77.066 Y-181.731
X-76.684 Y-181.694
X-76.311 Y-181.644
X-75.948 Y-181.582
X-75.594 Y-181.506
X-75.245 Y-181.418
X-74.907 Y-181.319
X-74.577 Y-181.205
X-74.253 Y-181.08
X-73.935 Y-180.941
X-73.625 Y-180.791
X-73.322 Y-180.628
X-73.027 Y-180.453
X-72.736 Y-180.263
X-72.452 Y-180.061
X-72.173 Y-179.845
X-71.9 Y-179.616
X-71.633 Y-179.374
X-71.372 Y-179.117
X-71.115 Y-178.846
X-70.864 Y-178.561
X-70.619 Y-178.263
X-70.38 Y-177.949
X-70.145 Y-177.621
X-69.916 Y-177.278
X-69.693 Y-176.92
X-69.476 Y-176.549
X-69.265 Y-176.163
X-69.059 Y-175.762
X-68.86 Y-175.347
X-68.666 Y-174.917
X-68.479 Y-174.472
X-68.298 Y-174.013
X-68.122 Y-173.54
X-67.953 Y-173.054
X-67.791 Y-172.553
X-67.636 Y-172.044
X-67.34 Y-170.968
X-67.071 Y-169.844
X-66.827 Y-168.669
X-66.607 Y-167.445
X-66.412 Y-166.172
X-66.24 Y-164.839
G2 X-65.854 Y-164.087 I1.24 J-0.161
G3 X-65.778 Y-161.826 I-1.093 J1.169
G1 X-66.947 Y-162.918
X-67.061 Y-163.025 Z16.008
X-67.175 Y-163.132 Z16.031
X-67.286 Y-163.236 Z16.069
X-67.394 Y-163.337 Z16.122
X-67.498 Y-163.434 Z16.189
X-67.596 Y-163.526 Z16.27
X-67.688 Y-163.612 Z16.363
X-67.773 Y-163.691 Z16.469
X-67.85 Y-163.763 Z16.585
X-67.918 Y-163.827 Z16.711
X-67.977 Y-163.882 Z16.846
X-68.026 Y-163.928 Z16.988
X-68.065 Y-163.964 Z17.136
X-68.093 Y-163.99 Z17.288
X-68.11 Y-164.006 Z17.443
X-68.115 Y-164.011 Z17.6
G0 Z23
X-58.752 Y-199.847
G1 Z20 F283.3
Z16
G3 X-71.248 Y-200.153 I-6.248 J-0.153 F850
X-58.75 Y-200 I6.248 J0.153
X-58.752 Y-199.847 I-6.25
X-60.391 Y-198.286 I-1.6 J-0.039
G1 X-60.351 Y-199.886
X-60.348 Y-200.043 Z16.008
X-60.344 Y-200.198 Z16.031
X-60.34 Y-200.35 Z16.069
X-60.336 Y-200.498 Z16.122
X-60.333 Y-200.64 Z16.189
X-60.33 Y-200.775 Z16.27
X-60.326 Y-200.901 Z16.363
X-60.324 Y-201.017 Z16.469
X-60.321 Y-201.122 Z16.585
X-60.319 Y-201.216 Z16.711
X-60.317 Y-201.297 Z16.846
X-60.315 Y-201.364 Z16.988
X-60.314 Y-201.417 Z17.136
X-60.313 Y-201.455 Z17.288
X-60.312 Y-201.478 Z17.443
Y-201.485 Z17.6
G0 Z23
X-143.75 Y-200
G1 Z20 F283.3
Z16
G3 X-156.25 I-6.25 F850
X-143.75 I6.25
X-145.35 Y-198.4 I-1.6
G1 Y-200
G19 G2 Y-201.6 Z17.6 K1.6
G0 Z23
X-149.424 Y-91.912
G1 Z20 F283.3
Z16
G17 G2 X-150.403 Y-92.15 I-0.759 J0.993 F850
G1 X-151.104 Y-92.024
X-151.784 Y-91.915
X-152.452 Y-91.82
X-153.109 Y-91.739
X-153.756 Y-91.673
X-154.389 Y-91.62
X-155.013 Y-91.582
X-155.623 Y-91.557
X-156.223 Y-91.547
X-156.811 Y-91.55
X-157.387 Y-91.567
X-157.952 Y-91.598
X-158.505 Y-91.643
X-159.047 Y-91.701
X-159.578 Y-91.772
X-160.096 Y-91.857
X-160.603 Y-91.955
X-161.1 Y-92.067
X-161.585 Y-92.191
X-162.059 Y-92.329
X-162.522 Y-92.48
X-162.974 Y-92.643
X-163.415 Y-92.82
X-163.847 Y-93.009
X-164.267 Y-93.211
X-164.678 Y-93.426
X-165.078 Y-93.654
X-165.468 Y-93.895
X-165.849 Y-94.148
X-166.22 Y-94.415
X-166.583 Y-94.695
X-166.935 Y-94.987
X-167.279 Y-95.294
X-167.614 Y-95.613
X-167.94 Y-95.945
X-168.257 Y-96.291
X-168.565 Y-96.65
X-168.864 Y-97.023
X-169.156 Y-97.409
X-169.438 Y-97.809
X-169.713 Y-98.223
X-169.978 Y-98.65
X-170.235 Y-99.091
X-170.483 Y-99.545
X-170.723 Y-100.014
X-170.955 Y-100.496
X-171.178 Y-100.989
X-171.391 Y-101.498
X-171.598 Y-102.02
X-171.795 Y-102.554
X-171.984 Y-103.102
X-172.164 Y-103.662
X-172.336 Y-104.235
X-172.5 Y-104.821
X-172.655 Y-105.418
X-172.802 Y-106.028
X-172.942 Y-106.649
X-173.072 Y-107.282
X-173.194 Y-107.927
X-173.308 Y-108.579
X-173.515 Y-109.927
X-173.691 Y-111.327
G2 X-174.931 Y-112.421 I-1.24 J0.156
X-207.635 Y-33.467 J46.25
X-207.49 Y-33.342 I0.884 J-0.884
G1 X-203.22 Y-30.215
G2 X-203.095 Y-30.135 I0.739 J-1.009
G1 X-198.535 Y-27.565
G2 X-198.401 Y-27.5 I0.614 J-1.089
G1 X-193.623 Y-25.512
G2 X-193.483 Y-25.463 I0.48 J-1.154
G1 X-188.559 Y-24.072
G2 X-188.414 Y-24.04 I0.34 J-1.203
G1 X-183.418 Y-23.252
G2 X-183.27 Y-23.238 I0.195 J-1.235
G1 X-178.274 Y-23.051
G2 X-178.125 Y-23.054 I0.047 J-1.249
G1 X-173.2 Y-23.457
G2 X-173.053 Y-23.478 I-0.102 J-1.246
G1 X-168.268 Y-24.45
G2 X-168.124 Y-24.489 I-0.249 J-1.225
G1 X-163.545 Y-26.005
G2 X-163.407 Y-26.06 I-0.393 J-1.187
G1 X-159.093 Y-28.084
G2 X-158.962 Y-28.155 I-0.531 J-1.132
G1 X-154.969 Y-30.647
G2 X-154.848 Y-30.733 I-0.662 J-1.06
G1 X-151.225 Y-33.645
G2 X-151.115 Y-33.745 I-0.783 J-0.974
G1 X-147.904 Y-37.025
G2 X-147.806 Y-37.137 I-0.893 J-0.874
G1 X-145.045 Y-40.73
G2 X-144.961 Y-40.853 I-0.991 J-0.762
G1 X-142.676 Y-44.698
G2 X-142.608 Y-44.831 I-1.075 J-0.639
G1 X-140.821 Y-48.867
G2 X-140.769 Y-49.006 I-1.143 J-0.506
G1 X-139.492 Y-53.171
G2 X-139.457 Y-53.316 I-1.195 J-0.366
G1 X-138.696 Y-57.545
G2 X-138.678 Y-57.693 I-1.23 J-0.221
G1 X-138.429 Y-61.925
G2 Y-62.074 I-1.248 J-0.073
G1 X-138.681 Y-66.209
G2 X-149.299 Y-91.803 I-36.25 J0.039
X-149.424 Y-91.912 I-0.884 J0.884
G3 X-149.723 Y-94.155 I0.972 J-1.271
G1 X-148.452 Y-93.183
X-148.327 Y-93.088 Z16.008
X-148.204 Y-92.994 Z16.031
X-148.083 Y-92.901 Z16.069
X-147.966 Y-92.812 Z16.122
X-147.853 Y-92.725 Z16.189
X-147.746 Y-92.643 Z16.27
X-147.646 Y-92.567 Z16.363
X-147.553 Y-92.496 Z16.469
X-147.469 Y-92.432 Z16.585
X-147.395 Y-92.375 Z16.711
X-147.331 Y-92.326 Z16.846
X-147.278 Y-92.286 Z16.988
X-147.236 Y-92.253 Z17.136
X-147.205 Y-92.23 Z17.288
X-147.187 Y-92.216 Z17.443
X-147.181 Y-92.212 Z17.6
G0 Z23
X-108.985 Y-89.514
G1 Z20 F283.3
Z16
G2 X-116.158 Y-32.684 I18.46 J31.198 F850
X-115.985 Y-32.54 I0.884 J-0.884
G1 X-112.595 Y-30.195
G2 X-112.467 Y-30.118 I0.711 J-1.028
G1 X-108.873 Y-28.221
G2 X-108.737 Y-28.16 I0.583 J-1.106
G1 X-104.997 Y-26.727
G2 X-104.855 Y-26.682 I0.447 J-1.167
G1 X-101.028 Y-25.719
G2 X-100.881 Y-25.692 I0.305 J-1.212
G1 X-97.023 Y-25.201
G2 X-96.874 Y-25.191 I0.158 J-1.24
G1 X-93.044 Y-25.165
G2 X-92.895 Y-25.173 I0.008 J-1.25
G1 X-89.148 Y-25.599
G2 X-89 Y-25.625 I-0.141 J-1.242
G1 X-85.387 Y-26.482
G2 X-85.244 Y-26.525 I-0.289 J-1.216
G1 X-81.814 Y-27.789
G2 X-81.677 Y-27.849 I-0.432 J-1.173
G1 X-78.475 Y-29.487
G2 X-78.346 Y-29.564 I-0.569 J-1.113
G1 X-75.412 Y-31.542
G2 X-75.293 Y-31.633 I-0.699 J-1.036
G1 X-72.662 Y-33.91
G2 X-72.554 Y-34.015 I-0.818 J-0.945
G1 X-70.254 Y-36.548
G2 X-70.16 Y-36.665 I-0.925 J-0.84
G1 X-68.214 Y-39.409
G2 X-68.135 Y-39.537 I-1.02 J-0.723
G1 X-66.561 Y-42.443
G2 X-66.497 Y-42.58 I-1.099 J-0.595
G1 X-65.305 Y-45.6
G2 X-65.259 Y-45.743 I-1.163 J-0.459
G1 X-64.454 Y-48.829
G2 X-64.424 Y-48.977 I-1.21 J-0.316
G1 X-64.005 Y-52.079
G2 X-63.994 Y-52.23 I-1.239 J-0.168
G1 X-63.952 Y-55.302
G2 X-63.959 Y-55.453 I-1.25 J-0.017
G1 X-64.275 Y-58.384
G2 X-71.964 Y-76.878 I-26.25 J0.067
X-73.164 Y-77.204 I-0.884 J0.884
G1 X-73.668 Y-77.072
X-74.15 Y-76.958
X-74.622 Y-76.858
X-75.085 Y-76.773
X-75.539 Y-76.701
X-75.984 Y-76.644
X-76.42 Y-76.6
X-76.846 Y-76.57
X-77.263 Y-76.554
X-77.671 Y-76.551
X-78.07 Y-76.562
X-78.46 Y-76.586
X-78.841 Y-76.622
X-79.213 Y-76.672
X-79.577 Y-76.735
X-79.932 Y-76.81
X-80.279 Y-76.898
X-80.618 Y-76.998
X-80.949 Y-77.111
X-81.273 Y-77.237
X-81.59 Y-77.375
X-81.899 Y-77.525
X-82.202 Y-77.689
X-82.499 Y-77.865
X-82.789 Y-78.054
X-83.074 Y-78.256
X-83.352 Y-78.472
X-83.625 Y-78.7
X-83.892 Y-78.943
X-84.154 Y-79.2
X-84.41 Y-79.47
X-84.661 Y-79.755
X-84.906 Y-80.054
X-85.146 Y-80.368
X-85.38 Y-80.696
X-85.609 Y-81.038
X-85.832 Y-81.396
X-86.049 Y-81.767
X-86.26 Y-82.154
X-86.466 Y-82.555
X-86.665 Y-82.97
X-86.859 Y-83.4
X-87.046 Y-83.845
X-87.228 Y-84.303
X-87.403 Y-84.776
X-87.572 Y-85.263
X-87.735 Y-85.764
X-87.889 Y-86.273
X-88.185 Y-87.349
X-88.454 Y-88.472
X-88.698 Y-89.647
X-88.918 Y-90.872
X-89.113 Y-92.145
X-89.286 Y-93.477
G2 X-90.525 Y-94.567 I-1.24 J0.161
X-108.985 Y-89.514 J36.25
G3 X-111.177 Y-90.077 I-0.815 J-1.377
G1 X-109.8 Y-90.891
X-109.665 Y-90.971 Z16.008
X-109.531 Y-91.05 Z16.031
X-109.4 Y-91.128 Z16.069
X-109.273 Y-91.203 Z16.122
X-109.151 Y-91.276 Z16.189
X-109.035 Y-91.344 Z16.27
X-108.926 Y-91.408 Z16.363
X-108.826 Y-91.468 Z16.469
X-108.735 Y-91.521 Z16.585
X-108.655 Y-91.569 Z16.711
X-108.585 Y-91.61 Z16.846
X-108.527 Y-91.644 Z16.988
X-108.482 Y-91.671 Z17.136
X-108.449 Y-91.691 Z17.288
X-108.429 Y-91.702 Z17.443
X-108.423 Y-91.706 Z17.6
G0 Z23
X-84.275 Y-58.317
G1 Z20 F283.3
Z16
G3 X-96.775 I-6.25 F850
X-84.275 I6.25
X-85.875 Y-56.717 I-1.6
G1 Y-58.317
G19 G2 Y-59.917 Z17.6 K1.6
G0 Z23
X-169.843 Y-62.541
G1 Z20 F283.3
Z16
G17 G3 X-180.019 Y-69.801 I-5.088 J-3.63 F850
X-169.339 Y-63.379 I5.088 J3.63
X-171.485 Y-62.662 I-1.432 J-0.715
G1 X-170.771 Y-64.094
X-170.701 Y-64.234 Z16.008
X-170.631 Y-64.373 Z16.031
X-170.563 Y-64.509 Z16.069
X-170.497 Y-64.641 Z16.122
X-170.434 Y-64.768 Z16.189
X-170.374 Y-64.889 Z16.27
X-170.317 Y-65.002 Z16.363
X-170.265 Y-65.106 Z16.469
X-170.218 Y-65.2 Z16.585
X-170.176 Y-65.284 Z16.711
X-170.14 Y-65.356 Z16.846
X-170.11 Y-65.416 Z16.988
X-170.087 Y-65.463 Z17.136
X-170.07 Y-65.498 Z17.288
X-170.059 Y-65.518 Z17.443
X-170.056 Y-65.525 Z17.6
G0 Z33
X-150.78 Y-145.271
Z23
G1 Z20 F283.3
Z4
X-150.786 Y-144.164 F850
X-150.814 Y-142.556
X-150.86 Y-140.935
X-150.923 Y-139.306
X-151 Y-137.671
X-151.091 Y-136.034
X-151.304 Y-132.758
X-151.547 Y-129.507
X-152.072 Y-123.154
X-152.323 Y-120.104
Y-120.097
X-152.548 Y-117.161
G2 X-152.549 Y-117.147 I1.246 J0.096
G1 X-152.734 Y-114.348
G2 X-152.735 Y-114.334 I1.247 J0.082
G1 X-152.808 Y-112.993
G2 X-152.809 Y-112.98 I1.248 J0.068
G1 X-152.866 Y-111.682
G2 Y-111.667 I1.249 J0.055
G1 X-152.906 Y-110.414
G2 X-152.907 Y-110.396 I1.249 J0.04
G1 X-152.928 Y-109.191
G2 Y-109.169 I1.25 J0.022
G1 Y-108.014
G2 Y-107.989 I1.25
G1 X-152.906 Y-106.89
G2 X-152.905 Y-106.857 I1.25 J-0.025
G1 X-152.857 Y-105.815
G2 X-152.854 Y-105.779 I1.249 J-0.058
G1 X-152.78 Y-104.799
G2 X-152.776 Y-104.753 I1.246 J-0.094
G1 X-152.673 Y-103.839
G2 X-152.668 Y-103.798 I1.242 J-0.14
G1 X-152.605 Y-103.367
G2 X-152.6 Y-103.334 I1.237 J-0.181
G1 X-152.528 Y-102.92
G2 X-152.522 Y-102.89 I1.232 J-0.214
G1 X-152.443 Y-102.493
G2 X-152.434 Y-102.452 I1.226 J-0.244
G1 X-152.343 Y-102.064
G2 X-152.331 Y-102.017 I1.217 J-0.285
G1 X-152.227 Y-101.639
G2 X-152.212 Y-101.589 I1.205 J-0.332
G1 X-152.095 Y-101.224
G2 X-152.074 Y-101.164 I1.19 J-0.382
G1 X-151.942 Y-100.815
G2 X-151.915 Y-100.748 I1.169 J-0.442
G1 X-151.822 Y-100.541
G3 X-152.633 Y-98.428 I-1.462 J0.651
G1 X-153.284 Y-99.89
X-153.348 Y-100.033 Z4.008
X-153.411 Y-100.175 Z4.031
X-153.473 Y-100.314 Z4.069
X-153.533 Y-100.449 Z4.122
X-153.591 Y-100.579 Z4.189
X-153.646 Y-100.702 Z4.27
X-153.697 Y-100.817 Z4.363
X-153.744 Y-100.923 Z4.469
X-153.787 Y-101.02 Z4.585
X-153.825 Y-101.105 Z4.711
X-153.858 Y-101.179 Z4.846
X-153.885 Y-101.24 Z4.988
X-153.907 Y-101.288 Z5.136
X-153.922 Y-101.323 Z5.288
X-153.932 Y-101.344 Z5.443
X-153.935 Y-101.351 Z5.6
G0 Z23
X-145.154 Y-99.285
G1 Z20 F283.3
Z4
X-145.15 Y-99.288 F850
X-144.852 Y-99.491
G2 X-144.819 Y-99.514 I-0.704 J-1.033
G1 X-144.534 Y-99.722
G2 X-144.499 Y-99.749 I-0.737 J-1.01
G1 X-143.925 Y-100.2
G2 X-143.883 Y-100.234 I-0.772 J-0.983
G1 X-143.299 Y-100.735
G2 X-143.265 Y-100.765 I-0.814 J-0.949
G1 X-142.672 Y-101.312
G2 X-142.644 Y-101.339 I-0.848 J-0.919
G1 X-142.045 Y-101.927
G2 X-142.022 Y-101.95 I-0.876 J-0.892
G1 X-141.418 Y-102.575
G2 X-141.399 Y-102.596 I-0.899 J-0.869
G1 X-140.792 Y-103.253
G2 X-140.773 Y-103.273 I-0.918 J-0.848
G1 X-140.167 Y-103.959
G2 X-140.153 Y-103.975 I-0.937 J-0.828
G1 X-139.547 Y-104.686
G2 X-139.534 Y-104.701 I-0.951 J-0.812
G1 X-138.932 Y-105.43
G2 X-138.922 Y-105.443 I-0.964 J-0.796
G1 X-138.325 Y-106.186
G2 X-138.314 Y-106.199 I-0.974 J-0.783
G1 X-137.725 Y-106.953
G2 X-137.716 Y-106.965 I-0.985 J-0.77
G1 X-137.136 Y-107.726
G2 X-137.125 Y-107.741 I-0.994 J-0.758
G1 X-136.001 Y-109.261
G2 X-135.988 Y-109.279 I-1.005 J-0.743
G1 X-134.925 Y-110.772
G2 X-134.914 Y-110.787 I-1.018 J-0.725
G1 X-133.928 Y-112.215
G2 X-133.919 Y-112.228 I-1.029 J-0.71
G1 X-133.026 Y-113.557
G2 X-133.019 Y-113.568 I-1.038 J-0.697
G1 X-132.234 Y-114.763
G2 X-132.228 Y-114.772 I-1.045 J-0.686
G1 X-131.568 Y-115.796
G2 X-131.562 Y-115.806 I-1.051 J-0.677
G1 X-130.563 Y-117.39
G2 X-130.556 Y-117.402 I-1.057 J-0.667
G1 X-129.59 Y-118.971
G2 X-129.583 Y-118.982 I-1.064 J-0.655
G1 X-128.6 Y-120.616
G2 X-128.594 Y-120.626 I-1.071 J-0.644
G1 X-127.596 Y-122.321
G2 X-127.589 Y-122.332 I-1.077 J-0.634
G1 X-126.581 Y-124.085
G2 X-126.576 Y-124.095 I-1.084 J-0.623
G1 X-125.557 Y-125.905
G2 X-125.552 Y-125.916 I-1.09 J-0.613
G1 X-124.528 Y-127.779
G2 X-124.522 Y-127.79 I-1.095 J-0.602
G1 X-123.494 Y-129.704
G2 X-123.488 Y-129.714 I-1.101 J-0.591
G1 X-122.459 Y-131.676
G2 X-122.453 Y-131.687 I-1.107 J-0.581
G1 X-121.425 Y-133.695
G2 X-121.419 Y-133.707 I-1.113 J-0.57
G1 X-120.396 Y-135.758
G2 X-120.391 Y-135.77 I-1.119 J-0.558
G1 X-119.375 Y-137.861
G2 X-119.369 Y-137.873 I-1.124 J-0.546
G1 X-118.362 Y-140.002
G2 X-118.356 Y-140.014 I-1.13 J-0.534
G1 X-117.361 Y-142.178
G2 X-117.355 Y-142.191 I-1.136 J-0.522
G1 X-116.375 Y-144.388
G2 X-116.369 Y-144.401 I-1.142 J-0.509
G1 X-115.407 Y-146.628
G2 X-115.402 Y-146.642 I-1.148 J-0.496
G1 X-114.459 Y-148.897
G2 X-114.453 Y-148.911 I-1.153 J-0.482
G1 X-113.532 Y-151.19
G2 X-113.526 Y-151.205 I-1.159 J-0.468
G1 X-112.631 Y-153.506
G2 X-112.625 Y-153.522 I-1.165 J-0.453
G1 X-111.758 Y-155.843
G2 X-111.752 Y-155.859 I-1.171 J-0.437
G1 X-110.915 Y-158.197
G2 X-110.909 Y-158.214 I-1.177 J-0.421
G1 X-110.105 Y-160.566
G2 X-110.099 Y-160.584 I-1.183 J-0.404
G1 X-109.331 Y-162.948
G2 X-109.327 Y-162.962 I-1.189 J-0.386
G1 X-109.146 Y-163.541
G3 X-107.142 Y-164.592 I1.527 J0.477
G1 X-107.619 Y-163.065
X-107.665 Y-162.915 Z4.008
X-107.712 Y-162.767 Z4.031
X-107.757 Y-162.621 Z4.069
X-107.801 Y-162.48 Z4.122
X-107.843 Y-162.345 Z4.189
X-107.883 Y-162.216 Z4.27
X-107.921 Y-162.096 Z4.363
X-107.955 Y-161.985 Z4.469
X-107.987 Y-161.884 Z4.585
X-108.015 Y-161.795 Z4.711
X-108.039 Y-161.718 Z4.846
X-108.059 Y-161.654 Z4.988
X-108.075 Y-161.603 Z5.136
X-108.086 Y-161.567 Z5.288
X-108.093 Y-161.545 Z5.443
X-108.095 Y-161.537 Z5.6
G0 Z23
X-65.668 Y-155.262
G1 Z20 F283.3
Z4
X-65.66 Y-154.83 F850
X-65.651 Y-153.293
X-65.657 Y-151.737
X-65.678 Y-150.164
X-65.712 Y-148.574
X-65.758 Y-146.974
X-65.884 Y-143.736
X-66.046 Y-140.474
X-66.236 Y-137.202
X-66.447 Y-133.936
X-66.668 Y-130.693
X-66.893 Y-127.49
X-67.112 Y-124.345
Y-124.341
X-67.317 Y-121.272
Y-121.265
X-67.498 Y-118.293
G2 X-67.499 Y-118.282 I1.248 J0.076
G1 X-67.646 Y-115.434
G2 X-67.647 Y-115.422 I1.248 J0.065
G1 X-67.704 Y-114.052
X-67.705 Y-114.042
X-67.751 Y-112.713
G2 Y-112.701 I1.249 J0.043
G1 X-67.783 Y-111.417
G2 X-67.784 Y-111.404 I1.25 J0.031
G1 X-67.801 Y-110.167
G2 Y-110.151 I1.25 J0.018
G1 X-67.803 Y-108.965
G2 Y-108.946 I1.25 J0.002
G1 X-67.787 Y-107.814
G2 Y-107.791 I1.25 J-0.017
G1 X-67.753 Y-106.716
G2 X-67.752 Y-106.69 I1.249 J-0.04
G1 X-67.698 Y-105.676
G2 X-67.696 Y-105.644 I1.248 J-0.066
G1 X-67.621 Y-104.689
G2 X-67.617 Y-104.649 I1.246 J-0.098
G1 X-67.513 Y-103.715
G2 X-67.509 Y-103.678 I1.242 J-0.138
G1 X-67.444 Y-103.22
G2 X-67.439 Y-103.19 I1.238 J-0.175
G1 X-67.365 Y-102.743
G2 X-67.358 Y-102.708 I1.233 J-0.205
G1 X-67.274 Y-102.274
G2 X-67.265 Y-102.233 I1.227 J-0.24
G1 X-67.169 Y-101.816
G2 X-67.157 Y-101.769 I1.218 J-0.281
G1 X-67.049 Y-101.372
G2 X-67.033 Y-101.317 I1.206 J-0.328
G1 X-66.911 Y-100.94
G2 X-66.887 Y-100.872 I1.19 J-0.383
G1 X-66.741 Y-100.496
G2 X-66.703 Y-100.407 I1.166 J-0.451
G1 X-66.528 Y-100.041
G2 X-66.485 Y-99.96 I1.127 J-0.54
G1 X-66.385 Y-99.786
G2 X-66.346 Y-99.722 I1.085 J-0.621
G1 X-66.238 Y-99.557
G2 X-66.189 Y-99.487 I1.045 J-0.685
G1 X-66.07 Y-99.33
G2 X-66.004 Y-99.25 I0.996 J-0.755
G1 X-65.872 Y-99.104
G2 X-65.789 Y-99.019 I0.93 J-0.835
G1 X-65.645 Y-98.886
G2 X-65.537 Y-98.798 I0.847 J-0.919
G1 X-65.38 Y-98.682
G2 X-65.249 Y-98.598 I0.74 J-1.008
G1 X-65.08 Y-98.504
G2 X-64.926 Y-98.432 I0.609 J-1.092
G1 X-64.746 Y-98.361
G2 X-64.579 Y-98.309 I0.455 J-1.164
G1 X-64.389 Y-98.264
G2 X-64.22 Y-98.236 I0.288 J-1.216
G1 X-64.028 Y-98.217
G2 X-63.87 Y-98.212 I0.12 J-1.244
G1 X-63.676 Y-98.218
G2 X-63.536 Y-98.23 I-0.038 J-1.249
G1 X-63.342 Y-98.258
G2 X-63.222 Y-98.282 I-0.178 J-1.237
G1 X-63.03 Y-98.329
G2 X-62.929 Y-98.358 I-0.298 J-1.214
G1 X-62.741 Y-98.422
G2 X-62.657 Y-98.453 I-0.399 J-1.184
G1 X-62.473 Y-98.53
G2 X-62.405 Y-98.562 I-0.483 J-1.153
G1 X-62.227 Y-98.649
G2 X-62.146 Y-98.693 I-0.552 J-1.122
G1 X-61.8 Y-98.896
G2 X-61.716 Y-98.95 I-0.634 J-1.078
G1 X-61.372 Y-99.191
G2 X-61.306 Y-99.241 I-0.717 J-1.024
G1 X-60.966 Y-99.514
G2 X-60.92 Y-99.553 I-0.783 J-0.974
G1 X-60.587 Y-99.848
G2 X-60.548 Y-99.884 I-0.829 J-0.935
G1 X-60.225 Y-100.196
G2 X-60.195 Y-100.226 I-0.869 J-0.899
G1 X-59.881 Y-100.551
G2 X-59.856 Y-100.577 I-0.898 J-0.869
G1 X-59.54 Y-100.923
G2 X-59.519 Y-100.947 I-0.923 J-0.843
G1 X-59.202 Y-101.312
G2 X-59.177 Y-101.343 I-0.944 J-0.819
G1 X-58.544 Y-102.121
G2 X-58.517 Y-102.156 I-0.97 J-0.788
G1 X-57.89 Y-102.986
G2 X-57.87 Y-103.014 I-0.998 J-0.753
G1 X-57.255 Y-103.878
G2 X-57.238 Y-103.903 I-1.018 J-0.725
G1 X-56.641 Y-104.786
G2 X-56.628 Y-104.805 I-1.035 J-0.7
G1 X-56.054 Y-105.688
G2 X-56.043 Y-105.706 I-1.048 J-0.681
G1 X-55.499 Y-106.575
G2 X-55.491 Y-106.589 I-1.06 J-0.663
G1 X-54.968 Y-107.449
G2 X-54.96 Y-107.463 I-1.068 J-0.649
G1 X-54.427 Y-108.367
G2 X-54.42 Y-108.378 I-1.077 J-0.635
G1 X-53.875 Y-109.324
G2 X-53.868 Y-109.337 I-1.083 J-0.624
G1 X-53.313 Y-110.327
G2 X-53.307 Y-110.337 I-1.09 J-0.611
G1 X-52.742 Y-111.368
G2 X-52.737 Y-111.378 I-1.096 J-0.601
G1 X-52.163 Y-112.449
G2 X-52.158 Y-112.459 I-1.102 J-0.591
G1 X-51.575 Y-113.569
G2 X-51.57 Y-113.579 I-1.107 J-0.581
G1 X-50.98 Y-114.727
G2 X-50.976 Y-114.736 I-1.112 J-0.571
G1 X-50.379 Y-115.921
X-50.375 Y-115.929
X-49.772 Y-117.148
X-49.768 Y-117.157
X-49.16 Y-118.411
X-49.156 Y-118.419
X-48.544 Y-119.705
X-48.54 Y-119.713
X-47.925 Y-121.031
X-47.921 Y-121.039
X-47.302 Y-122.387
X-47.299 Y-122.395
X-46.678 Y-123.773
X-46.675 Y-123.78
X-46.052 Y-125.185
X-46.049 Y-125.193
X-45.426 Y-126.625
X-45.423 Y-126.632
X-44.801 Y-128.089
X-44.797 Y-128.097
X-44.176 Y-129.579
X-44.173 Y-129.586
X-43.553 Y-131.09
X-43.55 Y-131.097
X-42.933 Y-132.623
X-42.93 Y-132.631
X-42.316 Y-134.178
X-42.313 Y-134.185
X-41.704 Y-135.751
X-41.701 Y-135.759
X-41.096 Y-137.343
X-41.093 Y-137.351
X-40.494 Y-138.952
X-40.491 Y-138.96
X-39.898 Y-140.576
X-39.895 Y-140.584
X-39.31 Y-142.215
X-39.307 Y-142.222
X-38.729 Y-143.865
X-38.726 Y-143.874
X-38.157 Y-145.53
X-38.154 Y-145.538
X-37.595 Y-147.204
X-37.592 Y-147.213
X-37.043 Y-148.889
X-37.04 Y-148.898
X-36.502 Y-150.582
X-36.5 Y-150.591
X-35.974 Y-152.282
X-35.971 Y-152.291
X-35.457 Y-153.987
G2 X-35.454 Y-153.997 I-1.196 J-0.362
G1 X-34.954 Y-155.699
X-34.951 Y-155.708
X-34.465 Y-157.412
G2 X-34.463 Y-157.422 I-1.202 J-0.343
G1 X-33.992 Y-159.128
G2 X-33.989 Y-159.139 I-1.205 J-0.333
G1 X-33.533 Y-160.847
G2 X-33.531 Y-160.858 I-1.208 J-0.322
G1 X-33.092 Y-162.565
G2 X-33.089 Y-162.576 I-1.211 J-0.311
G1 X-32.668 Y-164.281
G2 X-32.665 Y-164.293 I-1.213 J-0.3
G1 X-32.26 Y-166
G2 X-32.257 Y-166.012 I-1.216 J-0.288
G1 X-31.867 Y-167.733
G2 X-31.864 Y-167.745 I-1.219 J-0.276
G1 X-31.49 Y-169.479
G2 X-31.487 Y-169.492 I-1.222 J-0.264
G1 X-31.263 Y-170.589
G3 X-29.375 Y-171.836 I1.568 J0.321
G1 X-29.695 Y-170.269
X-29.727 Y-170.115 Z4.008
X-29.758 Y-169.963 Z4.031
X-29.788 Y-169.814 Z4.069
X-29.818 Y-169.669 Z4.122
X-29.847 Y-169.53 Z4.189
X-29.873 Y-169.398 Z4.27
X-29.899 Y-169.274 Z4.363
X-29.922 Y-169.16 Z4.469
X-29.943 Y-169.057 Z4.585
X-29.962 Y-168.965 Z4.711
X-29.978 Y-168.886 Z4.846
X-29.992 Y-168.82 Z4.988
X-30.002 Y-168.769 Z5.136
X-30.01 Y-168.731 Z5.288
X-30.014 Y-168.709 Z5.443
X-30.016 Y-168.701 Z5.6
G0 Z23
X-89.858 Y-103.054
G1 Z20 F283.3
Z4
X-89.865 Y-103.487 F850
X-89.874 Y-105.024
X-89.868 Y-106.58
X-89.847 Y-108.153
X-89.813 Y-109.743
X-89.767 Y-111.343
X-89.642 Y-114.58
X-89.479 Y-117.842
X-89.289 Y-121.115
X-89.079 Y-124.38
X-88.857 Y-127.624
X-88.633 Y-130.827
X-88.414 Y-133.972
X-88.413 Y-133.976
X-88.209 Y-137.045
X-88.208 Y-137.052
X-88.027 Y-140.024
G2 Y-140.035 I-1.248 J-0.076
G1 X-87.879 Y-142.883
G2 Y-142.895 I-1.248 J-0.065
G1 X-87.821 Y-144.265
X-87.82 Y-144.275
X-87.775 Y-145.603
G2 X-87.774 Y-145.615 I-1.249 J-0.043
G1 X-87.742 Y-146.9
G2 Y-146.913 I-1.25 J-0.031
G1 X-87.724 Y-148.15
G2 Y-148.166 I-1.25 J-0.018
G1 X-87.722 Y-149.352
G2 Y-149.371 I-1.25 J-0.002
G1 X-87.738 Y-150.503
G2 Y-150.526 I-1.25 J0.017
G1 X-87.772 Y-151.601
G2 X-87.774 Y-151.627 I-1.249 J0.04
G1 X-87.827 Y-152.641
G2 X-87.829 Y-152.673 I-1.248 J0.066
G1 X-87.905 Y-153.627
G2 X-87.908 Y-153.667 I-1.246 J0.098
G1 X-88.012 Y-154.602
G2 X-88.017 Y-154.639 I-1.242 J0.138
G1 X-88.081 Y-155.096
G2 X-88.086 Y-155.126 I-1.238 J0.175
G1 X-88.161 Y-155.574
G2 X-88.167 Y-155.609 I-1.233 J0.205
G1 X-88.252 Y-156.042
G2 X-88.26 Y-156.083 I-1.227 J0.24
G1 X-88.356 Y-156.5
G2 X-88.368 Y-156.546 I-1.218 J0.281
G1 X-88.476 Y-156.944
G2 X-88.493 Y-157 I-1.206 J0.327
G1 X-88.614 Y-157.377
G2 X-88.639 Y-157.446 I-1.19 J0.383
G1 X-88.784 Y-157.821
G2 X-88.822 Y-157.909 I-1.165 J0.452
G1 X-88.998 Y-158.275
G2 X-89.04 Y-158.356 I-1.127 J0.54
G1 X-89.14 Y-158.53
G2 X-89.178 Y-158.592 I-1.085 J0.621
G1 X-89.286 Y-158.758
G2 X-89.338 Y-158.832 I-1.047 J0.683
G1 X-89.457 Y-158.988
G2 X-89.52 Y-159.064 I-0.994 J0.757
G1 X-89.651 Y-159.211
G2 X-89.736 Y-159.297 I-0.932 J0.833
G1 X-89.881 Y-159.43
G2 X-89.987 Y-159.518 I-0.847 J0.919
G1 X-90.145 Y-159.634
G2 X-90.278 Y-159.719 I-0.74 J1.007
G1 X-90.447 Y-159.813
G2 X-90.602 Y-159.886 I-0.608 J1.092
G1 X-90.782 Y-159.956
G2 X-90.946 Y-160.007 I-0.452 J1.165
G1 X-91.136 Y-160.052
G2 X-91.302 Y-160.08 I-0.288 J1.216
G1 X-91.494 Y-160.099
G2 X-91.656 Y-160.104 I-0.123 J1.244
G1 X-91.849 Y-160.098
G2 X-91.989 Y-160.086 I0.039 J1.249
G1 X-92.183 Y-160.058
G2 X-92.302 Y-160.035 I0.178 J1.237
G1 X-92.494 Y-159.988
G2 X-92.599 Y-159.958 I0.297 J1.214
G1 X-92.787 Y-159.894
G2 X-92.869 Y-159.863 I0.402 J1.184
G1 X-93.053 Y-159.786
G2 X-93.119 Y-159.755 I0.484 J1.153
G1 X-93.297 Y-159.668
G2 X-93.378 Y-159.624 I0.551 J1.122
G1 X-93.725 Y-159.421
G2 X-93.811 Y-159.366 I0.632 J1.078
G1 X-94.155 Y-159.124
G2 X-94.217 Y-159.077 I0.719 J1.023
G1 X-94.557 Y-158.805
G2 X-94.607 Y-158.763 I0.781 J0.976
G1 X-94.94 Y-158.467
G2 X-94.976 Y-158.433 I0.831 J0.934
G1 X-95.299 Y-158.122
G2 X-95.33 Y-158.092 I0.867 J0.9
G1 X-95.644 Y-157.767
G2 X-95.67 Y-157.74 I0.898 J0.87
G1 X-95.985 Y-157.394
G2 X-96.006 Y-157.37 I0.923 J0.843
G1 X-96.323 Y-157.005
G2 X-96.349 Y-156.974 I0.944 J0.819
G1 X-96.981 Y-156.195
G2 X-97.008 Y-156.161 I0.971 J0.788
G1 X-97.635 Y-155.332
G2 X-97.656 Y-155.302 I0.997 J0.754
G1 X-98.271 Y-154.437
G2 X-98.287 Y-154.414 I1.019 J0.724
G1 X-98.884 Y-153.532
G2 X-98.898 Y-153.511 I1.035 J0.701
G1 X-99.471 Y-152.627
G2 X-99.482 Y-152.611 I1.049 J0.68
G1 X-100.026 Y-151.743
G2 X-100.035 Y-151.727 I1.059 J0.664
G1 X-100.558 Y-150.867
G2 X-100.565 Y-150.853 I1.069 J0.648
G1 X-101.098 Y-149.95
G2 X-101.105 Y-149.938 I1.076 J0.635
G1 X-101.65 Y-148.992
G2 X-101.657 Y-148.98 I1.083 J0.624
G1 X-102.212 Y-147.991
G2 X-102.218 Y-147.98 I1.09 J0.612
G1 X-102.783 Y-146.949
G2 X-102.789 Y-146.938 I1.096 J0.601
G1 X-103.363 Y-145.866
G2 X-103.368 Y-145.856 I1.102 J0.59
G1 X-103.95 Y-144.746
G2 X-103.955 Y-144.737 I1.107 J0.58
G1 X-104.545 Y-143.589
X-104.549 Y-143.581
X-105.146 Y-142.397
G2 X-105.151 Y-142.387 I1.116 J0.563
G1 X-105.753 Y-141.167
X-105.757 Y-141.16
X-106.365 Y-139.907
X-106.369 Y-139.898
X-106.981 Y-138.612
X-106.984 Y-138.604
X-107.6 Y-137.286
X-107.604 Y-137.278
X-108.223 Y-135.929
X-108.226 Y-135.922
X-108.847 Y-134.545
X-108.851 Y-134.537
X-109.473 Y-133.132
X-109.476 Y-133.125
X-110.099 Y-131.693
X-110.103 Y-131.684
X-110.725 Y-130.227
X-110.727 Y-130.22
X-111.349 Y-128.739
X-111.353 Y-128.731
X-111.972 Y-127.227
X-111.975 Y-127.219
X-112.592 Y-125.692
X-112.595 Y-125.685
X-113.209 Y-124.139
X-113.212 Y-124.132
X-113.822 Y-122.566
X-113.825 Y-122.558
X-114.43 Y-120.974
X-114.433 Y-120.966
X-115.032 Y-119.365
X-115.034 Y-119.358
X-115.627 Y-117.742
X-115.631 Y-117.733
X-116.216 Y-116.102
X-116.218 Y-116.095
X-116.796 Y-114.451
X-116.799 Y-114.442
X-117.368 Y-112.787
X-117.371 Y-112.778
X-117.93 Y-111.111
X-117.933 Y-111.103
X-118.482 Y-109.428
X-118.485 Y-109.419
X-119.023 Y-107.735
X-119.026 Y-107.726
X-119.552 Y-106.035
X-119.554 Y-106.026
X-120.068 Y-104.329
G2 X-120.071 Y-104.32 I1.196 J0.362
G1 X-120.571 Y-102.619
G2 X-120.574 Y-102.609 I1.199 J0.353
G1 X-121.06 Y-100.905
G2 X-121.063 Y-100.895 I1.202 J0.343
G1 X-121.534 Y-99.188
G2 X-121.537 Y-99.177 I1.205 J0.333
G1 X-121.992 Y-97.47
G2 X-121.995 Y-97.459 I1.208 J0.322
G1 X-122.434 Y-95.752
G2 X-122.437 Y-95.741 I1.211 J0.311
G1 X-122.858 Y-94.036
G2 X-122.86 Y-94.024 I1.214 J0.3
G1 X-123.265 Y-92.317
G2 X-123.268 Y-92.305 I1.216 J0.289
G1 X-123.658 Y-90.584
G2 X-123.661 Y-90.571 I1.219 J0.276
G1 X-124.035 Y-88.837
G2 X-124.038 Y-88.824 I1.222 J0.263
G1 X-124.262 Y-87.727
G3 X-126.151 Y-86.481 I-1.567 J-0.321
G1 X-125.83 Y-88.049
X-125.798 Y-88.202 Z4.008
X-125.767 Y-88.355 Z4.031
X-125.737 Y-88.504 Z4.069
X-125.707 Y-88.649 Z4.122
X-125.678 Y-88.788 Z4.189
X-125.651 Y-88.92 Z4.27
X-125.626 Y-89.043 Z4.363
X-125.603 Y-89.157 Z4.469
X-125.581 Y-89.26 Z4.585
X-125.563 Y-89.352 Z4.711
X-125.546 Y-89.431 Z4.846
X-125.533 Y-89.497 Z4.988
X-125.522 Y-89.549 Z5.136
X-125.515 Y-89.586 Z5.288
X-125.51 Y-89.609 Z5.443
X-125.509 Y-89.616 Z5.6
G0 Z23
X-174.152 Y-120.9
G1 Z20 F283.3
Z4
X-174.146 Y-122.006 F850
X-174.117 Y-123.615
X-174.072 Y-125.236
X-174.009 Y-126.864
X-173.931 Y-128.5
X-173.84 Y-130.136
X-173.628 Y-133.413
X-173.384 Y-136.664
X-172.86 Y-143.016
X-172.608 Y-146.067
Y-146.074
X-172.383 Y-149.01
G2 X-172.382 Y-149.024 I-1.246 J-0.096
G1 X-172.197 Y-151.822
G2 X-172.196 Y-151.837 I-1.247 J-0.082
G1 X-172.124 Y-153.178
G2 X-172.123 Y-153.189 I-1.248 J-0.067
G1 X-172.065 Y-154.488
G2 Y-154.504 I-1.249 J-0.056
G1 X-172.025 Y-155.757
G2 X-172.024 Y-155.775 I-1.249 J-0.04
G1 X-172.003 Y-156.98
G2 Y-157.002 I-1.25 J-0.022
G1 Y-158.156
G2 Y-158.182 I-1.25
G1 X-172.026 Y-159.282
G2 X-172.027 Y-159.312 I-1.25 J0.026
G1 X-172.074 Y-160.353
G2 X-172.077 Y-160.391 I-1.249 J0.056
G1 X-172.151 Y-161.371
G2 X-172.155 Y-161.418 I-1.246 J0.094
G1 X-172.259 Y-162.333
G2 X-172.264 Y-162.373 I-1.242 J0.141
G1 X-172.327 Y-162.804
G2 X-172.332 Y-162.834 I-1.237 J0.181
G1 X-172.403 Y-163.248
G2 X-172.41 Y-163.284 I-1.232 J0.211
G1 X-172.49 Y-163.681
G2 X-172.498 Y-163.719 I-1.225 J0.247
G1 X-172.589 Y-164.107
G2 X-172.6 Y-164.151 I-1.217 J0.285
G1 X-172.703 Y-164.529
G2 X-172.719 Y-164.582 I-1.206 J0.329
G1 X-172.836 Y-164.947
G2 X-172.857 Y-165.007 I-1.19 J0.382
G1 X-172.989 Y-165.356
G2 X-173.017 Y-165.426 I-1.169 J0.442
G1 X-173.109 Y-165.63
G3 X-172.304 Y-167.744 I1.46 J-0.655
G1 X-171.649 Y-166.285
X-171.585 Y-166.141 Z4.008
X-171.521 Y-166 Z4.031
X-171.459 Y-165.861 Z4.069
X-171.399 Y-165.726 Z4.122
X-171.341 Y-165.596 Z4.189
X-171.285 Y-165.473 Z4.27
X-171.234 Y-165.358 Z4.363
X-171.186 Y-165.252 Z4.469
X-171.143 Y-165.156 Z4.585
X-171.105 Y-165.071 Z4.711
X-171.072 Y-164.997 Z4.846
X-171.044 Y-164.936 Z4.988
X-171.023 Y-164.888 Z5.136
X-171.007 Y-164.853 Z5.288
X-170.998 Y-164.832 Z5.443
X-170.994 Y-164.825 Z5.6
G0 Z23
X-179.777 Y-166.886
G1 Z20 F283.3
Z4
X-179.783 Y-166.881 F850
X-180.081 Y-166.677
G2 X-180.11 Y-166.657 I0.706 J1.031
G1 X-180.395 Y-166.45
G2 X-180.432 Y-166.422 I0.735 J1.011
G1 X-181.006 Y-165.971
G2 X-181.047 Y-165.937 I0.772 J0.983
G1 X-181.632 Y-165.436
G2 X-181.667 Y-165.405 I0.813 J0.949
G1 X-182.259 Y-164.858
G2 X-182.286 Y-164.833 I0.848 J0.918
G1 X-182.886 Y-164.245
G2 X-182.911 Y-164.22 I0.875 J0.893
G1 X-183.514 Y-163.595
G2 X-183.533 Y-163.575 I0.9 J0.868
G1 X-184.14 Y-162.917
G2 X-184.157 Y-162.897 I0.919 J0.848
G1 X-184.764 Y-162.211
G2 X-184.779 Y-162.194 I0.936 J0.828
G1 X-185.384 Y-161.485
G2 X-185.397 Y-161.47 I0.951 J0.811
G1 X-185.999 Y-160.741
G2 X-186.01 Y-160.727 I0.964 J0.796
G1 X-186.607 Y-159.983
G2 X-186.617 Y-159.971 I0.975 J0.782
G1 X-187.206 Y-159.217
G2 X-187.215 Y-159.205 I0.985 J0.77
G1 X-187.795 Y-158.445
G2 X-187.806 Y-158.43 I0.994 J0.758
G1 X-188.93 Y-156.909
G2 X-188.943 Y-156.891 I1.005 J0.743
G1 X-190.006 Y-155.399
G2 X-190.017 Y-155.384 I1.018 J0.725
G1 X-191.003 Y-153.956
G2 X-191.011 Y-153.944 I1.029 J0.71
G1 X-191.905 Y-152.615
G2 X-191.913 Y-152.603 I1.037 J0.698
G1 X-192.697 Y-151.408
G2 X-192.703 Y-151.399 I1.045 J0.686
G1 X-193.363 Y-150.374
G2 X-193.369 Y-150.364 I1.051 J0.677
G1 X-194.368 Y-148.781
G2 X-194.376 Y-148.769 I1.057 J0.667
G1 X-195.342 Y-147.199
G2 X-195.348 Y-147.189 I1.065 J0.655
G1 X-196.331 Y-145.556
G2 X-196.337 Y-145.545 I1.071 J0.645
G1 X-197.335 Y-143.85
G2 X-197.341 Y-143.84 I1.077 J0.634
G1 X-198.35 Y-142.087
G2 X-198.357 Y-142.076 I1.083 J0.624
G1 X-199.374 Y-140.266
G2 X-199.38 Y-140.255 I1.089 J0.613
G1 X-200.404 Y-138.392
G2 X-200.41 Y-138.381 I1.095 J0.602
G1 X-201.438 Y-136.467
G2 X-201.444 Y-136.456 I1.101 J0.591
G1 X-202.472 Y-134.494
G2 X-202.478 Y-134.484 I1.107 J0.58
G1 X-203.506 Y-132.476
G2 X-203.512 Y-132.464 I1.113 J0.57
G1 X-204.535 Y-130.413
G2 X-204.54 Y-130.401 I1.119 J0.558
G1 X-205.556 Y-128.31
G2 X-205.562 Y-128.298 I1.124 J0.546
G1 X-206.569 Y-126.169
G2 X-206.575 Y-126.157 I1.13 J0.534
G1 X-207.57 Y-123.992
G2 X-207.576 Y-123.979 I1.136 J0.522
G1 X-208.556 Y-121.782
G2 X-208.561 Y-121.769 I1.142 J0.509
G1 X-209.524 Y-119.542
G2 X-209.53 Y-119.528 I1.147 J0.496
G1 X-210.473 Y-117.274
G2 X-210.479 Y-117.26 I1.153 J0.482
G1 X-211.399 Y-114.981
G2 X-211.405 Y-114.966 I1.159 J0.468
G1 X-212.3 Y-112.664
G2 X-212.306 Y-112.648 I1.165 J0.453
G1 X-212.949 Y-110.927
G3 X-215.008 Y-109.989 I-1.499 J-0.56
G1 X-214.448 Y-111.487
X-214.393 Y-111.634 Z4.008
X-214.338 Y-111.78 Z4.031
X-214.285 Y-111.922 Z4.069
X-214.233 Y-112.061 Z4.122
X-214.184 Y-112.194 Z4.189
X-214.137 Y-112.32 Z4.27
X-214.092 Y-112.438 Z4.363
X-214.052 Y-112.547 Z4.469
X-214.015 Y-112.646 Z4.585
X-213.982 Y-112.734 Z4.711
X-213.954 Y-112.809 Z4.846
X-213.93 Y-112.872 Z4.988
X-213.912 Y-112.922 Z5.136
X-213.899 Y-112.957 Z5.288
X-213.89 Y-112.979 Z5.443
X-213.888 Y-112.986 Z5.6
G0 Z33
M9
M30
%
