%
(1001)
(z0 botom machine -5-5)
(T1  D=6 CR=0 TAPER=118deg - ZMIN=0 - drill)
G90 G94
G17
G21

(pilot holes)
M9
T1 M6
S4000 M3
G54
M9
G0 X-65 Y-200
Z33
Z23
Z20
G1 Z10.5 F400
G0 Z12.5
G1 Z3 F400
G0 Z5
G1 Z0 F400
G0 Z23
X-150
Z20
G1 Z10.5 F400
G0 Z12.5
G1 Z3 F400
G0 Z5
G1 Z0 F400
G0 Z23
X-220 Y-210
Z20
G1 Z10.5 F400
G0 Z12.5
G1 Z3 F400
G0 Z5
G1 Z0 F400
G0 Z23
X-238.079 Y-112.073
Z20
G1 Z10.5 F400
G0 Z12.5
G1 Z3 F400
G0 Z5
G1 Z0 F400
G0 Z23
X-174.931 Y-66.171
Z20
G1 Z10.5 F400
G0 Z12.5
G1 Z3 F400
G0 Z5
G1 Z0 F400
G0 Z23
X-90.525 Y-58.317
Z20
G1 Z10.5 F400
G0 Z12.5
G1 Z3 F400
G0 Z5
G1 Z0 F400
G0 Z23
Z33
M9
M30
%
