%
(1001)
(z0 botom machine -5-5)
(T1  D=31.75 CR=0 - ZMIN=23 - face mill)
G90 G94
G17
G21

(Face2)
M9
T1 M6
S4000 M3
G54
M9
G0 X34.306 Y-118.035
Z47
Z37
G1 Z33.675 F849.6
G18 G3 X31.131 Z30.5 I-3.175
G1 X15
X-155
G17 G2 Y-87.997 J15.019
G1 X15
G3 Y-57.959 J15.019
G1 X-155
G2 Y-27.921 J15.019
G1 X15
G3 Y2.117 J15.019
G1 X-155
G18 G3 X-158.175 Z33.675 K3.175
G0 Z37
X-174.306 Y-118.035
G1 Z32.175 F849.6
G2 X-171.131 Z29 I3.175
G1 X-155
X15
G17 G3 Y-87.997 J15.019
G1 X-155
G2 Y-57.959 J15.019
G1 X15
G3 Y-27.921 J15.019
G1 X-155
G2 Y2.117 J15.019
G1 X15
G18 G2 X18.175 Z32.175 K3.175
G0 Z37
X34.306 Y-118.035
G1 Z30.675 F849.6
G3 X31.131 Z27.5 I-3.175
G1 X15
X-155
G17 G2 Y-87.997 J15.019
G1 X15
G3 Y-57.959 J15.019
G1 X-155
G2 Y-27.921 J15.019
G1 X15
G3 Y2.117 J15.019
G1 X-155
G18 G3 X-158.175 Z30.675 K3.175
G0 Z37
X-174.306 Y-118.035
G1 Z29.175 F849.6
G2 X-171.131 Z26 I3.175
G1 X-155
X15
G17 G3 Y-87.997 J15.019
G1 X-155
G2 Y-57.959 J15.019
G1 X15
G3 Y-27.921 J15.019
G1 X-155
G2 Y2.117 J15.019
G1 X15
G18 G2 X18.175 Z29.175 K3.175
G0 Z37
X34.306 Y-118.035
G1 Z27.675 F849.6
G3 X31.131 Z24.5 I-3.175
G1 X15
X-155
G17 G2 Y-87.997 J15.019
G1 X15
G3 Y-57.959 J15.019
G1 X-155
G2 Y-27.921 J15.019
G1 X15
G3 Y2.117 J15.019
G1 X-155
G18 G3 X-158.175 Z27.675 K3.175
G0 Z37
X-174.306 Y-118.035
G1 Z26.175 F849.6
G2 X-171.131 Z23 I3.175
G1 X-155
X15
G17 G3 Y-87.997 J15.019
G1 X-155
G2 Y-57.959 J15.019
G1 X15
G3 Y-27.921 J15.019
G1 X-155
G2 Y2.117 J15.019
G1 X15
G18 G2 X18.175 Z26.175 K3.175
G0 Z47
G17
M9
M30
%
