%
(1001)
(origin stock top)
(T1  D=3 CR=0 - ZMIN=-16 - flat end mill)
G90 G94
G17
G21

(2D Contour1)
M9
T1 M6
S12000 M3
G54
M9
G0 X-355.735 Y-506.5
Z15
Z5
G1 Z3 F283.3
Z2.5
X-398.55 Z-2
X-493 F850
G2 X-494.5 Y-505 J1.5
G1 Y-5
G2 X-493 Y-3.5 I1.5
G1 X-298.4
G2 X-296.9 Y-5 J-1.5
G1 Y-15.5
X-8
G2 X-6.5 Y-17 J-1.5
G1 Y-493
G2 X-8 Y-494.5 I-1.5
G1 X-296.9
Y-505
G2 X-298.4 Y-506.5 I-1.5
G1 X-398.55
X-493 Z-2.573 F283.3
G2 X-494.5 Y-505 Z-2.587 J1.5
G1 Y-272.117 Z-4
Y-5 F850
G2 X-493 Y-3.5 I1.5
G1 X-298.4
G2 X-296.9 Y-5 J-1.5
G1 Y-15.5
X-8
G2 X-6.5 Y-17 J-1.5
G1 Y-493
G2 X-8 Y-494.5 I-1.5
G1 X-296.9
Y-505
G2 X-298.4 Y-506.5 I-1.5
G1 X-398.55
X-493
G2 X-494.5 Y-505 J1.5
G1 Y-272.117
Y-5 Z-5.62 F283.3
G2 X-493 Y-3.5 Z-5.635 I1.5
G1 X-432.783 Z-6
X-298.4 F850
G2 X-296.9 Y-5 J-1.5
G1 Y-15.5
X-8
G2 X-6.5 Y-17 J-1.5
G1 Y-493
G2 X-8 Y-494.5 I-1.5
G1 X-296.9
Y-505
G2 X-298.4 Y-506.5 I-1.5
G1 X-493
G2 X-494.5 Y-505 J1.5
G1 Y-5
G2 X-493 Y-3.5 I1.5
G1 X-432.783
X-298.4 Z-6.815 F283.3
G2 X-296.9 Y-5 Z-6.83 J-1.5
G1 Y-15.5 Z-6.893
X-114.45 Z-8
X-8 F850
G2 X-6.5 Y-17 J-1.5
G1 Y-493
G2 X-8 Y-494.5 I-1.5
G1 X-296.9
Y-505
G2 X-298.4 Y-506.5 I-1.5
G1 X-493
G2 X-494.5 Y-505 J1.5
G1 Y-5
G2 X-493 Y-3.5 I1.5
G1 X-298.4
G2 X-296.9 Y-5 J-1.5
G1 Y-15.5
X-114.45
X-8 Z-8.646 F283.3
G2 X-6.5 Y-17 Z-8.66 J-1.5
G1 Y-237.883 Z-10
Y-493 F850
G2 X-8 Y-494.5 I-1.5
G1 X-296.9
Y-505
G2 X-298.4 Y-506.5 I-1.5
G1 X-493
G2 X-494.5 Y-505 J1.5
G1 Y-5
G2 X-493 Y-3.5 I1.5
G1 X-298.4
G2 X-296.9 Y-5 J-1.5
G1 Y-15.5
X-114.45
X-8
G2 X-6.5 Y-17 J-1.5
G1 Y-237.883
Y-493 Z-11.548 F283.3
G2 X-8 Y-494.5 Z-11.562 I-1.5
G1 X-80.217 Z-12
X-296.9 F850
Y-505
G2 X-298.4 Y-506.5 I-1.5
G1 X-493
G2 X-494.5 Y-505 J1.5
G1 Y-5
G2 X-493 Y-3.5 I1.5
G1 X-298.4
G2 X-296.9 Y-5 J-1.5
G1 Y-15.5
X-8
G2 X-6.5 Y-17 J-1.5
G1 Y-493
G2 X-8 Y-494.5 I-1.5
G1 X-80.217
X-296.9 Z-13.314 F283.3
Y-505 Z-13.378
G2 X-298.4 Y-506.5 Z-13.392 I-1.5
G1 X-398.55 Z-14
X-493 F850
G2 X-494.5 Y-505 J1.5
G1 Y-5
G2 X-493 Y-3.5 I1.5
G1 X-298.4
G2 X-296.9 Y-5 J-1.5
G1 Y-15.5
X-8
G2 X-6.5 Y-17 J-1.5
G1 Y-493
G2 X-8 Y-494.5 I-1.5
G1 X-296.9
Y-505
G2 X-298.4 Y-506.5 I-1.5
G1 X-398.55
X-493 Z-14.573 F283.3
G2 X-494.5 Y-505 Z-14.587 J1.5
G1 Y-272.117 Z-16
Y-5 F850
G2 X-493 Y-3.5 I1.5
G1 X-298.4
G2 X-296.9 Y-5 J-1.5
G1 Y-15.5
X-8
G2 X-6.5 Y-17 J-1.5
G1 Y-493
G2 X-8 Y-494.5 I-1.5
G1 X-296.9
Y-505
G2 X-298.4 Y-506.5 I-1.5
G1 X-398.55
X-493
G2 X-494.5 Y-505 J1.5
G1 Y-272.117
G3 X-494.8 Y-271.817 I-0.3
G1 X-495.1
G18 G3 X-495.4 Z-15.7 K0.3
G0 Z5
X-541.915 Y-3.5
G1 Z3 F283.3
Z2.5
X-499.1 Z-2
G17 G2 X-497.6 Y-5 J-1.5 F850
G1 Y-505
G2 X-499.1 Y-506.5 I-1.5
G1 X-789.1
G2 X-790.6 Y-505 J1.5
G1 Y-493
G2 X-789.107 Y-491.5 I1.5
G1 X-786.673 Y-491.489
X-784.268 Y-491.458
X-781.884 Y-491.406
X-779.521 Y-491.331
X-777.18 Y-491.237
X-774.86 Y-491.12
X-772.56 Y-490.984
X-770.283 Y-490.826
X-768.027 Y-490.647
X-765.791 Y-490.448
X-763.578 Y-490.227
X-761.385 Y-489.985
X-759.213 Y-489.723
X-757.062 Y-489.44
X-754.933 Y-489.136
X-752.825 Y-488.811
X-750.736 Y-488.465
X-748.67 Y-488.1
X-746.623 Y-487.714
X-744.598 Y-487.306
X-742.594 Y-486.879
X-740.61 Y-486.431
X-738.647 Y-485.963
X-736.704 Y-485.475
X-734.782 Y-484.965
X-732.88 Y-484.436
X-730.998 Y-483.888
X-729.137 Y-483.318
X-727.296 Y-482.729
X-725.475 Y-482.12
X-723.674 Y-481.492
X-721.893 Y-480.843
X-720.132 Y-480.175
X-718.391 Y-479.487
X-716.668 Y-478.779
X-714.966 Y-478.053
X-713.283 Y-477.306
X-711.62 Y-476.541
X-709.976 Y-475.755
X-708.351 Y-474.951
X-706.745 Y-474.128
X-705.158 Y-473.286
X-703.589 Y-472.424
X-702.039 Y-471.545
X-700.509 Y-470.646
X-698.996 Y-469.729
X-697.503 Y-468.793
X-696.027 Y-467.838
X-694.57 Y-466.865
X-693.131 Y-465.875
X-691.71 Y-464.865
X-690.306 Y-463.837
X-688.92 Y-462.792
X-687.552 Y-461.728
X-686.201 Y-460.647
X-684.869 Y-459.548
X-683.553 Y-458.43
X-682.254 Y-457.295
X-680.973 Y-456.143
X-679.708 Y-454.975
X-678.46 Y-453.787
X-677.229 Y-452.584
X-676.015 Y-451.362
X-674.816 Y-450.124
X-673.635 Y-448.87
X-672.47 Y-447.598
X-671.321 Y-446.31
X-670.187 Y-445.005
X-669.071 Y-443.683
X-667.969 Y-442.345
X-666.883 Y-440.991
X-665.814 Y-439.621
X-664.759 Y-438.235
X-663.72 Y-436.833
X-662.696 Y-435.415
X-661.687 Y-433.982
X-660.694 Y-432.533
X-659.715 Y-431.069
X-658.752 Y-429.589
X-657.802 Y-428.094
X-656.868 Y-426.584
X-655.948 Y-425.059
X-655.042 Y-423.519
X-654.15 Y-421.966
X-653.273 Y-420.397
X-652.41 Y-418.814
X-651.561 Y-417.216
X-650.725 Y-415.604
X-649.904 Y-413.979
X-649.097 Y-412.34
X-648.302 Y-410.687
X-647.521 Y-409.02
X-646.753 Y-407.34
X-645.999 Y-405.647
X-645.259 Y-403.941
X-644.53 Y-402.222
X-643.815 Y-400.49
X-643.113 Y-398.745
X-642.423 Y-396.988
X-641.745 Y-395.218
X-641.082 Y-393.437
X-640.429 Y-391.642
X-639.789 Y-389.837
X-639.162 Y-388.019
X-638.546 Y-386.19
X-637.942 Y-384.349
X-637.351 Y-382.498
X-636.771 Y-380.635
X-636.203 Y-378.76
X-635.647 Y-376.875
X-635.102 Y-374.981
X-634.569 Y-373.075
X-634.047 Y-371.159
X-633.536 Y-369.232
X-633.037 Y-367.296
X-632.548 Y-365.349
X-632.07 Y-363.394
X-631.604 Y-361.428
X-631.149 Y-359.454
X-630.704 Y-357.47
X-630.269 Y-355.477
X-629.845 Y-353.475
X-629.431 Y-351.465
X-629.029 Y-349.447
X-628.636 Y-347.42
X-628.254 Y-345.385
X-627.881 Y-343.341
X-627.519 Y-341.291
X-627.167 Y-339.232
X-626.824 Y-337.167
X-626.493 Y-335.093
X-626.17 Y-333.014
X-625.857 Y-330.926
X-625.554 Y-328.833
X-625.26 Y-326.733
X-624.976 Y-324.626
X-624.701 Y-322.513
X-624.436 Y-320.397
X-623.933 Y-316.14
X-623.467 Y-311.864
X-623.038 Y-307.568
X-622.644 Y-303.253
X-622.286 Y-298.921
X-621.963 Y-294.574
X-621.676 Y-290.212
X-621.423 Y-285.838
X-621.203 Y-281.453
X-621.019 Y-277.059
X-620.867 Y-272.656
X-620.751 Y-268.248
X-620.667 Y-263.834
X-620.617 Y-259.418
X-620.6 Y-255
X-620.617 Y-250.582
X-620.667 Y-246.166
X-620.751 Y-241.752
X-620.867 Y-237.344
X-621.019 Y-232.941
X-621.203 Y-228.547
X-621.423 Y-224.162
X-621.676 Y-219.788
X-621.963 Y-215.426
X-622.286 Y-211.079
X-622.644 Y-206.747
X-623.038 Y-202.432
X-623.467 Y-198.136
X-623.933 Y-193.86
X-624.436 Y-189.603
X-624.701 Y-187.487
X-624.976 Y-185.374
X-625.26 Y-183.267
X-625.554 Y-181.167
X-625.857 Y-179.074
X-626.17 Y-176.986
X-626.493 Y-174.907
X-626.824 Y-172.833
X-627.167 Y-170.768
X-627.519 Y-168.709
X-627.881 Y-166.659
X-628.254 Y-164.615
X-628.636 Y-162.58
X-629.029 Y-160.553
X-629.431 Y-158.535
X-629.845 Y-156.525
X-630.269 Y-154.523
X-630.704 Y-152.53
X-631.149 Y-150.546
X-631.604 Y-148.572
X-632.07 Y-146.606
X-632.548 Y-144.651
X-633.037 Y-142.704
X-633.536 Y-140.768
X-634.047 Y-138.841
X-634.569 Y-136.925
X-635.102 Y-135.019
X-635.647 Y-133.125
X-636.203 Y-131.24
X-636.771 Y-129.365
X-637.351 Y-127.502
X-637.942 Y-125.651
X-638.546 Y-123.81
X-639.162 Y-121.981
X-639.789 Y-120.163
X-640.429 Y-118.358
X-641.082 Y-116.563
X-641.745 Y-114.782
X-642.423 Y-113.012
X-643.113 Y-111.255
X-643.815 Y-109.51
X-644.53 Y-107.778
X-645.259 Y-106.059
X-645.999 Y-104.353
X-646.753 Y-102.66
X-647.521 Y-100.98
X-648.302 Y-99.313
X-649.097 Y-97.66
X-649.904 Y-96.02
X-650.725 Y-94.395
X-651.561 Y-92.784
X-652.41 Y-91.186
X-653.273 Y-89.603
X-654.15 Y-88.035
X-655.042 Y-86.48
X-655.948 Y-84.941
X-656.868 Y-83.416
X-657.802 Y-81.906
X-658.752 Y-80.411
X-659.715 Y-78.931
X-660.694 Y-77.467
X-661.687 Y-76.018
X-662.696 Y-74.585
X-663.72 Y-73.167
X-664.759 Y-71.765
X-665.814 Y-70.378
X-666.883 Y-69.008
X-667.969 Y-67.655
X-669.071 Y-66.317
X-670.187 Y-64.995
X-671.321 Y-63.69
X-672.47 Y-62.402
X-673.635 Y-61.13
X-674.816 Y-59.875
X-676.015 Y-58.637
X-677.229 Y-57.416
X-678.46 Y-56.212
X-679.708 Y-55.026
X-680.973 Y-53.856
X-682.254 Y-52.704
X-683.553 Y-51.57
X-684.869 Y-50.453
X-686.201 Y-49.353
X-687.552 Y-48.272
X-688.92 Y-47.208
X-690.306 Y-46.163
X-691.709 Y-45.135
X-693.131 Y-44.126
X-694.57 Y-43.134
X-696.027 Y-42.162
X-697.503 Y-41.207
X-698.996 Y-40.271
X-700.509 Y-39.354
X-702.039 Y-38.455
X-703.589 Y-37.575
X-705.158 Y-36.714
X-706.745 Y-35.872
X-708.351 Y-35.049
X-709.976 Y-34.245
X-711.62 Y-33.46
X-713.283 Y-32.694
X-714.966 Y-31.948
X-716.668 Y-31.221
X-718.391 Y-30.513
X-720.132 Y-29.825
X-721.893 Y-29.157
X-723.674 Y-28.508
X-725.475 Y-27.88
X-727.297 Y-27.271
X-729.137 Y-26.681
X-730.998 Y-26.112
X-732.88 Y-25.563
X-734.782 Y-25.034
X-736.704 Y-24.526
X-738.647 Y-24.037
X-740.61 Y-23.569
X-742.594 Y-23.121
X-744.598 Y-22.693
X-746.623 Y-22.287
X-748.67 Y-21.9
X-750.736 Y-21.534
X-752.824 Y-21.189
X-754.933 Y-20.864
X-757.062 Y-20.56
X-759.213 Y-20.277
X-761.385 Y-20.015
X-763.578 Y-19.773
X-765.791 Y-19.553
X-768.027 Y-19.353
X-770.283 Y-19.174
X-772.56 Y-19.016
X-774.86 Y-18.879
X-777.18 Y-18.763
X-779.521 Y-18.669
X-781.884 Y-18.595
X-784.268 Y-18.542
X-786.673 Y-18.511
X-789.107 Y-18.5
G2 X-790.6 Y-17 I0.007 J1.5
G1 Y-5
G2 X-789.1 Y-3.5 I1.5
G1 X-499.1
G2 X-497.6 Y-5 Z-2.016 J-1.5 F283.3
G1 Y-299.723 Z-4
Y-505 F850
G2 X-499.1 Y-506.5 I-1.5
G1 X-789.1
G2 X-790.6 Y-505 J1.5
G1 Y-493
G2 X-789.107 Y-491.5 I1.5
G1 X-786.673 Y-491.489
X-784.268 Y-491.458
X-781.884 Y-491.406
X-779.521 Y-491.331
X-777.18 Y-491.237
X-774.86 Y-491.12
X-772.56 Y-490.984
X-770.283 Y-490.826
X-768.027 Y-490.647
X-765.791 Y-490.448
X-763.578 Y-490.227
X-761.385 Y-489.985
X-759.213 Y-489.723
X-757.062 Y-489.44
X-754.933 Y-489.136
X-752.825 Y-488.811
X-750.736 Y-488.465
X-748.67 Y-488.1
X-746.623 Y-487.714
X-744.598 Y-487.306
X-742.594 Y-486.879
X-740.61 Y-486.431
X-738.647 Y-485.963
X-736.704 Y-485.475
X-734.782 Y-484.965
X-732.88 Y-484.436
X-730.998 Y-483.888
X-729.137 Y-483.318
X-727.296 Y-482.729
X-725.475 Y-482.12
X-723.674 Y-481.492
X-721.893 Y-480.843
X-720.132 Y-480.175
X-718.391 Y-479.487
X-716.668 Y-478.779
X-714.966 Y-478.053
X-713.283 Y-477.306
X-711.62 Y-476.541
X-709.976 Y-475.755
X-708.351 Y-474.951
X-706.745 Y-474.128
X-705.158 Y-473.286
X-703.589 Y-472.424
X-702.039 Y-471.545
X-700.509 Y-470.646
X-698.996 Y-469.729
X-697.503 Y-468.793
X-696.027 Y-467.838
X-694.57 Y-466.865
X-693.131 Y-465.875
X-691.71 Y-464.865
X-690.306 Y-463.837
X-688.92 Y-462.792
X-687.552 Y-461.728
X-686.201 Y-460.647
X-684.869 Y-459.548
X-683.553 Y-458.43
X-682.254 Y-457.295
X-680.973 Y-456.143
X-679.708 Y-454.975
X-678.46 Y-453.787
X-677.229 Y-452.584
X-676.015 Y-451.362
X-674.816 Y-450.124
X-673.635 Y-448.87
X-672.47 Y-447.598
X-671.321 Y-446.31
X-670.187 Y-445.005
X-669.071 Y-443.683
X-667.969 Y-442.345
X-666.883 Y-440.991
X-665.814 Y-439.621
X-664.759 Y-438.235
X-663.72 Y-436.833
X-662.696 Y-435.415
X-661.687 Y-433.982
X-660.694 Y-432.533
X-659.715 Y-431.069
X-658.752 Y-429.589
X-657.802 Y-428.094
X-656.868 Y-426.584
X-655.948 Y-425.059
X-655.042 Y-423.519
X-654.15 Y-421.966
X-653.273 Y-420.397
X-652.41 Y-418.814
X-651.561 Y-417.216
X-650.725 Y-415.604
X-649.904 Y-413.979
X-649.097 Y-412.34
X-648.302 Y-410.687
X-647.521 Y-409.02
X-646.753 Y-407.34
X-645.999 Y-405.647
X-645.259 Y-403.941
X-644.53 Y-402.222
X-643.815 Y-400.49
X-643.113 Y-398.745
X-642.423 Y-396.988
X-641.745 Y-395.218
X-641.082 Y-393.437
X-640.429 Y-391.642
X-639.789 Y-389.837
X-639.162 Y-388.019
X-638.546 Y-386.19
X-637.942 Y-384.349
X-637.351 Y-382.498
X-636.771 Y-380.635
X-636.203 Y-378.76
X-635.647 Y-376.875
X-635.102 Y-374.981
X-634.569 Y-373.075
X-634.047 Y-371.159
X-633.536 Y-369.232
X-633.037 Y-367.296
X-632.548 Y-365.349
X-632.07 Y-363.394
X-631.604 Y-361.428
X-631.149 Y-359.454
X-630.704 Y-357.47
X-630.269 Y-355.477
X-629.845 Y-353.475
X-629.431 Y-351.465
X-629.029 Y-349.447
X-628.636 Y-347.42
X-628.254 Y-345.385
X-627.881 Y-343.341
X-627.519 Y-341.291
X-627.167 Y-339.232
X-626.824 Y-337.167
X-626.493 Y-335.093
X-626.17 Y-333.014
X-625.857 Y-330.926
X-625.554 Y-328.833
X-625.26 Y-326.733
X-624.976 Y-324.626
X-624.701 Y-322.513
X-624.436 Y-320.397
X-623.933 Y-316.14
X-623.467 Y-311.864
X-623.038 Y-307.568
X-622.644 Y-303.253
X-622.286 Y-298.921
X-621.963 Y-294.574
X-621.676 Y-290.212
X-621.423 Y-285.838
X-621.203 Y-281.453
X-621.019 Y-277.059
X-620.867 Y-272.656
X-620.751 Y-268.248
X-620.667 Y-263.834
X-620.617 Y-259.418
X-620.6 Y-255
X-620.617 Y-250.582
X-620.667 Y-246.166
X-620.751 Y-241.752
X-620.867 Y-237.344
X-621.019 Y-232.941
X-621.203 Y-228.547
X-621.423 Y-224.162
X-621.676 Y-219.788
X-621.963 Y-215.426
X-622.286 Y-211.079
X-622.644 Y-206.747
X-623.038 Y-202.432
X-623.467 Y-198.136
X-623.933 Y-193.86
X-624.436 Y-189.603
X-624.701 Y-187.487
X-624.976 Y-185.374
X-625.26 Y-183.267
X-625.554 Y-181.167
X-625.857 Y-179.074
X-626.17 Y-176.986
X-626.493 Y-174.907
X-626.824 Y-172.833
X-627.167 Y-170.768
X-627.519 Y-168.709
X-627.881 Y-166.659
X-628.254 Y-164.615
X-628.636 Y-162.58
X-629.029 Y-160.553
X-629.431 Y-158.535
X-629.845 Y-156.525
X-630.269 Y-154.523
X-630.704 Y-152.53
X-631.149 Y-150.546
X-631.604 Y-148.572
X-632.07 Y-146.606
X-632.548 Y-144.651
X-633.037 Y-142.704
X-633.536 Y-140.768
X-634.047 Y-138.841
X-634.569 Y-136.925
X-635.102 Y-135.019
X-635.647 Y-133.125
X-636.203 Y-131.24
X-636.771 Y-129.365
X-637.351 Y-127.502
X-637.942 Y-125.651
X-638.546 Y-123.81
X-639.162 Y-121.981
X-639.789 Y-120.163
X-640.429 Y-118.358
X-641.082 Y-116.563
X-641.745 Y-114.782
X-642.423 Y-113.012
X-643.113 Y-111.255
X-643.815 Y-109.51
X-644.53 Y-107.778
X-645.259 Y-106.059
X-645.999 Y-104.353
X-646.753 Y-102.66
X-647.521 Y-100.98
X-648.302 Y-99.313
X-649.097 Y-97.66
X-649.904 Y-96.02
X-650.725 Y-94.395
X-651.561 Y-92.784
X-652.41 Y-91.186
X-653.273 Y-89.603
X-654.15 Y-88.035
X-655.042 Y-86.48
X-655.948 Y-84.941
X-656.868 Y-83.416
X-657.802 Y-81.906
X-658.752 Y-80.411
X-659.715 Y-78.931
X-660.694 Y-77.467
X-661.687 Y-76.018
X-662.696 Y-74.585
X-663.72 Y-73.167
X-664.759 Y-71.765
X-665.814 Y-70.378
X-666.883 Y-69.008
X-667.969 Y-67.655
X-669.071 Y-66.317
X-670.187 Y-64.995
X-671.321 Y-63.69
X-672.47 Y-62.402
X-673.635 Y-61.13
X-674.816 Y-59.875
X-676.015 Y-58.637
X-677.229 Y-57.416
X-678.46 Y-56.212
X-679.708 Y-55.026
X-680.973 Y-53.856
X-682.254 Y-52.704
X-683.553 Y-51.57
X-684.869 Y-50.453
X-686.201 Y-49.353
X-687.552 Y-48.272
X-688.92 Y-47.208
X-690.306 Y-46.163
X-691.709 Y-45.135
X-693.131 Y-44.126
X-694.57 Y-43.134
X-696.027 Y-42.162
X-697.503 Y-41.207
X-698.996 Y-40.271
X-700.509 Y-39.354
X-702.039 Y-38.455
X-703.589 Y-37.575
X-705.158 Y-36.714
X-706.745 Y-35.872
X-708.351 Y-35.049
X-709.976 Y-34.245
X-711.62 Y-33.46
X-713.283 Y-32.694
X-714.966 Y-31.948
X-716.668 Y-31.221
X-718.391 Y-30.513
X-720.132 Y-29.825
X-721.893 Y-29.157
X-723.674 Y-28.508
X-725.475 Y-27.88
X-727.297 Y-27.271
X-729.137 Y-26.681
X-730.998 Y-26.112
X-732.88 Y-25.563
X-734.782 Y-25.034
X-736.704 Y-24.526
X-738.647 Y-24.037
X-740.61 Y-23.569
X-742.594 Y-23.121
X-744.598 Y-22.693
X-746.623 Y-22.287
X-748.67 Y-21.9
X-750.736 Y-21.534
X-752.824 Y-21.189
X-754.933 Y-20.864
X-757.062 Y-20.56
X-759.213 Y-20.277
X-761.385 Y-20.015
X-763.578 Y-19.773
X-765.791 Y-19.553
X-768.027 Y-19.353
X-770.283 Y-19.174
X-772.56 Y-19.016
X-774.86 Y-18.879
X-777.18 Y-18.763
X-779.521 Y-18.669
X-781.884 Y-18.595
X-784.268 Y-18.542
X-786.673 Y-18.511
X-789.107 Y-18.5
G2 X-790.6 Y-17 I0.007 J1.5
G1 Y-5
G2 X-789.1 Y-3.5 I1.5
G1 X-499.1
G2 X-497.6 Y-5 J-1.5
G1 Y-299.723
Y-505 Z-5.382 F283.3
G2 X-499.1 Y-506.5 Z-5.398 I-1.5
G1 X-588.547 Z-6
X-789.1 F850
G2 X-790.6 Y-505 J1.5
G1 Y-493
G2 X-789.107 Y-491.5 I1.5
G1 X-786.673 Y-491.489
X-784.268 Y-491.458
X-781.884 Y-491.406
X-779.521 Y-491.331
X-777.18 Y-491.237
X-774.86 Y-491.12
X-772.56 Y-490.984
X-770.283 Y-490.826
X-768.027 Y-490.647
X-765.791 Y-490.448
X-763.578 Y-490.227
X-761.385 Y-489.985
X-759.213 Y-489.723
X-757.062 Y-489.44
X-754.933 Y-489.136
X-752.825 Y-488.811
X-750.736 Y-488.465
X-748.67 Y-488.1
X-746.623 Y-487.714
X-744.598 Y-487.306
X-742.594 Y-486.879
X-740.61 Y-486.431
X-738.647 Y-485.963
X-736.704 Y-485.475
X-734.782 Y-484.965
X-732.88 Y-484.436
X-730.998 Y-483.888
X-729.137 Y-483.318
X-727.296 Y-482.729
X-725.475 Y-482.12
X-723.674 Y-481.492
X-721.893 Y-480.843
X-720.132 Y-480.175
X-718.391 Y-479.487
X-716.668 Y-478.779
X-714.966 Y-478.053
X-713.283 Y-477.306
X-711.62 Y-476.541
X-709.976 Y-475.755
X-708.351 Y-474.951
X-706.745 Y-474.128
X-705.158 Y-473.286
X-703.589 Y-472.424
X-702.039 Y-471.545
X-700.509 Y-470.646
X-698.996 Y-469.729
X-697.503 Y-468.793
X-696.027 Y-467.838
X-694.57 Y-466.865
X-693.131 Y-465.875
X-691.71 Y-464.865
X-690.306 Y-463.837
X-688.92 Y-462.792
X-687.552 Y-461.728
X-686.201 Y-460.647
X-684.869 Y-459.548
X-683.553 Y-458.43
X-682.254 Y-457.295
X-680.973 Y-456.143
X-679.708 Y-454.975
X-678.46 Y-453.787
X-677.229 Y-452.584
X-676.015 Y-451.362
X-674.816 Y-450.124
X-673.635 Y-448.87
X-672.47 Y-447.598
X-671.321 Y-446.31
X-670.187 Y-445.005
X-669.071 Y-443.683
X-667.969 Y-442.345
X-666.883 Y-440.991
X-665.814 Y-439.621
X-664.759 Y-438.235
X-663.72 Y-436.833
X-662.696 Y-435.415
X-661.687 Y-433.982
X-660.694 Y-432.533
X-659.715 Y-431.069
X-658.752 Y-429.589
X-657.802 Y-428.094
X-656.868 Y-426.584
X-655.948 Y-425.059
X-655.042 Y-423.519
X-654.15 Y-421.966
X-653.273 Y-420.397
X-652.41 Y-418.814
X-651.561 Y-417.216
X-650.725 Y-415.604
X-649.904 Y-413.979
X-649.097 Y-412.34
X-648.302 Y-410.687
X-647.521 Y-409.02
X-646.753 Y-407.34
X-645.999 Y-405.647
X-645.259 Y-403.941
X-644.53 Y-402.222
X-643.815 Y-400.49
X-643.113 Y-398.745
X-642.423 Y-396.988
X-641.745 Y-395.218
X-641.082 Y-393.437
X-640.429 Y-391.642
X-639.789 Y-389.837
X-639.162 Y-388.019
X-638.546 Y-386.19
X-637.942 Y-384.349
X-637.351 Y-382.498
X-636.771 Y-380.635
X-636.203 Y-378.76
X-635.647 Y-376.875
X-635.102 Y-374.981
X-634.569 Y-373.075
X-634.047 Y-371.159
X-633.536 Y-369.232
X-633.037 Y-367.296
X-632.548 Y-365.349
X-632.07 Y-363.394
X-631.604 Y-361.428
X-631.149 Y-359.454
X-630.704 Y-357.47
X-630.269 Y-355.477
X-629.845 Y-353.475
X-629.431 Y-351.465
X-629.029 Y-349.447
X-628.636 Y-347.42
X-628.254 Y-345.385
X-627.881 Y-343.341
X-627.519 Y-341.291
X-627.167 Y-339.232
X-626.824 Y-337.167
X-626.493 Y-335.093
X-626.17 Y-333.014
X-625.857 Y-330.926
X-625.554 Y-328.833
X-625.26 Y-326.733
X-624.976 Y-324.626
X-624.701 Y-322.513
X-624.436 Y-320.397
X-623.933 Y-316.14
X-623.467 Y-311.864
X-623.038 Y-307.568
X-622.644 Y-303.253
X-622.286 Y-298.921
X-621.963 Y-294.574
X-621.676 Y-290.212
X-621.423 Y-285.838
X-621.203 Y-281.453
X-621.019 Y-277.059
X-620.867 Y-272.656
X-620.751 Y-268.248
X-620.667 Y-263.834
X-620.617 Y-259.418
X-620.6 Y-255
X-620.617 Y-250.582
X-620.667 Y-246.166
X-620.751 Y-241.752
X-620.867 Y-237.344
X-621.019 Y-232.941
X-621.203 Y-228.547
X-621.423 Y-224.162
X-621.676 Y-219.788
X-621.963 Y-215.426
X-622.286 Y-211.079
X-622.644 Y-206.747
X-623.038 Y-202.432
X-623.467 Y-198.136
X-623.933 Y-193.86
X-624.436 Y-189.603
X-624.701 Y-187.487
X-624.976 Y-185.374
X-625.26 Y-183.267
X-625.554 Y-181.167
X-625.857 Y-179.074
X-626.17 Y-176.986
X-626.493 Y-174.907
X-626.824 Y-172.833
X-627.167 Y-170.768
X-627.519 Y-168.709
X-627.881 Y-166.659
X-628.254 Y-164.615
X-628.636 Y-162.58
X-629.029 Y-160.553
X-629.431 Y-158.535
X-629.845 Y-156.525
X-630.269 Y-154.523
X-630.704 Y-152.53
X-631.149 Y-150.546
X-631.604 Y-148.572
X-632.07 Y-146.606
X-632.548 Y-144.651
X-633.037 Y-142.704
X-633.536 Y-140.768
X-634.047 Y-138.841
X-634.569 Y-136.925
X-635.102 Y-135.019
X-635.647 Y-133.125
X-636.203 Y-131.24
X-636.771 Y-129.365
X-637.351 Y-127.502
X-637.942 Y-125.651
X-638.546 Y-123.81
X-639.162 Y-121.981
X-639.789 Y-120.163
X-640.429 Y-118.358
X-641.082 Y-116.563
X-641.745 Y-114.782
X-642.423 Y-113.012
X-643.113 Y-111.255
X-643.815 Y-109.51
X-644.53 Y-107.778
X-645.259 Y-106.059
X-645.999 Y-104.353
X-646.753 Y-102.66
X-647.521 Y-100.98
X-648.302 Y-99.313
X-649.097 Y-97.66
X-649.904 Y-96.02
X-650.725 Y-94.395
X-651.561 Y-92.784
X-652.41 Y-91.186
X-653.273 Y-89.603
X-654.15 Y-88.035
X-655.042 Y-86.48
X-655.948 Y-84.941
X-656.868 Y-83.416
X-657.802 Y-81.906
X-658.752 Y-80.411
X-659.715 Y-78.931
X-660.694 Y-77.467
X-661.687 Y-76.018
X-662.696 Y-74.585
X-663.72 Y-73.167
X-664.759 Y-71.765
X-665.814 Y-70.378
X-666.883 Y-69.008
X-667.969 Y-67.655
X-669.071 Y-66.317
X-670.187 Y-64.995
X-671.321 Y-63.69
X-672.47 Y-62.402
X-673.635 Y-61.13
X-674.816 Y-59.875
X-676.015 Y-58.637
X-677.229 Y-57.416
X-678.46 Y-56.212
X-679.708 Y-55.026
X-680.973 Y-53.856
X-682.254 Y-52.704
X-683.553 Y-51.57
X-684.869 Y-50.453
X-686.201 Y-49.353
X-687.552 Y-48.272
X-688.92 Y-47.208
X-690.306 Y-46.163
X-691.709 Y-45.135
X-693.131 Y-44.126
X-694.57 Y-43.134
X-696.027 Y-42.162
X-697.503 Y-41.207
X-698.996 Y-40.271
X-700.509 Y-39.354
X-702.039 Y-38.455
X-703.589 Y-37.575
X-705.158 Y-36.714
X-706.745 Y-35.872
X-708.351 Y-35.049
X-709.976 Y-34.245
X-711.62 Y-33.46
X-713.283 Y-32.694
X-714.966 Y-31.948
X-716.668 Y-31.221
X-718.391 Y-30.513
X-720.132 Y-29.825
X-721.893 Y-29.157
X-723.674 Y-28.508
X-725.475 Y-27.88
X-727.297 Y-27.271
X-729.137 Y-26.681
X-730.998 Y-26.112
X-732.88 Y-25.563
X-734.782 Y-25.034
X-736.704 Y-24.526
X-738.647 Y-24.037
X-740.61 Y-23.569
X-742.594 Y-23.121
X-744.598 Y-22.693
X-746.623 Y-22.287
X-748.67 Y-21.9
X-750.736 Y-21.534
X-752.824 Y-21.189
X-754.933 Y-20.864
X-757.062 Y-20.56
X-759.213 Y-20.277
X-761.385 Y-20.015
X-763.578 Y-19.773
X-765.791 Y-19.553
X-768.027 Y-19.353
X-770.283 Y-19.174
X-772.56 Y-19.016
X-774.86 Y-18.879
X-777.18 Y-18.763
X-779.521 Y-18.669
X-781.884 Y-18.595
X-784.268 Y-18.542
X-786.673 Y-18.511
X-789.107 Y-18.5
G2 X-790.6 Y-17 I0.007 J1.5
G1 Y-5
G2 X-789.1 Y-3.5 I1.5
G1 X-499.1
G2 X-497.6 Y-5 J-1.5
G1 Y-299.723
Y-505
G2 X-499.1 Y-506.5 I-1.5
G1 X-588.547
X-789.1 Z-7.35 F283.3
G2 X-790.6 Y-505 Z-7.366 J1.5
G1 Y-493 Z-7.447
G2 X-789.107 Y-491.5 Z-7.463 I1.5
G1 X-786.673 Y-491.489 Z-7.479
X-784.268 Y-491.458 Z-7.495
X-781.884 Y-491.406 Z-7.511
X-779.521 Y-491.331 Z-7.527
X-777.18 Y-491.237 Z-7.543
X-774.86 Y-491.12 Z-7.559
X-772.56 Y-490.984 Z-7.574
X-770.283 Y-490.826 Z-7.589
X-768.027 Y-490.647 Z-7.605
X-765.791 Y-490.448 Z-7.62
X-763.578 Y-490.227 Z-7.635
X-761.385 Y-489.985 Z-7.65
X-759.213 Y-489.723 Z-7.664
X-757.062 Y-489.44 Z-7.679
X-754.933 Y-489.136 Z-7.693
X-752.825 Y-488.811 Z-7.708
X-750.736 Y-488.465 Z-7.722
X-748.67 Y-488.1 Z-7.736
X-746.623 Y-487.714 Z-7.75
X-744.598 Y-487.306 Z-7.764
X-742.594 Y-486.879 Z-7.778
X-740.61 Y-486.431 Z-7.792
X-738.647 Y-485.963 Z-7.805
X-736.704 Y-485.475 Z-7.819
X-734.782 Y-484.965 Z-7.832
X-732.88 Y-484.436 Z-7.845
X-730.998 Y-483.888 Z-7.859
X-729.137 Y-483.318 Z-7.872
X-727.296 Y-482.729 Z-7.885
X-725.475 Y-482.12 Z-7.898
X-723.674 Y-481.492 Z-7.91
X-721.893 Y-480.843 Z-7.923
X-720.132 Y-480.175 Z-7.936
X-718.391 Y-479.487 Z-7.948
X-716.668 Y-478.779 Z-7.961
X-714.966 Y-478.053 Z-7.973
X-713.283 Y-477.306 Z-7.986
X-711.62 Y-476.541 Z-7.998
X-711.379 Y-476.426 Z-8
X-709.976 Y-475.755 F850
X-708.351 Y-474.951
X-706.745 Y-474.128
X-705.158 Y-473.286
X-703.589 Y-472.424
X-702.039 Y-471.545
X-700.509 Y-470.646
X-698.996 Y-469.729
X-697.503 Y-468.793
X-696.027 Y-467.838
X-694.57 Y-466.865
X-693.131 Y-465.875
X-691.71 Y-464.865
X-690.306 Y-463.837
X-688.92 Y-462.792
X-687.552 Y-461.728
X-686.201 Y-460.647
X-684.869 Y-459.548
X-683.553 Y-458.43
X-682.254 Y-457.295
X-680.973 Y-456.143
X-679.708 Y-454.975
X-678.46 Y-453.787
X-677.229 Y-452.584
X-676.015 Y-451.362
X-674.816 Y-450.124
X-673.635 Y-448.87
X-672.47 Y-447.598
X-671.321 Y-446.31
X-670.187 Y-445.005
X-669.071 Y-443.683
X-667.969 Y-442.345
X-666.883 Y-440.991
X-665.814 Y-439.621
X-664.759 Y-438.235
X-663.72 Y-436.833
X-662.696 Y-435.415
X-661.687 Y-433.982
X-660.694 Y-432.533
X-659.715 Y-431.069
X-658.752 Y-429.589
X-657.802 Y-428.094
X-656.868 Y-426.584
X-655.948 Y-425.059
X-655.042 Y-423.519
X-654.15 Y-421.966
X-653.273 Y-420.397
X-652.41 Y-418.814
X-651.561 Y-417.216
X-650.725 Y-415.604
X-649.904 Y-413.979
X-649.097 Y-412.34
X-648.302 Y-410.687
X-647.521 Y-409.02
X-646.753 Y-407.34
X-645.999 Y-405.647
X-645.259 Y-403.941
X-644.53 Y-402.222
X-643.815 Y-400.49
X-643.113 Y-398.745
X-642.423 Y-396.988
X-641.745 Y-395.218
X-641.082 Y-393.437
X-640.429 Y-391.642
X-639.789 Y-389.837
X-639.162 Y-388.019
X-638.546 Y-386.19
X-637.942 Y-384.349
X-637.351 Y-382.498
X-636.771 Y-380.635
X-636.203 Y-378.76
X-635.647 Y-376.875
X-635.102 Y-374.981
X-634.569 Y-373.075
X-634.047 Y-371.159
X-633.536 Y-369.232
X-633.037 Y-367.296
X-632.548 Y-365.349
X-632.07 Y-363.394
X-631.604 Y-361.428
X-631.149 Y-359.454
X-630.704 Y-357.47
X-630.269 Y-355.477
X-629.845 Y-353.475
X-629.431 Y-351.465
X-629.029 Y-349.447
X-628.636 Y-347.42
X-628.254 Y-345.385
X-627.881 Y-343.341
X-627.519 Y-341.291
X-627.167 Y-339.232
X-626.824 Y-337.167
X-626.493 Y-335.093
X-626.17 Y-333.014
X-625.857 Y-330.926
X-625.554 Y-328.833
X-625.26 Y-326.733
X-624.976 Y-324.626
X-624.701 Y-322.513
X-624.436 Y-320.397
X-623.933 Y-316.14
X-623.467 Y-311.864
X-623.038 Y-307.568
X-622.644 Y-303.253
X-622.286 Y-298.921
X-621.963 Y-294.574
X-621.676 Y-290.212
X-621.423 Y-285.838
X-621.203 Y-281.453
X-621.019 Y-277.059
X-620.867 Y-272.656
X-620.751 Y-268.248
X-620.667 Y-263.834
X-620.617 Y-259.418
X-620.6 Y-255
X-620.617 Y-250.582
X-620.667 Y-246.166
X-620.751 Y-241.752
X-620.867 Y-237.344
X-621.019 Y-232.941
X-621.203 Y-228.547
X-621.423 Y-224.162
X-621.676 Y-219.788
X-621.963 Y-215.426
X-622.286 Y-211.079
X-622.644 Y-206.747
X-623.038 Y-202.432
X-623.467 Y-198.136
X-623.933 Y-193.86
X-624.436 Y-189.603
X-624.701 Y-187.487
X-624.976 Y-185.374
X-625.26 Y-183.267
X-625.554 Y-181.167
X-625.857 Y-179.074
X-626.17 Y-176.986
X-626.493 Y-174.907
X-626.824 Y-172.833
X-627.167 Y-170.768
X-627.519 Y-168.709
X-627.881 Y-166.659
X-628.254 Y-164.615
X-628.636 Y-162.58
X-629.029 Y-160.553
X-629.431 Y-158.535
X-629.845 Y-156.525
X-630.269 Y-154.523
X-630.704 Y-152.53
X-631.149 Y-150.546
X-631.604 Y-148.572
X-632.07 Y-146.606
X-632.548 Y-144.651
X-633.037 Y-142.704
X-633.536 Y-140.768
X-634.047 Y-138.841
X-634.569 Y-136.925
X-635.102 Y-135.019
X-635.647 Y-133.125
X-636.203 Y-131.24
X-636.771 Y-129.365
X-637.351 Y-127.502
X-637.942 Y-125.651
X-638.546 Y-123.81
X-639.162 Y-121.981
X-639.789 Y-120.163
X-640.429 Y-118.358
X-641.082 Y-116.563
X-641.745 Y-114.782
X-642.423 Y-113.012
X-643.113 Y-111.255
X-643.815 Y-109.51
X-644.53 Y-107.778
X-645.259 Y-106.059
X-645.999 Y-104.353
X-646.753 Y-102.66
X-647.521 Y-100.98
X-648.302 Y-99.313
X-649.097 Y-97.66
X-649.904 Y-96.02
X-650.725 Y-94.395
X-651.561 Y-92.784
X-652.41 Y-91.186
X-653.273 Y-89.603
X-654.15 Y-88.035
X-655.042 Y-86.48
X-655.948 Y-84.941
X-656.868 Y-83.416
X-657.802 Y-81.906
X-658.752 Y-80.411
X-659.715 Y-78.931
X-660.694 Y-77.467
X-661.687 Y-76.018
X-662.696 Y-74.585
X-663.72 Y-73.167
X-664.759 Y-71.765
X-665.814 Y-70.378
X-666.883 Y-69.008
X-667.969 Y-67.655
X-669.071 Y-66.317
X-670.187 Y-64.995
X-671.321 Y-63.69
X-672.47 Y-62.402
X-673.635 Y-61.13
X-674.816 Y-59.875
X-676.015 Y-58.637
X-677.229 Y-57.416
X-678.46 Y-56.212
X-679.708 Y-55.026
X-680.973 Y-53.856
X-682.254 Y-52.704
X-683.553 Y-51.57
X-684.869 Y-50.453
X-686.201 Y-49.353
X-687.552 Y-48.272
X-688.92 Y-47.208
X-690.306 Y-46.163
X-691.709 Y-45.135
X-693.131 Y-44.126
X-694.57 Y-43.134
X-696.027 Y-42.162
X-697.503 Y-41.207
X-698.996 Y-40.271
X-700.509 Y-39.354
X-702.039 Y-38.455
X-703.589 Y-37.575
X-705.158 Y-36.714
X-706.745 Y-35.872
X-708.351 Y-35.049
X-709.976 Y-34.245
X-711.62 Y-33.46
X-713.283 Y-32.694
X-714.966 Y-31.948
X-716.668 Y-31.221
X-718.391 Y-30.513
X-720.132 Y-29.825
X-721.893 Y-29.157
X-723.674 Y-28.508
X-725.475 Y-27.88
X-727.297 Y-27.271
X-729.137 Y-26.681
X-730.998 Y-26.112
X-732.88 Y-25.563
X-734.782 Y-25.034
X-736.704 Y-24.526
X-738.647 Y-24.037
X-740.61 Y-23.569
X-742.594 Y-23.121
X-744.598 Y-22.693
X-746.623 Y-22.287
X-748.67 Y-21.9
X-750.736 Y-21.534
X-752.824 Y-21.189
X-754.933 Y-20.864
X-757.062 Y-20.56
X-759.213 Y-20.277
X-761.385 Y-20.015
X-763.578 Y-19.773
X-765.791 Y-19.553
X-768.027 Y-19.353
X-770.283 Y-19.174
X-772.56 Y-19.016
X-774.86 Y-18.879
X-777.18 Y-18.763
X-779.521 Y-18.669
X-781.884 Y-18.595
X-784.268 Y-18.542
X-786.673 Y-18.511
X-789.107 Y-18.5
G2 X-790.6 Y-17 I0.007 J1.5
G1 Y-5
G2 X-789.1 Y-3.5 I1.5
G1 X-499.1
G2 X-497.6 Y-5 J-1.5
G1 Y-505
G2 X-499.1 Y-506.5 I-1.5
G1 X-789.1
G2 X-790.6 Y-505 J1.5
G1 Y-493
G2 X-789.107 Y-491.5 I1.5
G1 X-786.673 Y-491.489
X-784.268 Y-491.458
X-781.884 Y-491.406
X-779.521 Y-491.331
X-777.18 Y-491.237
X-774.86 Y-491.12
X-772.56 Y-490.984
X-770.283 Y-490.826
X-768.027 Y-490.647
X-765.791 Y-490.448
X-763.578 Y-490.227
X-761.385 Y-489.985
X-759.213 Y-489.723
X-757.062 Y-489.44
X-754.933 Y-489.136
X-752.825 Y-488.811
X-750.736 Y-488.465
X-748.67 Y-488.1
X-746.623 Y-487.714
X-744.598 Y-487.306
X-742.594 Y-486.879
X-740.61 Y-486.431
X-738.647 Y-485.963
X-736.704 Y-485.475
X-734.782 Y-484.965
X-732.88 Y-484.436
X-730.998 Y-483.888
X-729.137 Y-483.318
X-727.296 Y-482.729
X-725.475 Y-482.12
X-723.674 Y-481.492
X-721.893 Y-480.843
X-720.132 Y-480.175
X-718.391 Y-479.487
X-716.668 Y-478.779
X-714.966 Y-478.053
X-713.283 Y-477.306
X-711.62 Y-476.541
X-711.379 Y-476.426
X-709.976 Y-475.755 Z-8.01 F283.3
X-708.351 Y-474.951 Z-8.023
X-706.745 Y-474.128 Z-8.035
X-705.158 Y-473.286 Z-8.047
X-703.589 Y-472.424 Z-8.059
X-702.039 Y-471.545 Z-8.071
X-700.509 Y-470.646 Z-8.083
X-698.996 Y-469.729 Z-8.095
X-697.503 Y-468.793 Z-8.107
X-696.027 Y-467.838 Z-8.119
X-694.57 Y-466.865 Z-8.13
X-693.131 Y-465.875 Z-8.142
X-691.71 Y-464.865 Z-8.154
X-690.306 Y-463.837 Z-8.166
X-688.92 Y-462.792 Z-8.177
X-687.552 Y-461.728 Z-8.189
X-686.201 Y-460.647 Z-8.201
X-684.869 Y-459.548 Z-8.212
X-683.553 Y-458.43 Z-8.224
X-682.254 Y-457.295 Z-8.235
X-680.973 Y-456.143 Z-8.247
X-679.708 Y-454.975 Z-8.259
X-678.46 Y-453.787 Z-8.27
X-677.229 Y-452.584 Z-8.282
X-676.015 Y-451.362 Z-8.293
X-674.816 Y-450.124 Z-8.305
X-673.635 Y-448.87 Z-8.317
X-672.47 Y-447.598 Z-8.328
X-671.321 Y-446.31 Z-8.34
X-670.187 Y-445.005 Z-8.351
X-669.071 Y-443.683 Z-8.363
X-667.969 Y-442.345 Z-8.375
X-666.883 Y-440.991 Z-8.386
X-665.814 Y-439.621 Z-8.398
X-664.759 Y-438.235 Z-8.41
X-663.72 Y-436.833 Z-8.422
X-662.696 Y-435.415 Z-8.433
X-661.687 Y-433.982 Z-8.445
X-660.694 Y-432.533 Z-8.457
X-659.715 Y-431.069 Z-8.469
X-658.752 Y-429.589 Z-8.481
X-657.802 Y-428.094 Z-8.493
X-656.868 Y-426.584 Z-8.505
X-655.948 Y-425.059 Z-8.517
X-655.042 Y-423.519 Z-8.529
X-654.15 Y-421.966 Z-8.541
X-653.273 Y-420.397 Z-8.553
X-652.41 Y-418.814 Z-8.565
X-651.561 Y-417.216 Z-8.577
X-650.725 Y-415.604 Z-8.589
X-649.904 Y-413.979 Z-8.602
X-649.097 Y-412.34 Z-8.614
X-648.302 Y-410.687 Z-8.626
X-647.521 Y-409.02 Z-8.639
X-646.753 Y-407.34 Z-8.651
X-645.999 Y-405.647 Z-8.664
X-645.259 Y-403.941 Z-8.676
X-644.53 Y-402.222 Z-8.689
X-643.815 Y-400.49 Z-8.701
X-643.113 Y-398.745 Z-8.714
X-642.423 Y-396.988 Z-8.727
X-641.745 Y-395.218 Z-8.739
X-641.082 Y-393.437 Z-8.752
X-640.429 Y-391.642 Z-8.765
X-639.789 Y-389.837 Z-8.778
X-639.162 Y-388.019 Z-8.791
X-638.546 Y-386.19 Z-8.804
X-637.942 Y-384.349 Z-8.817
X-637.351 Y-382.498 Z-8.83
X-636.771 Y-380.635 Z-8.843
X-636.203 Y-378.76 Z-8.856
X-635.647 Y-376.875 Z-8.87
X-635.102 Y-374.981 Z-8.883
X-634.569 Y-373.075 Z-8.896
X-634.047 Y-371.159 Z-8.91
X-633.536 Y-369.232 Z-8.923
X-633.037 Y-367.296 Z-8.936
X-632.548 Y-365.349 Z-8.95
X-632.07 Y-363.394 Z-8.963
X-631.604 Y-361.428 Z-8.977
X-631.149 Y-359.454 Z-8.991
X-630.704 Y-357.47 Z-9.004
X-630.269 Y-355.477 Z-9.018
X-629.845 Y-353.475 Z-9.032
X-629.431 Y-351.465 Z-9.046
X-629.029 Y-349.447 Z-9.06
X-628.636 Y-347.42 Z-9.073
X-628.254 Y-345.385 Z-9.087
X-627.881 Y-343.341 Z-9.101
X-627.519 Y-341.291 Z-9.115
X-627.167 Y-339.232 Z-9.129
X-626.824 Y-337.167 Z-9.144
X-626.493 Y-335.093 Z-9.158
X-626.17 Y-333.014 Z-9.172
X-625.857 Y-330.926 Z-9.186
X-625.554 Y-328.833 Z-9.2
X-625.26 Y-326.733 Z-9.215
X-624.976 Y-324.626 Z-9.229
X-624.701 Y-322.513 Z-9.243
X-624.436 Y-320.397 Z-9.258
X-623.933 Y-316.14 Z-9.286
X-623.467 Y-311.864 Z-9.315
X-623.038 Y-307.568 Z-9.345
X-622.644 Y-303.253 Z-9.374
X-622.286 Y-298.921 Z-9.403
X-621.963 Y-294.574 Z-9.432
X-621.676 Y-290.212 Z-9.462
X-621.423 Y-285.838 Z-9.491
X-621.203 Y-281.453 Z-9.521
X-621.019 Y-277.059 Z-9.55
X-620.867 Y-272.656 Z-9.58
X-620.751 Y-268.248 Z-9.61
X-620.667 Y-263.834 Z-9.639
X-620.617 Y-259.418 Z-9.669
X-620.6 Y-255 Z-9.699
X-620.617 Y-250.582 Z-9.729
X-620.667 Y-246.166 Z-9.758
X-620.751 Y-241.752 Z-9.788
X-620.867 Y-237.344 Z-9.818
X-621.019 Y-232.941 Z-9.847
X-621.203 Y-228.547 Z-9.877
X-621.423 Y-224.162 Z-9.907
X-621.676 Y-219.788 Z-9.936
X-621.963 Y-215.426 Z-9.966
X-622.286 Y-211.079 Z-9.995
X-622.349 Y-210.323 Z-10
X-622.644 Y-206.747 F850
X-623.038 Y-202.432
X-623.467 Y-198.136
X-623.933 Y-193.86
X-624.436 Y-189.603
X-624.701 Y-187.487
X-624.976 Y-185.374
X-625.26 Y-183.267
X-625.554 Y-181.167
X-625.857 Y-179.074
X-626.17 Y-176.986
X-626.493 Y-174.907
X-626.824 Y-172.833
X-627.167 Y-170.768
X-627.519 Y-168.709
X-627.881 Y-166.659
X-628.254 Y-164.615
X-628.636 Y-162.58
X-629.029 Y-160.553
X-629.431 Y-158.535
X-629.845 Y-156.525
X-630.269 Y-154.523
X-630.704 Y-152.53
X-631.149 Y-150.546
X-631.604 Y-148.572
X-632.07 Y-146.606
X-632.548 Y-144.651
X-633.037 Y-142.704
X-633.536 Y-140.768
X-634.047 Y-138.841
X-634.569 Y-136.925
X-635.102 Y-135.019
X-635.647 Y-133.125
X-636.203 Y-131.24
X-636.771 Y-129.365
X-637.351 Y-127.502
X-637.942 Y-125.651
X-638.546 Y-123.81
X-639.162 Y-121.981
X-639.789 Y-120.163
X-640.429 Y-118.358
X-641.082 Y-116.563
X-641.745 Y-114.782
X-642.423 Y-113.012
X-643.113 Y-111.255
X-643.815 Y-109.51
X-644.53 Y-107.778
X-645.259 Y-106.059
X-645.999 Y-104.353
X-646.753 Y-102.66
X-647.521 Y-100.98
X-648.302 Y-99.313
X-649.097 Y-97.66
X-649.904 Y-96.02
X-650.725 Y-94.395
X-651.561 Y-92.784
X-652.41 Y-91.186
X-653.273 Y-89.603
X-654.15 Y-88.035
X-655.042 Y-86.48
X-655.948 Y-84.941
X-656.868 Y-83.416
X-657.802 Y-81.906
X-658.752 Y-80.411
X-659.715 Y-78.931
X-660.694 Y-77.467
X-661.687 Y-76.018
X-662.696 Y-74.585
X-663.72 Y-73.167
X-664.759 Y-71.765
X-665.814 Y-70.378
X-666.883 Y-69.008
X-667.969 Y-67.655
X-669.071 Y-66.317
X-670.187 Y-64.995
X-671.321 Y-63.69
X-672.47 Y-62.402
X-673.635 Y-61.13
X-674.816 Y-59.875
X-676.015 Y-58.637
X-677.229 Y-57.416
X-678.46 Y-56.212
X-679.708 Y-55.026
X-680.973 Y-53.856
X-682.254 Y-52.704
X-683.553 Y-51.57
X-684.869 Y-50.453
X-686.201 Y-49.353
X-687.552 Y-48.272
X-688.92 Y-47.208
X-690.306 Y-46.163
X-691.709 Y-45.135
X-693.131 Y-44.126
X-694.57 Y-43.134
X-696.027 Y-42.162
X-697.503 Y-41.207
X-698.996 Y-40.271
X-700.509 Y-39.354
X-702.039 Y-38.455
X-703.589 Y-37.575
X-705.158 Y-36.714
X-706.745 Y-35.872
X-708.351 Y-35.049
X-709.976 Y-34.245
X-711.62 Y-33.46
X-713.283 Y-32.694
X-714.966 Y-31.948
X-716.668 Y-31.221
X-718.391 Y-30.513
X-720.132 Y-29.825
X-721.893 Y-29.157
X-723.674 Y-28.508
X-725.475 Y-27.88
X-727.297 Y-27.271
X-729.137 Y-26.681
X-730.998 Y-26.112
X-732.88 Y-25.563
X-734.782 Y-25.034
X-736.704 Y-24.526
X-738.647 Y-24.037
X-740.61 Y-23.569
X-742.594 Y-23.121
X-744.598 Y-22.693
X-746.623 Y-22.287
X-748.67 Y-21.9
X-750.736 Y-21.534
X-752.824 Y-21.189
X-754.933 Y-20.864
X-757.062 Y-20.56
X-759.213 Y-20.277
X-761.385 Y-20.015
X-763.578 Y-19.773
X-765.791 Y-19.553
X-768.027 Y-19.353
X-770.283 Y-19.174
X-772.56 Y-19.016
X-774.86 Y-18.879
X-777.18 Y-18.763
X-779.521 Y-18.669
X-781.884 Y-18.595
X-784.268 Y-18.542
X-786.673 Y-18.511
X-789.107 Y-18.5
G2 X-790.6 Y-17 I0.007 J1.5
G1 Y-5
G2 X-789.1 Y-3.5 I1.5
G1 X-499.1
G2 X-497.6 Y-5 J-1.5
G1 Y-505
G2 X-499.1 Y-506.5 I-1.5
G1 X-789.1
G2 X-790.6 Y-505 J1.5
G1 Y-493
G2 X-789.107 Y-491.5 I1.5
G1 X-786.673 Y-491.489
X-784.268 Y-491.458
X-781.884 Y-491.406
X-779.521 Y-491.331
X-777.18 Y-491.237
X-774.86 Y-491.12
X-772.56 Y-490.984
X-770.283 Y-490.826
X-768.027 Y-490.647
X-765.791 Y-490.448
X-763.578 Y-490.227
X-761.385 Y-489.985
X-759.213 Y-489.723
X-757.062 Y-489.44
X-754.933 Y-489.136
X-752.825 Y-488.811
X-750.736 Y-488.465
X-748.67 Y-488.1
X-746.623 Y-487.714
X-744.598 Y-487.306
X-742.594 Y-486.879
X-740.61 Y-486.431
X-738.647 Y-485.963
X-736.704 Y-485.475
X-734.782 Y-484.965
X-732.88 Y-484.436
X-730.998 Y-483.888
X-729.137 Y-483.318
X-727.296 Y-482.729
X-725.475 Y-482.12
X-723.674 Y-481.492
X-721.893 Y-480.843
X-720.132 Y-480.175
X-718.391 Y-479.487
X-716.668 Y-478.779
X-714.966 Y-478.053
X-713.283 Y-477.306
X-711.62 Y-476.541
X-709.976 Y-475.755
X-708.351 Y-474.951
X-706.745 Y-474.128
X-705.158 Y-473.286
X-703.589 Y-472.424
X-702.039 Y-471.545
X-700.509 Y-470.646
X-698.996 Y-469.729
X-697.503 Y-468.793
X-696.027 Y-467.838
X-694.57 Y-466.865
X-693.131 Y-465.875
X-691.71 Y-464.865
X-690.306 Y-463.837
X-688.92 Y-462.792
X-687.552 Y-461.728
X-686.201 Y-460.647
X-684.869 Y-459.548
X-683.553 Y-458.43
X-682.254 Y-457.295
X-680.973 Y-456.143
X-679.708 Y-454.975
X-678.46 Y-453.787
X-677.229 Y-452.584
X-676.015 Y-451.362
X-674.816 Y-450.124
X-673.635 Y-448.87
X-672.47 Y-447.598
X-671.321 Y-446.31
X-670.187 Y-445.005
X-669.071 Y-443.683
X-667.969 Y-442.345
X-666.883 Y-440.991
X-665.814 Y-439.621
X-664.759 Y-438.235
X-663.72 Y-436.833
X-662.696 Y-435.415
X-661.687 Y-433.982
X-660.694 Y-432.533
X-659.715 Y-431.069
X-658.752 Y-429.589
X-657.802 Y-428.094
X-656.868 Y-426.584
X-655.948 Y-425.059
X-655.042 Y-423.519
X-654.15 Y-421.966
X-653.273 Y-420.397
X-652.41 Y-418.814
X-651.561 Y-417.216
X-650.725 Y-415.604
X-649.904 Y-413.979
X-649.097 Y-412.34
X-648.302 Y-410.687
X-647.521 Y-409.02
X-646.753 Y-407.34
X-645.999 Y-405.647
X-645.259 Y-403.941
X-644.53 Y-402.222
X-643.815 Y-400.49
X-643.113 Y-398.745
X-642.423 Y-396.988
X-641.745 Y-395.218
X-641.082 Y-393.437
X-640.429 Y-391.642
X-639.789 Y-389.837
X-639.162 Y-388.019
X-638.546 Y-386.19
X-637.942 Y-384.349
X-637.351 Y-382.498
X-636.771 Y-380.635
X-636.203 Y-378.76
X-635.647 Y-376.875
X-635.102 Y-374.981
X-634.569 Y-373.075
X-634.047 Y-371.159
X-633.536 Y-369.232
X-633.037 Y-367.296
X-632.548 Y-365.349
X-632.07 Y-363.394
X-631.604 Y-361.428
X-631.149 Y-359.454
X-630.704 Y-357.47
X-630.269 Y-355.477
X-629.845 Y-353.475
X-629.431 Y-351.465
X-629.029 Y-349.447
X-628.636 Y-347.42
X-628.254 Y-345.385
X-627.881 Y-343.341
X-627.519 Y-341.291
X-627.167 Y-339.232
X-626.824 Y-337.167
X-626.493 Y-335.093
X-626.17 Y-333.014
X-625.857 Y-330.926
X-625.554 Y-328.833
X-625.26 Y-326.733
X-624.976 Y-324.626
X-624.701 Y-322.513
X-624.436 Y-320.397
X-623.933 Y-316.14
X-623.467 Y-311.864
X-623.038 Y-307.568
X-622.644 Y-303.253
X-622.286 Y-298.921
X-621.963 Y-294.574
X-621.676 Y-290.212
X-621.423 Y-285.838
X-621.203 Y-281.453
X-621.019 Y-277.059
X-620.867 Y-272.656
X-620.751 Y-268.248
X-620.667 Y-263.834
X-620.617 Y-259.418
X-620.6 Y-255
X-620.617 Y-250.582
X-620.667 Y-246.166
X-620.751 Y-241.752
X-620.867 Y-237.344
X-621.019 Y-232.941
X-621.203 Y-228.547
X-621.423 Y-224.162
X-621.676 Y-219.788
X-621.963 Y-215.426
X-622.286 Y-211.079
X-622.349 Y-210.323
X-622.644 Y-206.747 Z-10.024 F283.3
X-623.038 Y-202.432 Z-10.053
X-623.467 Y-198.136 Z-10.082
X-623.933 Y-193.86 Z-10.111
X-624.436 Y-189.603 Z-10.14
X-624.701 Y-187.487 Z-10.155
X-624.976 Y-185.374 Z-10.169
X-625.26 Y-183.267 Z-10.183
X-625.554 Y-181.167 Z-10.197
X-625.857 Y-179.074 Z-10.212
X-626.17 Y-176.986 Z-10.226
X-626.493 Y-174.907 Z-10.24
X-626.824 Y-172.833 Z-10.254
X-627.167 Y-170.768 Z-10.268
X-627.519 Y-168.709 Z-10.282
X-627.881 Y-166.659 Z-10.296
X-628.254 Y-164.615 Z-10.31
X-628.636 Y-162.58 Z-10.324
X-629.029 Y-160.553 Z-10.338
X-629.431 Y-158.535 Z-10.352
X-629.845 Y-156.525 Z-10.366
X-630.269 Y-154.523 Z-10.38
X-630.704 Y-152.53 Z-10.393
X-631.149 Y-150.546 Z-10.407
X-631.604 Y-148.572 Z-10.421
X-632.07 Y-146.606 Z-10.434
X-632.548 Y-144.651 Z-10.448
X-633.037 Y-142.704 Z-10.461
X-633.536 Y-140.768 Z-10.475
X-634.047 Y-138.841 Z-10.488
X-634.569 Y-136.925 Z-10.502
X-635.102 Y-135.019 Z-10.515
X-635.647 Y-133.125 Z-10.528
X-636.203 Y-131.24 Z-10.541
X-636.771 Y-129.365 Z-10.555
X-637.351 Y-127.502 Z-10.568
X-637.942 Y-125.651 Z-10.581
X-638.546 Y-123.81 Z-10.594
X-639.162 Y-121.981 Z-10.607
X-639.789 Y-120.163 Z-10.62
X-640.429 Y-118.358 Z-10.633
X-641.082 Y-116.563 Z-10.646
X-641.745 Y-114.782 Z-10.658
X-642.423 Y-113.012 Z-10.671
X-643.113 Y-111.255 Z-10.684
X-643.815 Y-109.51 Z-10.697
X-644.53 Y-107.778 Z-10.709
X-645.259 Y-106.059 Z-10.722
X-645.999 Y-104.353 Z-10.734
X-646.753 Y-102.66 Z-10.747
X-647.521 Y-100.98 Z-10.759
X-648.302 Y-99.313 Z-10.772
X-649.097 Y-97.66 Z-10.784
X-649.904 Y-96.02 Z-10.796
X-650.725 Y-94.395 Z-10.808
X-651.561 Y-92.784 Z-10.821
X-652.41 Y-91.186 Z-10.833
X-653.273 Y-89.603 Z-10.845
X-654.15 Y-88.035 Z-10.857
X-655.042 Y-86.48 Z-10.869
X-655.948 Y-84.941 Z-10.881
X-656.868 Y-83.416 Z-10.893
X-657.802 Y-81.906 Z-10.905
X-658.752 Y-80.411 Z-10.917
X-659.715 Y-78.931 Z-10.929
X-660.694 Y-77.467 Z-10.941
X-661.687 Y-76.018 Z-10.953
X-662.696 Y-74.585 Z-10.964
X-663.72 Y-73.167 Z-10.976
X-664.759 Y-71.765 Z-10.988
X-665.814 Y-70.378 Z-11
X-666.883 Y-69.008 Z-11.011
X-667.969 Y-67.655 Z-11.023
X-669.071 Y-66.317 Z-11.035
X-670.187 Y-64.995 Z-11.046
X-671.321 Y-63.69 Z-11.058
X-672.47 Y-62.402 Z-11.07
X-673.635 Y-61.13 Z-11.081
X-674.816 Y-59.875 Z-11.093
X-676.015 Y-58.637 Z-11.104
X-677.229 Y-57.416 Z-11.116
X-678.46 Y-56.212 Z-11.128
X-679.708 Y-55.026 Z-11.139
X-680.973 Y-53.856 Z-11.151
X-682.254 Y-52.704 Z-11.162
X-683.553 Y-51.57 Z-11.174
X-684.869 Y-50.453 Z-11.186
X-686.201 Y-49.353 Z-11.197
X-687.552 Y-48.272 Z-11.209
X-688.92 Y-47.208 Z-11.221
X-690.306 Y-46.163 Z-11.232
X-691.709 Y-45.135 Z-11.244
X-693.131 Y-44.126 Z-11.256
X-694.57 Y-43.134 Z-11.268
X-696.027 Y-42.162 Z-11.279
X-697.503 Y-41.207 Z-11.291
X-698.996 Y-40.271 Z-11.303
X-700.509 Y-39.354 Z-11.315
X-702.039 Y-38.455 Z-11.327
X-703.589 Y-37.575 Z-11.339
X-705.158 Y-36.714 Z-11.351
X-706.745 Y-35.872 Z-11.363
X-708.351 Y-35.049 Z-11.375
X-709.976 Y-34.245 Z-11.387
X-711.62 Y-33.46 Z-11.4
X-713.283 Y-32.694 Z-11.412
X-714.966 Y-31.948 Z-11.424
X-716.668 Y-31.221 Z-11.437
X-718.391 Y-30.513 Z-11.449
X-720.132 Y-29.825 Z-11.462
X-721.893 Y-29.157 Z-11.475
X-723.674 Y-28.508 Z-11.487
X-725.475 Y-27.88 Z-11.5
X-727.297 Y-27.271 Z-11.513
X-729.137 Y-26.681 Z-11.526
X-730.998 Y-26.112 Z-11.539
X-732.88 Y-25.563 Z-11.552
X-734.782 Y-25.034 Z-11.566
X-736.704 Y-24.526 Z-11.579
X-738.647 Y-24.037 Z-11.593
X-740.61 Y-23.569 Z-11.606
X-742.594 Y-23.121 Z-11.62
X-744.598 Y-22.693 Z-11.634
X-746.623 Y-22.287 Z-11.648
X-748.67 Y-21.9 Z-11.662
X-750.736 Y-21.534 Z-11.676
X-752.824 Y-21.189 Z-11.69
X-754.933 Y-20.864 Z-11.704
X-757.062 Y-20.56 Z-11.719
X-759.213 Y-20.277 Z-11.733
X-761.385 Y-20.015 Z-11.748
X-763.578 Y-19.773 Z-11.763
X-765.791 Y-19.553 Z-11.778
X-768.027 Y-19.353 Z-11.793
X-770.283 Y-19.174 Z-11.808
X-772.56 Y-19.016 Z-11.824
X-774.86 Y-18.879 Z-11.839
X-777.18 Y-18.763 Z-11.855
X-779.521 Y-18.669 Z-11.871
X-781.884 Y-18.595 Z-11.887
X-784.268 Y-18.542 Z-11.903
X-786.673 Y-18.511 Z-11.919
X-789.107 Y-18.5 Z-11.935
G2 X-790.6 Y-17 Z-11.951 I0.007 J1.5
G1 Y-9.723 Z-12
Y-5 F850
G2 X-789.1 Y-3.5 I1.5
G1 X-499.1
G2 X-497.6 Y-5 J-1.5
G1 Y-505
G2 X-499.1 Y-506.5 I-1.5
G1 X-789.1
G2 X-790.6 Y-505 J1.5
G1 Y-493
G2 X-789.107 Y-491.5 I1.5
G1 X-786.673 Y-491.489
X-784.268 Y-491.458
X-781.884 Y-491.406
X-779.521 Y-491.331
X-777.18 Y-491.237
X-774.86 Y-491.12
X-772.56 Y-490.984
X-770.283 Y-490.826
X-768.027 Y-490.647
X-765.791 Y-490.448
X-763.578 Y-490.227
X-761.385 Y-489.985
X-759.213 Y-489.723
X-757.062 Y-489.44
X-754.933 Y-489.136
X-752.825 Y-488.811
X-750.736 Y-488.465
X-748.67 Y-488.1
X-746.623 Y-487.714
X-744.598 Y-487.306
X-742.594 Y-486.879
X-740.61 Y-486.431
X-738.647 Y-485.963
X-736.704 Y-485.475
X-734.782 Y-484.965
X-732.88 Y-484.436
X-730.998 Y-483.888
X-729.137 Y-483.318
X-727.296 Y-482.729
X-725.475 Y-482.12
X-723.674 Y-481.492
X-721.893 Y-480.843
X-720.132 Y-480.175
X-718.391 Y-479.487
X-716.668 Y-478.779
X-714.966 Y-478.053
X-713.283 Y-477.306
X-711.62 Y-476.541
X-709.976 Y-475.755
X-708.351 Y-474.951
X-706.745 Y-474.128
X-705.158 Y-473.286
X-703.589 Y-472.424
X-702.039 Y-471.545
X-700.509 Y-470.646
X-698.996 Y-469.729
X-697.503 Y-468.793
X-696.027 Y-467.838
X-694.57 Y-466.865
X-693.131 Y-465.875
X-691.71 Y-464.865
X-690.306 Y-463.837
X-688.92 Y-462.792
X-687.552 Y-461.728
X-686.201 Y-460.647
X-684.869 Y-459.548
X-683.553 Y-458.43
X-682.254 Y-457.295
X-680.973 Y-456.143
X-679.708 Y-454.975
X-678.46 Y-453.787
X-677.229 Y-452.584
X-676.015 Y-451.362
X-674.816 Y-450.124
X-673.635 Y-448.87
X-672.47 Y-447.598
X-671.321 Y-446.31
X-670.187 Y-445.005
X-669.071 Y-443.683
X-667.969 Y-442.345
X-666.883 Y-440.991
X-665.814 Y-439.621
X-664.759 Y-438.235
X-663.72 Y-436.833
X-662.696 Y-435.415
X-661.687 Y-433.982
X-660.694 Y-432.533
X-659.715 Y-431.069
X-658.752 Y-429.589
X-657.802 Y-428.094
X-656.868 Y-426.584
X-655.948 Y-425.059
X-655.042 Y-423.519
X-654.15 Y-421.966
X-653.273 Y-420.397
X-652.41 Y-418.814
X-651.561 Y-417.216
X-650.725 Y-415.604
X-649.904 Y-413.979
X-649.097 Y-412.34
X-648.302 Y-410.687
X-647.521 Y-409.02
X-646.753 Y-407.34
X-645.999 Y-405.647
X-645.259 Y-403.941
X-644.53 Y-402.222
X-643.815 Y-400.49
X-643.113 Y-398.745
X-642.423 Y-396.988
X-641.745 Y-395.218
X-641.082 Y-393.437
X-640.429 Y-391.642
X-639.789 Y-389.837
X-639.162 Y-388.019
X-638.546 Y-386.19
X-637.942 Y-384.349
X-637.351 Y-382.498
X-636.771 Y-380.635
X-636.203 Y-378.76
X-635.647 Y-376.875
X-635.102 Y-374.981
X-634.569 Y-373.075
X-634.047 Y-371.159
X-633.536 Y-369.232
X-633.037 Y-367.296
X-632.548 Y-365.349
X-632.07 Y-363.394
X-631.604 Y-361.428
X-631.149 Y-359.454
X-630.704 Y-357.47
X-630.269 Y-355.477
X-629.845 Y-353.475
X-629.431 Y-351.465
X-629.029 Y-349.447
X-628.636 Y-347.42
X-628.254 Y-345.385
X-627.881 Y-343.341
X-627.519 Y-341.291
X-627.167 Y-339.232
X-626.824 Y-337.167
X-626.493 Y-335.093
X-626.17 Y-333.014
X-625.857 Y-330.926
X-625.554 Y-328.833
X-625.26 Y-326.733
X-624.976 Y-324.626
X-624.701 Y-322.513
X-624.436 Y-320.397
X-623.933 Y-316.14
X-623.467 Y-311.864
X-623.038 Y-307.568
X-622.644 Y-303.253
X-622.286 Y-298.921
X-621.963 Y-294.574
X-621.676 Y-290.212
X-621.423 Y-285.838
X-621.203 Y-281.453
X-621.019 Y-277.059
X-620.867 Y-272.656
X-620.751 Y-268.248
X-620.667 Y-263.834
X-620.617 Y-259.418
X-620.6 Y-255
X-620.617 Y-250.582
X-620.667 Y-246.166
X-620.751 Y-241.752
X-620.867 Y-237.344
X-621.019 Y-232.941
X-621.203 Y-228.547
X-621.423 Y-224.162
X-621.676 Y-219.788
X-621.963 Y-215.426
X-622.286 Y-211.079
X-622.644 Y-206.747
X-623.038 Y-202.432
X-623.467 Y-198.136
X-623.933 Y-193.86
X-624.436 Y-189.603
X-624.701 Y-187.487
X-624.976 Y-185.374
X-625.26 Y-183.267
X-625.554 Y-181.167
X-625.857 Y-179.074
X-626.17 Y-176.986
X-626.493 Y-174.907
X-626.824 Y-172.833
X-627.167 Y-170.768
X-627.519 Y-168.709
X-627.881 Y-166.659
X-628.254 Y-164.615
X-628.636 Y-162.58
X-629.029 Y-160.553
X-629.431 Y-158.535
X-629.845 Y-156.525
X-630.269 Y-154.523
X-630.704 Y-152.53
X-631.149 Y-150.546
X-631.604 Y-148.572
X-632.07 Y-146.606
X-632.548 Y-144.651
X-633.037 Y-142.704
X-633.536 Y-140.768
X-634.047 Y-138.841
X-634.569 Y-136.925
X-635.102 Y-135.019
X-635.647 Y-133.125
X-636.203 Y-131.24
X-636.771 Y-129.365
X-637.351 Y-127.502
X-637.942 Y-125.651
X-638.546 Y-123.81
X-639.162 Y-121.981
X-639.789 Y-120.163
X-640.429 Y-118.358
X-641.082 Y-116.563
X-641.745 Y-114.782
X-642.423 Y-113.012
X-643.113 Y-111.255
X-643.815 Y-109.51
X-644.53 Y-107.778
X-645.259 Y-106.059
X-645.999 Y-104.353
X-646.753 Y-102.66
X-647.521 Y-100.98
X-648.302 Y-99.313
X-649.097 Y-97.66
X-649.904 Y-96.02
X-650.725 Y-94.395
X-651.561 Y-92.784
X-652.41 Y-91.186
X-653.273 Y-89.603
X-654.15 Y-88.035
X-655.042 Y-86.48
X-655.948 Y-84.941
X-656.868 Y-83.416
X-657.802 Y-81.906
X-658.752 Y-80.411
X-659.715 Y-78.931
X-660.694 Y-77.467
X-661.687 Y-76.018
X-662.696 Y-74.585
X-663.72 Y-73.167
X-664.759 Y-71.765
X-665.814 Y-70.378
X-666.883 Y-69.008
X-667.969 Y-67.655
X-669.071 Y-66.317
X-670.187 Y-64.995
X-671.321 Y-63.69
X-672.47 Y-62.402
X-673.635 Y-61.13
X-674.816 Y-59.875
X-676.015 Y-58.637
X-677.229 Y-57.416
X-678.46 Y-56.212
X-679.708 Y-55.026
X-680.973 Y-53.856
X-682.254 Y-52.704
X-683.553 Y-51.57
X-684.869 Y-50.453
X-686.201 Y-49.353
X-687.552 Y-48.272
X-688.92 Y-47.208
X-690.306 Y-46.163
X-691.709 Y-45.135
X-693.131 Y-44.126
X-694.57 Y-43.134
X-696.027 Y-42.162
X-697.503 Y-41.207
X-698.996 Y-40.271
X-700.509 Y-39.354
X-702.039 Y-38.455
X-703.589 Y-37.575
X-705.158 Y-36.714
X-706.745 Y-35.872
X-708.351 Y-35.049
X-709.976 Y-34.245
X-711.62 Y-33.46
X-713.283 Y-32.694
X-714.966 Y-31.948
X-716.668 Y-31.221
X-718.391 Y-30.513
X-720.132 Y-29.825
X-721.893 Y-29.157
X-723.674 Y-28.508
X-725.475 Y-27.88
X-727.297 Y-27.271
X-729.137 Y-26.681
X-730.998 Y-26.112
X-732.88 Y-25.563
X-734.782 Y-25.034
X-736.704 Y-24.526
X-738.647 Y-24.037
X-740.61 Y-23.569
X-742.594 Y-23.121
X-744.598 Y-22.693
X-746.623 Y-22.287
X-748.67 Y-21.9
X-750.736 Y-21.534
X-752.824 Y-21.189
X-754.933 Y-20.864
X-757.062 Y-20.56
X-759.213 Y-20.277
X-761.385 Y-20.015
X-763.578 Y-19.773
X-765.791 Y-19.553
X-768.027 Y-19.353
X-770.283 Y-19.174
X-772.56 Y-19.016
X-774.86 Y-18.879
X-777.18 Y-18.763
X-779.521 Y-18.669
X-781.884 Y-18.595
X-784.268 Y-18.542
X-786.673 Y-18.511
X-789.107 Y-18.5
G2 X-790.6 Y-17 I0.007 J1.5
G1 Y-9.723
Y-5 Z-12.032 F283.3
G2 X-789.1 Y-3.5 Z-12.048 I1.5
G1 X-499.1 Z-14
G2 X-497.6 Y-5 J-1.5 F850
G1 Y-505
G2 X-499.1 Y-506.5 I-1.5
G1 X-789.1
G2 X-790.6 Y-505 J1.5
G1 Y-493
G2 X-789.107 Y-491.5 I1.5
G1 X-786.673 Y-491.489
X-784.268 Y-491.458
X-781.884 Y-491.406
X-779.521 Y-491.331
X-777.18 Y-491.237
X-774.86 Y-491.12
X-772.56 Y-490.984
X-770.283 Y-490.826
X-768.027 Y-490.647
X-765.791 Y-490.448
X-763.578 Y-490.227
X-761.385 Y-489.985
X-759.213 Y-489.723
X-757.062 Y-489.44
X-754.933 Y-489.136
X-752.825 Y-488.811
X-750.736 Y-488.465
X-748.67 Y-488.1
X-746.623 Y-487.714
X-744.598 Y-487.306
X-742.594 Y-486.879
X-740.61 Y-486.431
X-738.647 Y-485.963
X-736.704 Y-485.475
X-734.782 Y-484.965
X-732.88 Y-484.436
X-730.998 Y-483.888
X-729.137 Y-483.318
X-727.296 Y-482.729
X-725.475 Y-482.12
X-723.674 Y-481.492
X-721.893 Y-480.843
X-720.132 Y-480.175
X-718.391 Y-479.487
X-716.668 Y-478.779
X-714.966 Y-478.053
X-713.283 Y-477.306
X-711.62 Y-476.541
X-709.976 Y-475.755
X-708.351 Y-474.951
X-706.745 Y-474.128
X-705.158 Y-473.286
X-703.589 Y-472.424
X-702.039 Y-471.545
X-700.509 Y-470.646
X-698.996 Y-469.729
X-697.503 Y-468.793
X-696.027 Y-467.838
X-694.57 Y-466.865
X-693.131 Y-465.875
X-691.71 Y-464.865
X-690.306 Y-463.837
X-688.92 Y-462.792
X-687.552 Y-461.728
X-686.201 Y-460.647
X-684.869 Y-459.548
X-683.553 Y-458.43
X-682.254 Y-457.295
X-680.973 Y-456.143
X-679.708 Y-454.975
X-678.46 Y-453.787
X-677.229 Y-452.584
X-676.015 Y-451.362
X-674.816 Y-450.124
X-673.635 Y-448.87
X-672.47 Y-447.598
X-671.321 Y-446.31
X-670.187 Y-445.005
X-669.071 Y-443.683
X-667.969 Y-442.345
X-666.883 Y-440.991
X-665.814 Y-439.621
X-664.759 Y-438.235
X-663.72 Y-436.833
X-662.696 Y-435.415
X-661.687 Y-433.982
X-660.694 Y-432.533
X-659.715 Y-431.069
X-658.752 Y-429.589
X-657.802 Y-428.094
X-656.868 Y-426.584
X-655.948 Y-425.059
X-655.042 Y-423.519
X-654.15 Y-421.966
X-653.273 Y-420.397
X-652.41 Y-418.814
X-651.561 Y-417.216
X-650.725 Y-415.604
X-649.904 Y-413.979
X-649.097 Y-412.34
X-648.302 Y-410.687
X-647.521 Y-409.02
X-646.753 Y-407.34
X-645.999 Y-405.647
X-645.259 Y-403.941
X-644.53 Y-402.222
X-643.815 Y-400.49
X-643.113 Y-398.745
X-642.423 Y-396.988
X-641.745 Y-395.218
X-641.082 Y-393.437
X-640.429 Y-391.642
X-639.789 Y-389.837
X-639.162 Y-388.019
X-638.546 Y-386.19
X-637.942 Y-384.349
X-637.351 Y-382.498
X-636.771 Y-380.635
X-636.203 Y-378.76
X-635.647 Y-376.875
X-635.102 Y-374.981
X-634.569 Y-373.075
X-634.047 Y-371.159
X-633.536 Y-369.232
X-633.037 Y-367.296
X-632.548 Y-365.349
X-632.07 Y-363.394
X-631.604 Y-361.428
X-631.149 Y-359.454
X-630.704 Y-357.47
X-630.269 Y-355.477
X-629.845 Y-353.475
X-629.431 Y-351.465
X-629.029 Y-349.447
X-628.636 Y-347.42
X-628.254 Y-345.385
X-627.881 Y-343.341
X-627.519 Y-341.291
X-627.167 Y-339.232
X-626.824 Y-337.167
X-626.493 Y-335.093
X-626.17 Y-333.014
X-625.857 Y-330.926
X-625.554 Y-328.833
X-625.26 Y-326.733
X-624.976 Y-324.626
X-624.701 Y-322.513
X-624.436 Y-320.397
X-623.933 Y-316.14
X-623.467 Y-311.864
X-623.038 Y-307.568
X-622.644 Y-303.253
X-622.286 Y-298.921
X-621.963 Y-294.574
X-621.676 Y-290.212
X-621.423 Y-285.838
X-621.203 Y-281.453
X-621.019 Y-277.059
X-620.867 Y-272.656
X-620.751 Y-268.248
X-620.667 Y-263.834
X-620.617 Y-259.418
X-620.6 Y-255
X-620.617 Y-250.582
X-620.667 Y-246.166
X-620.751 Y-241.752
X-620.867 Y-237.344
X-621.019 Y-232.941
X-621.203 Y-228.547
X-621.423 Y-224.162
X-621.676 Y-219.788
X-621.963 Y-215.426
X-622.286 Y-211.079
X-622.644 Y-206.747
X-623.038 Y-202.432
X-623.467 Y-198.136
X-623.933 Y-193.86
X-624.436 Y-189.603
X-624.701 Y-187.487
X-624.976 Y-185.374
X-625.26 Y-183.267
X-625.554 Y-181.167
X-625.857 Y-179.074
X-626.17 Y-176.986
X-626.493 Y-174.907
X-626.824 Y-172.833
X-627.167 Y-170.768
X-627.519 Y-168.709
X-627.881 Y-166.659
X-628.254 Y-164.615
X-628.636 Y-162.58
X-629.029 Y-160.553
X-629.431 Y-158.535
X-629.845 Y-156.525
X-630.269 Y-154.523
X-630.704 Y-152.53
X-631.149 Y-150.546
X-631.604 Y-148.572
X-632.07 Y-146.606
X-632.548 Y-144.651
X-633.037 Y-142.704
X-633.536 Y-140.768
X-634.047 Y-138.841
X-634.569 Y-136.925
X-635.102 Y-135.019
X-635.647 Y-133.125
X-636.203 Y-131.24
X-636.771 Y-129.365
X-637.351 Y-127.502
X-637.942 Y-125.651
X-638.546 Y-123.81
X-639.162 Y-121.981
X-639.789 Y-120.163
X-640.429 Y-118.358
X-641.082 Y-116.563
X-641.745 Y-114.782
X-642.423 Y-113.012
X-643.113 Y-111.255
X-643.815 Y-109.51
X-644.53 Y-107.778
X-645.259 Y-106.059
X-645.999 Y-104.353
X-646.753 Y-102.66
X-647.521 Y-100.98
X-648.302 Y-99.313
X-649.097 Y-97.66
X-649.904 Y-96.02
X-650.725 Y-94.395
X-651.561 Y-92.784
X-652.41 Y-91.186
X-653.273 Y-89.603
X-654.15 Y-88.035
X-655.042 Y-86.48
X-655.948 Y-84.941
X-656.868 Y-83.416
X-657.802 Y-81.906
X-658.752 Y-80.411
X-659.715 Y-78.931
X-660.694 Y-77.467
X-661.687 Y-76.018
X-662.696 Y-74.585
X-663.72 Y-73.167
X-664.759 Y-71.765
X-665.814 Y-70.378
X-666.883 Y-69.008
X-667.969 Y-67.655
X-669.071 Y-66.317
X-670.187 Y-64.995
X-671.321 Y-63.69
X-672.47 Y-62.402
X-673.635 Y-61.13
X-674.816 Y-59.875
X-676.015 Y-58.637
X-677.229 Y-57.416
X-678.46 Y-56.212
X-679.708 Y-55.026
X-680.973 Y-53.856
X-682.254 Y-52.704
X-683.553 Y-51.57
X-684.869 Y-50.453
X-686.201 Y-49.353
X-687.552 Y-48.272
X-688.92 Y-47.208
X-690.306 Y-46.163
X-691.709 Y-45.135
X-693.131 Y-44.126
X-694.57 Y-43.134
X-696.027 Y-42.162
X-697.503 Y-41.207
X-698.996 Y-40.271
X-700.509 Y-39.354
X-702.039 Y-38.455
X-703.589 Y-37.575
X-705.158 Y-36.714
X-706.745 Y-35.872
X-708.351 Y-35.049
X-709.976 Y-34.245
X-711.62 Y-33.46
X-713.283 Y-32.694
X-714.966 Y-31.948
X-716.668 Y-31.221
X-718.391 Y-30.513
X-720.132 Y-29.825
X-721.893 Y-29.157
X-723.674 Y-28.508
X-725.475 Y-27.88
X-727.297 Y-27.271
X-729.137 Y-26.681
X-730.998 Y-26.112
X-732.88 Y-25.563
X-734.782 Y-25.034
X-736.704 Y-24.526
X-738.647 Y-24.037
X-740.61 Y-23.569
X-742.594 Y-23.121
X-744.598 Y-22.693
X-746.623 Y-22.287
X-748.67 Y-21.9
X-750.736 Y-21.534
X-752.824 Y-21.189
X-754.933 Y-20.864
X-757.062 Y-20.56
X-759.213 Y-20.277
X-761.385 Y-20.015
X-763.578 Y-19.773
X-765.791 Y-19.553
X-768.027 Y-19.353
X-770.283 Y-19.174
X-772.56 Y-19.016
X-774.86 Y-18.879
X-777.18 Y-18.763
X-779.521 Y-18.669
X-781.884 Y-18.595
X-784.268 Y-18.542
X-786.673 Y-18.511
X-789.107 Y-18.5
G2 X-790.6 Y-17 I0.007 J1.5
G1 Y-9.723
Y-5
G2 X-789.1 Y-3.5 I1.5
G1 X-499.1
G2 X-497.6 Y-5 Z-14.016 J-1.5 F283.3
G1 Y-299.723 Z-16
Y-505 F850
G2 X-499.1 Y-506.5 I-1.5
G1 X-789.1
G2 X-790.6 Y-505 J1.5
G1 Y-493
G2 X-789.107 Y-491.5 I1.5
G1 X-786.673 Y-491.489
X-784.268 Y-491.458
X-781.884 Y-491.406
X-779.521 Y-491.331
X-777.18 Y-491.237
X-774.86 Y-491.12
X-772.56 Y-490.984
X-770.283 Y-490.826
X-768.027 Y-490.647
X-765.791 Y-490.448
X-763.578 Y-490.227
X-761.385 Y-489.985
X-759.213 Y-489.723
X-757.062 Y-489.44
X-754.933 Y-489.136
X-752.825 Y-488.811
X-750.736 Y-488.465
X-748.67 Y-488.1
X-746.623 Y-487.714
X-744.598 Y-487.306
X-742.594 Y-486.879
X-740.61 Y-486.431
X-738.647 Y-485.963
X-736.704 Y-485.475
X-734.782 Y-484.965
X-732.88 Y-484.436
X-730.998 Y-483.888
X-729.137 Y-483.318
X-727.296 Y-482.729
X-725.475 Y-482.12
X-723.674 Y-481.492
X-721.893 Y-480.843
X-720.132 Y-480.175
X-718.391 Y-479.487
X-716.668 Y-478.779
X-714.966 Y-478.053
X-713.283 Y-477.306
X-711.62 Y-476.541
X-709.976 Y-475.755
X-708.351 Y-474.951
X-706.745 Y-474.128
X-705.158 Y-473.286
X-703.589 Y-472.424
X-702.039 Y-471.545
X-700.509 Y-470.646
X-698.996 Y-469.729
X-697.503 Y-468.793
X-696.027 Y-467.838
X-694.57 Y-466.865
X-693.131 Y-465.875
X-691.71 Y-464.865
X-690.306 Y-463.837
X-688.92 Y-462.792
X-687.552 Y-461.728
X-686.201 Y-460.647
X-684.869 Y-459.548
X-683.553 Y-458.43
X-682.254 Y-457.295
X-680.973 Y-456.143
X-679.708 Y-454.975
X-678.46 Y-453.787
X-677.229 Y-452.584
X-676.015 Y-451.362
X-674.816 Y-450.124
X-673.635 Y-448.87
X-672.47 Y-447.598
X-671.321 Y-446.31
X-670.187 Y-445.005
X-669.071 Y-443.683
X-667.969 Y-442.345
X-666.883 Y-440.991
X-665.814 Y-439.621
X-664.759 Y-438.235
X-663.72 Y-436.833
X-662.696 Y-435.415
X-661.687 Y-433.982
X-660.694 Y-432.533
X-659.715 Y-431.069
X-658.752 Y-429.589
X-657.802 Y-428.094
X-656.868 Y-426.584
X-655.948 Y-425.059
X-655.042 Y-423.519
X-654.15 Y-421.966
X-653.273 Y-420.397
X-652.41 Y-418.814
X-651.561 Y-417.216
X-650.725 Y-415.604
X-649.904 Y-413.979
X-649.097 Y-412.34
X-648.302 Y-410.687
X-647.521 Y-409.02
X-646.753 Y-407.34
X-645.999 Y-405.647
X-645.259 Y-403.941
X-644.53 Y-402.222
X-643.815 Y-400.49
X-643.113 Y-398.745
X-642.423 Y-396.988
X-641.745 Y-395.218
X-641.082 Y-393.437
X-640.429 Y-391.642
X-639.789 Y-389.837
X-639.162 Y-388.019
X-638.546 Y-386.19
X-637.942 Y-384.349
X-637.351 Y-382.498
X-636.771 Y-380.635
X-636.203 Y-378.76
X-635.647 Y-376.875
X-635.102 Y-374.981
X-634.569 Y-373.075
X-634.047 Y-371.159
X-633.536 Y-369.232
X-633.037 Y-367.296
X-632.548 Y-365.349
X-632.07 Y-363.394
X-631.604 Y-361.428
X-631.149 Y-359.454
X-630.704 Y-357.47
X-630.269 Y-355.477
X-629.845 Y-353.475
X-629.431 Y-351.465
X-629.029 Y-349.447
X-628.636 Y-347.42
X-628.254 Y-345.385
X-627.881 Y-343.341
X-627.519 Y-341.291
X-627.167 Y-339.232
X-626.824 Y-337.167
X-626.493 Y-335.093
X-626.17 Y-333.014
X-625.857 Y-330.926
X-625.554 Y-328.833
X-625.26 Y-326.733
X-624.976 Y-324.626
X-624.701 Y-322.513
X-624.436 Y-320.397
X-623.933 Y-316.14
X-623.467 Y-311.864
X-623.038 Y-307.568
X-622.644 Y-303.253
X-622.286 Y-298.921
X-621.963 Y-294.574
X-621.676 Y-290.212
X-621.423 Y-285.838
X-621.203 Y-281.453
X-621.019 Y-277.059
X-620.867 Y-272.656
X-620.751 Y-268.248
X-620.667 Y-263.834
X-620.617 Y-259.418
X-620.6 Y-255
X-620.617 Y-250.582
X-620.667 Y-246.166
X-620.751 Y-241.752
X-620.867 Y-237.344
X-621.019 Y-232.941
X-621.203 Y-228.547
X-621.423 Y-224.162
X-621.676 Y-219.788
X-621.963 Y-215.426
X-622.286 Y-211.079
X-622.644 Y-206.747
X-623.038 Y-202.432
X-623.467 Y-198.136
X-623.933 Y-193.86
X-624.436 Y-189.603
X-624.701 Y-187.487
X-624.976 Y-185.374
X-625.26 Y-183.267
X-625.554 Y-181.167
X-625.857 Y-179.074
X-626.17 Y-176.986
X-626.493 Y-174.907
X-626.824 Y-172.833
X-627.167 Y-170.768
X-627.519 Y-168.709
X-627.881 Y-166.659
X-628.254 Y-164.615
X-628.636 Y-162.58
X-629.029 Y-160.553
X-629.431 Y-158.535
X-629.845 Y-156.525
X-630.269 Y-154.523
X-630.704 Y-152.53
X-631.149 Y-150.546
X-631.604 Y-148.572
X-632.07 Y-146.606
X-632.548 Y-144.651
X-633.037 Y-142.704
X-633.536 Y-140.768
X-634.047 Y-138.841
X-634.569 Y-136.925
X-635.102 Y-135.019
X-635.647 Y-133.125
X-636.203 Y-131.24
X-636.771 Y-129.365
X-637.351 Y-127.502
X-637.942 Y-125.651
X-638.546 Y-123.81
X-639.162 Y-121.981
X-639.789 Y-120.163
X-640.429 Y-118.358
X-641.082 Y-116.563
X-641.745 Y-114.782
X-642.423 Y-113.012
X-643.113 Y-111.255
X-643.815 Y-109.51
X-644.53 Y-107.778
X-645.259 Y-106.059
X-645.999 Y-104.353
X-646.753 Y-102.66
X-647.521 Y-100.98
X-648.302 Y-99.313
X-649.097 Y-97.66
X-649.904 Y-96.02
X-650.725 Y-94.395
X-651.561 Y-92.784
X-652.41 Y-91.186
X-653.273 Y-89.603
X-654.15 Y-88.035
X-655.042 Y-86.48
X-655.948 Y-84.941
X-656.868 Y-83.416
X-657.802 Y-81.906
X-658.752 Y-80.411
X-659.715 Y-78.931
X-660.694 Y-77.467
X-661.687 Y-76.018
X-662.696 Y-74.585
X-663.72 Y-73.167
X-664.759 Y-71.765
X-665.814 Y-70.378
X-666.883 Y-69.008
X-667.969 Y-67.655
X-669.071 Y-66.317
X-670.187 Y-64.995
X-671.321 Y-63.69
X-672.47 Y-62.402
X-673.635 Y-61.13
X-674.816 Y-59.875
X-676.015 Y-58.637
X-677.229 Y-57.416
X-678.46 Y-56.212
X-679.708 Y-55.026
X-680.973 Y-53.856
X-682.254 Y-52.704
X-683.553 Y-51.57
X-684.869 Y-50.453
X-686.201 Y-49.353
X-687.552 Y-48.272
X-688.92 Y-47.208
X-690.306 Y-46.163
X-691.709 Y-45.135
X-693.131 Y-44.126
X-694.57 Y-43.134
X-696.027 Y-42.162
X-697.503 Y-41.207
X-698.996 Y-40.271
X-700.509 Y-39.354
X-702.039 Y-38.455
X-703.589 Y-37.575
X-705.158 Y-36.714
X-706.745 Y-35.872
X-708.351 Y-35.049
X-709.976 Y-34.245
X-711.62 Y-33.46
X-713.283 Y-32.694
X-714.966 Y-31.948
X-716.668 Y-31.221
X-718.391 Y-30.513
X-720.132 Y-29.825
X-721.893 Y-29.157
X-723.674 Y-28.508
X-725.475 Y-27.88
X-727.297 Y-27.271
X-729.137 Y-26.681
X-730.998 Y-26.112
X-732.88 Y-25.563
X-734.782 Y-25.034
X-736.704 Y-24.526
X-738.647 Y-24.037
X-740.61 Y-23.569
X-742.594 Y-23.121
X-744.598 Y-22.693
X-746.623 Y-22.287
X-748.67 Y-21.9
X-750.736 Y-21.534
X-752.824 Y-21.189
X-754.933 Y-20.864
X-757.062 Y-20.56
X-759.213 Y-20.277
X-761.385 Y-20.015
X-763.578 Y-19.773
X-765.791 Y-19.553
X-768.027 Y-19.353
X-770.283 Y-19.174
X-772.56 Y-19.016
X-774.86 Y-18.879
X-777.18 Y-18.763
X-779.521 Y-18.669
X-781.884 Y-18.595
X-784.268 Y-18.542
X-786.673 Y-18.511
X-789.107 Y-18.5
G2 X-790.6 Y-17 I0.007 J1.5
G1 Y-5
G2 X-789.1 Y-3.5 I1.5
G1 X-499.1
G2 X-497.6 Y-5 J-1.5
G1 Y-299.723
G3 X-497.3 Y-300.023 I0.3
G1 X-497
G18 G2 X-496.7 Z-15.7 K0.3
G0 Z15
G17
M9
M30
%
