%
(1001)
(origin stock top)
(T1  D=3 CR=0 - ZMIN=-20 - flat end mill)
G90 G94
G17
G21

(2D Contour3)
M9
T1 M6
S12000 M3
G54
M9
G0 X-300.815 Y-6.5
Z15
Z5
G1 Z3 F283.3
Z2.5
X-258 Z-2
X-8 F850
G2 X-6.5 Y-8 J-1.5
G1 Y-298
G2 X-8 Y-299.5 I-1.5
G1 X-20
G2 X-21.5 Y-298.007 J1.5
G1 X-21.511 Y-295.573
X-21.542 Y-293.168
X-21.595 Y-290.784
X-21.669 Y-288.421
X-21.763 Y-286.08
X-21.879 Y-283.76
X-22.016 Y-281.46
X-22.174 Y-279.183
X-22.353 Y-276.927
X-22.553 Y-274.691
X-22.773 Y-272.478
X-23.015 Y-270.285
X-23.277 Y-268.113
X-23.56 Y-265.962
X-23.864 Y-263.833
X-24.189 Y-261.724
X-24.534 Y-259.636
X-24.9 Y-257.57
X-25.287 Y-255.523
X-25.693 Y-253.498
X-26.121 Y-251.494
X-26.569 Y-249.51
X-27.037 Y-247.547
X-27.526 Y-245.604
X-28.034 Y-243.682
X-28.563 Y-241.78
X-29.112 Y-239.898
X-29.681 Y-238.037
X-30.271 Y-236.197
X-30.88 Y-234.375
X-31.508 Y-232.574
X-32.157 Y-230.793
X-32.825 Y-229.032
X-33.513 Y-227.291
X-34.221 Y-225.568
X-34.948 Y-223.866
X-35.694 Y-222.183
X-36.46 Y-220.52
X-37.245 Y-218.876
X-38.049 Y-217.251
X-38.872 Y-215.645
X-39.714 Y-214.058
X-40.575 Y-212.489
X-41.455 Y-210.939
X-42.354 Y-209.409
X-43.271 Y-207.896
X-44.207 Y-206.403
X-45.162 Y-204.927
X-46.134 Y-203.47
X-47.126 Y-202.031
X-48.135 Y-200.609
X-49.163 Y-199.206
X-50.208 Y-197.82
X-51.272 Y-196.452
X-52.353 Y-195.101
X-53.453 Y-193.769
X-54.57 Y-192.453
X-55.704 Y-191.154
X-56.856 Y-189.873
X-58.026 Y-188.608
X-59.212 Y-187.36
X-60.416 Y-186.129
X-61.637 Y-184.915
X-62.875 Y-183.716
X-64.13 Y-182.535
X-65.402 Y-181.37
X-66.69 Y-180.221
X-67.995 Y-179.087
X-69.317 Y-177.971
X-70.655 Y-176.869
X-72.008 Y-175.783
X-73.378 Y-174.714
X-74.765 Y-173.659
X-76.167 Y-172.62
X-77.585 Y-171.596
X-79.018 Y-170.587
X-80.467 Y-169.594
X-81.931 Y-168.615
X-83.411 Y-167.652
X-84.906 Y-166.702
X-86.416 Y-165.768
X-87.941 Y-164.848
X-89.48 Y-163.942
X-91.035 Y-163.05
X-92.603 Y-162.173
X-94.186 Y-161.31
X-95.784 Y-160.461
X-97.395 Y-159.625
X-99.02 Y-158.804
X-100.66 Y-157.997
X-102.313 Y-157.202
X-103.98 Y-156.421
X-105.66 Y-155.653
X-107.353 Y-154.899
X-109.059 Y-154.159
X-110.778 Y-153.43
X-112.51 Y-152.715
X-114.255 Y-152.013
X-116.012 Y-151.323
X-117.782 Y-150.645
X-119.563 Y-149.982
X-121.358 Y-149.329
X-123.163 Y-148.689
X-124.981 Y-148.062
X-126.81 Y-147.446
X-128.651 Y-146.842
X-130.502 Y-146.251
X-132.365 Y-145.671
X-134.24 Y-145.103
X-136.125 Y-144.547
X-138.019 Y-144.002
X-139.925 Y-143.469
X-141.841 Y-142.947
X-143.768 Y-142.436
X-145.704 Y-141.937
X-147.651 Y-141.448
X-149.606 Y-140.97
X-151.572 Y-140.504
X-153.546 Y-140.049
X-155.53 Y-139.604
X-157.523 Y-139.169
X-159.525 Y-138.745
X-161.535 Y-138.331
X-163.553 Y-137.929
X-165.58 Y-137.536
X-167.615 Y-137.154
X-169.659 Y-136.781
X-171.709 Y-136.419
X-173.768 Y-136.067
X-175.833 Y-135.724
X-177.907 Y-135.393
X-179.986 Y-135.07
X-182.074 Y-134.757
X-184.167 Y-134.454
X-186.267 Y-134.16
X-188.374 Y-133.876
X-190.487 Y-133.601
X-192.603 Y-133.336
X-196.86 Y-132.833
X-201.136 Y-132.367
X-205.432 Y-131.938
X-209.747 Y-131.544
X-214.079 Y-131.186
X-218.426 Y-130.863
X-222.788 Y-130.576
X-227.162 Y-130.323
X-231.547 Y-130.103
X-235.941 Y-129.919
X-240.344 Y-129.767
X-244.752 Y-129.651
X-249.166 Y-129.567
X-253.582 Y-129.517
X-258 Y-129.5
X-262.418 Y-129.517
X-266.834 Y-129.567
X-271.248 Y-129.651
X-275.656 Y-129.767
X-280.059 Y-129.919
X-284.453 Y-130.103
X-288.838 Y-130.323
X-293.212 Y-130.576
X-297.574 Y-130.863
X-301.921 Y-131.186
X-306.253 Y-131.544
X-310.568 Y-131.938
X-314.864 Y-132.367
X-319.14 Y-132.833
X-323.397 Y-133.336
X-325.513 Y-133.601
X-327.626 Y-133.876
X-329.733 Y-134.16
X-331.833 Y-134.454
X-333.926 Y-134.757
X-336.014 Y-135.07
X-338.093 Y-135.393
X-340.167 Y-135.724
X-342.232 Y-136.067
X-344.291 Y-136.419
X-346.341 Y-136.781
X-348.385 Y-137.154
X-350.42 Y-137.536
X-352.447 Y-137.929
X-354.465 Y-138.331
X-356.475 Y-138.745
X-358.477 Y-139.169
X-360.47 Y-139.604
X-362.454 Y-140.049
X-364.428 Y-140.504
X-366.394 Y-140.97
X-368.349 Y-141.448
X-370.296 Y-141.937
X-372.232 Y-142.436
X-374.159 Y-142.947
X-376.075 Y-143.469
X-377.981 Y-144.002
X-379.875 Y-144.547
X-381.76 Y-145.103
X-383.635 Y-145.671
X-385.498 Y-146.251
X-387.349 Y-146.842
X-389.19 Y-147.446
X-391.019 Y-148.062
X-392.837 Y-148.689
X-394.642 Y-149.329
X-396.437 Y-149.982
X-398.218 Y-150.645
X-399.988 Y-151.323
X-401.745 Y-152.013
X-403.49 Y-152.715
X-405.222 Y-153.43
X-406.941 Y-154.159
X-408.647 Y-154.899
X-410.34 Y-155.653
X-412.02 Y-156.421
X-413.687 Y-157.202
X-415.34 Y-157.997
X-416.979 Y-158.804
X-418.604 Y-159.625
X-420.216 Y-160.461
X-421.814 Y-161.31
X-423.397 Y-162.173
X-424.966 Y-163.05
X-426.519 Y-163.942
X-428.059 Y-164.848
X-429.584 Y-165.768
X-431.094 Y-166.702
X-432.589 Y-167.652
X-434.069 Y-168.615
X-435.533 Y-169.594
X-436.982 Y-170.587
X-438.415 Y-171.596
X-439.833 Y-172.62
X-441.235 Y-173.659
X-442.621 Y-174.714
X-443.991 Y-175.783
X-445.345 Y-176.869
X-446.683 Y-177.971
X-448.005 Y-179.087
X-449.31 Y-180.221
X-450.598 Y-181.37
X-451.87 Y-182.535
X-453.124 Y-183.716
X-454.362 Y-184.915
X-455.584 Y-186.129
X-456.787 Y-187.36
X-457.975 Y-188.608
X-459.143 Y-189.873
X-460.295 Y-191.154
X-461.43 Y-192.453
X-462.548 Y-193.769
X-463.647 Y-195.101
X-464.728 Y-196.452
X-465.792 Y-197.82
X-466.837 Y-199.206
X-467.865 Y-200.61
X-468.875 Y-202.031
X-469.865 Y-203.47
X-470.838 Y-204.927
X-471.793 Y-206.403
X-472.729 Y-207.896
X-473.646 Y-209.409
X-474.545 Y-210.939
X-475.424 Y-212.489
X-476.286 Y-214.058
X-477.128 Y-215.645
X-477.951 Y-217.251
X-478.755 Y-218.876
X-479.541 Y-220.52
X-480.306 Y-222.183
X-481.053 Y-223.866
X-481.779 Y-225.568
X-482.487 Y-227.291
X-483.175 Y-229.032
X-483.843 Y-230.793
X-484.492 Y-232.574
X-485.12 Y-234.375
X-485.729 Y-236.196
X-486.318 Y-238.037
X-486.888 Y-239.898
X-487.436 Y-241.78
X-487.965 Y-243.682
X-488.475 Y-245.604
X-488.963 Y-247.547
X-489.431 Y-249.51
X-489.879 Y-251.494
X-490.306 Y-253.498
X-490.714 Y-255.523
X-491.1 Y-257.57
X-491.465 Y-259.636
X-491.811 Y-261.725
X-492.136 Y-263.833
X-492.44 Y-265.962
X-492.723 Y-268.113
X-492.985 Y-270.285
X-493.227 Y-272.478
X-493.448 Y-274.691
X-493.647 Y-276.927
X-493.826 Y-279.183
X-493.984 Y-281.46
X-494.12 Y-283.76
X-494.237 Y-286.08
X-494.331 Y-288.421
X-494.406 Y-290.784
X-494.458 Y-293.168
X-494.489 Y-295.573
X-494.5 Y-298.007
G2 X-496 Y-299.5 I-1.5 J0.007
G1 X-508
G2 X-509.5 Y-298 J1.5
G1 Y-8
G2 X-508 Y-6.5 I1.5
G1 X-258
X-8 Z-3.683 F283.3
G2 X-6.5 Y-8 Z-3.699 J-1.5
G1 Y-52.723 Z-4
Y-298 F850
G2 X-8 Y-299.5 I-1.5
G1 X-20
G2 X-21.5 Y-298.007 J1.5
G1 X-21.511 Y-295.573
X-21.542 Y-293.168
X-21.595 Y-290.784
X-21.669 Y-288.421
X-21.763 Y-286.08
X-21.879 Y-283.76
X-22.016 Y-281.46
X-22.174 Y-279.183
X-22.353 Y-276.927
X-22.553 Y-274.691
X-22.773 Y-272.478
X-23.015 Y-270.285
X-23.277 Y-268.113
X-23.56 Y-265.962
X-23.864 Y-263.833
X-24.189 Y-261.724
X-24.534 Y-259.636
X-24.9 Y-257.57
X-25.287 Y-255.523
X-25.693 Y-253.498
X-26.121 Y-251.494
X-26.569 Y-249.51
X-27.037 Y-247.547
X-27.526 Y-245.604
X-28.034 Y-243.682
X-28.563 Y-241.78
X-29.112 Y-239.898
X-29.681 Y-238.037
X-30.271 Y-236.197
X-30.88 Y-234.375
X-31.508 Y-232.574
X-32.157 Y-230.793
X-32.825 Y-229.032
X-33.513 Y-227.291
X-34.221 Y-225.568
X-34.948 Y-223.866
X-35.694 Y-222.183
X-36.46 Y-220.52
X-37.245 Y-218.876
X-38.049 Y-217.251
X-38.872 Y-215.645
X-39.714 Y-214.058
X-40.575 Y-212.489
X-41.455 Y-210.939
X-42.354 Y-209.409
X-43.271 Y-207.896
X-44.207 Y-206.403
X-45.162 Y-204.927
X-46.134 Y-203.47
X-47.126 Y-202.031
X-48.135 Y-200.609
X-49.163 Y-199.206
X-50.208 Y-197.82
X-51.272 Y-196.452
X-52.353 Y-195.101
X-53.453 Y-193.769
X-54.57 Y-192.453
X-55.704 Y-191.154
X-56.856 Y-189.873
X-58.026 Y-188.608
X-59.212 Y-187.36
X-60.416 Y-186.129
X-61.637 Y-184.915
X-62.875 Y-183.716
X-64.13 Y-182.535
X-65.402 Y-181.37
X-66.69 Y-180.221
X-67.995 Y-179.087
X-69.317 Y-177.971
X-70.655 Y-176.869
X-72.008 Y-175.783
X-73.378 Y-174.714
X-74.765 Y-173.659
X-76.167 Y-172.62
X-77.585 Y-171.596
X-79.018 Y-170.587
X-80.467 Y-169.594
X-81.931 Y-168.615
X-83.411 Y-167.652
X-84.906 Y-166.702
X-86.416 Y-165.768
X-87.941 Y-164.848
X-89.48 Y-163.942
X-91.035 Y-163.05
X-92.603 Y-162.173
X-94.186 Y-161.31
X-95.784 Y-160.461
X-97.395 Y-159.625
X-99.02 Y-158.804
X-100.66 Y-157.997
X-102.313 Y-157.202
X-103.98 Y-156.421
X-105.66 Y-155.653
X-107.353 Y-154.899
X-109.059 Y-154.159
X-110.778 Y-153.43
X-112.51 Y-152.715
X-114.255 Y-152.013
X-116.012 Y-151.323
X-117.782 Y-150.645
X-119.563 Y-149.982
X-121.358 Y-149.329
X-123.163 Y-148.689
X-124.981 Y-148.062
X-126.81 Y-147.446
X-128.651 Y-146.842
X-130.502 Y-146.251
X-132.365 Y-145.671
X-134.24 Y-145.103
X-136.125 Y-144.547
X-138.019 Y-144.002
X-139.925 Y-143.469
X-141.841 Y-142.947
X-143.768 Y-142.436
X-145.704 Y-141.937
X-147.651 Y-141.448
X-149.606 Y-140.97
X-151.572 Y-140.504
X-153.546 Y-140.049
X-155.53 Y-139.604
X-157.523 Y-139.169
X-159.525 Y-138.745
X-161.535 Y-138.331
X-163.553 Y-137.929
X-165.58 Y-137.536
X-167.615 Y-137.154
X-169.659 Y-136.781
X-171.709 Y-136.419
X-173.768 Y-136.067
X-175.833 Y-135.724
X-177.907 Y-135.393
X-179.986 Y-135.07
X-182.074 Y-134.757
X-184.167 Y-134.454
X-186.267 Y-134.16
X-188.374 Y-133.876
X-190.487 Y-133.601
X-192.603 Y-133.336
X-196.86 Y-132.833
X-201.136 Y-132.367
X-205.432 Y-131.938
X-209.747 Y-131.544
X-214.079 Y-131.186
X-218.426 Y-130.863
X-222.788 Y-130.576
X-227.162 Y-130.323
X-231.547 Y-130.103
X-235.941 Y-129.919
X-240.344 Y-129.767
X-244.752 Y-129.651
X-249.166 Y-129.567
X-253.582 Y-129.517
X-258 Y-129.5
X-262.418 Y-129.517
X-266.834 Y-129.567
X-271.248 Y-129.651
X-275.656 Y-129.767
X-280.059 Y-129.919
X-284.453 Y-130.103
X-288.838 Y-130.323
X-293.212 Y-130.576
X-297.574 Y-130.863
X-301.921 Y-131.186
X-306.253 Y-131.544
X-310.568 Y-131.938
X-314.864 Y-132.367
X-319.14 Y-132.833
X-323.397 Y-133.336
X-325.513 Y-133.601
X-327.626 Y-133.876
X-329.733 Y-134.16
X-331.833 Y-134.454
X-333.926 Y-134.757
X-336.014 Y-135.07
X-338.093 Y-135.393
X-340.167 Y-135.724
X-342.232 Y-136.067
X-344.291 Y-136.419
X-346.341 Y-136.781
X-348.385 Y-137.154
X-350.42 Y-137.536
X-352.447 Y-137.929
X-354.465 Y-138.331
X-356.475 Y-138.745
X-358.477 Y-139.169
X-360.47 Y-139.604
X-362.454 Y-140.049
X-364.428 Y-140.504
X-366.394 Y-140.97
X-368.349 Y-141.448
X-370.296 Y-141.937
X-372.232 Y-142.436
X-374.159 Y-142.947
X-376.075 Y-143.469
X-377.981 Y-144.002
X-379.875 Y-144.547
X-381.76 Y-145.103
X-383.635 Y-145.671
X-385.498 Y-146.251
X-387.349 Y-146.842
X-389.19 Y-147.446
X-391.019 Y-148.062
X-392.837 Y-148.689
X-394.642 Y-149.329
X-396.437 Y-149.982
X-398.218 Y-150.645
X-399.988 Y-151.323
X-401.745 Y-152.013
X-403.49 Y-152.715
X-405.222 Y-153.43
X-406.941 Y-154.159
X-408.647 Y-154.899
X-410.34 Y-155.653
X-412.02 Y-156.421
X-413.687 Y-157.202
X-415.34 Y-157.997
X-416.979 Y-158.804
X-418.604 Y-159.625
X-420.216 Y-160.461
X-421.814 Y-161.31
X-423.397 Y-162.173
X-424.966 Y-163.05
X-426.519 Y-163.942
X-428.059 Y-164.848
X-429.584 Y-165.768
X-431.094 Y-166.702
X-432.589 Y-167.652
X-434.069 Y-168.615
X-435.533 Y-169.594
X-436.982 Y-170.587
X-438.415 Y-171.596
X-439.833 Y-172.62
X-441.235 Y-173.659
X-442.621 Y-174.714
X-443.991 Y-175.783
X-445.345 Y-176.869
X-446.683 Y-177.971
X-448.005 Y-179.087
X-449.31 Y-180.221
X-450.598 Y-181.37
X-451.87 Y-182.535
X-453.124 Y-183.716
X-454.362 Y-184.915
X-455.584 Y-186.129
X-456.787 Y-187.36
X-457.975 Y-188.608
X-459.143 Y-189.873
X-460.295 Y-191.154
X-461.43 Y-192.453
X-462.548 Y-193.769
X-463.647 Y-195.101
X-464.728 Y-196.452
X-465.792 Y-197.82
X-466.837 Y-199.206
X-467.865 Y-200.61
X-468.875 Y-202.031
X-469.865 Y-203.47
X-470.838 Y-204.927
X-471.793 Y-206.403
X-472.729 Y-207.896
X-473.646 Y-209.409
X-474.545 Y-210.939
X-475.424 Y-212.489
X-476.286 Y-214.058
X-477.128 Y-215.645
X-477.951 Y-217.251
X-478.755 Y-218.876
X-479.541 Y-220.52
X-480.306 Y-222.183
X-481.053 Y-223.866
X-481.779 Y-225.568
X-482.487 Y-227.291
X-483.175 Y-229.032
X-483.843 Y-230.793
X-484.492 Y-232.574
X-485.12 Y-234.375
X-485.729 Y-236.196
X-486.318 Y-238.037
X-486.888 Y-239.898
X-487.436 Y-241.78
X-487.965 Y-243.682
X-488.475 Y-245.604
X-488.963 Y-247.547
X-489.431 Y-249.51
X-489.879 Y-251.494
X-490.306 Y-253.498
X-490.714 Y-255.523
X-491.1 Y-257.57
X-491.465 Y-259.636
X-491.811 Y-261.725
X-492.136 Y-263.833
X-492.44 Y-265.962
X-492.723 Y-268.113
X-492.985 Y-270.285
X-493.227 Y-272.478
X-493.448 Y-274.691
X-493.647 Y-276.927
X-493.826 Y-279.183
X-493.984 Y-281.46
X-494.12 Y-283.76
X-494.237 Y-286.08
X-494.331 Y-288.421
X-494.406 Y-290.784
X-494.458 Y-293.168
X-494.489 Y-295.573
X-494.5 Y-298.007
G2 X-496 Y-299.5 I-1.5 J0.007
G1 X-508
G2 X-509.5 Y-298 J1.5
G1 Y-8
G2 X-508 Y-6.5 I1.5
G1 X-8
G2 X-6.5 Y-8 J-1.5
G1 Y-52.723
Y-298 Z-5.651 F283.3
G2 X-8 Y-299.5 Z-5.667 I-1.5
G1 X-20 Z-5.748
G2 X-21.5 Y-298.007 Z-5.764 J1.5
G1 X-21.511 Y-295.573 Z-5.78
X-21.542 Y-293.168 Z-5.796
X-21.595 Y-290.784 Z-5.812
X-21.669 Y-288.421 Z-5.828
X-21.763 Y-286.08 Z-5.844
X-21.879 Y-283.76 Z-5.86
X-22.016 Y-281.46 Z-5.875
X-22.174 Y-279.183 Z-5.891
X-22.353 Y-276.927 Z-5.906
X-22.553 Y-274.691 Z-5.921
X-22.773 Y-272.478 Z-5.936
X-23.015 Y-270.285 Z-5.951
X-23.277 Y-268.113 Z-5.965
X-23.56 Y-265.962 Z-5.98
X-23.864 Y-263.833 Z-5.995
X-23.988 Y-263.032 Z-6
X-24.189 Y-261.724 F850
X-24.534 Y-259.636
X-24.9 Y-257.57
X-25.287 Y-255.523
X-25.693 Y-253.498
X-26.121 Y-251.494
X-26.569 Y-249.51
X-27.037 Y-247.547
X-27.526 Y-245.604
X-28.034 Y-243.682
X-28.563 Y-241.78
X-29.112 Y-239.898
X-29.681 Y-238.037
X-30.271 Y-236.197
X-30.88 Y-234.375
X-31.508 Y-232.574
X-32.157 Y-230.793
X-32.825 Y-229.032
X-33.513 Y-227.291
X-34.221 Y-225.568
X-34.948 Y-223.866
X-35.694 Y-222.183
X-36.46 Y-220.52
X-37.245 Y-218.876
X-38.049 Y-217.251
X-38.872 Y-215.645
X-39.714 Y-214.058
X-40.575 Y-212.489
X-41.455 Y-210.939
X-42.354 Y-209.409
X-43.271 Y-207.896
X-44.207 Y-206.403
X-45.162 Y-204.927
X-46.134 Y-203.47
X-47.126 Y-202.031
X-48.135 Y-200.609
X-49.163 Y-199.206
X-50.208 Y-197.82
X-51.272 Y-196.452
X-52.353 Y-195.101
X-53.453 Y-193.769
X-54.57 Y-192.453
X-55.704 Y-191.154
X-56.856 Y-189.873
X-58.026 Y-188.608
X-59.212 Y-187.36
X-60.416 Y-186.129
X-61.637 Y-184.915
X-62.875 Y-183.716
X-64.13 Y-182.535
X-65.402 Y-181.37
X-66.69 Y-180.221
X-67.995 Y-179.087
X-69.317 Y-177.971
X-70.655 Y-176.869
X-72.008 Y-175.783
X-73.378 Y-174.714
X-74.765 Y-173.659
X-76.167 Y-172.62
X-77.585 Y-171.596
X-79.018 Y-170.587
X-80.467 Y-169.594
X-81.931 Y-168.615
X-83.411 Y-167.652
X-84.906 Y-166.702
X-86.416 Y-165.768
X-87.941 Y-164.848
X-89.48 Y-163.942
X-91.035 Y-163.05
X-92.603 Y-162.173
X-94.186 Y-161.31
X-95.784 Y-160.461
X-97.395 Y-159.625
X-99.02 Y-158.804
X-100.66 Y-157.997
X-102.313 Y-157.202
X-103.98 Y-156.421
X-105.66 Y-155.653
X-107.353 Y-154.899
X-109.059 Y-154.159
X-110.778 Y-153.43
X-112.51 Y-152.715
X-114.255 Y-152.013
X-116.012 Y-151.323
X-117.782 Y-150.645
X-119.563 Y-149.982
X-121.358 Y-149.329
X-123.163 Y-148.689
X-124.981 Y-148.062
X-126.81 Y-147.446
X-128.651 Y-146.842
X-130.502 Y-146.251
X-132.365 Y-145.671
X-134.24 Y-145.103
X-136.125 Y-144.547
X-138.019 Y-144.002
X-139.925 Y-143.469
X-141.841 Y-142.947
X-143.768 Y-142.436
X-145.704 Y-141.937
X-147.651 Y-141.448
X-149.606 Y-140.97
X-151.572 Y-140.504
X-153.546 Y-140.049
X-155.53 Y-139.604
X-157.523 Y-139.169
X-159.525 Y-138.745
X-161.535 Y-138.331
X-163.553 Y-137.929
X-165.58 Y-137.536
X-167.615 Y-137.154
X-169.659 Y-136.781
X-171.709 Y-136.419
X-173.768 Y-136.067
X-175.833 Y-135.724
X-177.907 Y-135.393
X-179.986 Y-135.07
X-182.074 Y-134.757
X-184.167 Y-134.454
X-186.267 Y-134.16
X-188.374 Y-133.876
X-190.487 Y-133.601
X-192.603 Y-133.336
X-196.86 Y-132.833
X-201.136 Y-132.367
X-205.432 Y-131.938
X-209.747 Y-131.544
X-214.079 Y-131.186
X-218.426 Y-130.863
X-222.788 Y-130.576
X-227.162 Y-130.323
X-231.547 Y-130.103
X-235.941 Y-129.919
X-240.344 Y-129.767
X-244.752 Y-129.651
X-249.166 Y-129.567
X-253.582 Y-129.517
X-258 Y-129.5
X-262.418 Y-129.517
X-266.834 Y-129.567
X-271.248 Y-129.651
X-275.656 Y-129.767
X-280.059 Y-129.919
X-284.453 Y-130.103
X-288.838 Y-130.323
X-293.212 Y-130.576
X-297.574 Y-130.863
X-301.921 Y-131.186
X-306.253 Y-131.544
X-310.568 Y-131.938
X-314.864 Y-132.367
X-319.14 Y-132.833
X-323.397 Y-133.336
X-325.513 Y-133.601
X-327.626 Y-133.876
X-329.733 Y-134.16
X-331.833 Y-134.454
X-333.926 Y-134.757
X-336.014 Y-135.07
X-338.093 Y-135.393
X-340.167 Y-135.724
X-342.232 Y-136.067
X-344.291 Y-136.419
X-346.341 Y-136.781
X-348.385 Y-137.154
X-350.42 Y-137.536
X-352.447 Y-137.929
X-354.465 Y-138.331
X-356.475 Y-138.745
X-358.477 Y-139.169
X-360.47 Y-139.604
X-362.454 Y-140.049
X-364.428 Y-140.504
X-366.394 Y-140.97
X-368.349 Y-141.448
X-370.296 Y-141.937
X-372.232 Y-142.436
X-374.159 Y-142.947
X-376.075 Y-143.469
X-377.981 Y-144.002
X-379.875 Y-144.547
X-381.76 Y-145.103
X-383.635 Y-145.671
X-385.498 Y-146.251
X-387.349 Y-146.842
X-389.19 Y-147.446
X-391.019 Y-148.062
X-392.837 Y-148.689
X-394.642 Y-149.329
X-396.437 Y-149.982
X-398.218 Y-150.645
X-399.988 Y-151.323
X-401.745 Y-152.013
X-403.49 Y-152.715
X-405.222 Y-153.43
X-406.941 Y-154.159
X-408.647 Y-154.899
X-410.34 Y-155.653
X-412.02 Y-156.421
X-413.687 Y-157.202
X-415.34 Y-157.997
X-416.979 Y-158.804
X-418.604 Y-159.625
X-420.216 Y-160.461
X-421.814 Y-161.31
X-423.397 Y-162.173
X-424.966 Y-163.05
X-426.519 Y-163.942
X-428.059 Y-164.848
X-429.584 Y-165.768
X-431.094 Y-166.702
X-432.589 Y-167.652
X-434.069 Y-168.615
X-435.533 Y-169.594
X-436.982 Y-170.587
X-438.415 Y-171.596
X-439.833 Y-172.62
X-441.235 Y-173.659
X-442.621 Y-174.714
X-443.991 Y-175.783
X-445.345 Y-176.869
X-446.683 Y-177.971
X-448.005 Y-179.087
X-449.31 Y-180.221
X-450.598 Y-181.37
X-451.87 Y-182.535
X-453.124 Y-183.716
X-454.362 Y-184.915
X-455.584 Y-186.129
X-456.787 Y-187.36
X-457.975 Y-188.608
X-459.143 Y-189.873
X-460.295 Y-191.154
X-461.43 Y-192.453
X-462.548 Y-193.769
X-463.647 Y-195.101
X-464.728 Y-196.452
X-465.792 Y-197.82
X-466.837 Y-199.206
X-467.865 Y-200.61
X-468.875 Y-202.031
X-469.865 Y-203.47
X-470.838 Y-204.927
X-471.793 Y-206.403
X-472.729 Y-207.896
X-473.646 Y-209.409
X-474.545 Y-210.939
X-475.424 Y-212.489
X-476.286 Y-214.058
X-477.128 Y-215.645
X-477.951 Y-217.251
X-478.755 Y-218.876
X-479.541 Y-220.52
X-480.306 Y-222.183
X-481.053 Y-223.866
X-481.779 Y-225.568
X-482.487 Y-227.291
X-483.175 Y-229.032
X-483.843 Y-230.793
X-484.492 Y-232.574
X-485.12 Y-234.375
X-485.729 Y-236.196
X-486.318 Y-238.037
X-486.888 Y-239.898
X-487.436 Y-241.78
X-487.965 Y-243.682
X-488.475 Y-245.604
X-488.963 Y-247.547
X-489.431 Y-249.51
X-489.879 Y-251.494
X-490.306 Y-253.498
X-490.714 Y-255.523
X-491.1 Y-257.57
X-491.465 Y-259.636
X-491.811 Y-261.725
X-492.136 Y-263.833
X-492.44 Y-265.962
X-492.723 Y-268.113
X-492.985 Y-270.285
X-493.227 Y-272.478
X-493.448 Y-274.691
X-493.647 Y-276.927
X-493.826 Y-279.183
X-493.984 Y-281.46
X-494.12 Y-283.76
X-494.237 Y-286.08
X-494.331 Y-288.421
X-494.406 Y-290.784
X-494.458 Y-293.168
X-494.489 Y-295.573
X-494.5 Y-298.007
G2 X-496 Y-299.5 I-1.5 J0.007
G1 X-508
G2 X-509.5 Y-298 J1.5
G1 Y-8
G2 X-508 Y-6.5 I1.5
G1 X-8
G2 X-6.5 Y-8 J-1.5
G1 Y-298
G2 X-8 Y-299.5 I-1.5
G1 X-20
G2 X-21.5 Y-298.007 J1.5
G1 X-21.511 Y-295.573
X-21.542 Y-293.168
X-21.595 Y-290.784
X-21.669 Y-288.421
X-21.763 Y-286.08
X-21.879 Y-283.76
X-22.016 Y-281.46
X-22.174 Y-279.183
X-22.353 Y-276.927
X-22.553 Y-274.691
X-22.773 Y-272.478
X-23.015 Y-270.285
X-23.277 Y-268.113
X-23.56 Y-265.962
X-23.864 Y-263.833
X-23.988 Y-263.032
X-24.189 Y-261.724 Z-6.009 F283.3
X-24.534 Y-259.636 Z-6.023
X-24.9 Y-257.57 Z-6.037
X-25.287 Y-255.523 Z-6.051
X-25.693 Y-253.498 Z-6.065
X-26.121 Y-251.494 Z-6.079
X-26.569 Y-249.51 Z-6.093
X-27.037 Y-247.547 Z-6.106
X-27.526 Y-245.604 Z-6.12
X-28.034 Y-243.682 Z-6.133
X-28.563 Y-241.78 Z-6.146
X-29.112 Y-239.898 Z-6.16
X-29.681 Y-238.037 Z-6.173
X-30.271 Y-236.197 Z-6.186
X-30.88 Y-234.375 Z-6.199
X-31.508 Y-232.574 Z-6.212
X-32.157 Y-230.793 Z-6.224
X-32.825 Y-229.032 Z-6.237
X-33.513 Y-227.291 Z-6.25
X-34.221 Y-225.568 Z-6.262
X-34.948 Y-223.866 Z-6.275
X-35.694 Y-222.183 Z-6.287
X-36.46 Y-220.52 Z-6.299
X-37.245 Y-218.876 Z-6.312
X-38.049 Y-217.251 Z-6.324
X-38.872 Y-215.645 Z-6.336
X-39.714 Y-214.058 Z-6.348
X-40.575 Y-212.489 Z-6.36
X-41.455 Y-210.939 Z-6.372
X-42.354 Y-209.409 Z-6.384
X-43.271 Y-207.896 Z-6.396
X-44.207 Y-206.403 Z-6.408
X-45.162 Y-204.927 Z-6.42
X-46.134 Y-203.47 Z-6.431
X-47.126 Y-202.031 Z-6.443
X-48.135 Y-200.609 Z-6.455
X-49.163 Y-199.206 Z-6.467
X-50.208 Y-197.82 Z-6.478
X-51.272 Y-196.452 Z-6.49
X-52.353 Y-195.101 Z-6.502
X-53.453 Y-193.769 Z-6.513
X-54.57 Y-192.453 Z-6.525
X-55.704 Y-191.154 Z-6.536
X-56.856 Y-189.873 Z-6.548
X-58.026 Y-188.608 Z-6.56
X-59.212 Y-187.36 Z-6.571
X-60.416 Y-186.129 Z-6.583
X-61.637 Y-184.915 Z-6.594
X-62.875 Y-183.716 Z-6.606
X-64.13 Y-182.535 Z-6.618
X-65.402 Y-181.37 Z-6.629
X-66.69 Y-180.221 Z-6.641
X-67.995 Y-179.087 Z-6.653
X-69.317 Y-177.971 Z-6.664
X-70.655 Y-176.869 Z-6.676
X-72.008 Y-175.783 Z-6.688
X-73.378 Y-174.714 Z-6.699
X-74.765 Y-173.659 Z-6.711
X-76.167 Y-172.62 Z-6.723
X-77.585 Y-171.596 Z-6.734
X-79.018 Y-170.587 Z-6.746
X-80.467 Y-169.594 Z-6.758
X-81.931 Y-168.615 Z-6.77
X-83.411 Y-167.652 Z-6.782
X-84.906 Y-166.702 Z-6.794
X-86.416 Y-165.768 Z-6.806
X-87.941 Y-164.848 Z-6.818
X-89.48 Y-163.942 Z-6.83
X-91.035 Y-163.05 Z-6.842
X-92.603 Y-162.173 Z-6.854
X-94.186 Y-161.31 Z-6.866
X-95.784 Y-160.461 Z-6.878
X-97.395 Y-159.625 Z-6.89
X-99.02 Y-158.804 Z-6.903
X-100.66 Y-157.997 Z-6.915
X-102.313 Y-157.202 Z-6.927
X-103.98 Y-156.421 Z-6.94
X-105.66 Y-155.653 Z-6.952
X-107.353 Y-154.899 Z-6.965
X-109.059 Y-154.159 Z-6.977
X-110.778 Y-153.43 Z-6.99
X-112.51 Y-152.715 Z-7.002
X-114.255 Y-152.013 Z-7.015
X-116.012 Y-151.323 Z-7.028
X-117.782 Y-150.645 Z-7.04
X-119.563 Y-149.982 Z-7.053
X-121.358 Y-149.329 Z-7.066
X-123.163 Y-148.689 Z-7.079
X-124.981 Y-148.062 Z-7.092
X-126.81 Y-147.446 Z-7.105
X-128.651 Y-146.842 Z-7.118
X-130.502 Y-146.251 Z-7.131
X-132.365 Y-145.671 Z-7.144
X-134.24 Y-145.103 Z-7.157
X-136.125 Y-144.547 Z-7.171
X-138.019 Y-144.002 Z-7.184
X-139.925 Y-143.469 Z-7.197
X-141.841 Y-142.947 Z-7.211
X-143.768 Y-142.436 Z-7.224
X-145.704 Y-141.937 Z-7.237
X-147.651 Y-141.448 Z-7.251
X-149.606 Y-140.97 Z-7.265
X-151.572 Y-140.504 Z-7.278
X-153.546 Y-140.049 Z-7.292
X-155.53 Y-139.604 Z-7.305
X-157.523 Y-139.169 Z-7.319
X-159.525 Y-138.745 Z-7.333
X-161.535 Y-138.331 Z-7.347
X-163.553 Y-137.929 Z-7.361
X-165.58 Y-137.536 Z-7.375
X-167.615 Y-137.154 Z-7.389
X-169.659 Y-136.781 Z-7.402
X-171.709 Y-136.419 Z-7.417
X-173.768 Y-136.067 Z-7.431
X-175.833 Y-135.724 Z-7.445
X-177.907 Y-135.393 Z-7.459
X-179.986 Y-135.07 Z-7.473
X-182.074 Y-134.757 Z-7.487
X-184.167 Y-134.454 Z-7.501
X-186.267 Y-134.16 Z-7.516
X-188.374 Y-133.876 Z-7.53
X-190.487 Y-133.601 Z-7.544
X-192.603 Y-133.336 Z-7.559
X-196.86 Y-132.833 Z-7.588
X-201.136 Y-132.367 Z-7.617
X-205.432 Y-131.938 Z-7.646
X-209.747 Y-131.544 Z-7.675
X-214.079 Y-131.186 Z-7.704
X-218.426 Y-130.863 Z-7.733
X-222.788 Y-130.576 Z-7.763
X-227.162 Y-130.323 Z-7.792
X-231.547 Y-130.103 Z-7.822
X-235.941 Y-129.919 Z-7.851
X-240.344 Y-129.767 Z-7.881
X-244.752 Y-129.651 Z-7.911
X-249.166 Y-129.567 Z-7.941
X-253.582 Y-129.517 Z-7.97
X-258 Y-129.5 Z-8
X-262.418 Y-129.517 F850
X-266.834 Y-129.567
X-271.248 Y-129.651
X-275.656 Y-129.767
X-280.059 Y-129.919
X-284.453 Y-130.103
X-288.838 Y-130.323
X-293.212 Y-130.576
X-297.574 Y-130.863
X-301.921 Y-131.186
X-306.253 Y-131.544
X-310.568 Y-131.938
X-314.864 Y-132.367
X-319.14 Y-132.833
X-323.397 Y-133.336
X-325.513 Y-133.601
X-327.626 Y-133.876
X-329.733 Y-134.16
X-331.833 Y-134.454
X-333.926 Y-134.757
X-336.014 Y-135.07
X-338.093 Y-135.393
X-340.167 Y-135.724
X-342.232 Y-136.067
X-344.291 Y-136.419
X-346.341 Y-136.781
X-348.385 Y-137.154
X-350.42 Y-137.536
X-352.447 Y-137.929
X-354.465 Y-138.331
X-356.475 Y-138.745
X-358.477 Y-139.169
X-360.47 Y-139.604
X-362.454 Y-140.049
X-364.428 Y-140.504
X-366.394 Y-140.97
X-368.349 Y-141.448
X-370.296 Y-141.937
X-372.232 Y-142.436
X-374.159 Y-142.947
X-376.075 Y-143.469
X-377.981 Y-144.002
X-379.875 Y-144.547
X-381.76 Y-145.103
X-383.635 Y-145.671
X-385.498 Y-146.251
X-387.349 Y-146.842
X-389.19 Y-147.446
X-391.019 Y-148.062
X-392.837 Y-148.689
X-394.642 Y-149.329
X-396.437 Y-149.982
X-398.218 Y-150.645
X-399.988 Y-151.323
X-401.745 Y-152.013
X-403.49 Y-152.715
X-405.222 Y-153.43
X-406.941 Y-154.159
X-408.647 Y-154.899
X-410.34 Y-155.653
X-412.02 Y-156.421
X-413.687 Y-157.202
X-415.34 Y-157.997
X-416.979 Y-158.804
X-418.604 Y-159.625
X-420.216 Y-160.461
X-421.814 Y-161.31
X-423.397 Y-162.173
X-424.966 Y-163.05
X-426.519 Y-163.942
X-428.059 Y-164.848
X-429.584 Y-165.768
X-431.094 Y-166.702
X-432.589 Y-167.652
X-434.069 Y-168.615
X-435.533 Y-169.594
X-436.982 Y-170.587
X-438.415 Y-171.596
X-439.833 Y-172.62
X-441.235 Y-173.659
X-442.621 Y-174.714
X-443.991 Y-175.783
X-445.345 Y-176.869
X-446.683 Y-177.971
X-448.005 Y-179.087
X-449.31 Y-180.221
X-450.598 Y-181.37
X-451.87 Y-182.535
X-453.124 Y-183.716
X-454.362 Y-184.915
X-455.584 Y-186.129
X-456.787 Y-187.36
X-457.975 Y-188.608
X-459.143 Y-189.873
X-460.295 Y-191.154
X-461.43 Y-192.453
X-462.548 Y-193.769
X-463.647 Y-195.101
X-464.728 Y-196.452
X-465.792 Y-197.82
X-466.837 Y-199.206
X-467.865 Y-200.61
X-468.875 Y-202.031
X-469.865 Y-203.47
X-470.838 Y-204.927
X-471.793 Y-206.403
X-472.729 Y-207.896
X-473.646 Y-209.409
X-474.545 Y-210.939
X-475.424 Y-212.489
X-476.286 Y-214.058
X-477.128 Y-215.645
X-477.951 Y-217.251
X-478.755 Y-218.876
X-479.541 Y-220.52
X-480.306 Y-222.183
X-481.053 Y-223.866
X-481.779 Y-225.568
X-482.487 Y-227.291
X-483.175 Y-229.032
X-483.843 Y-230.793
X-484.492 Y-232.574
X-485.12 Y-234.375
X-485.729 Y-236.196
X-486.318 Y-238.037
X-486.888 Y-239.898
X-487.436 Y-241.78
X-487.965 Y-243.682
X-488.475 Y-245.604
X-488.963 Y-247.547
X-489.431 Y-249.51
X-489.879 Y-251.494
X-490.306 Y-253.498
X-490.714 Y-255.523
X-491.1 Y-257.57
X-491.465 Y-259.636
X-491.811 Y-261.725
X-492.136 Y-263.833
X-492.44 Y-265.962
X-492.723 Y-268.113
X-492.985 Y-270.285
X-493.227 Y-272.478
X-493.448 Y-274.691
X-493.647 Y-276.927
X-493.826 Y-279.183
X-493.984 Y-281.46
X-494.12 Y-283.76
X-494.237 Y-286.08
X-494.331 Y-288.421
X-494.406 Y-290.784
X-494.458 Y-293.168
X-494.489 Y-295.573
X-494.5 Y-298.007
G2 X-496 Y-299.5 I-1.5 J0.007
G1 X-508
G2 X-509.5 Y-298 J1.5
G1 Y-8
G2 X-508 Y-6.5 I1.5
G1 X-8
G2 X-6.5 Y-8 J-1.5
G1 Y-298
G2 X-8 Y-299.5 I-1.5
G1 X-20
G2 X-21.5 Y-298.007 J1.5
G1 X-21.511 Y-295.573
X-21.542 Y-293.168
X-21.595 Y-290.784
X-21.669 Y-288.421
X-21.763 Y-286.08
X-21.879 Y-283.76
X-22.016 Y-281.46
X-22.174 Y-279.183
X-22.353 Y-276.927
X-22.553 Y-274.691
X-22.773 Y-272.478
X-23.015 Y-270.285
X-23.277 Y-268.113
X-23.56 Y-265.962
X-23.864 Y-263.833
X-24.189 Y-261.724
X-24.534 Y-259.636
X-24.9 Y-257.57
X-25.287 Y-255.523
X-25.693 Y-253.498
X-26.121 Y-251.494
X-26.569 Y-249.51
X-27.037 Y-247.547
X-27.526 Y-245.604
X-28.034 Y-243.682
X-28.563 Y-241.78
X-29.112 Y-239.898
X-29.681 Y-238.037
X-30.271 Y-236.197
X-30.88 Y-234.375
X-31.508 Y-232.574
X-32.157 Y-230.793
X-32.825 Y-229.032
X-33.513 Y-227.291
X-34.221 Y-225.568
X-34.948 Y-223.866
X-35.694 Y-222.183
X-36.46 Y-220.52
X-37.245 Y-218.876
X-38.049 Y-217.251
X-38.872 Y-215.645
X-39.714 Y-214.058
X-40.575 Y-212.489
X-41.455 Y-210.939
X-42.354 Y-209.409
X-43.271 Y-207.896
X-44.207 Y-206.403
X-45.162 Y-204.927
X-46.134 Y-203.47
X-47.126 Y-202.031
X-48.135 Y-200.609
X-49.163 Y-199.206
X-50.208 Y-197.82
X-51.272 Y-196.452
X-52.353 Y-195.101
X-53.453 Y-193.769
X-54.57 Y-192.453
X-55.704 Y-191.154
X-56.856 Y-189.873
X-58.026 Y-188.608
X-59.212 Y-187.36
X-60.416 Y-186.129
X-61.637 Y-184.915
X-62.875 Y-183.716
X-64.13 Y-182.535
X-65.402 Y-181.37
X-66.69 Y-180.221
X-67.995 Y-179.087
X-69.317 Y-177.971
X-70.655 Y-176.869
X-72.008 Y-175.783
X-73.378 Y-174.714
X-74.765 Y-173.659
X-76.167 Y-172.62
X-77.585 Y-171.596
X-79.018 Y-170.587
X-80.467 Y-169.594
X-81.931 Y-168.615
X-83.411 Y-167.652
X-84.906 Y-166.702
X-86.416 Y-165.768
X-87.941 Y-164.848
X-89.48 Y-163.942
X-91.035 Y-163.05
X-92.603 Y-162.173
X-94.186 Y-161.31
X-95.784 Y-160.461
X-97.395 Y-159.625
X-99.02 Y-158.804
X-100.66 Y-157.997
X-102.313 Y-157.202
X-103.98 Y-156.421
X-105.66 Y-155.653
X-107.353 Y-154.899
X-109.059 Y-154.159
X-110.778 Y-153.43
X-112.51 Y-152.715
X-114.255 Y-152.013
X-116.012 Y-151.323
X-117.782 Y-150.645
X-119.563 Y-149.982
X-121.358 Y-149.329
X-123.163 Y-148.689
X-124.981 Y-148.062
X-126.81 Y-147.446
X-128.651 Y-146.842
X-130.502 Y-146.251
X-132.365 Y-145.671
X-134.24 Y-145.103
X-136.125 Y-144.547
X-138.019 Y-144.002
X-139.925 Y-143.469
X-141.841 Y-142.947
X-143.768 Y-142.436
X-145.704 Y-141.937
X-147.651 Y-141.448
X-149.606 Y-140.97
X-151.572 Y-140.504
X-153.546 Y-140.049
X-155.53 Y-139.604
X-157.523 Y-139.169
X-159.525 Y-138.745
X-161.535 Y-138.331
X-163.553 Y-137.929
X-165.58 Y-137.536
X-167.615 Y-137.154
X-169.659 Y-136.781
X-171.709 Y-136.419
X-173.768 Y-136.067
X-175.833 Y-135.724
X-177.907 Y-135.393
X-179.986 Y-135.07
X-182.074 Y-134.757
X-184.167 Y-134.454
X-186.267 Y-134.16
X-188.374 Y-133.876
X-190.487 Y-133.601
X-192.603 Y-133.336
X-196.86 Y-132.833
X-201.136 Y-132.367
X-205.432 Y-131.938
X-209.747 Y-131.544
X-214.079 Y-131.186
X-218.426 Y-130.863
X-222.788 Y-130.576
X-227.162 Y-130.323
X-231.547 Y-130.103
X-235.941 Y-129.919
X-240.344 Y-129.767
X-244.752 Y-129.651
X-249.166 Y-129.567
X-253.582 Y-129.517
X-258 Y-129.5
X-262.418 Y-129.517 Z-8.03 F283.3
X-266.834 Y-129.567 Z-8.059
X-271.248 Y-129.651 Z-8.089
X-275.656 Y-129.767 Z-8.119
X-280.059 Y-129.919 Z-8.149
X-284.453 Y-130.103 Z-8.178
X-288.838 Y-130.323 Z-8.208
X-293.212 Y-130.576 Z-8.237
X-297.574 Y-130.863 Z-8.267
X-301.921 Y-131.186 Z-8.296
X-306.253 Y-131.544 Z-8.325
X-310.568 Y-131.938 Z-8.354
X-314.864 Y-132.367 Z-8.383
X-319.14 Y-132.833 Z-8.412
X-323.397 Y-133.336 Z-8.441
X-325.513 Y-133.601 Z-8.456
X-327.626 Y-133.876 Z-8.47
X-329.733 Y-134.16 Z-8.484
X-331.833 Y-134.454 Z-8.499
X-333.926 Y-134.757 Z-8.513
X-336.014 Y-135.07 Z-8.527
X-338.093 Y-135.393 Z-8.541
X-340.167 Y-135.724 Z-8.555
X-342.232 Y-136.067 Z-8.569
X-344.291 Y-136.419 Z-8.583
X-346.341 Y-136.781 Z-8.598
X-348.385 Y-137.154 Z-8.611
X-350.42 Y-137.536 Z-8.625
X-352.447 Y-137.929 Z-8.639
X-354.465 Y-138.331 Z-8.653
X-356.475 Y-138.745 Z-8.667
X-358.477 Y-139.169 Z-8.681
X-360.47 Y-139.604 Z-8.695
X-362.454 Y-140.049 Z-8.708
X-364.428 Y-140.504 Z-8.722
X-366.394 Y-140.97 Z-8.735
X-368.349 Y-141.448 Z-8.749
X-370.296 Y-141.937 Z-8.763
X-372.232 Y-142.436 Z-8.776
X-374.159 Y-142.947 Z-8.789
X-376.075 Y-143.469 Z-8.803
X-377.981 Y-144.002 Z-8.816
X-379.875 Y-144.547 Z-8.829
X-381.76 Y-145.103 Z-8.843
X-383.635 Y-145.671 Z-8.856
X-385.498 Y-146.251 Z-8.869
X-387.349 Y-146.842 Z-8.882
X-389.19 Y-147.446 Z-8.895
X-391.019 Y-148.062 Z-8.908
X-392.837 Y-148.689 Z-8.921
X-394.642 Y-149.329 Z-8.934
X-396.437 Y-149.982 Z-8.947
X-398.218 Y-150.645 Z-8.96
X-399.988 Y-151.323 Z-8.972
X-401.745 Y-152.013 Z-8.985
X-403.49 Y-152.715 Z-8.998
X-405.222 Y-153.43 Z-9.01
X-406.941 Y-154.159 Z-9.023
X-408.647 Y-154.899 Z-9.035
X-410.34 Y-155.653 Z-9.048
X-412.02 Y-156.421 Z-9.06
X-413.687 Y-157.202 Z-9.073
X-415.34 Y-157.997 Z-9.085
X-416.979 Y-158.804 Z-9.097
X-418.604 Y-159.625 Z-9.11
X-420.216 Y-160.461 Z-9.122
X-421.814 Y-161.31 Z-9.134
X-423.397 Y-162.173 Z-9.146
X-424.966 Y-163.05 Z-9.158
X-426.519 Y-163.942 Z-9.17
X-428.059 Y-164.848 Z-9.182
X-429.584 Y-165.768 Z-9.194
X-431.094 Y-166.702 Z-9.206
X-432.589 Y-167.652 Z-9.218
X-434.069 Y-168.615 Z-9.23
X-435.533 Y-169.594 Z-9.242
X-436.982 Y-170.587 Z-9.254
X-438.415 Y-171.596 Z-9.266
X-439.833 Y-172.62 Z-9.277
X-441.235 Y-173.659 Z-9.289
X-442.621 Y-174.714 Z-9.301
X-443.991 Y-175.783 Z-9.312
X-445.345 Y-176.869 Z-9.324
X-446.683 Y-177.971 Z-9.336
X-448.005 Y-179.087 Z-9.347
X-449.31 Y-180.221 Z-9.359
X-450.598 Y-181.37 Z-9.371
X-451.87 Y-182.535 Z-9.382
X-453.124 Y-183.716 Z-9.394
X-454.362 Y-184.915 Z-9.406
X-455.584 Y-186.129 Z-9.417
X-456.787 Y-187.36 Z-9.429
X-457.975 Y-188.608 Z-9.44
X-459.143 Y-189.873 Z-9.452
X-460.295 Y-191.154 Z-9.464
X-461.43 Y-192.453 Z-9.475
X-462.548 Y-193.769 Z-9.487
X-463.647 Y-195.101 Z-9.498
X-464.728 Y-196.452 Z-9.51
X-465.792 Y-197.82 Z-9.522
X-466.837 Y-199.206 Z-9.533
X-467.865 Y-200.61 Z-9.545
X-468.875 Y-202.031 Z-9.557
X-469.865 Y-203.47 Z-9.569
X-470.838 Y-204.927 Z-9.58
X-471.793 Y-206.403 Z-9.592
X-472.729 Y-207.896 Z-9.604
X-473.646 Y-209.409 Z-9.616
X-474.545 Y-210.939 Z-9.628
X-475.424 Y-212.489 Z-9.64
X-476.286 Y-214.058 Z-9.652
X-477.128 Y-215.645 Z-9.664
X-477.951 Y-217.251 Z-9.676
X-478.755 Y-218.876 Z-9.688
X-479.541 Y-220.52 Z-9.701
X-480.306 Y-222.183 Z-9.713
X-481.053 Y-223.866 Z-9.725
X-481.779 Y-225.568 Z-9.738
X-482.487 Y-227.291 Z-9.75
X-483.175 Y-229.032 Z-9.763
X-483.843 Y-230.793 Z-9.776
X-484.492 Y-232.574 Z-9.788
X-485.12 Y-234.375 Z-9.801
X-485.729 Y-236.196 Z-9.814
X-486.318 Y-238.037 Z-9.827
X-486.888 Y-239.898 Z-9.84
X-487.436 Y-241.78 Z-9.854
X-487.965 Y-243.682 Z-9.867
X-488.475 Y-245.604 Z-9.88
X-488.963 Y-247.547 Z-9.894
X-489.431 Y-249.51 Z-9.907
X-489.879 Y-251.494 Z-9.921
X-490.306 Y-253.498 Z-9.935
X-490.714 Y-255.523 Z-9.949
X-491.1 Y-257.57 Z-9.963
X-491.465 Y-259.636 Z-9.977
X-491.811 Y-261.725 Z-9.991
X-492.012 Y-263.032 Z-10
X-492.136 Y-263.833 F850
X-492.44 Y-265.962
X-492.723 Y-268.113
X-492.985 Y-270.285
X-493.227 Y-272.478
X-493.448 Y-274.691
X-493.647 Y-276.927
X-493.826 Y-279.183
X-493.984 Y-281.46
X-494.12 Y-283.76
X-494.237 Y-286.08
X-494.331 Y-288.421
X-494.406 Y-290.784
X-494.458 Y-293.168
X-494.489 Y-295.573
X-494.5 Y-298.007
G2 X-496 Y-299.5 I-1.5 J0.007
G1 X-508
G2 X-509.5 Y-298 J1.5
G1 Y-8
G2 X-508 Y-6.5 I1.5
G1 X-8
G2 X-6.5 Y-8 J-1.5
G1 Y-298
G2 X-8 Y-299.5 I-1.5
G1 X-20
G2 X-21.5 Y-298.007 J1.5
G1 X-21.511 Y-295.573
X-21.542 Y-293.168
X-21.595 Y-290.784
X-21.669 Y-288.421
X-21.763 Y-286.08
X-21.879 Y-283.76
X-22.016 Y-281.46
X-22.174 Y-279.183
X-22.353 Y-276.927
X-22.553 Y-274.691
X-22.773 Y-272.478
X-23.015 Y-270.285
X-23.277 Y-268.113
X-23.56 Y-265.962
X-23.864 Y-263.833
X-24.189 Y-261.724
X-24.534 Y-259.636
X-24.9 Y-257.57
X-25.287 Y-255.523
X-25.693 Y-253.498
X-26.121 Y-251.494
X-26.569 Y-249.51
X-27.037 Y-247.547
X-27.526 Y-245.604
X-28.034 Y-243.682
X-28.563 Y-241.78
X-29.112 Y-239.898
X-29.681 Y-238.037
X-30.271 Y-236.197
X-30.88 Y-234.375
X-31.508 Y-232.574
X-32.157 Y-230.793
X-32.825 Y-229.032
X-33.513 Y-227.291
X-34.221 Y-225.568
X-34.948 Y-223.866
X-35.694 Y-222.183
X-36.46 Y-220.52
X-37.245 Y-218.876
X-38.049 Y-217.251
X-38.872 Y-215.645
X-39.714 Y-214.058
X-40.575 Y-212.489
X-41.455 Y-210.939
X-42.354 Y-209.409
X-43.271 Y-207.896
X-44.207 Y-206.403
X-45.162 Y-204.927
X-46.134 Y-203.47
X-47.126 Y-202.031
X-48.135 Y-200.609
X-49.163 Y-199.206
X-50.208 Y-197.82
X-51.272 Y-196.452
X-52.353 Y-195.101
X-53.453 Y-193.769
X-54.57 Y-192.453
X-55.704 Y-191.154
X-56.856 Y-189.873
X-58.026 Y-188.608
X-59.212 Y-187.36
X-60.416 Y-186.129
X-61.637 Y-184.915
X-62.875 Y-183.716
X-64.13 Y-182.535
X-65.402 Y-181.37
X-66.69 Y-180.221
X-67.995 Y-179.087
X-69.317 Y-177.971
X-70.655 Y-176.869
X-72.008 Y-175.783
X-73.378 Y-174.714
X-74.765 Y-173.659
X-76.167 Y-172.62
X-77.585 Y-171.596
X-79.018 Y-170.587
X-80.467 Y-169.594
X-81.931 Y-168.615
X-83.411 Y-167.652
X-84.906 Y-166.702
X-86.416 Y-165.768
X-87.941 Y-164.848
X-89.48 Y-163.942
X-91.035 Y-163.05
X-92.603 Y-162.173
X-94.186 Y-161.31
X-95.784 Y-160.461
X-97.395 Y-159.625
X-99.02 Y-158.804
X-100.66 Y-157.997
X-102.313 Y-157.202
X-103.98 Y-156.421
X-105.66 Y-155.653
X-107.353 Y-154.899
X-109.059 Y-154.159
X-110.778 Y-153.43
X-112.51 Y-152.715
X-114.255 Y-152.013
X-116.012 Y-151.323
X-117.782 Y-150.645
X-119.563 Y-149.982
X-121.358 Y-149.329
X-123.163 Y-148.689
X-124.981 Y-148.062
X-126.81 Y-147.446
X-128.651 Y-146.842
X-130.502 Y-146.251
X-132.365 Y-145.671
X-134.24 Y-145.103
X-136.125 Y-144.547
X-138.019 Y-144.002
X-139.925 Y-143.469
X-141.841 Y-142.947
X-143.768 Y-142.436
X-145.704 Y-141.937
X-147.651 Y-141.448
X-149.606 Y-140.97
X-151.572 Y-140.504
X-153.546 Y-140.049
X-155.53 Y-139.604
X-157.523 Y-139.169
X-159.525 Y-138.745
X-161.535 Y-138.331
X-163.553 Y-137.929
X-165.58 Y-137.536
X-167.615 Y-137.154
X-169.659 Y-136.781
X-171.709 Y-136.419
X-173.768 Y-136.067
X-175.833 Y-135.724
X-177.907 Y-135.393
X-179.986 Y-135.07
X-182.074 Y-134.757
X-184.167 Y-134.454
X-186.267 Y-134.16
X-188.374 Y-133.876
X-190.487 Y-133.601
X-192.603 Y-133.336
X-196.86 Y-132.833
X-201.136 Y-132.367
X-205.432 Y-131.938
X-209.747 Y-131.544
X-214.079 Y-131.186
X-218.426 Y-130.863
X-222.788 Y-130.576
X-227.162 Y-130.323
X-231.547 Y-130.103
X-235.941 Y-129.919
X-240.344 Y-129.767
X-244.752 Y-129.651
X-249.166 Y-129.567
X-253.582 Y-129.517
X-258 Y-129.5
X-262.418 Y-129.517
X-266.834 Y-129.567
X-271.248 Y-129.651
X-275.656 Y-129.767
X-280.059 Y-129.919
X-284.453 Y-130.103
X-288.838 Y-130.323
X-293.212 Y-130.576
X-297.574 Y-130.863
X-301.921 Y-131.186
X-306.253 Y-131.544
X-310.568 Y-131.938
X-314.864 Y-132.367
X-319.14 Y-132.833
X-323.397 Y-133.336
X-325.513 Y-133.601
X-327.626 Y-133.876
X-329.733 Y-134.16
X-331.833 Y-134.454
X-333.926 Y-134.757
X-336.014 Y-135.07
X-338.093 Y-135.393
X-340.167 Y-135.724
X-342.232 Y-136.067
X-344.291 Y-136.419
X-346.341 Y-136.781
X-348.385 Y-137.154
X-350.42 Y-137.536
X-352.447 Y-137.929
X-354.465 Y-138.331
X-356.475 Y-138.745
X-358.477 Y-139.169
X-360.47 Y-139.604
X-362.454 Y-140.049
X-364.428 Y-140.504
X-366.394 Y-140.97
X-368.349 Y-141.448
X-370.296 Y-141.937
X-372.232 Y-142.436
X-374.159 Y-142.947
X-376.075 Y-143.469
X-377.981 Y-144.002
X-379.875 Y-144.547
X-381.76 Y-145.103
X-383.635 Y-145.671
X-385.498 Y-146.251
X-387.349 Y-146.842
X-389.19 Y-147.446
X-391.019 Y-148.062
X-392.837 Y-148.689
X-394.642 Y-149.329
X-396.437 Y-149.982
X-398.218 Y-150.645
X-399.988 Y-151.323
X-401.745 Y-152.013
X-403.49 Y-152.715
X-405.222 Y-153.43
X-406.941 Y-154.159
X-408.647 Y-154.899
X-410.34 Y-155.653
X-412.02 Y-156.421
X-413.687 Y-157.202
X-415.34 Y-157.997
X-416.979 Y-158.804
X-418.604 Y-159.625
X-420.216 Y-160.461
X-421.814 Y-161.31
X-423.397 Y-162.173
X-424.966 Y-163.05
X-426.519 Y-163.942
X-428.059 Y-164.848
X-429.584 Y-165.768
X-431.094 Y-166.702
X-432.589 Y-167.652
X-434.069 Y-168.615
X-435.533 Y-169.594
X-436.982 Y-170.587
X-438.415 Y-171.596
X-439.833 Y-172.62
X-441.235 Y-173.659
X-442.621 Y-174.714
X-443.991 Y-175.783
X-445.345 Y-176.869
X-446.683 Y-177.971
X-448.005 Y-179.087
X-449.31 Y-180.221
X-450.598 Y-181.37
X-451.87 Y-182.535
X-453.124 Y-183.716
X-454.362 Y-184.915
X-455.584 Y-186.129
X-456.787 Y-187.36
X-457.975 Y-188.608
X-459.143 Y-189.873
X-460.295 Y-191.154
X-461.43 Y-192.453
X-462.548 Y-193.769
X-463.647 Y-195.101
X-464.728 Y-196.452
X-465.792 Y-197.82
X-466.837 Y-199.206
X-467.865 Y-200.61
X-468.875 Y-202.031
X-469.865 Y-203.47
X-470.838 Y-204.927
X-471.793 Y-206.403
X-472.729 Y-207.896
X-473.646 Y-209.409
X-474.545 Y-210.939
X-475.424 Y-212.489
X-476.286 Y-214.058
X-477.128 Y-215.645
X-477.951 Y-217.251
X-478.755 Y-218.876
X-479.541 Y-220.52
X-480.306 Y-222.183
X-481.053 Y-223.866
X-481.779 Y-225.568
X-482.487 Y-227.291
X-483.175 Y-229.032
X-483.843 Y-230.793
X-484.492 Y-232.574
X-485.12 Y-234.375
X-485.729 Y-236.196
X-486.318 Y-238.037
X-486.888 Y-239.898
X-487.436 Y-241.78
X-487.965 Y-243.682
X-488.475 Y-245.604
X-488.963 Y-247.547
X-489.431 Y-249.51
X-489.879 Y-251.494
X-490.306 Y-253.498
X-490.714 Y-255.523
X-491.1 Y-257.57
X-491.465 Y-259.636
X-491.811 Y-261.725
X-492.012 Y-263.032
X-492.136 Y-263.833 Z-10.005 F283.3
X-492.44 Y-265.962 Z-10.02
X-492.723 Y-268.113 Z-10.035
X-492.985 Y-270.285 Z-10.049
X-493.227 Y-272.478 Z-10.064
X-493.448 Y-274.691 Z-10.079
X-493.647 Y-276.927 Z-10.094
X-493.826 Y-279.183 Z-10.109
X-493.984 Y-281.46 Z-10.125
X-494.12 Y-283.76 Z-10.14
X-494.237 Y-286.08 Z-10.156
X-494.331 Y-288.421 Z-10.172
X-494.406 Y-290.784 Z-10.188
X-494.458 Y-293.168 Z-10.204
X-494.489 Y-295.573 Z-10.22
X-494.5 Y-298.007 Z-10.236
G2 X-496 Y-299.5 Z-10.252 I-1.5 J0.007
G1 X-508 Z-10.333
G2 X-509.5 Y-298 Z-10.349 J1.5
G1 Y-52.723 Z-12
Y-8 F850
G2 X-508 Y-6.5 I1.5
G1 X-8
G2 X-6.5 Y-8 J-1.5
G1 Y-298
G2 X-8 Y-299.5 I-1.5
G1 X-20
G2 X-21.5 Y-298.007 J1.5
G1 X-21.511 Y-295.573
X-21.542 Y-293.168
X-21.595 Y-290.784
X-21.669 Y-288.421
X-21.763 Y-286.08
X-21.879 Y-283.76
X-22.016 Y-281.46
X-22.174 Y-279.183
X-22.353 Y-276.927
X-22.553 Y-274.691
X-22.773 Y-272.478
X-23.015 Y-270.285
X-23.277 Y-268.113
X-23.56 Y-265.962
X-23.864 Y-263.833
X-24.189 Y-261.724
X-24.534 Y-259.636
X-24.9 Y-257.57
X-25.287 Y-255.523
X-25.693 Y-253.498
X-26.121 Y-251.494
X-26.569 Y-249.51
X-27.037 Y-247.547
X-27.526 Y-245.604
X-28.034 Y-243.682
X-28.563 Y-241.78
X-29.112 Y-239.898
X-29.681 Y-238.037
X-30.271 Y-236.197
X-30.88 Y-234.375
X-31.508 Y-232.574
X-32.157 Y-230.793
X-32.825 Y-229.032
X-33.513 Y-227.291
X-34.221 Y-225.568
X-34.948 Y-223.866
X-35.694 Y-222.183
X-36.46 Y-220.52
X-37.245 Y-218.876
X-38.049 Y-217.251
X-38.872 Y-215.645
X-39.714 Y-214.058
X-40.575 Y-212.489
X-41.455 Y-210.939
X-42.354 Y-209.409
X-43.271 Y-207.896
X-44.207 Y-206.403
X-45.162 Y-204.927
X-46.134 Y-203.47
X-47.126 Y-202.031
X-48.135 Y-200.609
X-49.163 Y-199.206
X-50.208 Y-197.82
X-51.272 Y-196.452
X-52.353 Y-195.101
X-53.453 Y-193.769
X-54.57 Y-192.453
X-55.704 Y-191.154
X-56.856 Y-189.873
X-58.026 Y-188.608
X-59.212 Y-187.36
X-60.416 Y-186.129
X-61.637 Y-184.915
X-62.875 Y-183.716
X-64.13 Y-182.535
X-65.402 Y-181.37
X-66.69 Y-180.221
X-67.995 Y-179.087
X-69.317 Y-177.971
X-70.655 Y-176.869
X-72.008 Y-175.783
X-73.378 Y-174.714
X-74.765 Y-173.659
X-76.167 Y-172.62
X-77.585 Y-171.596
X-79.018 Y-170.587
X-80.467 Y-169.594
X-81.931 Y-168.615
X-83.411 Y-167.652
X-84.906 Y-166.702
X-86.416 Y-165.768
X-87.941 Y-164.848
X-89.48 Y-163.942
X-91.035 Y-163.05
X-92.603 Y-162.173
X-94.186 Y-161.31
X-95.784 Y-160.461
X-97.395 Y-159.625
X-99.02 Y-158.804
X-100.66 Y-157.997
X-102.313 Y-157.202
X-103.98 Y-156.421
X-105.66 Y-155.653
X-107.353 Y-154.899
X-109.059 Y-154.159
X-110.778 Y-153.43
X-112.51 Y-152.715
X-114.255 Y-152.013
X-116.012 Y-151.323
X-117.782 Y-150.645
X-119.563 Y-149.982
X-121.358 Y-149.329
X-123.163 Y-148.689
X-124.981 Y-148.062
X-126.81 Y-147.446
X-128.651 Y-146.842
X-130.502 Y-146.251
X-132.365 Y-145.671
X-134.24 Y-145.103
X-136.125 Y-144.547
X-138.019 Y-144.002
X-139.925 Y-143.469
X-141.841 Y-142.947
X-143.768 Y-142.436
X-145.704 Y-141.937
X-147.651 Y-141.448
X-149.606 Y-140.97
X-151.572 Y-140.504
X-153.546 Y-140.049
X-155.53 Y-139.604
X-157.523 Y-139.169
X-159.525 Y-138.745
X-161.535 Y-138.331
X-163.553 Y-137.929
X-165.58 Y-137.536
X-167.615 Y-137.154
X-169.659 Y-136.781
X-171.709 Y-136.419
X-173.768 Y-136.067
X-175.833 Y-135.724
X-177.907 Y-135.393
X-179.986 Y-135.07
X-182.074 Y-134.757
X-184.167 Y-134.454
X-186.267 Y-134.16
X-188.374 Y-133.876
X-190.487 Y-133.601
X-192.603 Y-133.336
X-196.86 Y-132.833
X-201.136 Y-132.367
X-205.432 Y-131.938
X-209.747 Y-131.544
X-214.079 Y-131.186
X-218.426 Y-130.863
X-222.788 Y-130.576
X-227.162 Y-130.323
X-231.547 Y-130.103
X-235.941 Y-129.919
X-240.344 Y-129.767
X-244.752 Y-129.651
X-249.166 Y-129.567
X-253.582 Y-129.517
X-258 Y-129.5
X-262.418 Y-129.517
X-266.834 Y-129.567
X-271.248 Y-129.651
X-275.656 Y-129.767
X-280.059 Y-129.919
X-284.453 Y-130.103
X-288.838 Y-130.323
X-293.212 Y-130.576
X-297.574 Y-130.863
X-301.921 Y-131.186
X-306.253 Y-131.544
X-310.568 Y-131.938
X-314.864 Y-132.367
X-319.14 Y-132.833
X-323.397 Y-133.336
X-325.513 Y-133.601
X-327.626 Y-133.876
X-329.733 Y-134.16
X-331.833 Y-134.454
X-333.926 Y-134.757
X-336.014 Y-135.07
X-338.093 Y-135.393
X-340.167 Y-135.724
X-342.232 Y-136.067
X-344.291 Y-136.419
X-346.341 Y-136.781
X-348.385 Y-137.154
X-350.42 Y-137.536
X-352.447 Y-137.929
X-354.465 Y-138.331
X-356.475 Y-138.745
X-358.477 Y-139.169
X-360.47 Y-139.604
X-362.454 Y-140.049
X-364.428 Y-140.504
X-366.394 Y-140.97
X-368.349 Y-141.448
X-370.296 Y-141.937
X-372.232 Y-142.436
X-374.159 Y-142.947
X-376.075 Y-143.469
X-377.981 Y-144.002
X-379.875 Y-144.547
X-381.76 Y-145.103
X-383.635 Y-145.671
X-385.498 Y-146.251
X-387.349 Y-146.842
X-389.19 Y-147.446
X-391.019 Y-148.062
X-392.837 Y-148.689
X-394.642 Y-149.329
X-396.437 Y-149.982
X-398.218 Y-150.645
X-399.988 Y-151.323
X-401.745 Y-152.013
X-403.49 Y-152.715
X-405.222 Y-153.43
X-406.941 Y-154.159
X-408.647 Y-154.899
X-410.34 Y-155.653
X-412.02 Y-156.421
X-413.687 Y-157.202
X-415.34 Y-157.997
X-416.979 Y-158.804
X-418.604 Y-159.625
X-420.216 Y-160.461
X-421.814 Y-161.31
X-423.397 Y-162.173
X-424.966 Y-163.05
X-426.519 Y-163.942
X-428.059 Y-164.848
X-429.584 Y-165.768
X-431.094 Y-166.702
X-432.589 Y-167.652
X-434.069 Y-168.615
X-435.533 Y-169.594
X-436.982 Y-170.587
X-438.415 Y-171.596
X-439.833 Y-172.62
X-441.235 Y-173.659
X-442.621 Y-174.714
X-443.991 Y-175.783
X-445.345 Y-176.869
X-446.683 Y-177.971
X-448.005 Y-179.087
X-449.31 Y-180.221
X-450.598 Y-181.37
X-451.87 Y-182.535
X-453.124 Y-183.716
X-454.362 Y-184.915
X-455.584 Y-186.129
X-456.787 Y-187.36
X-457.975 Y-188.608
X-459.143 Y-189.873
X-460.295 Y-191.154
X-461.43 Y-192.453
X-462.548 Y-193.769
X-463.647 Y-195.101
X-464.728 Y-196.452
X-465.792 Y-197.82
X-466.837 Y-199.206
X-467.865 Y-200.61
X-468.875 Y-202.031
X-469.865 Y-203.47
X-470.838 Y-204.927
X-471.793 Y-206.403
X-472.729 Y-207.896
X-473.646 Y-209.409
X-474.545 Y-210.939
X-475.424 Y-212.489
X-476.286 Y-214.058
X-477.128 Y-215.645
X-477.951 Y-217.251
X-478.755 Y-218.876
X-479.541 Y-220.52
X-480.306 Y-222.183
X-481.053 Y-223.866
X-481.779 Y-225.568
X-482.487 Y-227.291
X-483.175 Y-229.032
X-483.843 Y-230.793
X-484.492 Y-232.574
X-485.12 Y-234.375
X-485.729 Y-236.196
X-486.318 Y-238.037
X-486.888 Y-239.898
X-487.436 Y-241.78
X-487.965 Y-243.682
X-488.475 Y-245.604
X-488.963 Y-247.547
X-489.431 Y-249.51
X-489.879 Y-251.494
X-490.306 Y-253.498
X-490.714 Y-255.523
X-491.1 Y-257.57
X-491.465 Y-259.636
X-491.811 Y-261.725
X-492.012 Y-263.032
X-492.136 Y-263.833
X-492.44 Y-265.962
X-492.723 Y-268.113
X-492.985 Y-270.285
X-493.227 Y-272.478
X-493.448 Y-274.691
X-493.647 Y-276.927
X-493.826 Y-279.183
X-493.984 Y-281.46
X-494.12 Y-283.76
X-494.237 Y-286.08
X-494.331 Y-288.421
X-494.406 Y-290.784
X-494.458 Y-293.168
X-494.489 Y-295.573
X-494.5 Y-298.007
G2 X-496 Y-299.5 I-1.5 J0.007
G1 X-508
G2 X-509.5 Y-298 J1.5
G1 Y-52.723
Y-8 Z-12.301 F283.3
G2 X-508 Y-6.5 Z-12.317 I1.5
G1 X-258 Z-14
X-8 F850
G2 X-6.5 Y-8 J-1.5
G1 Y-298
G2 X-8 Y-299.5 I-1.5
G1 X-20
G2 X-21.5 Y-298.007 J1.5
G1 X-21.511 Y-295.573
X-21.542 Y-293.168
X-21.595 Y-290.784
X-21.669 Y-288.421
X-21.763 Y-286.08
X-21.879 Y-283.76
X-22.016 Y-281.46
X-22.174 Y-279.183
X-22.353 Y-276.927
X-22.553 Y-274.691
X-22.773 Y-272.478
X-23.015 Y-270.285
X-23.277 Y-268.113
X-23.56 Y-265.962
X-23.864 Y-263.833
X-24.189 Y-261.724
X-24.534 Y-259.636
X-24.9 Y-257.57
X-25.287 Y-255.523
X-25.693 Y-253.498
X-26.121 Y-251.494
X-26.569 Y-249.51
X-27.037 Y-247.547
X-27.526 Y-245.604
X-28.034 Y-243.682
X-28.563 Y-241.78
X-29.112 Y-239.898
X-29.681 Y-238.037
X-30.271 Y-236.197
X-30.88 Y-234.375
X-31.508 Y-232.574
X-32.157 Y-230.793
X-32.825 Y-229.032
X-33.513 Y-227.291
X-34.221 Y-225.568
X-34.948 Y-223.866
X-35.694 Y-222.183
X-36.46 Y-220.52
X-37.245 Y-218.876
X-38.049 Y-217.251
X-38.872 Y-215.645
X-39.714 Y-214.058
X-40.575 Y-212.489
X-41.455 Y-210.939
X-42.354 Y-209.409
X-43.271 Y-207.896
X-44.207 Y-206.403
X-45.162 Y-204.927
X-46.134 Y-203.47
X-47.126 Y-202.031
X-48.135 Y-200.609
X-49.163 Y-199.206
X-50.208 Y-197.82
X-51.272 Y-196.452
X-52.353 Y-195.101
X-53.453 Y-193.769
X-54.57 Y-192.453
X-55.704 Y-191.154
X-56.856 Y-189.873
X-58.026 Y-188.608
X-59.212 Y-187.36
X-60.416 Y-186.129
X-61.637 Y-184.915
X-62.875 Y-183.716
X-64.13 Y-182.535
X-65.402 Y-181.37
X-66.69 Y-180.221
X-67.995 Y-179.087
X-69.317 Y-177.971
X-70.655 Y-176.869
X-72.008 Y-175.783
X-73.378 Y-174.714
X-74.765 Y-173.659
X-76.167 Y-172.62
X-77.585 Y-171.596
X-79.018 Y-170.587
X-80.467 Y-169.594
X-81.931 Y-168.615
X-83.411 Y-167.652
X-84.906 Y-166.702
X-86.416 Y-165.768
X-87.941 Y-164.848
X-89.48 Y-163.942
X-91.035 Y-163.05
X-92.603 Y-162.173
X-94.186 Y-161.31
X-95.784 Y-160.461
X-97.395 Y-159.625
X-99.02 Y-158.804
X-100.66 Y-157.997
X-102.313 Y-157.202
X-103.98 Y-156.421
X-105.66 Y-155.653
X-107.353 Y-154.899
X-109.059 Y-154.159
X-110.778 Y-153.43
X-112.51 Y-152.715
X-114.255 Y-152.013
X-116.012 Y-151.323
X-117.782 Y-150.645
X-119.563 Y-149.982
X-121.358 Y-149.329
X-123.163 Y-148.689
X-124.981 Y-148.062
X-126.81 Y-147.446
X-128.651 Y-146.842
X-130.502 Y-146.251
X-132.365 Y-145.671
X-134.24 Y-145.103
X-136.125 Y-144.547
X-138.019 Y-144.002
X-139.925 Y-143.469
X-141.841 Y-142.947
X-143.768 Y-142.436
X-145.704 Y-141.937
X-147.651 Y-141.448
X-149.606 Y-140.97
X-151.572 Y-140.504
X-153.546 Y-140.049
X-155.53 Y-139.604
X-157.523 Y-139.169
X-159.525 Y-138.745
X-161.535 Y-138.331
X-163.553 Y-137.929
X-165.58 Y-137.536
X-167.615 Y-137.154
X-169.659 Y-136.781
X-171.709 Y-136.419
X-173.768 Y-136.067
X-175.833 Y-135.724
X-177.907 Y-135.393
X-179.986 Y-135.07
X-182.074 Y-134.757
X-184.167 Y-134.454
X-186.267 Y-134.16
X-188.374 Y-133.876
X-190.487 Y-133.601
X-192.603 Y-133.336
X-196.86 Y-132.833
X-201.136 Y-132.367
X-205.432 Y-131.938
X-209.747 Y-131.544
X-214.079 Y-131.186
X-218.426 Y-130.863
X-222.788 Y-130.576
X-227.162 Y-130.323
X-231.547 Y-130.103
X-235.941 Y-129.919
X-240.344 Y-129.767
X-244.752 Y-129.651
X-249.166 Y-129.567
X-253.582 Y-129.517
X-258 Y-129.5
X-262.418 Y-129.517
X-266.834 Y-129.567
X-271.248 Y-129.651
X-275.656 Y-129.767
X-280.059 Y-129.919
X-284.453 Y-130.103
X-288.838 Y-130.323
X-293.212 Y-130.576
X-297.574 Y-130.863
X-301.921 Y-131.186
X-306.253 Y-131.544
X-310.568 Y-131.938
X-314.864 Y-132.367
X-319.14 Y-132.833
X-323.397 Y-133.336
X-325.513 Y-133.601
X-327.626 Y-133.876
X-329.733 Y-134.16
X-331.833 Y-134.454
X-333.926 Y-134.757
X-336.014 Y-135.07
X-338.093 Y-135.393
X-340.167 Y-135.724
X-342.232 Y-136.067
X-344.291 Y-136.419
X-346.341 Y-136.781
X-348.385 Y-137.154
X-350.42 Y-137.536
X-352.447 Y-137.929
X-354.465 Y-138.331
X-356.475 Y-138.745
X-358.477 Y-139.169
X-360.47 Y-139.604
X-362.454 Y-140.049
X-364.428 Y-140.504
X-366.394 Y-140.97
X-368.349 Y-141.448
X-370.296 Y-141.937
X-372.232 Y-142.436
X-374.159 Y-142.947
X-376.075 Y-143.469
X-377.981 Y-144.002
X-379.875 Y-144.547
X-381.76 Y-145.103
X-383.635 Y-145.671
X-385.498 Y-146.251
X-387.349 Y-146.842
X-389.19 Y-147.446
X-391.019 Y-148.062
X-392.837 Y-148.689
X-394.642 Y-149.329
X-396.437 Y-149.982
X-398.218 Y-150.645
X-399.988 Y-151.323
X-401.745 Y-152.013
X-403.49 Y-152.715
X-405.222 Y-153.43
X-406.941 Y-154.159
X-408.647 Y-154.899
X-410.34 Y-155.653
X-412.02 Y-156.421
X-413.687 Y-157.202
X-415.34 Y-157.997
X-416.979 Y-158.804
X-418.604 Y-159.625
X-420.216 Y-160.461
X-421.814 Y-161.31
X-423.397 Y-162.173
X-424.966 Y-163.05
X-426.519 Y-163.942
X-428.059 Y-164.848
X-429.584 Y-165.768
X-431.094 Y-166.702
X-432.589 Y-167.652
X-434.069 Y-168.615
X-435.533 Y-169.594
X-436.982 Y-170.587
X-438.415 Y-171.596
X-439.833 Y-172.62
X-441.235 Y-173.659
X-442.621 Y-174.714
X-443.991 Y-175.783
X-445.345 Y-176.869
X-446.683 Y-177.971
X-448.005 Y-179.087
X-449.31 Y-180.221
X-450.598 Y-181.37
X-451.87 Y-182.535
X-453.124 Y-183.716
X-454.362 Y-184.915
X-455.584 Y-186.129
X-456.787 Y-187.36
X-457.975 Y-188.608
X-459.143 Y-189.873
X-460.295 Y-191.154
X-461.43 Y-192.453
X-462.548 Y-193.769
X-463.647 Y-195.101
X-464.728 Y-196.452
X-465.792 Y-197.82
X-466.837 Y-199.206
X-467.865 Y-200.61
X-468.875 Y-202.031
X-469.865 Y-203.47
X-470.838 Y-204.927
X-471.793 Y-206.403
X-472.729 Y-207.896
X-473.646 Y-209.409
X-474.545 Y-210.939
X-475.424 Y-212.489
X-476.286 Y-214.058
X-477.128 Y-215.645
X-477.951 Y-217.251
X-478.755 Y-218.876
X-479.541 Y-220.52
X-480.306 Y-222.183
X-481.053 Y-223.866
X-481.779 Y-225.568
X-482.487 Y-227.291
X-483.175 Y-229.032
X-483.843 Y-230.793
X-484.492 Y-232.574
X-485.12 Y-234.375
X-485.729 Y-236.196
X-486.318 Y-238.037
X-486.888 Y-239.898
X-487.436 Y-241.78
X-487.965 Y-243.682
X-488.475 Y-245.604
X-488.963 Y-247.547
X-489.431 Y-249.51
X-489.879 Y-251.494
X-490.306 Y-253.498
X-490.714 Y-255.523
X-491.1 Y-257.57
X-491.465 Y-259.636
X-491.811 Y-261.725
X-492.136 Y-263.833
X-492.44 Y-265.962
X-492.723 Y-268.113
X-492.985 Y-270.285
X-493.227 Y-272.478
X-493.448 Y-274.691
X-493.647 Y-276.927
X-493.826 Y-279.183
X-493.984 Y-281.46
X-494.12 Y-283.76
X-494.237 Y-286.08
X-494.331 Y-288.421
X-494.406 Y-290.784
X-494.458 Y-293.168
X-494.489 Y-295.573
X-494.5 Y-298.007
G2 X-496 Y-299.5 I-1.5 J0.007
G1 X-508
G2 X-509.5 Y-298 J1.5
G1 Y-52.723
Y-8
G2 X-508 Y-6.5 I1.5
G1 X-258
X-8 Z-15.683 F283.3
G2 X-6.5 Y-8 Z-15.699 J-1.5
G1 Y-52.723 Z-16
Y-298 F850
G2 X-8 Y-299.5 I-1.5
G1 X-20
G2 X-21.5 Y-298.007 J1.5
G1 X-21.511 Y-295.573
X-21.542 Y-293.168
X-21.595 Y-290.784
X-21.669 Y-288.421
X-21.763 Y-286.08
X-21.879 Y-283.76
X-22.016 Y-281.46
X-22.174 Y-279.183
X-22.353 Y-276.927
X-22.553 Y-274.691
X-22.773 Y-272.478
X-23.015 Y-270.285
X-23.277 Y-268.113
X-23.56 Y-265.962
X-23.864 Y-263.833
X-24.189 Y-261.724
X-24.534 Y-259.636
X-24.9 Y-257.57
X-25.287 Y-255.523
X-25.693 Y-253.498
X-26.121 Y-251.494
X-26.569 Y-249.51
X-27.037 Y-247.547
X-27.526 Y-245.604
X-28.034 Y-243.682
X-28.563 Y-241.78
X-29.112 Y-239.898
X-29.681 Y-238.037
X-30.271 Y-236.197
X-30.88 Y-234.375
X-31.508 Y-232.574
X-32.157 Y-230.793
X-32.825 Y-229.032
X-33.513 Y-227.291
X-34.221 Y-225.568
X-34.948 Y-223.866
X-35.694 Y-222.183
X-36.46 Y-220.52
X-37.245 Y-218.876
X-38.049 Y-217.251
X-38.872 Y-215.645
X-39.714 Y-214.058
X-40.575 Y-212.489
X-41.455 Y-210.939
X-42.354 Y-209.409
X-43.271 Y-207.896
X-44.207 Y-206.403
X-45.162 Y-204.927
X-46.134 Y-203.47
X-47.126 Y-202.031
X-48.135 Y-200.609
X-49.163 Y-199.206
X-50.208 Y-197.82
X-51.272 Y-196.452
X-52.353 Y-195.101
X-53.453 Y-193.769
X-54.57 Y-192.453
X-55.704 Y-191.154
X-56.856 Y-189.873
X-58.026 Y-188.608
X-59.212 Y-187.36
X-60.416 Y-186.129
X-61.637 Y-184.915
X-62.875 Y-183.716
X-64.13 Y-182.535
X-65.402 Y-181.37
X-66.69 Y-180.221
X-67.995 Y-179.087
X-69.317 Y-177.971
X-70.655 Y-176.869
X-72.008 Y-175.783
X-73.378 Y-174.714
X-74.765 Y-173.659
X-76.167 Y-172.62
X-77.585 Y-171.596
X-79.018 Y-170.587
X-80.467 Y-169.594
X-81.931 Y-168.615
X-83.411 Y-167.652
X-84.906 Y-166.702
X-86.416 Y-165.768
X-87.941 Y-164.848
X-89.48 Y-163.942
X-91.035 Y-163.05
X-92.603 Y-162.173
X-94.186 Y-161.31
X-95.784 Y-160.461
X-97.395 Y-159.625
X-99.02 Y-158.804
X-100.66 Y-157.997
X-102.313 Y-157.202
X-103.98 Y-156.421
X-105.66 Y-155.653
X-107.353 Y-154.899
X-109.059 Y-154.159
X-110.778 Y-153.43
X-112.51 Y-152.715
X-114.255 Y-152.013
X-116.012 Y-151.323
X-117.782 Y-150.645
X-119.563 Y-149.982
X-121.358 Y-149.329
X-123.163 Y-148.689
X-124.981 Y-148.062
X-126.81 Y-147.446
X-128.651 Y-146.842
X-130.502 Y-146.251
X-132.365 Y-145.671
X-134.24 Y-145.103
X-136.125 Y-144.547
X-138.019 Y-144.002
X-139.925 Y-143.469
X-141.841 Y-142.947
X-143.768 Y-142.436
X-145.704 Y-141.937
X-147.651 Y-141.448
X-149.606 Y-140.97
X-151.572 Y-140.504
X-153.546 Y-140.049
X-155.53 Y-139.604
X-157.523 Y-139.169
X-159.525 Y-138.745
X-161.535 Y-138.331
X-163.553 Y-137.929
X-165.58 Y-137.536
X-167.615 Y-137.154
X-169.659 Y-136.781
X-171.709 Y-136.419
X-173.768 Y-136.067
X-175.833 Y-135.724
X-177.907 Y-135.393
X-179.986 Y-135.07
X-182.074 Y-134.757
X-184.167 Y-134.454
X-186.267 Y-134.16
X-188.374 Y-133.876
X-190.487 Y-133.601
X-192.603 Y-133.336
X-196.86 Y-132.833
X-201.136 Y-132.367
X-205.432 Y-131.938
X-209.747 Y-131.544
X-214.079 Y-131.186
X-218.426 Y-130.863
X-222.788 Y-130.576
X-227.162 Y-130.323
X-231.547 Y-130.103
X-235.941 Y-129.919
X-240.344 Y-129.767
X-244.752 Y-129.651
X-249.166 Y-129.567
X-253.582 Y-129.517
X-258 Y-129.5
X-262.418 Y-129.517
X-266.834 Y-129.567
X-271.248 Y-129.651
X-275.656 Y-129.767
X-280.059 Y-129.919
X-284.453 Y-130.103
X-288.838 Y-130.323
X-293.212 Y-130.576
X-297.574 Y-130.863
X-301.921 Y-131.186
X-306.253 Y-131.544
X-310.568 Y-131.938
X-314.864 Y-132.367
X-319.14 Y-132.833
X-323.397 Y-133.336
X-325.513 Y-133.601
X-327.626 Y-133.876
X-329.733 Y-134.16
X-331.833 Y-134.454
X-333.926 Y-134.757
X-336.014 Y-135.07
X-338.093 Y-135.393
X-340.167 Y-135.724
X-342.232 Y-136.067
X-344.291 Y-136.419
X-346.341 Y-136.781
X-348.385 Y-137.154
X-350.42 Y-137.536
X-352.447 Y-137.929
X-354.465 Y-138.331
X-356.475 Y-138.745
X-358.477 Y-139.169
X-360.47 Y-139.604
X-362.454 Y-140.049
X-364.428 Y-140.504
X-366.394 Y-140.97
X-368.349 Y-141.448
X-370.296 Y-141.937
X-372.232 Y-142.436
X-374.159 Y-142.947
X-376.075 Y-143.469
X-377.981 Y-144.002
X-379.875 Y-144.547
X-381.76 Y-145.103
X-383.635 Y-145.671
X-385.498 Y-146.251
X-387.349 Y-146.842
X-389.19 Y-147.446
X-391.019 Y-148.062
X-392.837 Y-148.689
X-394.642 Y-149.329
X-396.437 Y-149.982
X-398.218 Y-150.645
X-399.988 Y-151.323
X-401.745 Y-152.013
X-403.49 Y-152.715
X-405.222 Y-153.43
X-406.941 Y-154.159
X-408.647 Y-154.899
X-410.34 Y-155.653
X-412.02 Y-156.421
X-413.687 Y-157.202
X-415.34 Y-157.997
X-416.979 Y-158.804
X-418.604 Y-159.625
X-420.216 Y-160.461
X-421.814 Y-161.31
X-423.397 Y-162.173
X-424.966 Y-163.05
X-426.519 Y-163.942
X-428.059 Y-164.848
X-429.584 Y-165.768
X-431.094 Y-166.702
X-432.589 Y-167.652
X-434.069 Y-168.615
X-435.533 Y-169.594
X-436.982 Y-170.587
X-438.415 Y-171.596
X-439.833 Y-172.62
X-441.235 Y-173.659
X-442.621 Y-174.714
X-443.991 Y-175.783
X-445.345 Y-176.869
X-446.683 Y-177.971
X-448.005 Y-179.087
X-449.31 Y-180.221
X-450.598 Y-181.37
X-451.87 Y-182.535
X-453.124 Y-183.716
X-454.362 Y-184.915
X-455.584 Y-186.129
X-456.787 Y-187.36
X-457.975 Y-188.608
X-459.143 Y-189.873
X-460.295 Y-191.154
X-461.43 Y-192.453
X-462.548 Y-193.769
X-463.647 Y-195.101
X-464.728 Y-196.452
X-465.792 Y-197.82
X-466.837 Y-199.206
X-467.865 Y-200.61
X-468.875 Y-202.031
X-469.865 Y-203.47
X-470.838 Y-204.927
X-471.793 Y-206.403
X-472.729 Y-207.896
X-473.646 Y-209.409
X-474.545 Y-210.939
X-475.424 Y-212.489
X-476.286 Y-214.058
X-477.128 Y-215.645
X-477.951 Y-217.251
X-478.755 Y-218.876
X-479.541 Y-220.52
X-480.306 Y-222.183
X-481.053 Y-223.866
X-481.779 Y-225.568
X-482.487 Y-227.291
X-483.175 Y-229.032
X-483.843 Y-230.793
X-484.492 Y-232.574
X-485.12 Y-234.375
X-485.729 Y-236.196
X-486.318 Y-238.037
X-486.888 Y-239.898
X-487.436 Y-241.78
X-487.965 Y-243.682
X-488.475 Y-245.604
X-488.963 Y-247.547
X-489.431 Y-249.51
X-489.879 Y-251.494
X-490.306 Y-253.498
X-490.714 Y-255.523
X-491.1 Y-257.57
X-491.465 Y-259.636
X-491.811 Y-261.725
X-492.136 Y-263.833
X-492.44 Y-265.962
X-492.723 Y-268.113
X-492.985 Y-270.285
X-493.227 Y-272.478
X-493.448 Y-274.691
X-493.647 Y-276.927
X-493.826 Y-279.183
X-493.984 Y-281.46
X-494.12 Y-283.76
X-494.237 Y-286.08
X-494.331 Y-288.421
X-494.406 Y-290.784
X-494.458 Y-293.168
X-494.489 Y-295.573
X-494.5 Y-298.007
G2 X-496 Y-299.5 I-1.5 J0.007
G1 X-508
G2 X-509.5 Y-298 J1.5
G1 Y-8
G2 X-508 Y-6.5 I1.5
G1 X-8
G2 X-6.5 Y-8 J-1.5
G1 Y-52.723
Y-298 Z-17.651 F283.3
G2 X-8 Y-299.5 Z-17.667 I-1.5
G1 X-20 Z-17.748
G2 X-21.5 Y-298.007 Z-17.764 J1.5
G1 X-21.511 Y-295.573 Z-17.78
X-21.542 Y-293.168 Z-17.796
X-21.595 Y-290.784 Z-17.812
X-21.669 Y-288.421 Z-17.828
X-21.763 Y-286.08 Z-17.844
X-21.879 Y-283.76 Z-17.86
X-22.016 Y-281.46 Z-17.875
X-22.174 Y-279.183 Z-17.891
X-22.353 Y-276.927 Z-17.906
X-22.553 Y-274.691 Z-17.921
X-22.773 Y-272.478 Z-17.936
X-23.015 Y-270.285 Z-17.951
X-23.277 Y-268.113 Z-17.965
X-23.56 Y-265.962 Z-17.98
X-23.864 Y-263.833 Z-17.995
X-23.988 Y-263.032 Z-18
X-24.189 Y-261.724 F850
X-24.534 Y-259.636
X-24.9 Y-257.57
X-25.287 Y-255.523
X-25.693 Y-253.498
X-26.121 Y-251.494
X-26.569 Y-249.51
X-27.037 Y-247.547
X-27.526 Y-245.604
X-28.034 Y-243.682
X-28.563 Y-241.78
X-29.112 Y-239.898
X-29.681 Y-238.037
X-30.271 Y-236.197
X-30.88 Y-234.375
X-31.508 Y-232.574
X-32.157 Y-230.793
X-32.825 Y-229.032
X-33.513 Y-227.291
X-34.221 Y-225.568
X-34.948 Y-223.866
X-35.694 Y-222.183
X-36.46 Y-220.52
X-37.245 Y-218.876
X-38.049 Y-217.251
X-38.872 Y-215.645
X-39.714 Y-214.058
X-40.575 Y-212.489
X-41.455 Y-210.939
X-42.354 Y-209.409
X-43.271 Y-207.896
X-44.207 Y-206.403
X-45.162 Y-204.927
X-46.134 Y-203.47
X-47.126 Y-202.031
X-48.135 Y-200.609
X-49.163 Y-199.206
X-50.208 Y-197.82
X-51.272 Y-196.452
X-52.353 Y-195.101
X-53.453 Y-193.769
X-54.57 Y-192.453
X-55.704 Y-191.154
X-56.856 Y-189.873
X-58.026 Y-188.608
X-59.212 Y-187.36
X-60.416 Y-186.129
X-61.637 Y-184.915
X-62.875 Y-183.716
X-64.13 Y-182.535
X-65.402 Y-181.37
X-66.69 Y-180.221
X-67.995 Y-179.087
X-69.317 Y-177.971
X-70.655 Y-176.869
X-72.008 Y-175.783
X-73.378 Y-174.714
X-74.765 Y-173.659
X-76.167 Y-172.62
X-77.585 Y-171.596
X-79.018 Y-170.587
X-80.467 Y-169.594
X-81.931 Y-168.615
X-83.411 Y-167.652
X-84.906 Y-166.702
X-86.416 Y-165.768
X-87.941 Y-164.848
X-89.48 Y-163.942
X-91.035 Y-163.05
X-92.603 Y-162.173
X-94.186 Y-161.31
X-95.784 Y-160.461
X-97.395 Y-159.625
X-99.02 Y-158.804
X-100.66 Y-157.997
X-102.313 Y-157.202
X-103.98 Y-156.421
X-105.66 Y-155.653
X-107.353 Y-154.899
X-109.059 Y-154.159
X-110.778 Y-153.43
X-112.51 Y-152.715
X-114.255 Y-152.013
X-116.012 Y-151.323
X-117.782 Y-150.645
X-119.563 Y-149.982
X-121.358 Y-149.329
X-123.163 Y-148.689
X-124.981 Y-148.062
X-126.81 Y-147.446
X-128.651 Y-146.842
X-130.502 Y-146.251
X-132.365 Y-145.671
X-134.24 Y-145.103
X-136.125 Y-144.547
X-138.019 Y-144.002
X-139.925 Y-143.469
X-141.841 Y-142.947
X-143.768 Y-142.436
X-145.704 Y-141.937
X-147.651 Y-141.448
X-149.606 Y-140.97
X-151.572 Y-140.504
X-153.546 Y-140.049
X-155.53 Y-139.604
X-157.523 Y-139.169
X-159.525 Y-138.745
X-161.535 Y-138.331
X-163.553 Y-137.929
X-165.58 Y-137.536
X-167.615 Y-137.154
X-169.659 Y-136.781
X-171.709 Y-136.419
X-173.768 Y-136.067
X-175.833 Y-135.724
X-177.907 Y-135.393
X-179.986 Y-135.07
X-182.074 Y-134.757
X-184.167 Y-134.454
X-186.267 Y-134.16
X-188.374 Y-133.876
X-190.487 Y-133.601
X-192.603 Y-133.336
X-196.86 Y-132.833
X-201.136 Y-132.367
X-205.432 Y-131.938
X-209.747 Y-131.544
X-214.079 Y-131.186
X-218.426 Y-130.863
X-222.788 Y-130.576
X-227.162 Y-130.323
X-231.547 Y-130.103
X-235.941 Y-129.919
X-240.344 Y-129.767
X-244.752 Y-129.651
X-249.166 Y-129.567
X-253.582 Y-129.517
X-258 Y-129.5
X-262.418 Y-129.517
X-266.834 Y-129.567
X-271.248 Y-129.651
X-275.656 Y-129.767
X-280.059 Y-129.919
X-284.453 Y-130.103
X-288.838 Y-130.323
X-293.212 Y-130.576
X-297.574 Y-130.863
X-301.921 Y-131.186
X-306.253 Y-131.544
X-310.568 Y-131.938
X-314.864 Y-132.367
X-319.14 Y-132.833
X-323.397 Y-133.336
X-325.513 Y-133.601
X-327.626 Y-133.876
X-329.733 Y-134.16
X-331.833 Y-134.454
X-333.926 Y-134.757
X-336.014 Y-135.07
X-338.093 Y-135.393
X-340.167 Y-135.724
X-342.232 Y-136.067
X-344.291 Y-136.419
X-346.341 Y-136.781
X-348.385 Y-137.154
X-350.42 Y-137.536
X-352.447 Y-137.929
X-354.465 Y-138.331
X-356.475 Y-138.745
X-358.477 Y-139.169
X-360.47 Y-139.604
X-362.454 Y-140.049
X-364.428 Y-140.504
X-366.394 Y-140.97
X-368.349 Y-141.448
X-370.296 Y-141.937
X-372.232 Y-142.436
X-374.159 Y-142.947
X-376.075 Y-143.469
X-377.981 Y-144.002
X-379.875 Y-144.547
X-381.76 Y-145.103
X-383.635 Y-145.671
X-385.498 Y-146.251
X-387.349 Y-146.842
X-389.19 Y-147.446
X-391.019 Y-148.062
X-392.837 Y-148.689
X-394.642 Y-149.329
X-396.437 Y-149.982
X-398.218 Y-150.645
X-399.988 Y-151.323
X-401.745 Y-152.013
X-403.49 Y-152.715
X-405.222 Y-153.43
X-406.941 Y-154.159
X-408.647 Y-154.899
X-410.34 Y-155.653
X-412.02 Y-156.421
X-413.687 Y-157.202
X-415.34 Y-157.997
X-416.979 Y-158.804
X-418.604 Y-159.625
X-420.216 Y-160.461
X-421.814 Y-161.31
X-423.397 Y-162.173
X-424.966 Y-163.05
X-426.519 Y-163.942
X-428.059 Y-164.848
X-429.584 Y-165.768
X-431.094 Y-166.702
X-432.589 Y-167.652
X-434.069 Y-168.615
X-435.533 Y-169.594
X-436.982 Y-170.587
X-438.415 Y-171.596
X-439.833 Y-172.62
X-441.235 Y-173.659
X-442.621 Y-174.714
X-443.991 Y-175.783
X-445.345 Y-176.869
X-446.683 Y-177.971
X-448.005 Y-179.087
X-449.31 Y-180.221
X-450.598 Y-181.37
X-451.87 Y-182.535
X-453.124 Y-183.716
X-454.362 Y-184.915
X-455.584 Y-186.129
X-456.787 Y-187.36
X-457.975 Y-188.608
X-459.143 Y-189.873
X-460.295 Y-191.154
X-461.43 Y-192.453
X-462.548 Y-193.769
X-463.647 Y-195.101
X-464.728 Y-196.452
X-465.792 Y-197.82
X-466.837 Y-199.206
X-467.865 Y-200.61
X-468.875 Y-202.031
X-469.865 Y-203.47
X-470.838 Y-204.927
X-471.793 Y-206.403
X-472.729 Y-207.896
X-473.646 Y-209.409
X-474.545 Y-210.939
X-475.424 Y-212.489
X-476.286 Y-214.058
X-477.128 Y-215.645
X-477.951 Y-217.251
X-478.755 Y-218.876
X-479.541 Y-220.52
X-480.306 Y-222.183
X-481.053 Y-223.866
X-481.779 Y-225.568
X-482.487 Y-227.291
X-483.175 Y-229.032
X-483.843 Y-230.793
X-484.492 Y-232.574
X-485.12 Y-234.375
X-485.729 Y-236.196
X-486.318 Y-238.037
X-486.888 Y-239.898
X-487.436 Y-241.78
X-487.965 Y-243.682
X-488.475 Y-245.604
X-488.963 Y-247.547
X-489.431 Y-249.51
X-489.879 Y-251.494
X-490.306 Y-253.498
X-490.714 Y-255.523
X-491.1 Y-257.57
X-491.465 Y-259.636
X-491.811 Y-261.725
X-492.136 Y-263.833
X-492.44 Y-265.962
X-492.723 Y-268.113
X-492.985 Y-270.285
X-493.227 Y-272.478
X-493.448 Y-274.691
X-493.647 Y-276.927
X-493.826 Y-279.183
X-493.984 Y-281.46
X-494.12 Y-283.76
X-494.237 Y-286.08
X-494.331 Y-288.421
X-494.406 Y-290.784
X-494.458 Y-293.168
X-494.489 Y-295.573
X-494.5 Y-298.007
G2 X-496 Y-299.5 I-1.5 J0.007
G1 X-508
G2 X-509.5 Y-298 J1.5
G1 Y-8
G2 X-508 Y-6.5 I1.5
G1 X-8
G2 X-6.5 Y-8 J-1.5
G1 Y-298
G2 X-8 Y-299.5 I-1.5
G1 X-20
G2 X-21.5 Y-298.007 J1.5
G1 X-21.511 Y-295.573
X-21.542 Y-293.168
X-21.595 Y-290.784
X-21.669 Y-288.421
X-21.763 Y-286.08
X-21.879 Y-283.76
X-22.016 Y-281.46
X-22.174 Y-279.183
X-22.353 Y-276.927
X-22.553 Y-274.691
X-22.773 Y-272.478
X-23.015 Y-270.285
X-23.277 Y-268.113
X-23.56 Y-265.962
X-23.864 Y-263.833
X-23.988 Y-263.032
X-24.189 Y-261.724 Z-18.009 F283.3
X-24.534 Y-259.636 Z-18.023
X-24.9 Y-257.57 Z-18.037
X-25.287 Y-255.523 Z-18.051
X-25.693 Y-253.498 Z-18.065
X-26.121 Y-251.494 Z-18.079
X-26.569 Y-249.51 Z-18.093
X-27.037 Y-247.547 Z-18.106
X-27.526 Y-245.604 Z-18.12
X-28.034 Y-243.682 Z-18.133
X-28.563 Y-241.78 Z-18.146
X-29.112 Y-239.898 Z-18.16
X-29.681 Y-238.037 Z-18.173
X-30.271 Y-236.197 Z-18.186
X-30.88 Y-234.375 Z-18.199
X-31.508 Y-232.574 Z-18.212
X-32.157 Y-230.793 Z-18.224
X-32.825 Y-229.032 Z-18.237
X-33.513 Y-227.291 Z-18.25
X-34.221 Y-225.568 Z-18.262
X-34.948 Y-223.866 Z-18.275
X-35.694 Y-222.183 Z-18.287
X-36.46 Y-220.52 Z-18.299
X-37.245 Y-218.876 Z-18.312
X-38.049 Y-217.251 Z-18.324
X-38.872 Y-215.645 Z-18.336
X-39.714 Y-214.058 Z-18.348
X-40.575 Y-212.489 Z-18.36
X-41.455 Y-210.939 Z-18.372
X-42.354 Y-209.409 Z-18.384
X-43.271 Y-207.896 Z-18.396
X-44.207 Y-206.403 Z-18.408
X-45.162 Y-204.927 Z-18.42
X-46.134 Y-203.47 Z-18.431
X-47.126 Y-202.031 Z-18.443
X-48.135 Y-200.609 Z-18.455
X-49.163 Y-199.206 Z-18.467
X-50.208 Y-197.82 Z-18.478
X-51.272 Y-196.452 Z-18.49
X-52.353 Y-195.101 Z-18.502
X-53.453 Y-193.769 Z-18.513
X-54.57 Y-192.453 Z-18.525
X-55.704 Y-191.154 Z-18.536
X-56.856 Y-189.873 Z-18.548
X-58.026 Y-188.608 Z-18.56
X-59.212 Y-187.36 Z-18.571
X-60.416 Y-186.129 Z-18.583
X-61.637 Y-184.915 Z-18.594
X-62.875 Y-183.716 Z-18.606
X-64.13 Y-182.535 Z-18.618
X-65.402 Y-181.37 Z-18.629
X-66.69 Y-180.221 Z-18.641
X-67.995 Y-179.087 Z-18.653
X-69.317 Y-177.971 Z-18.664
X-70.655 Y-176.869 Z-18.676
X-72.008 Y-175.783 Z-18.688
X-73.378 Y-174.714 Z-18.699
X-74.765 Y-173.659 Z-18.711
X-76.167 Y-172.62 Z-18.723
X-77.585 Y-171.596 Z-18.734
X-79.018 Y-170.587 Z-18.746
X-80.467 Y-169.594 Z-18.758
X-81.931 Y-168.615 Z-18.77
X-83.411 Y-167.652 Z-18.782
X-84.906 Y-166.702 Z-18.794
X-86.416 Y-165.768 Z-18.806
X-87.941 Y-164.848 Z-18.818
X-89.48 Y-163.942 Z-18.83
X-91.035 Y-163.05 Z-18.842
X-92.603 Y-162.173 Z-18.854
X-94.186 Y-161.31 Z-18.866
X-95.784 Y-160.461 Z-18.878
X-97.395 Y-159.625 Z-18.89
X-99.02 Y-158.804 Z-18.903
X-100.66 Y-157.997 Z-18.915
X-102.313 Y-157.202 Z-18.927
X-103.98 Y-156.421 Z-18.94
X-105.66 Y-155.653 Z-18.952
X-107.353 Y-154.899 Z-18.965
X-109.059 Y-154.159 Z-18.977
X-110.778 Y-153.43 Z-18.99
X-112.51 Y-152.715 Z-19.002
X-114.255 Y-152.013 Z-19.015
X-116.012 Y-151.323 Z-19.028
X-117.782 Y-150.645 Z-19.04
X-119.563 Y-149.982 Z-19.053
X-121.358 Y-149.329 Z-19.066
X-123.163 Y-148.689 Z-19.079
X-124.981 Y-148.062 Z-19.092
X-126.81 Y-147.446 Z-19.105
X-128.651 Y-146.842 Z-19.118
X-130.502 Y-146.251 Z-19.131
X-132.365 Y-145.671 Z-19.144
X-134.24 Y-145.103 Z-19.157
X-136.125 Y-144.547 Z-19.171
X-138.019 Y-144.002 Z-19.184
X-139.925 Y-143.469 Z-19.197
X-141.841 Y-142.947 Z-19.211
X-143.768 Y-142.436 Z-19.224
X-145.704 Y-141.937 Z-19.237
X-147.651 Y-141.448 Z-19.251
X-149.606 Y-140.97 Z-19.265
X-151.572 Y-140.504 Z-19.278
X-153.546 Y-140.049 Z-19.292
X-155.53 Y-139.604 Z-19.305
X-157.523 Y-139.169 Z-19.319
X-159.525 Y-138.745 Z-19.333
X-161.535 Y-138.331 Z-19.347
X-163.553 Y-137.929 Z-19.361
X-165.58 Y-137.536 Z-19.375
X-167.615 Y-137.154 Z-19.389
X-169.659 Y-136.781 Z-19.402
X-171.709 Y-136.419 Z-19.417
X-173.768 Y-136.067 Z-19.431
X-175.833 Y-135.724 Z-19.445
X-177.907 Y-135.393 Z-19.459
X-179.986 Y-135.07 Z-19.473
X-182.074 Y-134.757 Z-19.487
X-184.167 Y-134.454 Z-19.501
X-186.267 Y-134.16 Z-19.516
X-188.374 Y-133.876 Z-19.53
X-190.487 Y-133.601 Z-19.544
X-192.603 Y-133.336 Z-19.559
X-196.86 Y-132.833 Z-19.588
X-201.136 Y-132.367 Z-19.617
X-205.432 Y-131.938 Z-19.646
X-209.747 Y-131.544 Z-19.675
X-214.079 Y-131.186 Z-19.704
X-218.426 Y-130.863 Z-19.733
X-222.788 Y-130.576 Z-19.763
X-227.162 Y-130.323 Z-19.792
X-231.547 Y-130.103 Z-19.822
X-235.941 Y-129.919 Z-19.851
X-240.344 Y-129.767 Z-19.881
X-244.752 Y-129.651 Z-19.911
X-249.166 Y-129.567 Z-19.941
X-253.582 Y-129.517 Z-19.97
X-258 Y-129.5 Z-20
X-262.418 Y-129.517 F850
X-266.834 Y-129.567
X-271.248 Y-129.651
X-275.656 Y-129.767
X-280.059 Y-129.919
X-284.453 Y-130.103
X-288.838 Y-130.323
X-293.212 Y-130.576
X-297.574 Y-130.863
X-301.921 Y-131.186
X-306.253 Y-131.544
X-310.568 Y-131.938
X-314.864 Y-132.367
X-319.14 Y-132.833
X-323.397 Y-133.336
X-325.513 Y-133.601
X-327.626 Y-133.876
X-329.733 Y-134.16
X-331.833 Y-134.454
X-333.926 Y-134.757
X-336.014 Y-135.07
X-338.093 Y-135.393
X-340.167 Y-135.724
X-342.232 Y-136.067
X-344.291 Y-136.419
X-346.341 Y-136.781
X-348.385 Y-137.154
X-350.42 Y-137.536
X-352.447 Y-137.929
X-354.465 Y-138.331
X-356.475 Y-138.745
X-358.477 Y-139.169
X-360.47 Y-139.604
X-362.454 Y-140.049
X-364.428 Y-140.504
X-366.394 Y-140.97
X-368.349 Y-141.448
X-370.296 Y-141.937
X-372.232 Y-142.436
X-374.159 Y-142.947
X-376.075 Y-143.469
X-377.981 Y-144.002
X-379.875 Y-144.547
X-381.76 Y-145.103
X-383.635 Y-145.671
X-385.498 Y-146.251
X-387.349 Y-146.842
X-389.19 Y-147.446
X-391.019 Y-148.062
X-392.837 Y-148.689
X-394.642 Y-149.329
X-396.437 Y-149.982
X-398.218 Y-150.645
X-399.988 Y-151.323
X-401.745 Y-152.013
X-403.49 Y-152.715
X-405.222 Y-153.43
X-406.941 Y-154.159
X-408.647 Y-154.899
X-410.34 Y-155.653
X-412.02 Y-156.421
X-413.687 Y-157.202
X-415.34 Y-157.997
X-416.979 Y-158.804
X-418.604 Y-159.625
X-420.216 Y-160.461
X-421.814 Y-161.31
X-423.397 Y-162.173
X-424.966 Y-163.05
X-426.519 Y-163.942
X-428.059 Y-164.848
X-429.584 Y-165.768
X-431.094 Y-166.702
X-432.589 Y-167.652
X-434.069 Y-168.615
X-435.533 Y-169.594
X-436.982 Y-170.587
X-438.415 Y-171.596
X-439.833 Y-172.62
X-441.235 Y-173.659
X-442.621 Y-174.714
X-443.991 Y-175.783
X-445.345 Y-176.869
X-446.683 Y-177.971
X-448.005 Y-179.087
X-449.31 Y-180.221
X-450.598 Y-181.37
X-451.87 Y-182.535
X-453.124 Y-183.716
X-454.362 Y-184.915
X-455.584 Y-186.129
X-456.787 Y-187.36
X-457.975 Y-188.608
X-459.143 Y-189.873
X-460.295 Y-191.154
X-461.43 Y-192.453
X-462.548 Y-193.769
X-463.647 Y-195.101
X-464.728 Y-196.452
X-465.792 Y-197.82
X-466.837 Y-199.206
X-467.865 Y-200.61
X-468.875 Y-202.031
X-469.865 Y-203.47
X-470.838 Y-204.927
X-471.793 Y-206.403
X-472.729 Y-207.896
X-473.646 Y-209.409
X-474.545 Y-210.939
X-475.424 Y-212.489
X-476.286 Y-214.058
X-477.128 Y-215.645
X-477.951 Y-217.251
X-478.755 Y-218.876
X-479.541 Y-220.52
X-480.306 Y-222.183
X-481.053 Y-223.866
X-481.779 Y-225.568
X-482.487 Y-227.291
X-483.175 Y-229.032
X-483.843 Y-230.793
X-484.492 Y-232.574
X-485.12 Y-234.375
X-485.729 Y-236.196
X-486.318 Y-238.037
X-486.888 Y-239.898
X-487.436 Y-241.78
X-487.965 Y-243.682
X-488.475 Y-245.604
X-488.963 Y-247.547
X-489.431 Y-249.51
X-489.879 Y-251.494
X-490.306 Y-253.498
X-490.714 Y-255.523
X-491.1 Y-257.57
X-491.465 Y-259.636
X-491.811 Y-261.725
X-492.136 Y-263.833
X-492.44 Y-265.962
X-492.723 Y-268.113
X-492.985 Y-270.285
X-493.227 Y-272.478
X-493.448 Y-274.691
X-493.647 Y-276.927
X-493.826 Y-279.183
X-493.984 Y-281.46
X-494.12 Y-283.76
X-494.237 Y-286.08
X-494.331 Y-288.421
X-494.406 Y-290.784
X-494.458 Y-293.168
X-494.489 Y-295.573
X-494.5 Y-298.007
G2 X-496 Y-299.5 I-1.5 J0.007
G1 X-508
G2 X-509.5 Y-298 J1.5
G1 Y-8
G2 X-508 Y-6.5 I1.5
G1 X-8
G2 X-6.5 Y-8 J-1.5
G1 Y-298
G2 X-8 Y-299.5 I-1.5
G1 X-20
G2 X-21.5 Y-298.007 J1.5
G1 X-21.511 Y-295.573
X-21.542 Y-293.168
X-21.595 Y-290.784
X-21.669 Y-288.421
X-21.763 Y-286.08
X-21.879 Y-283.76
X-22.016 Y-281.46
X-22.174 Y-279.183
X-22.353 Y-276.927
X-22.553 Y-274.691
X-22.773 Y-272.478
X-23.015 Y-270.285
X-23.277 Y-268.113
X-23.56 Y-265.962
X-23.864 Y-263.833
X-24.189 Y-261.724
X-24.534 Y-259.636
X-24.9 Y-257.57
X-25.287 Y-255.523
X-25.693 Y-253.498
X-26.121 Y-251.494
X-26.569 Y-249.51
X-27.037 Y-247.547
X-27.526 Y-245.604
X-28.034 Y-243.682
X-28.563 Y-241.78
X-29.112 Y-239.898
X-29.681 Y-238.037
X-30.271 Y-236.197
X-30.88 Y-234.375
X-31.508 Y-232.574
X-32.157 Y-230.793
X-32.825 Y-229.032
X-33.513 Y-227.291
X-34.221 Y-225.568
X-34.948 Y-223.866
X-35.694 Y-222.183
X-36.46 Y-220.52
X-37.245 Y-218.876
X-38.049 Y-217.251
X-38.872 Y-215.645
X-39.714 Y-214.058
X-40.575 Y-212.489
X-41.455 Y-210.939
X-42.354 Y-209.409
X-43.271 Y-207.896
X-44.207 Y-206.403
X-45.162 Y-204.927
X-46.134 Y-203.47
X-47.126 Y-202.031
X-48.135 Y-200.609
X-49.163 Y-199.206
X-50.208 Y-197.82
X-51.272 Y-196.452
X-52.353 Y-195.101
X-53.453 Y-193.769
X-54.57 Y-192.453
X-55.704 Y-191.154
X-56.856 Y-189.873
X-58.026 Y-188.608
X-59.212 Y-187.36
X-60.416 Y-186.129
X-61.637 Y-184.915
X-62.875 Y-183.716
X-64.13 Y-182.535
X-65.402 Y-181.37
X-66.69 Y-180.221
X-67.995 Y-179.087
X-69.317 Y-177.971
X-70.655 Y-176.869
X-72.008 Y-175.783
X-73.378 Y-174.714
X-74.765 Y-173.659
X-76.167 Y-172.62
X-77.585 Y-171.596
X-79.018 Y-170.587
X-80.467 Y-169.594
X-81.931 Y-168.615
X-83.411 Y-167.652
X-84.906 Y-166.702
X-86.416 Y-165.768
X-87.941 Y-164.848
X-89.48 Y-163.942
X-91.035 Y-163.05
X-92.603 Y-162.173
X-94.186 Y-161.31
X-95.784 Y-160.461
X-97.395 Y-159.625
X-99.02 Y-158.804
X-100.66 Y-157.997
X-102.313 Y-157.202
X-103.98 Y-156.421
X-105.66 Y-155.653
X-107.353 Y-154.899
X-109.059 Y-154.159
X-110.778 Y-153.43
X-112.51 Y-152.715
X-114.255 Y-152.013
X-116.012 Y-151.323
X-117.782 Y-150.645
X-119.563 Y-149.982
X-121.358 Y-149.329
X-123.163 Y-148.689
X-124.981 Y-148.062
X-126.81 Y-147.446
X-128.651 Y-146.842
X-130.502 Y-146.251
X-132.365 Y-145.671
X-134.24 Y-145.103
X-136.125 Y-144.547
X-138.019 Y-144.002
X-139.925 Y-143.469
X-141.841 Y-142.947
X-143.768 Y-142.436
X-145.704 Y-141.937
X-147.651 Y-141.448
X-149.606 Y-140.97
X-151.572 Y-140.504
X-153.546 Y-140.049
X-155.53 Y-139.604
X-157.523 Y-139.169
X-159.525 Y-138.745
X-161.535 Y-138.331
X-163.553 Y-137.929
X-165.58 Y-137.536
X-167.615 Y-137.154
X-169.659 Y-136.781
X-171.709 Y-136.419
X-173.768 Y-136.067
X-175.833 Y-135.724
X-177.907 Y-135.393
X-179.986 Y-135.07
X-182.074 Y-134.757
X-184.167 Y-134.454
X-186.267 Y-134.16
X-188.374 Y-133.876
X-190.487 Y-133.601
X-192.603 Y-133.336
X-196.86 Y-132.833
X-201.136 Y-132.367
X-205.432 Y-131.938
X-209.747 Y-131.544
X-214.079 Y-131.186
X-218.426 Y-130.863
X-222.788 Y-130.576
X-227.162 Y-130.323
X-231.547 Y-130.103
X-235.941 Y-129.919
X-240.344 Y-129.767
X-244.752 Y-129.651
X-249.166 Y-129.567
X-253.582 Y-129.517
X-258 Y-129.5
G3 X-258.299 Y-129.801 I0.001 J-0.3
G1 X-258.298 Y-130.101
X-258.297 Y-130.168 Z-19.992
Y-130.231 Z-19.97
Y-130.288 Z-19.935
Y-130.336 Z-19.887
Y-130.371 Z-19.83
Y-130.394 Z-19.767
Y-130.401 Z-19.7
G0 Z15
M9
M30
%
