%
(1001)
(origin stock top)
(T2  D=6 CR=0 - ZMIN=-16 - flat end mill)
G90 G94
G17
G21

(2D Contour3)
M9
T2 M6
S8500 M3
G54
M9
G0 X-24.341 Y-263.945
Z15
Z5
G1 Z3 F30
Z2.5
X-24.265 Y-264.634 Z2.427 F3000
X-24.046 Y-266.832 Z2.195
X-23.848 Y-269.053 Z1.961
X-23.67 Y-271.294 Z1.724
X-23.513 Y-273.557 Z1.486
X-23.377 Y-275.842 Z1.245
X-23.262 Y-278.148 Z1.003
X-23.168 Y-280.475 Z0.758
X-23.094 Y-282.824 Z0.511
X-23.042 Y-285.195 Z0.262
X-23.011 Y-287.586 Z0.01
X-23 Y-290.013 Z-0.245
G3 X-20 Y-293 Z-0.739 I3 J0.013
G1 X-8 Z-2
X-20
G2 X-23 Y-290.013 J3
G1 X-23.011 Y-287.586
X-23.042 Y-285.195
X-23.094 Y-282.824
X-23.168 Y-280.475
X-23.262 Y-278.148
X-23.377 Y-275.842
X-23.513 Y-273.557
X-23.67 Y-271.294
X-23.848 Y-269.053
X-24.046 Y-266.832
X-24.265 Y-264.634
X-24.505 Y-262.457
X-24.765 Y-260.301
X-25.046 Y-258.166
X-25.348 Y-256.053
X-25.67 Y-253.961
X-26.013 Y-251.889
X-26.376 Y-249.84
X-26.759 Y-247.81
X-27.162 Y-245.802
X-27.586 Y-243.815
X-28.03 Y-241.849
X-28.494 Y-239.904
X-28.978 Y-237.979
X-29.482 Y-236.075
X-30.006 Y-234.191
X-30.55 Y-232.328
X-31.113 Y-230.485
X-31.696 Y-228.663
X-32.299 Y-226.86
X-32.921 Y-225.078
X-33.563 Y-223.315
X-34.224 Y-221.573
X-34.905 Y-219.851
X-35.604 Y-218.148
X-36.323 Y-216.464
X-37.061 Y-214.801
X-37.818 Y-213.157
X-38.594 Y-211.532
X-39.388 Y-209.926
X-40.202 Y-208.338
X-41.034 Y-206.77
X-41.885 Y-205.22
X-42.754 Y-203.689
X-43.642 Y-202.178
X-44.548 Y-200.683
X-45.473 Y-199.208
X-46.415 Y-197.751
X-47.376 Y-196.312
X-48.355 Y-194.89
X-49.352 Y-193.487
X-50.367 Y-192.101
X-51.399 Y-190.732
X-52.45 Y-189.381
X-53.518 Y-188.047
X-54.603 Y-186.731
X-55.706 Y-185.432
X-56.827 Y-184.149
X-57.964 Y-182.883
X-59.12 Y-181.634
X-60.292 Y-180.402
X-61.481 Y-179.185
X-62.688 Y-177.985
X-63.911 Y-176.801
X-65.151 Y-175.634
X-66.408 Y-174.483
X-67.681 Y-173.347
X-68.971 Y-172.226
X-70.277 Y-171.123
X-71.601 Y-170.033
X-72.939 Y-168.96
X-74.294 Y-167.902
X-75.666 Y-166.859
X-77.052 Y-165.83
X-78.455 Y-164.818
X-79.874 Y-163.819
X-81.308 Y-162.836
X-82.758 Y-161.867
X-84.223 Y-160.913
X-85.703 Y-159.973
X-87.198 Y-159.048
X-88.709 Y-158.136
X-90.234 Y-157.239
X-91.774 Y-156.355
X-93.328 Y-155.486
X-94.897 Y-154.631
X-96.481 Y-153.789
X-98.079 Y-152.96
X-99.69 Y-152.147
X-101.317 Y-151.346
X-102.956 Y-150.557
X-104.61 Y-149.783
X-106.277 Y-149.02
X-107.957 Y-148.272
X-109.651 Y-147.537
X-111.357 Y-146.814
X-113.076 Y-146.104
X-114.809 Y-145.407
X-116.555 Y-144.721
X-118.312 Y-144.049
X-120.081 Y-143.389
X-121.865 Y-142.74
X-123.658 Y-142.105
X-125.464 Y-141.482
X-127.283 Y-140.87
X-129.113 Y-140.269
X-130.953 Y-139.681
X-132.805 Y-139.105
X-134.669 Y-138.54
X-136.544 Y-137.987
X-138.429 Y-137.445
X-140.325 Y-136.915
X-142.231 Y-136.395
X-144.148 Y-135.887
X-146.074 Y-135.39
X-148.011 Y-134.904
X-149.958 Y-134.429
X-151.913 Y-133.964
X-153.878 Y-133.511
X-155.854 Y-133.068
X-157.838 Y-132.635
X-159.831 Y-132.214
X-161.833 Y-131.801
X-163.842 Y-131.401
X-165.861 Y-131.01
X-167.888 Y-130.629
X-169.924 Y-130.258
X-171.966 Y-129.897
X-174.017 Y-129.546
X-176.075 Y-129.205
X-178.14 Y-128.874
X-180.212 Y-128.553
X-182.292 Y-128.241
X-184.379 Y-127.939
X-186.471 Y-127.646
X-188.571 Y-127.363
X-190.677 Y-127.089
X-192.784 Y-126.825
X-197.03 Y-126.324
X-201.292 Y-125.859
X-205.574 Y-125.431
X-209.877 Y-125.039
X-214.197 Y-124.682
X-218.531 Y-124.36
X-222.88 Y-124.073
X-227.243 Y-123.821
X-231.616 Y-123.602
X-235.999 Y-123.418
X-240.389 Y-123.267
X-244.786 Y-123.15
X-249.188 Y-123.067
X-253.594 Y-123.017
X-258 Y-123
X-262.406 Y-123.017
X-266.812 Y-123.067
X-271.214 Y-123.15
X-275.611 Y-123.267
X-280.001 Y-123.418
X-284.384 Y-123.602
X-288.757 Y-123.821
X-293.12 Y-124.073
X-297.469 Y-124.36
X-301.803 Y-124.682
X-306.123 Y-125.039
X-310.426 Y-125.431
X-314.708 Y-125.859
X-318.97 Y-126.324
X-323.216 Y-126.825
X-325.323 Y-127.089
X-327.429 Y-127.363
X-329.529 Y-127.646
X-331.621 Y-127.939
X-333.708 Y-128.241
X-335.788 Y-128.553
X-337.86 Y-128.874
X-339.925 Y-129.205
X-341.983 Y-129.546
X-344.034 Y-129.897
X-346.076 Y-130.258
X-348.112 Y-130.629
X-350.139 Y-131.01
X-352.158 Y-131.401
X-354.167 Y-131.801
X-356.169 Y-132.214
X-358.162 Y-132.635
X-360.146 Y-133.068
X-362.122 Y-133.511
X-364.087 Y-133.964
X-366.042 Y-134.429
X-367.989 Y-134.904
X-369.926 Y-135.39
X-371.852 Y-135.887
X-373.769 Y-136.395
X-375.675 Y-136.915
X-377.571 Y-137.445
X-379.456 Y-137.987
X-381.331 Y-138.54
X-383.195 Y-139.105
X-385.047 Y-139.681
X-386.887 Y-140.269
X-388.717 Y-140.87
X-390.535 Y-141.482
X-392.342 Y-142.105
X-394.135 Y-142.74
X-395.919 Y-143.389
X-397.688 Y-144.049
X-399.445 Y-144.721
X-401.191 Y-145.407
X-402.924 Y-146.104
X-404.643 Y-146.814
X-406.349 Y-147.537
X-408.043 Y-148.272
X-409.723 Y-149.02
X-411.39 Y-149.783
X-413.044 Y-150.557
X-414.683 Y-151.346
X-416.31 Y-152.147
X-417.921 Y-152.96
X-419.519 Y-153.789
X-421.103 Y-154.631
X-422.672 Y-155.486
X-424.226 Y-156.355
X-425.766 Y-157.239
X-427.291 Y-158.136
X-428.802 Y-159.048
X-430.297 Y-159.973
X-431.777 Y-160.913
X-433.243 Y-161.867
X-434.692 Y-162.836
X-436.126 Y-163.819
X-437.544 Y-164.818
X-438.948 Y-165.83
X-440.334 Y-166.859
X-441.706 Y-167.902
X-443.06 Y-168.96
X-444.399 Y-170.033
X-445.723 Y-171.123
X-447.029 Y-172.226
X-448.319 Y-173.347
X-449.592 Y-174.483
X-450.849 Y-175.634
X-452.088 Y-176.801
X-453.312 Y-177.985
X-454.519 Y-179.185
X-455.708 Y-180.402
X-456.881 Y-181.634
X-458.035 Y-182.883
X-459.173 Y-184.149
X-460.294 Y-185.432
X-461.397 Y-186.732
X-462.483 Y-188.047
X-463.551 Y-189.381
X-464.601 Y-190.732
X-465.633 Y-192.101
X-466.649 Y-193.487
X-467.645 Y-194.89
X-468.624 Y-196.312
X-469.585 Y-197.751
X-470.527 Y-199.208
X-471.452 Y-200.683
X-472.358 Y-202.177
X-473.246 Y-203.689
X-474.115 Y-205.22
X-474.966 Y-206.77
X-475.798 Y-208.338
X-476.611 Y-209.925
X-477.406 Y-211.532
X-478.183 Y-213.157
X-478.939 Y-214.8
X-479.677 Y-216.464
X-480.396 Y-218.148
X-481.095 Y-219.852
X-481.776 Y-221.574
X-482.437 Y-223.316
X-483.079 Y-225.078
X-483.701 Y-226.86
X-484.304 Y-228.663
X-484.887 Y-230.485
X-485.45 Y-232.328
X-485.994 Y-234.191
X-486.518 Y-236.075
X-487.022 Y-237.979
X-487.506 Y-239.903
X-487.97 Y-241.849
X-488.414 Y-243.815
X-488.837 Y-245.803
X-489.241 Y-247.811
X-489.625 Y-249.839
X-489.987 Y-251.889
X-490.33 Y-253.961
X-490.652 Y-256.054
X-490.954 Y-258.165
X-491.235 Y-260.3
X-491.495 Y-262.457
X-491.735 Y-264.634
X-491.954 Y-266.832
X-492.153 Y-269.053
X-492.33 Y-271.294
X-492.487 Y-273.556
X-492.622 Y-275.842
X-492.738 Y-278.148
X-492.832 Y-280.475
X-492.906 Y-282.824
X-492.958 Y-285.194
X-492.989 Y-287.586
X-493 Y-290.014
G2 X-496 Y-293 I-3 J0.014
G1 X-508
G2 X-511 Y-290 J3
G1 Y0
Y-290 Z-2.587
G3 X-508 Y-293 Z-2.597 I3
G1 X-496 Z-2.621
G3 X-493 Y-290.014 Z-2.631 J3
G1 X-492.989 Y-287.586 Z-2.635
X-492.958 Y-285.194 Z-2.64
X-492.906 Y-282.824 Z-2.645
X-492.832 Y-280.475 Z-2.65
X-492.738 Y-278.148 Z-2.655
X-492.622 Y-275.842 Z-2.659
X-492.487 Y-273.556 Z-2.664
X-492.33 Y-271.294 Z-2.668
X-492.153 Y-269.053 Z-2.673
X-491.954 Y-266.832 Z-2.678
X-491.735 Y-264.634 Z-2.682
X-491.495 Y-262.457 Z-2.686
X-491.235 Y-260.3 Z-2.691
X-490.954 Y-258.165 Z-2.695
X-490.652 Y-256.054 Z-2.7
X-490.33 Y-253.961 Z-2.704
X-489.987 Y-251.889 Z-2.708
X-489.625 Y-249.839 Z-2.712
X-489.241 Y-247.811 Z-2.716
X-488.837 Y-245.803 Z-2.721
X-488.414 Y-243.815 Z-2.725
X-487.97 Y-241.849 Z-2.729
X-487.506 Y-239.903 Z-2.733
X-487.022 Y-237.979 Z-2.737
X-486.518 Y-236.075 Z-2.741
X-485.994 Y-234.191 Z-2.745
X-485.45 Y-232.328 Z-2.749
X-484.887 Y-230.485 Z-2.753
X-484.304 Y-228.663 Z-2.757
X-483.701 Y-226.86 Z-2.76
X-483.079 Y-225.078 Z-2.764
X-482.437 Y-223.316 Z-2.768
X-481.776 Y-221.574 Z-2.772
X-481.095 Y-219.852 Z-2.776
X-480.396 Y-218.148 Z-2.779
X-479.677 Y-216.464 Z-2.783
X-478.939 Y-214.8 Z-2.787
X-478.183 Y-213.157 Z-2.79
X-477.406 Y-211.532 Z-2.794
X-476.611 Y-209.925 Z-2.798
X-475.798 Y-208.338 Z-2.801
X-474.966 Y-206.77 Z-2.805
X-474.115 Y-205.22 Z-2.808
X-473.246 Y-203.689 Z-2.812
X-472.358 Y-202.177 Z-2.815
X-471.452 Y-200.683 Z-2.819
X-470.527 Y-199.208 Z-2.823
X-469.585 Y-197.751 Z-2.826
X-468.624 Y-196.312 Z-2.83
X-467.645 Y-194.89 Z-2.833
X-466.649 Y-193.487 Z-2.837
X-465.633 Y-192.101 Z-2.84
X-464.601 Y-190.732 Z-2.843
X-463.551 Y-189.381 Z-2.847
X-462.483 Y-188.047 Z-2.85
X-461.397 Y-186.732 Z-2.854
X-460.294 Y-185.432 Z-2.857
X-459.173 Y-184.149 Z-2.861
X-458.035 Y-182.883 Z-2.864
X-456.881 Y-181.634 Z-2.868
X-455.708 Y-180.402 Z-2.871
X-454.519 Y-179.185 Z-2.875
X-453.312 Y-177.985 Z-2.878
X-452.088 Y-176.801 Z-2.881
X-450.849 Y-175.634 Z-2.885
X-449.592 Y-174.483 Z-2.888
X-448.319 Y-173.347 Z-2.892
X-447.029 Y-172.226 Z-2.895
X-445.723 Y-171.123 Z-2.899
X-444.399 Y-170.033 Z-2.902
X-443.06 Y-168.96 Z-2.906
X-441.706 Y-167.902 Z-2.909
X-440.334 Y-166.859 Z-2.913
X-438.948 Y-165.83 Z-2.916
X-437.544 Y-164.818 Z-2.92
X-436.126 Y-163.819 Z-2.923
X-434.692 Y-162.836 Z-2.927
X-433.243 Y-161.867 Z-2.93
X-431.777 Y-160.913 Z-2.934
X-430.297 Y-159.973 Z-2.937
X-428.802 Y-159.048 Z-2.941
X-427.291 Y-158.136 Z-2.944
X-425.766 Y-157.239 Z-2.948
X-424.226 Y-156.355 Z-2.952
X-422.672 Y-155.486 Z-2.955
X-421.103 Y-154.631 Z-2.959
X-419.519 Y-153.789 Z-2.962
X-417.921 Y-152.96 Z-2.966
X-416.31 Y-152.147 Z-2.97
X-414.683 Y-151.346 Z-2.973
X-413.044 Y-150.557 Z-2.977
X-411.39 Y-149.783 Z-2.981
X-409.723 Y-149.02 Z-2.985
X-408.043 Y-148.272 Z-2.988
X-406.349 Y-147.537 Z-2.992
X-404.643 Y-146.814 Z-2.996
X-402.924 Y-146.104 Z-2.999
X-401.191 Y-145.407 Z-3.003
X-399.445 Y-144.721 Z-3.007
X-397.688 Y-144.049 Z-3.011
X-395.919 Y-143.389 Z-3.015
X-394.135 Y-142.74 Z-3.019
X-392.342 Y-142.105 Z-3.022
X-390.535 Y-141.482 Z-3.026
X-388.717 Y-140.87 Z-3.03
X-386.887 Y-140.269 Z-3.034
X-385.047 Y-139.681 Z-3.038
X-383.195 Y-139.105 Z-3.042
X-381.331 Y-138.54 Z-3.046
X-379.456 Y-137.987 Z-3.05
X-377.571 Y-137.445 Z-3.054
X-375.675 Y-136.915 Z-3.058
X-373.769 Y-136.395 Z-3.062
X-371.852 Y-135.887 Z-3.066
X-369.926 Y-135.39 Z-3.07
X-367.989 Y-134.904 Z-3.074
X-366.042 Y-134.429 Z-3.078
X-364.087 Y-133.964 Z-3.082
X-362.122 Y-133.511 Z-3.086
X-360.146 Y-133.068 Z-3.09
X-358.162 Y-132.635 Z-3.094
X-356.169 Y-132.214 Z-3.098
X-354.167 Y-131.801 Z-3.103
X-352.158 Y-131.401 Z-3.107
X-350.139 Y-131.01 Z-3.111
X-348.112 Y-130.629 Z-3.115
X-346.076 Y-130.258 Z-3.119
X-344.034 Y-129.897 Z-3.123
X-341.983 Y-129.546 Z-3.128
X-339.925 Y-129.205 Z-3.132
X-337.86 Y-128.874 Z-3.136
X-335.788 Y-128.553 Z-3.14
X-333.708 Y-128.241 Z-3.145
X-331.621 Y-127.939 Z-3.149
X-329.529 Y-127.646 Z-3.153
X-327.429 Y-127.363 Z-3.157
X-325.323 Y-127.089 Z-3.162
X-323.216 Y-126.825 Z-3.166
X-318.97 Y-126.324 Z-3.175
X-314.708 Y-125.859 Z-3.183
X-310.426 Y-125.431 Z-3.192
X-306.123 Y-125.039 Z-3.201
X-301.803 Y-124.682 Z-3.21
X-297.469 Y-124.36 Z-3.218
X-293.12 Y-124.073 Z-3.227
X-288.757 Y-123.821 Z-3.236
X-284.384 Y-123.602 Z-3.245
X-280.001 Y-123.418 Z-3.254
X-275.611 Y-123.267 Z-3.263
X-271.214 Y-123.15 Z-3.272
X-266.812 Y-123.067 Z-3.281
X-262.406 Y-123.017 Z-3.289
X-258 Y-123 Z-3.298
X-253.594 Y-123.017 Z-3.307
X-249.188 Y-123.067 Z-3.316
X-244.786 Y-123.15 Z-3.325
X-240.389 Y-123.267 Z-3.334
X-235.999 Y-123.418 Z-3.343
X-231.616 Y-123.602 Z-3.352
X-227.243 Y-123.821 Z-3.361
X-222.88 Y-124.073 Z-3.37
X-218.531 Y-124.36 Z-3.378
X-214.197 Y-124.682 Z-3.387
X-209.877 Y-125.039 Z-3.396
X-205.574 Y-125.431 Z-3.405
X-201.292 Y-125.859 Z-3.413
X-197.03 Y-126.324 Z-3.422
X-192.784 Y-126.825 Z-3.431
X-190.677 Y-127.089 Z-3.435
X-188.571 Y-127.363 Z-3.439
X-186.471 Y-127.646 Z-3.444
X-184.379 Y-127.939 Z-3.448
X-182.292 Y-128.241 Z-3.452
X-180.212 Y-128.553 Z-3.456
X-178.14 Y-128.874 Z-3.461
X-176.075 Y-129.205 Z-3.465
X-174.017 Y-129.546 Z-3.469
X-171.966 Y-129.897 Z-3.473
X-169.924 Y-130.258 Z-3.478
X-167.888 Y-130.629 Z-3.482
X-165.861 Y-131.01 Z-3.486
X-163.842 Y-131.401 Z-3.49
X-161.833 Y-131.801 Z-3.494
X-159.831 Y-132.214 Z-3.498
X-157.838 Y-132.635 Z-3.502
X-155.854 Y-133.068 Z-3.507
X-153.878 Y-133.511 Z-3.511
X-151.913 Y-133.964 Z-3.515
X-149.958 Y-134.429 Z-3.519
X-148.011 Y-134.904 Z-3.523
X-146.074 Y-135.39 Z-3.527
X-144.148 Y-135.887 Z-3.531
X-142.231 Y-136.395 Z-3.535
X-140.325 Y-136.915 Z-3.539
X-138.429 Y-137.445 Z-3.543
X-136.544 Y-137.987 Z-3.547
X-134.669 Y-138.54 Z-3.551
X-132.805 Y-139.105 Z-3.555
X-130.953 Y-139.681 Z-3.559
X-129.113 Y-140.269 Z-3.563
X-127.283 Y-140.87 Z-3.567
X-125.464 Y-141.482 Z-3.57
X-123.658 Y-142.105 Z-3.574
X-121.865 Y-142.74 Z-3.578
X-120.081 Y-143.389 Z-3.582
X-118.312 Y-144.049 Z-3.586
X-116.555 Y-144.721 Z-3.59
X-114.809 Y-145.407 Z-3.593
X-113.076 Y-146.104 Z-3.597
X-111.357 Y-146.814 Z-3.601
X-109.651 Y-147.537 Z-3.605
X-107.957 Y-148.272 Z-3.608
X-106.277 Y-149.02 Z-3.612
X-104.61 Y-149.783 Z-3.616
X-102.956 Y-150.557 Z-3.62
X-101.317 Y-151.346 Z-3.623
X-99.69 Y-152.147 Z-3.627
X-98.079 Y-152.96 Z-3.631
X-96.481 Y-153.789 Z-3.634
X-94.897 Y-154.631 Z-3.638
X-93.328 Y-155.486 Z-3.642
X-91.774 Y-156.355 Z-3.645
X-90.234 Y-157.239 Z-3.649
X-88.709 Y-158.136 Z-3.652
X-87.198 Y-159.048 Z-3.656
X-85.703 Y-159.973 Z-3.659
X-84.223 Y-160.913 Z-3.663
X-82.758 Y-161.867 Z-3.667
X-81.308 Y-162.836 Z-3.67
X-79.874 Y-163.819 Z-3.674
X-78.455 Y-164.818 Z-3.677
X-77.052 Y-165.83 Z-3.681
X-75.666 Y-166.859 Z-3.684
X-74.294 Y-167.902 Z-3.688
X-72.939 Y-168.96 Z-3.691
X-71.601 Y-170.033 Z-3.695
X-70.277 Y-171.123 Z-3.698
X-68.971 Y-172.226 Z-3.701
X-67.681 Y-173.347 Z-3.705
X-66.408 Y-174.483 Z-3.708
X-65.151 Y-175.634 Z-3.712
X-63.911 Y-176.801 Z-3.715
X-62.688 Y-177.985 Z-3.719
X-61.481 Y-179.185 Z-3.722
X-60.292 Y-180.402 Z-3.726
X-59.12 Y-181.634 Z-3.729
X-57.964 Y-182.883 Z-3.733
X-56.827 Y-184.149 Z-3.736
X-55.706 Y-185.432 Z-3.739
X-54.603 Y-186.731 Z-3.743
X-53.518 Y-188.047 Z-3.746
X-52.45 Y-189.381 Z-3.75
X-51.399 Y-190.732 Z-3.753
X-50.367 Y-192.101 Z-3.757
X-49.352 Y-193.487 Z-3.76
X-48.355 Y-194.89 Z-3.764
X-47.376 Y-196.312 Z-3.767
X-46.415 Y-197.751 Z-3.771
X-45.473 Y-199.208 Z-3.774
X-44.548 Y-200.683 Z-3.778
X-43.642 Y-202.178 Z-3.781
X-42.754 Y-203.689 Z-3.785
X-41.885 Y-205.22 Z-3.788
X-41.034 Y-206.77 Z-3.792
X-40.202 Y-208.338 Z-3.796
X-39.388 Y-209.926 Z-3.799
X-38.594 Y-211.532 Z-3.803
X-37.818 Y-213.157 Z-3.806
X-37.061 Y-214.801 Z-3.81
X-36.323 Y-216.464 Z-3.814
X-35.604 Y-218.148 Z-3.817
X-34.905 Y-219.851 Z-3.821
X-34.224 Y-221.573 Z-3.825
X-33.563 Y-223.315 Z-3.829
X-32.921 Y-225.078 Z-3.833
X-32.299 Y-226.86 Z-3.836
X-31.696 Y-228.663 Z-3.84
X-31.113 Y-230.485 Z-3.844
X-30.55 Y-232.328 Z-3.848
X-30.006 Y-234.191 Z-3.852
X-29.482 Y-236.075 Z-3.856
X-28.978 Y-237.979 Z-3.86
X-28.494 Y-239.904 Z-3.864
X-28.03 Y-241.849 Z-3.868
X-27.586 Y-243.815 Z-3.872
X-27.162 Y-245.802 Z-3.876
X-26.759 Y-247.81 Z-3.88
X-26.376 Y-249.84 Z-3.884
X-26.013 Y-251.889 Z-3.889
X-25.67 Y-253.961 Z-3.893
X-25.348 Y-256.053 Z-3.897
X-25.046 Y-258.166 Z-3.902
X-24.765 Y-260.301 Z-3.906
X-24.505 Y-262.457 Z-3.91
X-24.265 Y-264.634 Z-3.915
X-24.046 Y-266.832 Z-3.919
X-23.848 Y-269.053 Z-3.924
X-23.67 Y-271.294 Z-3.928
X-23.513 Y-273.557 Z-3.933
X-23.377 Y-275.842 Z-3.937
X-23.262 Y-278.148 Z-3.942
X-23.168 Y-280.475 Z-3.947
X-23.094 Y-282.824 Z-3.952
X-23.042 Y-285.195 Z-3.956
X-23.011 Y-287.586 Z-3.961
X-23 Y-290.013 Z-3.966
G3 X-20 Y-293 Z-3.976 I3 J0.013
G1 X-8 Z-4
X-20
G2 X-23 Y-290.013 J3
G1 X-23.011 Y-287.586
X-23.042 Y-285.195
X-23.094 Y-282.824
X-23.168 Y-280.475
X-23.262 Y-278.148
X-23.377 Y-275.842
X-23.513 Y-273.557
X-23.67 Y-271.294
X-23.848 Y-269.053
X-24.046 Y-266.832
X-24.265 Y-264.634
X-24.505 Y-262.457
X-24.765 Y-260.301
X-25.046 Y-258.166
X-25.348 Y-256.053
X-25.67 Y-253.961
X-26.013 Y-251.889
X-26.376 Y-249.84
X-26.759 Y-247.81
X-27.162 Y-245.802
X-27.586 Y-243.815
X-28.03 Y-241.849
X-28.494 Y-239.904
X-28.978 Y-237.979
X-29.482 Y-236.075
X-30.006 Y-234.191
X-30.55 Y-232.328
X-31.113 Y-230.485
X-31.696 Y-228.663
X-32.299 Y-226.86
X-32.921 Y-225.078
X-33.563 Y-223.315
X-34.224 Y-221.573
X-34.905 Y-219.851
X-35.604 Y-218.148
X-36.323 Y-216.464
X-37.061 Y-214.801
X-37.818 Y-213.157
X-38.594 Y-211.532
X-39.388 Y-209.926
X-40.202 Y-208.338
X-41.034 Y-206.77
X-41.885 Y-205.22
X-42.754 Y-203.689
X-43.642 Y-202.178
X-44.548 Y-200.683
X-45.473 Y-199.208
X-46.415 Y-197.751
X-47.376 Y-196.312
X-48.355 Y-194.89
X-49.352 Y-193.487
X-50.367 Y-192.101
X-51.399 Y-190.732
X-52.45 Y-189.381
X-53.518 Y-188.047
X-54.603 Y-186.731
X-55.706 Y-185.432
X-56.827 Y-184.149
X-57.964 Y-182.883
X-59.12 Y-181.634
X-60.292 Y-180.402
X-61.481 Y-179.185
X-62.688 Y-177.985
X-63.911 Y-176.801
X-65.151 Y-175.634
X-66.408 Y-174.483
X-67.681 Y-173.347
X-68.971 Y-172.226
X-70.277 Y-171.123
X-71.601 Y-170.033
X-72.939 Y-168.96
X-74.294 Y-167.902
X-75.666 Y-166.859
X-77.052 Y-165.83
X-78.455 Y-164.818
X-79.874 Y-163.819
X-81.308 Y-162.836
X-82.758 Y-161.867
X-84.223 Y-160.913
X-85.703 Y-159.973
X-87.198 Y-159.048
X-88.709 Y-158.136
X-90.234 Y-157.239
X-91.774 Y-156.355
X-93.328 Y-155.486
X-94.897 Y-154.631
X-96.481 Y-153.789
X-98.079 Y-152.96
X-99.69 Y-152.147
X-101.317 Y-151.346
X-102.956 Y-150.557
X-104.61 Y-149.783
X-106.277 Y-149.02
X-107.957 Y-148.272
X-109.651 Y-147.537
X-111.357 Y-146.814
X-113.076 Y-146.104
X-114.809 Y-145.407
X-116.555 Y-144.721
X-118.312 Y-144.049
X-120.081 Y-143.389
X-121.865 Y-142.74
X-123.658 Y-142.105
X-125.464 Y-141.482
X-127.283 Y-140.87
X-129.113 Y-140.269
X-130.953 Y-139.681
X-132.805 Y-139.105
X-134.669 Y-138.54
X-136.544 Y-137.987
X-138.429 Y-137.445
X-140.325 Y-136.915
X-142.231 Y-136.395
X-144.148 Y-135.887
X-146.074 Y-135.39
X-148.011 Y-134.904
X-149.958 Y-134.429
X-151.913 Y-133.964
X-153.878 Y-133.511
X-155.854 Y-133.068
X-157.838 Y-132.635
X-159.831 Y-132.214
X-161.833 Y-131.801
X-163.842 Y-131.401
X-165.861 Y-131.01
X-167.888 Y-130.629
X-169.924 Y-130.258
X-171.966 Y-129.897
X-174.017 Y-129.546
X-176.075 Y-129.205
X-178.14 Y-128.874
X-180.212 Y-128.553
X-182.292 Y-128.241
X-184.379 Y-127.939
X-186.471 Y-127.646
X-188.571 Y-127.363
X-190.677 Y-127.089
X-192.784 Y-126.825
X-197.03 Y-126.324
X-201.292 Y-125.859
X-205.574 Y-125.431
X-209.877 Y-125.039
X-214.197 Y-124.682
X-218.531 Y-124.36
X-222.88 Y-124.073
X-227.243 Y-123.821
X-231.616 Y-123.602
X-235.999 Y-123.418
X-240.389 Y-123.267
X-244.786 Y-123.15
X-249.188 Y-123.067
X-253.594 Y-123.017
X-258 Y-123
X-262.406 Y-123.017
X-266.812 Y-123.067
X-271.214 Y-123.15
X-275.611 Y-123.267
X-280.001 Y-123.418
X-284.384 Y-123.602
X-288.757 Y-123.821
X-293.12 Y-124.073
X-297.469 Y-124.36
X-301.803 Y-124.682
X-306.123 Y-125.039
X-310.426 Y-125.431
X-314.708 Y-125.859
X-318.97 Y-126.324
X-323.216 Y-126.825
X-325.323 Y-127.089
X-327.429 Y-127.363
X-329.529 Y-127.646
X-331.621 Y-127.939
X-333.708 Y-128.241
X-335.788 Y-128.553
X-337.86 Y-128.874
X-339.925 Y-129.205
X-341.983 Y-129.546
X-344.034 Y-129.897
X-346.076 Y-130.258
X-348.112 Y-130.629
X-350.139 Y-131.01
X-352.158 Y-131.401
X-354.167 Y-131.801
X-356.169 Y-132.214
X-358.162 Y-132.635
X-360.146 Y-133.068
X-362.122 Y-133.511
X-364.087 Y-133.964
X-366.042 Y-134.429
X-367.989 Y-134.904
X-369.926 Y-135.39
X-371.852 Y-135.887
X-373.769 Y-136.395
X-375.675 Y-136.915
X-377.571 Y-137.445
X-379.456 Y-137.987
X-381.331 Y-138.54
X-383.195 Y-139.105
X-385.047 Y-139.681
X-386.887 Y-140.269
X-388.717 Y-140.87
X-390.535 Y-141.482
X-392.342 Y-142.105
X-394.135 Y-142.74
X-395.919 Y-143.389
X-397.688 Y-144.049
X-399.445 Y-144.721
X-401.191 Y-145.407
X-402.924 Y-146.104
X-404.643 Y-146.814
X-406.349 Y-147.537
X-408.043 Y-148.272
X-409.723 Y-149.02
X-411.39 Y-149.783
X-413.044 Y-150.557
X-414.683 Y-151.346
X-416.31 Y-152.147
X-417.921 Y-152.96
X-419.519 Y-153.789
X-421.103 Y-154.631
X-422.672 Y-155.486
X-424.226 Y-156.355
X-425.766 Y-157.239
X-427.291 Y-158.136
X-428.802 Y-159.048
X-430.297 Y-159.973
X-431.777 Y-160.913
X-433.243 Y-161.867
X-434.692 Y-162.836
X-436.126 Y-163.819
X-437.544 Y-164.818
X-438.948 Y-165.83
X-440.334 Y-166.859
X-441.706 Y-167.902
X-443.06 Y-168.96
X-444.399 Y-170.033
X-445.723 Y-171.123
X-447.029 Y-172.226
X-448.319 Y-173.347
X-449.592 Y-174.483
X-450.849 Y-175.634
X-452.088 Y-176.801
X-453.312 Y-177.985
X-454.519 Y-179.185
X-455.708 Y-180.402
X-456.881 Y-181.634
X-458.035 Y-182.883
X-459.173 Y-184.149
X-460.294 Y-185.432
X-461.397 Y-186.732
X-462.483 Y-188.047
X-463.551 Y-189.381
X-464.601 Y-190.732
X-465.633 Y-192.101
X-466.649 Y-193.487
X-467.645 Y-194.89
X-468.624 Y-196.312
X-469.585 Y-197.751
X-470.527 Y-199.208
X-471.452 Y-200.683
X-472.358 Y-202.177
X-473.246 Y-203.689
X-474.115 Y-205.22
X-474.966 Y-206.77
X-475.798 Y-208.338
X-476.611 Y-209.925
X-477.406 Y-211.532
X-478.183 Y-213.157
X-478.939 Y-214.8
X-479.677 Y-216.464
X-480.396 Y-218.148
X-481.095 Y-219.852
X-481.776 Y-221.574
X-482.437 Y-223.316
X-483.079 Y-225.078
X-483.701 Y-226.86
X-484.304 Y-228.663
X-484.887 Y-230.485
X-485.45 Y-232.328
X-485.994 Y-234.191
X-486.518 Y-236.075
X-487.022 Y-237.979
X-487.506 Y-239.903
X-487.97 Y-241.849
X-488.414 Y-243.815
X-488.837 Y-245.803
X-489.241 Y-247.811
X-489.625 Y-249.839
X-489.987 Y-251.889
X-490.33 Y-253.961
X-490.652 Y-256.054
X-490.954 Y-258.165
X-491.235 Y-260.3
X-491.495 Y-262.457
X-491.735 Y-264.634
X-491.954 Y-266.832
X-492.153 Y-269.053
X-492.33 Y-271.294
X-492.487 Y-273.556
X-492.622 Y-275.842
X-492.738 Y-278.148
X-492.832 Y-280.475
X-492.906 Y-282.824
X-492.958 Y-285.194
X-492.989 Y-287.586
X-493 Y-290.014
G2 X-496 Y-293 I-3 J0.014
G1 X-508
G2 X-511 Y-290 J3
G1 Y0
Y-290 Z-4.587
G3 X-508 Y-293 Z-4.597 I3
G1 X-496 Z-4.621
G3 X-493 Y-290.014 Z-4.631 J3
G1 X-492.989 Y-287.586 Z-4.635
X-492.958 Y-285.194 Z-4.64
X-492.906 Y-282.824 Z-4.645
X-492.832 Y-280.475 Z-4.65
X-492.738 Y-278.148 Z-4.655
X-492.622 Y-275.842 Z-4.659
X-492.487 Y-273.556 Z-4.664
X-492.33 Y-271.294 Z-4.668
X-492.153 Y-269.053 Z-4.673
X-491.954 Y-266.832 Z-4.678
X-491.735 Y-264.634 Z-4.682
X-491.495 Y-262.457 Z-4.686
X-491.235 Y-260.3 Z-4.691
X-490.954 Y-258.165 Z-4.695
X-490.652 Y-256.054 Z-4.7
X-490.33 Y-253.961 Z-4.704
X-489.987 Y-251.889 Z-4.708
X-489.625 Y-249.839 Z-4.712
X-489.241 Y-247.811 Z-4.716
X-488.837 Y-245.803 Z-4.721
X-488.414 Y-243.815 Z-4.725
X-487.97 Y-241.849 Z-4.729
X-487.506 Y-239.903 Z-4.733
X-487.022 Y-237.979 Z-4.737
X-486.518 Y-236.075 Z-4.741
X-485.994 Y-234.191 Z-4.745
X-485.45 Y-232.328 Z-4.749
X-484.887 Y-230.485 Z-4.753
X-484.304 Y-228.663 Z-4.757
X-483.701 Y-226.86 Z-4.76
X-483.079 Y-225.078 Z-4.764
X-482.437 Y-223.316 Z-4.768
X-481.776 Y-221.574 Z-4.772
X-481.095 Y-219.852 Z-4.776
X-480.396 Y-218.148 Z-4.779
X-479.677 Y-216.464 Z-4.783
X-478.939 Y-214.8 Z-4.787
X-478.183 Y-213.157 Z-4.79
X-477.406 Y-211.532 Z-4.794
X-476.611 Y-209.925 Z-4.798
X-475.798 Y-208.338 Z-4.801
X-474.966 Y-206.77 Z-4.805
X-474.115 Y-205.22 Z-4.808
X-473.246 Y-203.689 Z-4.812
X-472.358 Y-202.177 Z-4.815
X-471.452 Y-200.683 Z-4.819
X-470.527 Y-199.208 Z-4.823
X-469.585 Y-197.751 Z-4.826
X-468.624 Y-196.312 Z-4.83
X-467.645 Y-194.89 Z-4.833
X-466.649 Y-193.487 Z-4.837
X-465.633 Y-192.101 Z-4.84
X-464.601 Y-190.732 Z-4.843
X-463.551 Y-189.381 Z-4.847
X-462.483 Y-188.047 Z-4.85
X-461.397 Y-186.732 Z-4.854
X-460.294 Y-185.432 Z-4.857
X-459.173 Y-184.149 Z-4.861
X-458.035 Y-182.883 Z-4.864
X-456.881 Y-181.634 Z-4.868
X-455.708 Y-180.402 Z-4.871
X-454.519 Y-179.185 Z-4.875
X-453.312 Y-177.985 Z-4.878
X-452.088 Y-176.801 Z-4.881
X-450.849 Y-175.634 Z-4.885
X-449.592 Y-174.483 Z-4.888
X-448.319 Y-173.347 Z-4.892
X-447.029 Y-172.226 Z-4.895
X-445.723 Y-171.123 Z-4.899
X-444.399 Y-170.033 Z-4.902
X-443.06 Y-168.96 Z-4.906
X-441.706 Y-167.902 Z-4.909
X-440.334 Y-166.859 Z-4.913
X-438.948 Y-165.83 Z-4.916
X-437.544 Y-164.818 Z-4.92
X-436.126 Y-163.819 Z-4.923
X-434.692 Y-162.836 Z-4.927
X-433.243 Y-161.867 Z-4.93
X-431.777 Y-160.913 Z-4.934
X-430.297 Y-159.973 Z-4.937
X-428.802 Y-159.048 Z-4.941
X-427.291 Y-158.136 Z-4.944
X-425.766 Y-157.239 Z-4.948
X-424.226 Y-156.355 Z-4.952
X-422.672 Y-155.486 Z-4.955
X-421.103 Y-154.631 Z-4.959
X-419.519 Y-153.789 Z-4.962
X-417.921 Y-152.96 Z-4.966
X-416.31 Y-152.147 Z-4.97
X-414.683 Y-151.346 Z-4.973
X-413.044 Y-150.557 Z-4.977
X-411.39 Y-149.783 Z-4.981
X-409.723 Y-149.02 Z-4.985
X-408.043 Y-148.272 Z-4.988
X-406.349 Y-147.537 Z-4.992
X-404.643 Y-146.814 Z-4.996
X-402.924 Y-146.104 Z-4.999
X-401.191 Y-145.407 Z-5.003
X-399.445 Y-144.721 Z-5.007
X-397.688 Y-144.049 Z-5.011
X-395.919 Y-143.389 Z-5.015
X-394.135 Y-142.74 Z-5.019
X-392.342 Y-142.105 Z-5.022
X-390.535 Y-141.482 Z-5.026
X-388.717 Y-140.87 Z-5.03
X-386.887 Y-140.269 Z-5.034
X-385.047 Y-139.681 Z-5.038
X-383.195 Y-139.105 Z-5.042
X-381.331 Y-138.54 Z-5.046
X-379.456 Y-137.987 Z-5.05
X-377.571 Y-137.445 Z-5.054
X-375.675 Y-136.915 Z-5.058
X-373.769 Y-136.395 Z-5.062
X-371.852 Y-135.887 Z-5.066
X-369.926 Y-135.39 Z-5.07
X-367.989 Y-134.904 Z-5.074
X-366.042 Y-134.429 Z-5.078
X-364.087 Y-133.964 Z-5.082
X-362.122 Y-133.511 Z-5.086
X-360.146 Y-133.068 Z-5.09
X-358.162 Y-132.635 Z-5.094
X-356.169 Y-132.214 Z-5.098
X-354.167 Y-131.801 Z-5.103
X-352.158 Y-131.401 Z-5.107
X-350.139 Y-131.01 Z-5.111
X-348.112 Y-130.629 Z-5.115
X-346.076 Y-130.258 Z-5.119
X-344.034 Y-129.897 Z-5.123
X-341.983 Y-129.546 Z-5.128
X-339.925 Y-129.205 Z-5.132
X-337.86 Y-128.874 Z-5.136
X-335.788 Y-128.553 Z-5.14
X-333.708 Y-128.241 Z-5.145
X-331.621 Y-127.939 Z-5.149
X-329.529 Y-127.646 Z-5.153
X-327.429 Y-127.363 Z-5.157
X-325.323 Y-127.089 Z-5.162
X-323.216 Y-126.825 Z-5.166
X-318.97 Y-126.324 Z-5.175
X-314.708 Y-125.859 Z-5.183
X-310.426 Y-125.431 Z-5.192
X-306.123 Y-125.039 Z-5.201
X-301.803 Y-124.682 Z-5.21
X-297.469 Y-124.36 Z-5.218
X-293.12 Y-124.073 Z-5.227
X-288.757 Y-123.821 Z-5.236
X-284.384 Y-123.602 Z-5.245
X-280.001 Y-123.418 Z-5.254
X-275.611 Y-123.267 Z-5.263
X-271.214 Y-123.15 Z-5.272
X-266.812 Y-123.067 Z-5.281
X-262.406 Y-123.017 Z-5.289
X-258 Y-123 Z-5.298
X-253.594 Y-123.017 Z-5.307
X-249.188 Y-123.067 Z-5.316
X-244.786 Y-123.15 Z-5.325
X-240.389 Y-123.267 Z-5.334
X-235.999 Y-123.418 Z-5.343
X-231.616 Y-123.602 Z-5.352
X-227.243 Y-123.821 Z-5.361
X-222.88 Y-124.073 Z-5.37
X-218.531 Y-124.36 Z-5.378
X-214.197 Y-124.682 Z-5.387
X-209.877 Y-125.039 Z-5.396
X-205.574 Y-125.431 Z-5.405
X-201.292 Y-125.859 Z-5.413
X-197.03 Y-126.324 Z-5.422
X-192.784 Y-126.825 Z-5.431
X-190.677 Y-127.089 Z-5.435
X-188.571 Y-127.363 Z-5.439
X-186.471 Y-127.646 Z-5.444
X-184.379 Y-127.939 Z-5.448
X-182.292 Y-128.241 Z-5.452
X-180.212 Y-128.553 Z-5.456
X-178.14 Y-128.874 Z-5.461
X-176.075 Y-129.205 Z-5.465
X-174.017 Y-129.546 Z-5.469
X-171.966 Y-129.897 Z-5.473
X-169.924 Y-130.258 Z-5.478
X-167.888 Y-130.629 Z-5.482
X-165.861 Y-131.01 Z-5.486
X-163.842 Y-131.401 Z-5.49
X-161.833 Y-131.801 Z-5.494
X-159.831 Y-132.214 Z-5.498
X-157.838 Y-132.635 Z-5.502
X-155.854 Y-133.068 Z-5.507
X-153.878 Y-133.511 Z-5.511
X-151.913 Y-133.964 Z-5.515
X-149.958 Y-134.429 Z-5.519
X-148.011 Y-134.904 Z-5.523
X-146.074 Y-135.39 Z-5.527
X-144.148 Y-135.887 Z-5.531
X-142.231 Y-136.395 Z-5.535
X-140.325 Y-136.915 Z-5.539
X-138.429 Y-137.445 Z-5.543
X-136.544 Y-137.987 Z-5.547
X-134.669 Y-138.54 Z-5.551
X-132.805 Y-139.105 Z-5.555
X-130.953 Y-139.681 Z-5.559
X-129.113 Y-140.269 Z-5.563
X-127.283 Y-140.87 Z-5.567
X-125.464 Y-141.482 Z-5.57
X-123.658 Y-142.105 Z-5.574
X-121.865 Y-142.74 Z-5.578
X-120.081 Y-143.389 Z-5.582
X-118.312 Y-144.049 Z-5.586
X-116.555 Y-144.721 Z-5.59
X-114.809 Y-145.407 Z-5.593
X-113.076 Y-146.104 Z-5.597
X-111.357 Y-146.814 Z-5.601
X-109.651 Y-147.537 Z-5.605
X-107.957 Y-148.272 Z-5.608
X-106.277 Y-149.02 Z-5.612
X-104.61 Y-149.783 Z-5.616
X-102.956 Y-150.557 Z-5.62
X-101.317 Y-151.346 Z-5.623
X-99.69 Y-152.147 Z-5.627
X-98.079 Y-152.96 Z-5.631
X-96.481 Y-153.789 Z-5.634
X-94.897 Y-154.631 Z-5.638
X-93.328 Y-155.486 Z-5.642
X-91.774 Y-156.355 Z-5.645
X-90.234 Y-157.239 Z-5.649
X-88.709 Y-158.136 Z-5.652
X-87.198 Y-159.048 Z-5.656
X-85.703 Y-159.973 Z-5.659
X-84.223 Y-160.913 Z-5.663
X-82.758 Y-161.867 Z-5.667
X-81.308 Y-162.836 Z-5.67
X-79.874 Y-163.819 Z-5.674
X-78.455 Y-164.818 Z-5.677
X-77.052 Y-165.83 Z-5.681
X-75.666 Y-166.859 Z-5.684
X-74.294 Y-167.902 Z-5.688
X-72.939 Y-168.96 Z-5.691
X-71.601 Y-170.033 Z-5.695
X-70.277 Y-171.123 Z-5.698
X-68.971 Y-172.226 Z-5.701
X-67.681 Y-173.347 Z-5.705
X-66.408 Y-174.483 Z-5.708
X-65.151 Y-175.634 Z-5.712
X-63.911 Y-176.801 Z-5.715
X-62.688 Y-177.985 Z-5.719
X-61.481 Y-179.185 Z-5.722
X-60.292 Y-180.402 Z-5.726
X-59.12 Y-181.634 Z-5.729
X-57.964 Y-182.883 Z-5.733
X-56.827 Y-184.149 Z-5.736
X-55.706 Y-185.432 Z-5.739
X-54.603 Y-186.731 Z-5.743
X-53.518 Y-188.047 Z-5.746
X-52.45 Y-189.381 Z-5.75
X-51.399 Y-190.732 Z-5.753
X-50.367 Y-192.101 Z-5.757
X-49.352 Y-193.487 Z-5.76
X-48.355 Y-194.89 Z-5.764
X-47.376 Y-196.312 Z-5.767
X-46.415 Y-197.751 Z-5.771
X-45.473 Y-199.208 Z-5.774
X-44.548 Y-200.683 Z-5.778
X-43.642 Y-202.178 Z-5.781
X-42.754 Y-203.689 Z-5.785
X-41.885 Y-205.22 Z-5.788
X-41.034 Y-206.77 Z-5.792
X-40.202 Y-208.338 Z-5.796
X-39.388 Y-209.926 Z-5.799
X-38.594 Y-211.532 Z-5.803
X-37.818 Y-213.157 Z-5.806
X-37.061 Y-214.801 Z-5.81
X-36.323 Y-216.464 Z-5.814
X-35.604 Y-218.148 Z-5.817
X-34.905 Y-219.851 Z-5.821
X-34.224 Y-221.573 Z-5.825
X-33.563 Y-223.315 Z-5.829
X-32.921 Y-225.078 Z-5.833
X-32.299 Y-226.86 Z-5.836
X-31.696 Y-228.663 Z-5.84
X-31.113 Y-230.485 Z-5.844
X-30.55 Y-232.328 Z-5.848
X-30.006 Y-234.191 Z-5.852
X-29.482 Y-236.075 Z-5.856
X-28.978 Y-237.979 Z-5.86
X-28.494 Y-239.904 Z-5.864
X-28.03 Y-241.849 Z-5.868
X-27.586 Y-243.815 Z-5.872
X-27.162 Y-245.802 Z-5.876
X-26.759 Y-247.81 Z-5.88
X-26.376 Y-249.84 Z-5.884
X-26.013 Y-251.889 Z-5.889
X-25.67 Y-253.961 Z-5.893
X-25.348 Y-256.053 Z-5.897
X-25.046 Y-258.166 Z-5.902
X-24.765 Y-260.301 Z-5.906
X-24.505 Y-262.457 Z-5.91
X-24.265 Y-264.634 Z-5.915
X-24.046 Y-266.832 Z-5.919
X-23.848 Y-269.053 Z-5.924
X-23.67 Y-271.294 Z-5.928
X-23.513 Y-273.557 Z-5.933
X-23.377 Y-275.842 Z-5.937
X-23.262 Y-278.148 Z-5.942
X-23.168 Y-280.475 Z-5.947
X-23.094 Y-282.824 Z-5.952
X-23.042 Y-285.195 Z-5.956
X-23.011 Y-287.586 Z-5.961
X-23 Y-290.013 Z-5.966
G3 X-20 Y-293 Z-5.976 I3 J0.013
G1 X-8 Z-6
X-20
G2 X-23 Y-290.013 J3
G1 X-23.011 Y-287.586
X-23.042 Y-285.195
X-23.094 Y-282.824
X-23.168 Y-280.475
X-23.262 Y-278.148
X-23.377 Y-275.842
X-23.513 Y-273.557
X-23.67 Y-271.294
X-23.848 Y-269.053
X-24.046 Y-266.832
X-24.265 Y-264.634
X-24.505 Y-262.457
X-24.765 Y-260.301
X-25.046 Y-258.166
X-25.348 Y-256.053
X-25.67 Y-253.961
X-26.013 Y-251.889
X-26.376 Y-249.84
X-26.759 Y-247.81
X-27.162 Y-245.802
X-27.586 Y-243.815
X-28.03 Y-241.849
X-28.494 Y-239.904
X-28.978 Y-237.979
X-29.482 Y-236.075
X-30.006 Y-234.191
X-30.55 Y-232.328
X-31.113 Y-230.485
X-31.696 Y-228.663
X-32.299 Y-226.86
X-32.921 Y-225.078
X-33.563 Y-223.315
X-34.224 Y-221.573
X-34.905 Y-219.851
X-35.604 Y-218.148
X-36.323 Y-216.464
X-37.061 Y-214.801
X-37.818 Y-213.157
X-38.594 Y-211.532
X-39.388 Y-209.926
X-40.202 Y-208.338
X-41.034 Y-206.77
X-41.885 Y-205.22
X-42.754 Y-203.689
X-43.642 Y-202.178
X-44.548 Y-200.683
X-45.473 Y-199.208
X-46.415 Y-197.751
X-47.376 Y-196.312
X-48.355 Y-194.89
X-49.352 Y-193.487
X-50.367 Y-192.101
X-51.399 Y-190.732
X-52.45 Y-189.381
X-53.518 Y-188.047
X-54.603 Y-186.731
X-55.706 Y-185.432
X-56.827 Y-184.149
X-57.964 Y-182.883
X-59.12 Y-181.634
X-60.292 Y-180.402
X-61.481 Y-179.185
X-62.688 Y-177.985
X-63.911 Y-176.801
X-65.151 Y-175.634
X-66.408 Y-174.483
X-67.681 Y-173.347
X-68.971 Y-172.226
X-70.277 Y-171.123
X-71.601 Y-170.033
X-72.939 Y-168.96
X-74.294 Y-167.902
X-75.666 Y-166.859
X-77.052 Y-165.83
X-78.455 Y-164.818
X-79.874 Y-163.819
X-81.308 Y-162.836
X-82.758 Y-161.867
X-84.223 Y-160.913
X-85.703 Y-159.973
X-87.198 Y-159.048
X-88.709 Y-158.136
X-90.234 Y-157.239
X-91.774 Y-156.355
X-93.328 Y-155.486
X-94.897 Y-154.631
X-96.481 Y-153.789
X-98.079 Y-152.96
X-99.69 Y-152.147
X-101.317 Y-151.346
X-102.956 Y-150.557
X-104.61 Y-149.783
X-106.277 Y-149.02
X-107.957 Y-148.272
X-109.651 Y-147.537
X-111.357 Y-146.814
X-113.076 Y-146.104
X-114.809 Y-145.407
X-116.555 Y-144.721
X-118.312 Y-144.049
X-120.081 Y-143.389
X-121.865 Y-142.74
X-123.658 Y-142.105
X-125.464 Y-141.482
X-127.283 Y-140.87
X-129.113 Y-140.269
X-130.953 Y-139.681
X-132.805 Y-139.105
X-134.669 Y-138.54
X-136.544 Y-137.987
X-138.429 Y-137.445
X-140.325 Y-136.915
X-142.231 Y-136.395
X-144.148 Y-135.887
X-146.074 Y-135.39
X-148.011 Y-134.904
X-149.958 Y-134.429
X-151.913 Y-133.964
X-153.878 Y-133.511
X-155.854 Y-133.068
X-157.838 Y-132.635
X-159.831 Y-132.214
X-161.833 Y-131.801
X-163.842 Y-131.401
X-165.861 Y-131.01
X-167.888 Y-130.629
X-169.924 Y-130.258
X-171.966 Y-129.897
X-174.017 Y-129.546
X-176.075 Y-129.205
X-178.14 Y-128.874
X-180.212 Y-128.553
X-182.292 Y-128.241
X-184.379 Y-127.939
X-186.471 Y-127.646
X-188.571 Y-127.363
X-190.677 Y-127.089
X-192.784 Y-126.825
X-197.03 Y-126.324
X-201.292 Y-125.859
X-205.574 Y-125.431
X-209.877 Y-125.039
X-214.197 Y-124.682
X-218.531 Y-124.36
X-222.88 Y-124.073
X-227.243 Y-123.821
X-231.616 Y-123.602
X-235.999 Y-123.418
X-240.389 Y-123.267
X-244.786 Y-123.15
X-249.188 Y-123.067
X-253.594 Y-123.017
X-258 Y-123
X-262.406 Y-123.017
X-266.812 Y-123.067
X-271.214 Y-123.15
X-275.611 Y-123.267
X-280.001 Y-123.418
X-284.384 Y-123.602
X-288.757 Y-123.821
X-293.12 Y-124.073
X-297.469 Y-124.36
X-301.803 Y-124.682
X-306.123 Y-125.039
X-310.426 Y-125.431
X-314.708 Y-125.859
X-318.97 Y-126.324
X-323.216 Y-126.825
X-325.323 Y-127.089
X-327.429 Y-127.363
X-329.529 Y-127.646
X-331.621 Y-127.939
X-333.708 Y-128.241
X-335.788 Y-128.553
X-337.86 Y-128.874
X-339.925 Y-129.205
X-341.983 Y-129.546
X-344.034 Y-129.897
X-346.076 Y-130.258
X-348.112 Y-130.629
X-350.139 Y-131.01
X-352.158 Y-131.401
X-354.167 Y-131.801
X-356.169 Y-132.214
X-358.162 Y-132.635
X-360.146 Y-133.068
X-362.122 Y-133.511
X-364.087 Y-133.964
X-366.042 Y-134.429
X-367.989 Y-134.904
X-369.926 Y-135.39
X-371.852 Y-135.887
X-373.769 Y-136.395
X-375.675 Y-136.915
X-377.571 Y-137.445
X-379.456 Y-137.987
X-381.331 Y-138.54
X-383.195 Y-139.105
X-385.047 Y-139.681
X-386.887 Y-140.269
X-388.717 Y-140.87
X-390.535 Y-141.482
X-392.342 Y-142.105
X-394.135 Y-142.74
X-395.919 Y-143.389
X-397.688 Y-144.049
X-399.445 Y-144.721
X-401.191 Y-145.407
X-402.924 Y-146.104
X-404.643 Y-146.814
X-406.349 Y-147.537
X-408.043 Y-148.272
X-409.723 Y-149.02
X-411.39 Y-149.783
X-413.044 Y-150.557
X-414.683 Y-151.346
X-416.31 Y-152.147
X-417.921 Y-152.96
X-419.519 Y-153.789
X-421.103 Y-154.631
X-422.672 Y-155.486
X-424.226 Y-156.355
X-425.766 Y-157.239
X-427.291 Y-158.136
X-428.802 Y-159.048
X-430.297 Y-159.973
X-431.777 Y-160.913
X-433.243 Y-161.867
X-434.692 Y-162.836
X-436.126 Y-163.819
X-437.544 Y-164.818
X-438.948 Y-165.83
X-440.334 Y-166.859
X-441.706 Y-167.902
X-443.06 Y-168.96
X-444.399 Y-170.033
X-445.723 Y-171.123
X-447.029 Y-172.226
X-448.319 Y-173.347
X-449.592 Y-174.483
X-450.849 Y-175.634
X-452.088 Y-176.801
X-453.312 Y-177.985
X-454.519 Y-179.185
X-455.708 Y-180.402
X-456.881 Y-181.634
X-458.035 Y-182.883
X-459.173 Y-184.149
X-460.294 Y-185.432
X-461.397 Y-186.732
X-462.483 Y-188.047
X-463.551 Y-189.381
X-464.601 Y-190.732
X-465.633 Y-192.101
X-466.649 Y-193.487
X-467.645 Y-194.89
X-468.624 Y-196.312
X-469.585 Y-197.751
X-470.527 Y-199.208
X-471.452 Y-200.683
X-472.358 Y-202.177
X-473.246 Y-203.689
X-474.115 Y-205.22
X-474.966 Y-206.77
X-475.798 Y-208.338
X-476.611 Y-209.925
X-477.406 Y-211.532
X-478.183 Y-213.157
X-478.939 Y-214.8
X-479.677 Y-216.464
X-480.396 Y-218.148
X-481.095 Y-219.852
X-481.776 Y-221.574
X-482.437 Y-223.316
X-483.079 Y-225.078
X-483.701 Y-226.86
X-484.304 Y-228.663
X-484.887 Y-230.485
X-485.45 Y-232.328
X-485.994 Y-234.191
X-486.518 Y-236.075
X-487.022 Y-237.979
X-487.506 Y-239.903
X-487.97 Y-241.849
X-488.414 Y-243.815
X-488.837 Y-245.803
X-489.241 Y-247.811
X-489.625 Y-249.839
X-489.987 Y-251.889
X-490.33 Y-253.961
X-490.652 Y-256.054
X-490.954 Y-258.165
X-491.235 Y-260.3
X-491.495 Y-262.457
X-491.735 Y-264.634
X-491.954 Y-266.832
X-492.153 Y-269.053
X-492.33 Y-271.294
X-492.487 Y-273.556
X-492.622 Y-275.842
X-492.738 Y-278.148
X-492.832 Y-280.475
X-492.906 Y-282.824
X-492.958 Y-285.194
X-492.989 Y-287.586
X-493 Y-290.014
G2 X-496 Y-293 I-3 J0.014
G1 X-508
G2 X-511 Y-290 J3
G1 Y0
Y-290 Z-6.587
G3 X-508 Y-293 Z-6.597 I3
G1 X-496 Z-6.621
G3 X-493 Y-290.014 Z-6.631 J3
G1 X-492.989 Y-287.586 Z-6.635
X-492.958 Y-285.194 Z-6.64
X-492.906 Y-282.824 Z-6.645
X-492.832 Y-280.475 Z-6.65
X-492.738 Y-278.148 Z-6.655
X-492.622 Y-275.842 Z-6.659
X-492.487 Y-273.556 Z-6.664
X-492.33 Y-271.294 Z-6.668
X-492.153 Y-269.053 Z-6.673
X-491.954 Y-266.832 Z-6.678
X-491.735 Y-264.634 Z-6.682
X-491.495 Y-262.457 Z-6.686
X-491.235 Y-260.3 Z-6.691
X-490.954 Y-258.165 Z-6.695
X-490.652 Y-256.054 Z-6.7
X-490.33 Y-253.961 Z-6.704
X-489.987 Y-251.889 Z-6.708
X-489.625 Y-249.839 Z-6.712
X-489.241 Y-247.811 Z-6.716
X-488.837 Y-245.803 Z-6.721
X-488.414 Y-243.815 Z-6.725
X-487.97 Y-241.849 Z-6.729
X-487.506 Y-239.903 Z-6.733
X-487.022 Y-237.979 Z-6.737
X-486.518 Y-236.075 Z-6.741
X-485.994 Y-234.191 Z-6.745
X-485.45 Y-232.328 Z-6.749
X-484.887 Y-230.485 Z-6.753
X-484.304 Y-228.663 Z-6.757
X-483.701 Y-226.86 Z-6.76
X-483.079 Y-225.078 Z-6.764
X-482.437 Y-223.316 Z-6.768
X-481.776 Y-221.574 Z-6.772
X-481.095 Y-219.852 Z-6.776
X-480.396 Y-218.148 Z-6.779
X-479.677 Y-216.464 Z-6.783
X-478.939 Y-214.8 Z-6.787
X-478.183 Y-213.157 Z-6.79
X-477.406 Y-211.532 Z-6.794
X-476.611 Y-209.925 Z-6.798
X-475.798 Y-208.338 Z-6.801
X-474.966 Y-206.77 Z-6.805
X-474.115 Y-205.22 Z-6.808
X-473.246 Y-203.689 Z-6.812
X-472.358 Y-202.177 Z-6.815
X-471.452 Y-200.683 Z-6.819
X-470.527 Y-199.208 Z-6.823
X-469.585 Y-197.751 Z-6.826
X-468.624 Y-196.312 Z-6.83
X-467.645 Y-194.89 Z-6.833
X-466.649 Y-193.487 Z-6.837
X-465.633 Y-192.101 Z-6.84
X-464.601 Y-190.732 Z-6.843
X-463.551 Y-189.381 Z-6.847
X-462.483 Y-188.047 Z-6.85
X-461.397 Y-186.732 Z-6.854
X-460.294 Y-185.432 Z-6.857
X-459.173 Y-184.149 Z-6.861
X-458.035 Y-182.883 Z-6.864
X-456.881 Y-181.634 Z-6.868
X-455.708 Y-180.402 Z-6.871
X-454.519 Y-179.185 Z-6.875
X-453.312 Y-177.985 Z-6.878
X-452.088 Y-176.801 Z-6.881
X-450.849 Y-175.634 Z-6.885
X-449.592 Y-174.483 Z-6.888
X-448.319 Y-173.347 Z-6.892
X-447.029 Y-172.226 Z-6.895
X-445.723 Y-171.123 Z-6.899
X-444.399 Y-170.033 Z-6.902
X-443.06 Y-168.96 Z-6.906
X-441.706 Y-167.902 Z-6.909
X-440.334 Y-166.859 Z-6.913
X-438.948 Y-165.83 Z-6.916
X-437.544 Y-164.818 Z-6.92
X-436.126 Y-163.819 Z-6.923
X-434.692 Y-162.836 Z-6.927
X-433.243 Y-161.867 Z-6.93
X-431.777 Y-160.913 Z-6.934
X-430.297 Y-159.973 Z-6.937
X-428.802 Y-159.048 Z-6.941
X-427.291 Y-158.136 Z-6.944
X-425.766 Y-157.239 Z-6.948
X-424.226 Y-156.355 Z-6.952
X-422.672 Y-155.486 Z-6.955
X-421.103 Y-154.631 Z-6.959
X-419.519 Y-153.789 Z-6.962
X-417.921 Y-152.96 Z-6.966
X-416.31 Y-152.147 Z-6.97
X-414.683 Y-151.346 Z-6.973
X-413.044 Y-150.557 Z-6.977
X-411.39 Y-149.783 Z-6.981
X-409.723 Y-149.02 Z-6.985
X-408.043 Y-148.272 Z-6.988
X-406.349 Y-147.537 Z-6.992
X-404.643 Y-146.814 Z-6.996
X-402.924 Y-146.104 Z-6.999
X-401.191 Y-145.407 Z-7.003
X-399.445 Y-144.721 Z-7.007
X-397.688 Y-144.049 Z-7.011
X-395.919 Y-143.389 Z-7.015
X-394.135 Y-142.74 Z-7.019
X-392.342 Y-142.105 Z-7.022
X-390.535 Y-141.482 Z-7.026
X-388.717 Y-140.87 Z-7.03
X-386.887 Y-140.269 Z-7.034
X-385.047 Y-139.681 Z-7.038
X-383.195 Y-139.105 Z-7.042
X-381.331 Y-138.54 Z-7.046
X-379.456 Y-137.987 Z-7.05
X-377.571 Y-137.445 Z-7.054
X-375.675 Y-136.915 Z-7.058
X-373.769 Y-136.395 Z-7.062
X-371.852 Y-135.887 Z-7.066
X-369.926 Y-135.39 Z-7.07
X-367.989 Y-134.904 Z-7.074
X-366.042 Y-134.429 Z-7.078
X-364.087 Y-133.964 Z-7.082
X-362.122 Y-133.511 Z-7.086
X-360.146 Y-133.068 Z-7.09
X-358.162 Y-132.635 Z-7.094
X-356.169 Y-132.214 Z-7.098
X-354.167 Y-131.801 Z-7.103
X-352.158 Y-131.401 Z-7.107
X-350.139 Y-131.01 Z-7.111
X-348.112 Y-130.629 Z-7.115
X-346.076 Y-130.258 Z-7.119
X-344.034 Y-129.897 Z-7.123
X-341.983 Y-129.546 Z-7.128
X-339.925 Y-129.205 Z-7.132
X-337.86 Y-128.874 Z-7.136
X-335.788 Y-128.553 Z-7.14
X-333.708 Y-128.241 Z-7.145
X-331.621 Y-127.939 Z-7.149
X-329.529 Y-127.646 Z-7.153
X-327.429 Y-127.363 Z-7.157
X-325.323 Y-127.089 Z-7.162
X-323.216 Y-126.825 Z-7.166
X-318.97 Y-126.324 Z-7.175
X-314.708 Y-125.859 Z-7.183
X-310.426 Y-125.431 Z-7.192
X-306.123 Y-125.039 Z-7.201
X-301.803 Y-124.682 Z-7.21
X-297.469 Y-124.36 Z-7.218
X-293.12 Y-124.073 Z-7.227
X-288.757 Y-123.821 Z-7.236
X-284.384 Y-123.602 Z-7.245
X-280.001 Y-123.418 Z-7.254
X-275.611 Y-123.267 Z-7.263
X-271.214 Y-123.15 Z-7.272
X-266.812 Y-123.067 Z-7.281
X-262.406 Y-123.017 Z-7.289
X-258 Y-123 Z-7.298
X-253.594 Y-123.017 Z-7.307
X-249.188 Y-123.067 Z-7.316
X-244.786 Y-123.15 Z-7.325
X-240.389 Y-123.267 Z-7.334
X-235.999 Y-123.418 Z-7.343
X-231.616 Y-123.602 Z-7.352
X-227.243 Y-123.821 Z-7.361
X-222.88 Y-124.073 Z-7.37
X-218.531 Y-124.36 Z-7.378
X-214.197 Y-124.682 Z-7.387
X-209.877 Y-125.039 Z-7.396
X-205.574 Y-125.431 Z-7.405
X-201.292 Y-125.859 Z-7.413
X-197.03 Y-126.324 Z-7.422
X-192.784 Y-126.825 Z-7.431
X-190.677 Y-127.089 Z-7.435
X-188.571 Y-127.363 Z-7.439
X-186.471 Y-127.646 Z-7.444
X-184.379 Y-127.939 Z-7.448
X-182.292 Y-128.241 Z-7.452
X-180.212 Y-128.553 Z-7.456
X-178.14 Y-128.874 Z-7.461
X-176.075 Y-129.205 Z-7.465
X-174.017 Y-129.546 Z-7.469
X-171.966 Y-129.897 Z-7.473
X-169.924 Y-130.258 Z-7.478
X-167.888 Y-130.629 Z-7.482
X-165.861 Y-131.01 Z-7.486
X-163.842 Y-131.401 Z-7.49
X-161.833 Y-131.801 Z-7.494
X-159.831 Y-132.214 Z-7.498
X-157.838 Y-132.635 Z-7.502
X-155.854 Y-133.068 Z-7.507
X-153.878 Y-133.511 Z-7.511
X-151.913 Y-133.964 Z-7.515
X-149.958 Y-134.429 Z-7.519
X-148.011 Y-134.904 Z-7.523
X-146.074 Y-135.39 Z-7.527
X-144.148 Y-135.887 Z-7.531
X-142.231 Y-136.395 Z-7.535
X-140.325 Y-136.915 Z-7.539
X-138.429 Y-137.445 Z-7.543
X-136.544 Y-137.987 Z-7.547
X-134.669 Y-138.54 Z-7.551
X-132.805 Y-139.105 Z-7.555
X-130.953 Y-139.681 Z-7.559
X-129.113 Y-140.269 Z-7.563
X-127.283 Y-140.87 Z-7.567
X-125.464 Y-141.482 Z-7.57
X-123.658 Y-142.105 Z-7.574
X-121.865 Y-142.74 Z-7.578
X-120.081 Y-143.389 Z-7.582
X-118.312 Y-144.049 Z-7.586
X-116.555 Y-144.721 Z-7.59
X-114.809 Y-145.407 Z-7.593
X-113.076 Y-146.104 Z-7.597
X-111.357 Y-146.814 Z-7.601
X-109.651 Y-147.537 Z-7.605
X-107.957 Y-148.272 Z-7.608
X-106.277 Y-149.02 Z-7.612
X-104.61 Y-149.783 Z-7.616
X-102.956 Y-150.557 Z-7.62
X-101.317 Y-151.346 Z-7.623
X-99.69 Y-152.147 Z-7.627
X-98.079 Y-152.96 Z-7.631
X-96.481 Y-153.789 Z-7.634
X-94.897 Y-154.631 Z-7.638
X-93.328 Y-155.486 Z-7.642
X-91.774 Y-156.355 Z-7.645
X-90.234 Y-157.239 Z-7.649
X-88.709 Y-158.136 Z-7.652
X-87.198 Y-159.048 Z-7.656
X-85.703 Y-159.973 Z-7.659
X-84.223 Y-160.913 Z-7.663
X-82.758 Y-161.867 Z-7.667
X-81.308 Y-162.836 Z-7.67
X-79.874 Y-163.819 Z-7.674
X-78.455 Y-164.818 Z-7.677
X-77.052 Y-165.83 Z-7.681
X-75.666 Y-166.859 Z-7.684
X-74.294 Y-167.902 Z-7.688
X-72.939 Y-168.96 Z-7.691
X-71.601 Y-170.033 Z-7.695
X-70.277 Y-171.123 Z-7.698
X-68.971 Y-172.226 Z-7.701
X-67.681 Y-173.347 Z-7.705
X-66.408 Y-174.483 Z-7.708
X-65.151 Y-175.634 Z-7.712
X-63.911 Y-176.801 Z-7.715
X-62.688 Y-177.985 Z-7.719
X-61.481 Y-179.185 Z-7.722
X-60.292 Y-180.402 Z-7.726
X-59.12 Y-181.634 Z-7.729
X-57.964 Y-182.883 Z-7.733
X-56.827 Y-184.149 Z-7.736
X-55.706 Y-185.432 Z-7.739
X-54.603 Y-186.731 Z-7.743
X-53.518 Y-188.047 Z-7.746
X-52.45 Y-189.381 Z-7.75
X-51.399 Y-190.732 Z-7.753
X-50.367 Y-192.101 Z-7.757
X-49.352 Y-193.487 Z-7.76
X-48.355 Y-194.89 Z-7.764
X-47.376 Y-196.312 Z-7.767
X-46.415 Y-197.751 Z-7.771
X-45.473 Y-199.208 Z-7.774
X-44.548 Y-200.683 Z-7.778
X-43.642 Y-202.178 Z-7.781
X-42.754 Y-203.689 Z-7.785
X-41.885 Y-205.22 Z-7.788
X-41.034 Y-206.77 Z-7.792
X-40.202 Y-208.338 Z-7.796
X-39.388 Y-209.926 Z-7.799
X-38.594 Y-211.532 Z-7.803
X-37.818 Y-213.157 Z-7.806
X-37.061 Y-214.801 Z-7.81
X-36.323 Y-216.464 Z-7.814
X-35.604 Y-218.148 Z-7.817
X-34.905 Y-219.851 Z-7.821
X-34.224 Y-221.573 Z-7.825
X-33.563 Y-223.315 Z-7.829
X-32.921 Y-225.078 Z-7.833
X-32.299 Y-226.86 Z-7.836
X-31.696 Y-228.663 Z-7.84
X-31.113 Y-230.485 Z-7.844
X-30.55 Y-232.328 Z-7.848
X-30.006 Y-234.191 Z-7.852
X-29.482 Y-236.075 Z-7.856
X-28.978 Y-237.979 Z-7.86
X-28.494 Y-239.904 Z-7.864
X-28.03 Y-241.849 Z-7.868
X-27.586 Y-243.815 Z-7.872
X-27.162 Y-245.802 Z-7.876
X-26.759 Y-247.81 Z-7.88
X-26.376 Y-249.84 Z-7.884
X-26.013 Y-251.889 Z-7.889
X-25.67 Y-253.961 Z-7.893
X-25.348 Y-256.053 Z-7.897
X-25.046 Y-258.166 Z-7.902
X-24.765 Y-260.301 Z-7.906
X-24.505 Y-262.457 Z-7.91
X-24.265 Y-264.634 Z-7.915
X-24.046 Y-266.832 Z-7.919
X-23.848 Y-269.053 Z-7.924
X-23.67 Y-271.294 Z-7.928
X-23.513 Y-273.557 Z-7.933
X-23.377 Y-275.842 Z-7.937
X-23.262 Y-278.148 Z-7.942
X-23.168 Y-280.475 Z-7.947
X-23.094 Y-282.824 Z-7.952
X-23.042 Y-285.195 Z-7.956
X-23.011 Y-287.586 Z-7.961
X-23 Y-290.013 Z-7.966
G3 X-20 Y-293 Z-7.976 I3 J0.013
G1 X-8 Z-8
X-20
G2 X-23 Y-290.013 J3
G1 X-23.011 Y-287.586
X-23.042 Y-285.195
X-23.094 Y-282.824
X-23.168 Y-280.475
X-23.262 Y-278.148
X-23.377 Y-275.842
X-23.513 Y-273.557
X-23.67 Y-271.294
X-23.848 Y-269.053
X-24.046 Y-266.832
X-24.265 Y-264.634
X-24.505 Y-262.457
X-24.765 Y-260.301
X-25.046 Y-258.166
X-25.348 Y-256.053
X-25.67 Y-253.961
X-26.013 Y-251.889
X-26.376 Y-249.84
X-26.759 Y-247.81
X-27.162 Y-245.802
X-27.586 Y-243.815
X-28.03 Y-241.849
X-28.494 Y-239.904
X-28.978 Y-237.979
X-29.482 Y-236.075
X-30.006 Y-234.191
X-30.55 Y-232.328
X-31.113 Y-230.485
X-31.696 Y-228.663
X-32.299 Y-226.86
X-32.921 Y-225.078
X-33.563 Y-223.315
X-34.224 Y-221.573
X-34.905 Y-219.851
X-35.604 Y-218.148
X-36.323 Y-216.464
X-37.061 Y-214.801
X-37.818 Y-213.157
X-38.594 Y-211.532
X-39.388 Y-209.926
X-40.202 Y-208.338
X-41.034 Y-206.77
X-41.885 Y-205.22
X-42.754 Y-203.689
X-43.642 Y-202.178
X-44.548 Y-200.683
X-45.473 Y-199.208
X-46.415 Y-197.751
X-47.376 Y-196.312
X-48.355 Y-194.89
X-49.352 Y-193.487
X-50.367 Y-192.101
X-51.399 Y-190.732
X-52.45 Y-189.381
X-53.518 Y-188.047
X-54.603 Y-186.731
X-55.706 Y-185.432
X-56.827 Y-184.149
X-57.964 Y-182.883
X-59.12 Y-181.634
X-60.292 Y-180.402
X-61.481 Y-179.185
X-62.688 Y-177.985
X-63.911 Y-176.801
X-65.151 Y-175.634
X-66.408 Y-174.483
X-67.681 Y-173.347
X-68.971 Y-172.226
X-70.277 Y-171.123
X-71.601 Y-170.033
X-72.939 Y-168.96
X-74.294 Y-167.902
X-75.666 Y-166.859
X-77.052 Y-165.83
X-78.455 Y-164.818
X-79.874 Y-163.819
X-81.308 Y-162.836
X-82.758 Y-161.867
X-84.223 Y-160.913
X-85.703 Y-159.973
X-87.198 Y-159.048
X-88.709 Y-158.136
X-90.234 Y-157.239
X-91.774 Y-156.355
X-93.328 Y-155.486
X-94.897 Y-154.631
X-96.481 Y-153.789
X-98.079 Y-152.96
X-99.69 Y-152.147
X-101.317 Y-151.346
X-102.956 Y-150.557
X-104.61 Y-149.783
X-106.277 Y-149.02
X-107.957 Y-148.272
X-109.651 Y-147.537
X-111.357 Y-146.814
X-113.076 Y-146.104
X-114.809 Y-145.407
X-116.555 Y-144.721
X-118.312 Y-144.049
X-120.081 Y-143.389
X-121.865 Y-142.74
X-123.658 Y-142.105
X-125.464 Y-141.482
X-127.283 Y-140.87
X-129.113 Y-140.269
X-130.953 Y-139.681
X-132.805 Y-139.105
X-134.669 Y-138.54
X-136.544 Y-137.987
X-138.429 Y-137.445
X-140.325 Y-136.915
X-142.231 Y-136.395
X-144.148 Y-135.887
X-146.074 Y-135.39
X-148.011 Y-134.904
X-149.958 Y-134.429
X-151.913 Y-133.964
X-153.878 Y-133.511
X-155.854 Y-133.068
X-157.838 Y-132.635
X-159.831 Y-132.214
X-161.833 Y-131.801
X-163.842 Y-131.401
X-165.861 Y-131.01
X-167.888 Y-130.629
X-169.924 Y-130.258
X-171.966 Y-129.897
X-174.017 Y-129.546
X-176.075 Y-129.205
X-178.14 Y-128.874
X-180.212 Y-128.553
X-182.292 Y-128.241
X-184.379 Y-127.939
X-186.471 Y-127.646
X-188.571 Y-127.363
X-190.677 Y-127.089
X-192.784 Y-126.825
X-197.03 Y-126.324
X-201.292 Y-125.859
X-205.574 Y-125.431
X-209.877 Y-125.039
X-214.197 Y-124.682
X-218.531 Y-124.36
X-222.88 Y-124.073
X-227.243 Y-123.821
X-231.616 Y-123.602
X-235.999 Y-123.418
X-240.389 Y-123.267
X-244.786 Y-123.15
X-249.188 Y-123.067
X-253.594 Y-123.017
X-258 Y-123
X-262.406 Y-123.017
X-266.812 Y-123.067
X-271.214 Y-123.15
X-275.611 Y-123.267
X-280.001 Y-123.418
X-284.384 Y-123.602
X-288.757 Y-123.821
X-293.12 Y-124.073
X-297.469 Y-124.36
X-301.803 Y-124.682
X-306.123 Y-125.039
X-310.426 Y-125.431
X-314.708 Y-125.859
X-318.97 Y-126.324
X-323.216 Y-126.825
X-325.323 Y-127.089
X-327.429 Y-127.363
X-329.529 Y-127.646
X-331.621 Y-127.939
X-333.708 Y-128.241
X-335.788 Y-128.553
X-337.86 Y-128.874
X-339.925 Y-129.205
X-341.983 Y-129.546
X-344.034 Y-129.897
X-346.076 Y-130.258
X-348.112 Y-130.629
X-350.139 Y-131.01
X-352.158 Y-131.401
X-354.167 Y-131.801
X-356.169 Y-132.214
X-358.162 Y-132.635
X-360.146 Y-133.068
X-362.122 Y-133.511
X-364.087 Y-133.964
X-366.042 Y-134.429
X-367.989 Y-134.904
X-369.926 Y-135.39
X-371.852 Y-135.887
X-373.769 Y-136.395
X-375.675 Y-136.915
X-377.571 Y-137.445
X-379.456 Y-137.987
X-381.331 Y-138.54
X-383.195 Y-139.105
X-385.047 Y-139.681
X-386.887 Y-140.269
X-388.717 Y-140.87
X-390.535 Y-141.482
X-392.342 Y-142.105
X-394.135 Y-142.74
X-395.919 Y-143.389
X-397.688 Y-144.049
X-399.445 Y-144.721
X-401.191 Y-145.407
X-402.924 Y-146.104
X-404.643 Y-146.814
X-406.349 Y-147.537
X-408.043 Y-148.272
X-409.723 Y-149.02
X-411.39 Y-149.783
X-413.044 Y-150.557
X-414.683 Y-151.346
X-416.31 Y-152.147
X-417.921 Y-152.96
X-419.519 Y-153.789
X-421.103 Y-154.631
X-422.672 Y-155.486
X-424.226 Y-156.355
X-425.766 Y-157.239
X-427.291 Y-158.136
X-428.802 Y-159.048
X-430.297 Y-159.973
X-431.777 Y-160.913
X-433.243 Y-161.867
X-434.692 Y-162.836
X-436.126 Y-163.819
X-437.544 Y-164.818
X-438.948 Y-165.83
X-440.334 Y-166.859
X-441.706 Y-167.902
X-443.06 Y-168.96
X-444.399 Y-170.033
X-445.723 Y-171.123
X-447.029 Y-172.226
X-448.319 Y-173.347
X-449.592 Y-174.483
X-450.849 Y-175.634
X-452.088 Y-176.801
X-453.312 Y-177.985
X-454.519 Y-179.185
X-455.708 Y-180.402
X-456.881 Y-181.634
X-458.035 Y-182.883
X-459.173 Y-184.149
X-460.294 Y-185.432
X-461.397 Y-186.732
X-462.483 Y-188.047
X-463.551 Y-189.381
X-464.601 Y-190.732
X-465.633 Y-192.101
X-466.649 Y-193.487
X-467.645 Y-194.89
X-468.624 Y-196.312
X-469.585 Y-197.751
X-470.527 Y-199.208
X-471.452 Y-200.683
X-472.358 Y-202.177
X-473.246 Y-203.689
X-474.115 Y-205.22
X-474.966 Y-206.77
X-475.798 Y-208.338
X-476.611 Y-209.925
X-477.406 Y-211.532
X-478.183 Y-213.157
X-478.939 Y-214.8
X-479.677 Y-216.464
X-480.396 Y-218.148
X-481.095 Y-219.852
X-481.776 Y-221.574
X-482.437 Y-223.316
X-483.079 Y-225.078
X-483.701 Y-226.86
X-484.304 Y-228.663
X-484.887 Y-230.485
X-485.45 Y-232.328
X-485.994 Y-234.191
X-486.518 Y-236.075
X-487.022 Y-237.979
X-487.506 Y-239.903
X-487.97 Y-241.849
X-488.414 Y-243.815
X-488.837 Y-245.803
X-489.241 Y-247.811
X-489.625 Y-249.839
X-489.987 Y-251.889
X-490.33 Y-253.961
X-490.652 Y-256.054
X-490.954 Y-258.165
X-491.235 Y-260.3
X-491.495 Y-262.457
X-491.735 Y-264.634
X-491.954 Y-266.832
X-492.153 Y-269.053
X-492.33 Y-271.294
X-492.487 Y-273.556
X-492.622 Y-275.842
X-492.738 Y-278.148
X-492.832 Y-280.475
X-492.906 Y-282.824
X-492.958 Y-285.194
X-492.989 Y-287.586
X-493 Y-290.014
G2 X-496 Y-293 I-3 J0.014
G1 X-508
G2 X-511 Y-290 J3
G1 Y0
Y-290 Z-8.587
G3 X-508 Y-293 Z-8.597 I3
G1 X-496 Z-8.621
G3 X-493 Y-290.014 Z-8.631 J3
G1 X-492.989 Y-287.586 Z-8.635
X-492.958 Y-285.194 Z-8.64
X-492.906 Y-282.824 Z-8.645
X-492.832 Y-280.475 Z-8.65
X-492.738 Y-278.148 Z-8.655
X-492.622 Y-275.842 Z-8.659
X-492.487 Y-273.556 Z-8.664
X-492.33 Y-271.294 Z-8.668
X-492.153 Y-269.053 Z-8.673
X-491.954 Y-266.832 Z-8.678
X-491.735 Y-264.634 Z-8.682
X-491.495 Y-262.457 Z-8.686
X-491.235 Y-260.3 Z-8.691
X-490.954 Y-258.165 Z-8.695
X-490.652 Y-256.054 Z-8.7
X-490.33 Y-253.961 Z-8.704
X-489.987 Y-251.889 Z-8.708
X-489.625 Y-249.839 Z-8.712
X-489.241 Y-247.811 Z-8.716
X-488.837 Y-245.803 Z-8.721
X-488.414 Y-243.815 Z-8.725
X-487.97 Y-241.849 Z-8.729
X-487.506 Y-239.903 Z-8.733
X-487.022 Y-237.979 Z-8.737
X-486.518 Y-236.075 Z-8.741
X-485.994 Y-234.191 Z-8.745
X-485.45 Y-232.328 Z-8.749
X-484.887 Y-230.485 Z-8.753
X-484.304 Y-228.663 Z-8.757
X-483.701 Y-226.86 Z-8.76
X-483.079 Y-225.078 Z-8.764
X-482.437 Y-223.316 Z-8.768
X-481.776 Y-221.574 Z-8.772
X-481.095 Y-219.852 Z-8.776
X-480.396 Y-218.148 Z-8.779
X-479.677 Y-216.464 Z-8.783
X-478.939 Y-214.8 Z-8.787
X-478.183 Y-213.157 Z-8.79
X-477.406 Y-211.532 Z-8.794
X-476.611 Y-209.925 Z-8.798
X-475.798 Y-208.338 Z-8.801
X-474.966 Y-206.77 Z-8.805
X-474.115 Y-205.22 Z-8.808
X-473.246 Y-203.689 Z-8.812
X-472.358 Y-202.177 Z-8.815
X-471.452 Y-200.683 Z-8.819
X-470.527 Y-199.208 Z-8.823
X-469.585 Y-197.751 Z-8.826
X-468.624 Y-196.312 Z-8.83
X-467.645 Y-194.89 Z-8.833
X-466.649 Y-193.487 Z-8.837
X-465.633 Y-192.101 Z-8.84
X-464.601 Y-190.732 Z-8.843
X-463.551 Y-189.381 Z-8.847
X-462.483 Y-188.047 Z-8.85
X-461.397 Y-186.732 Z-8.854
X-460.294 Y-185.432 Z-8.857
X-459.173 Y-184.149 Z-8.861
X-458.035 Y-182.883 Z-8.864
X-456.881 Y-181.634 Z-8.868
X-455.708 Y-180.402 Z-8.871
X-454.519 Y-179.185 Z-8.875
X-453.312 Y-177.985 Z-8.878
X-452.088 Y-176.801 Z-8.881
X-450.849 Y-175.634 Z-8.885
X-449.592 Y-174.483 Z-8.888
X-448.319 Y-173.347 Z-8.892
X-447.029 Y-172.226 Z-8.895
X-445.723 Y-171.123 Z-8.899
X-444.399 Y-170.033 Z-8.902
X-443.06 Y-168.96 Z-8.906
X-441.706 Y-167.902 Z-8.909
X-440.334 Y-166.859 Z-8.913
X-438.948 Y-165.83 Z-8.916
X-437.544 Y-164.818 Z-8.92
X-436.126 Y-163.819 Z-8.923
X-434.692 Y-162.836 Z-8.927
X-433.243 Y-161.867 Z-8.93
X-431.777 Y-160.913 Z-8.934
X-430.297 Y-159.973 Z-8.937
X-428.802 Y-159.048 Z-8.941
X-427.291 Y-158.136 Z-8.944
X-425.766 Y-157.239 Z-8.948
X-424.226 Y-156.355 Z-8.952
X-422.672 Y-155.486 Z-8.955
X-421.103 Y-154.631 Z-8.959
X-419.519 Y-153.789 Z-8.962
X-417.921 Y-152.96 Z-8.966
X-416.31 Y-152.147 Z-8.97
X-414.683 Y-151.346 Z-8.973
X-413.044 Y-150.557 Z-8.977
X-411.39 Y-149.783 Z-8.981
X-409.723 Y-149.02 Z-8.985
X-408.043 Y-148.272 Z-8.988
X-406.349 Y-147.537 Z-8.992
X-404.643 Y-146.814 Z-8.996
X-402.924 Y-146.104 Z-8.999
X-401.191 Y-145.407 Z-9.003
X-399.445 Y-144.721 Z-9.007
X-397.688 Y-144.049 Z-9.011
X-395.919 Y-143.389 Z-9.015
X-394.135 Y-142.74 Z-9.019
X-392.342 Y-142.105 Z-9.022
X-390.535 Y-141.482 Z-9.026
X-388.717 Y-140.87 Z-9.03
X-386.887 Y-140.269 Z-9.034
X-385.047 Y-139.681 Z-9.038
X-383.195 Y-139.105 Z-9.042
X-381.331 Y-138.54 Z-9.046
X-379.456 Y-137.987 Z-9.05
X-377.571 Y-137.445 Z-9.054
X-375.675 Y-136.915 Z-9.058
X-373.769 Y-136.395 Z-9.062
X-371.852 Y-135.887 Z-9.066
X-369.926 Y-135.39 Z-9.07
X-367.989 Y-134.904 Z-9.074
X-366.042 Y-134.429 Z-9.078
X-364.087 Y-133.964 Z-9.082
X-362.122 Y-133.511 Z-9.086
X-360.146 Y-133.068 Z-9.09
X-358.162 Y-132.635 Z-9.094
X-356.169 Y-132.214 Z-9.098
X-354.167 Y-131.801 Z-9.103
X-352.158 Y-131.401 Z-9.107
X-350.139 Y-131.01 Z-9.111
X-348.112 Y-130.629 Z-9.115
X-346.076 Y-130.258 Z-9.119
X-344.034 Y-129.897 Z-9.123
X-341.983 Y-129.546 Z-9.128
X-339.925 Y-129.205 Z-9.132
X-337.86 Y-128.874 Z-9.136
X-335.788 Y-128.553 Z-9.14
X-333.708 Y-128.241 Z-9.145
X-331.621 Y-127.939 Z-9.149
X-329.529 Y-127.646 Z-9.153
X-327.429 Y-127.363 Z-9.157
X-325.323 Y-127.089 Z-9.162
X-323.216 Y-126.825 Z-9.166
X-318.97 Y-126.324 Z-9.175
X-314.708 Y-125.859 Z-9.183
X-310.426 Y-125.431 Z-9.192
X-306.123 Y-125.039 Z-9.201
X-301.803 Y-124.682 Z-9.21
X-297.469 Y-124.36 Z-9.218
X-293.12 Y-124.073 Z-9.227
X-288.757 Y-123.821 Z-9.236
X-284.384 Y-123.602 Z-9.245
X-280.001 Y-123.418 Z-9.254
X-275.611 Y-123.267 Z-9.263
X-271.214 Y-123.15 Z-9.272
X-266.812 Y-123.067 Z-9.281
X-262.406 Y-123.017 Z-9.289
X-258 Y-123 Z-9.298
X-253.594 Y-123.017 Z-9.307
X-249.188 Y-123.067 Z-9.316
X-244.786 Y-123.15 Z-9.325
X-240.389 Y-123.267 Z-9.334
X-235.999 Y-123.418 Z-9.343
X-231.616 Y-123.602 Z-9.352
X-227.243 Y-123.821 Z-9.361
X-222.88 Y-124.073 Z-9.37
X-218.531 Y-124.36 Z-9.378
X-214.197 Y-124.682 Z-9.387
X-209.877 Y-125.039 Z-9.396
X-205.574 Y-125.431 Z-9.405
X-201.292 Y-125.859 Z-9.413
X-197.03 Y-126.324 Z-9.422
X-192.784 Y-126.825 Z-9.431
X-190.677 Y-127.089 Z-9.435
X-188.571 Y-127.363 Z-9.439
X-186.471 Y-127.646 Z-9.444
X-184.379 Y-127.939 Z-9.448
X-182.292 Y-128.241 Z-9.452
X-180.212 Y-128.553 Z-9.456
X-178.14 Y-128.874 Z-9.461
X-176.075 Y-129.205 Z-9.465
X-174.017 Y-129.546 Z-9.469
X-171.966 Y-129.897 Z-9.473
X-169.924 Y-130.258 Z-9.478
X-167.888 Y-130.629 Z-9.482
X-165.861 Y-131.01 Z-9.486
X-163.842 Y-131.401 Z-9.49
X-161.833 Y-131.801 Z-9.494
X-159.831 Y-132.214 Z-9.498
X-157.838 Y-132.635 Z-9.502
X-155.854 Y-133.068 Z-9.507
X-153.878 Y-133.511 Z-9.511
X-151.913 Y-133.964 Z-9.515
X-149.958 Y-134.429 Z-9.519
X-148.011 Y-134.904 Z-9.523
X-146.074 Y-135.39 Z-9.527
X-144.148 Y-135.887 Z-9.531
X-142.231 Y-136.395 Z-9.535
X-140.325 Y-136.915 Z-9.539
X-138.429 Y-137.445 Z-9.543
X-136.544 Y-137.987 Z-9.547
X-134.669 Y-138.54 Z-9.551
X-132.805 Y-139.105 Z-9.555
X-130.953 Y-139.681 Z-9.559
X-129.113 Y-140.269 Z-9.563
X-127.283 Y-140.87 Z-9.567
X-125.464 Y-141.482 Z-9.57
X-123.658 Y-142.105 Z-9.574
X-121.865 Y-142.74 Z-9.578
X-120.081 Y-143.389 Z-9.582
X-118.312 Y-144.049 Z-9.586
X-116.555 Y-144.721 Z-9.59
X-114.809 Y-145.407 Z-9.593
X-113.076 Y-146.104 Z-9.597
X-111.357 Y-146.814 Z-9.601
X-109.651 Y-147.537 Z-9.605
X-107.957 Y-148.272 Z-9.608
X-106.277 Y-149.02 Z-9.612
X-104.61 Y-149.783 Z-9.616
X-102.956 Y-150.557 Z-9.62
X-101.317 Y-151.346 Z-9.623
X-99.69 Y-152.147 Z-9.627
X-98.079 Y-152.96 Z-9.631
X-96.481 Y-153.789 Z-9.634
X-94.897 Y-154.631 Z-9.638
X-93.328 Y-155.486 Z-9.642
X-91.774 Y-156.355 Z-9.645
X-90.234 Y-157.239 Z-9.649
X-88.709 Y-158.136 Z-9.652
X-87.198 Y-159.048 Z-9.656
X-85.703 Y-159.973 Z-9.659
X-84.223 Y-160.913 Z-9.663
X-82.758 Y-161.867 Z-9.667
X-81.308 Y-162.836 Z-9.67
X-79.874 Y-163.819 Z-9.674
X-78.455 Y-164.818 Z-9.677
X-77.052 Y-165.83 Z-9.681
X-75.666 Y-166.859 Z-9.684
X-74.294 Y-167.902 Z-9.688
X-72.939 Y-168.96 Z-9.691
X-71.601 Y-170.033 Z-9.695
X-70.277 Y-171.123 Z-9.698
X-68.971 Y-172.226 Z-9.701
X-67.681 Y-173.347 Z-9.705
X-66.408 Y-174.483 Z-9.708
X-65.151 Y-175.634 Z-9.712
X-63.911 Y-176.801 Z-9.715
X-62.688 Y-177.985 Z-9.719
X-61.481 Y-179.185 Z-9.722
X-60.292 Y-180.402 Z-9.726
X-59.12 Y-181.634 Z-9.729
X-57.964 Y-182.883 Z-9.733
X-56.827 Y-184.149 Z-9.736
X-55.706 Y-185.432 Z-9.739
X-54.603 Y-186.731 Z-9.743
X-53.518 Y-188.047 Z-9.746
X-52.45 Y-189.381 Z-9.75
X-51.399 Y-190.732 Z-9.753
X-50.367 Y-192.101 Z-9.757
X-49.352 Y-193.487 Z-9.76
X-48.355 Y-194.89 Z-9.764
X-47.376 Y-196.312 Z-9.767
X-46.415 Y-197.751 Z-9.771
X-45.473 Y-199.208 Z-9.774
X-44.548 Y-200.683 Z-9.778
X-43.642 Y-202.178 Z-9.781
X-42.754 Y-203.689 Z-9.785
X-41.885 Y-205.22 Z-9.788
X-41.034 Y-206.77 Z-9.792
X-40.202 Y-208.338 Z-9.796
X-39.388 Y-209.926 Z-9.799
X-38.594 Y-211.532 Z-9.803
X-37.818 Y-213.157 Z-9.806
X-37.061 Y-214.801 Z-9.81
X-36.323 Y-216.464 Z-9.814
X-35.604 Y-218.148 Z-9.817
X-34.905 Y-219.851 Z-9.821
X-34.224 Y-221.573 Z-9.825
X-33.563 Y-223.315 Z-9.829
X-32.921 Y-225.078 Z-9.833
X-32.299 Y-226.86 Z-9.836
X-31.696 Y-228.663 Z-9.84
X-31.113 Y-230.485 Z-9.844
X-30.55 Y-232.328 Z-9.848
X-30.006 Y-234.191 Z-9.852
X-29.482 Y-236.075 Z-9.856
X-28.978 Y-237.979 Z-9.86
X-28.494 Y-239.904 Z-9.864
X-28.03 Y-241.849 Z-9.868
X-27.586 Y-243.815 Z-9.872
X-27.162 Y-245.802 Z-9.876
X-26.759 Y-247.81 Z-9.88
X-26.376 Y-249.84 Z-9.884
X-26.013 Y-251.889 Z-9.889
X-25.67 Y-253.961 Z-9.893
X-25.348 Y-256.053 Z-9.897
X-25.046 Y-258.166 Z-9.902
X-24.765 Y-260.301 Z-9.906
X-24.505 Y-262.457 Z-9.91
X-24.265 Y-264.634 Z-9.915
X-24.046 Y-266.832 Z-9.919
X-23.848 Y-269.053 Z-9.924
X-23.67 Y-271.294 Z-9.928
X-23.513 Y-273.557 Z-9.933
X-23.377 Y-275.842 Z-9.937
X-23.262 Y-278.148 Z-9.942
X-23.168 Y-280.475 Z-9.947
X-23.094 Y-282.824 Z-9.952
X-23.042 Y-285.195 Z-9.956
X-23.011 Y-287.586 Z-9.961
X-23 Y-290.013 Z-9.966
G3 X-20 Y-293 Z-9.976 I3 J0.013
G1 X-8 Z-10
X-20
G2 X-23 Y-290.013 J3
G1 X-23.011 Y-287.586
X-23.042 Y-285.195
X-23.094 Y-282.824
X-23.168 Y-280.475
X-23.262 Y-278.148
X-23.377 Y-275.842
X-23.513 Y-273.557
X-23.67 Y-271.294
X-23.848 Y-269.053
X-24.046 Y-266.832
X-24.265 Y-264.634
X-24.505 Y-262.457
X-24.765 Y-260.301
X-25.046 Y-258.166
X-25.348 Y-256.053
X-25.67 Y-253.961
X-26.013 Y-251.889
X-26.376 Y-249.84
X-26.759 Y-247.81
X-27.162 Y-245.802
X-27.586 Y-243.815
X-28.03 Y-241.849
X-28.494 Y-239.904
X-28.978 Y-237.979
X-29.482 Y-236.075
X-30.006 Y-234.191
X-30.55 Y-232.328
X-31.113 Y-230.485
X-31.696 Y-228.663
X-32.299 Y-226.86
X-32.921 Y-225.078
X-33.563 Y-223.315
X-34.224 Y-221.573
X-34.905 Y-219.851
X-35.604 Y-218.148
X-36.323 Y-216.464
X-37.061 Y-214.801
X-37.818 Y-213.157
X-38.594 Y-211.532
X-39.388 Y-209.926
X-40.202 Y-208.338
X-41.034 Y-206.77
X-41.885 Y-205.22
X-42.754 Y-203.689
X-43.642 Y-202.178
X-44.548 Y-200.683
X-45.473 Y-199.208
X-46.415 Y-197.751
X-47.376 Y-196.312
X-48.355 Y-194.89
X-49.352 Y-193.487
X-50.367 Y-192.101
X-51.399 Y-190.732
X-52.45 Y-189.381
X-53.518 Y-188.047
X-54.603 Y-186.731
X-55.706 Y-185.432
X-56.827 Y-184.149
X-57.964 Y-182.883
X-59.12 Y-181.634
X-60.292 Y-180.402
X-61.481 Y-179.185
X-62.688 Y-177.985
X-63.911 Y-176.801
X-65.151 Y-175.634
X-66.408 Y-174.483
X-67.681 Y-173.347
X-68.971 Y-172.226
X-70.277 Y-171.123
X-71.601 Y-170.033
X-72.939 Y-168.96
X-74.294 Y-167.902
X-75.666 Y-166.859
X-77.052 Y-165.83
X-78.455 Y-164.818
X-79.874 Y-163.819
X-81.308 Y-162.836
X-82.758 Y-161.867
X-84.223 Y-160.913
X-85.703 Y-159.973
X-87.198 Y-159.048
X-88.709 Y-158.136
X-90.234 Y-157.239
X-91.774 Y-156.355
X-93.328 Y-155.486
X-94.897 Y-154.631
X-96.481 Y-153.789
X-98.079 Y-152.96
X-99.69 Y-152.147
X-101.317 Y-151.346
X-102.956 Y-150.557
X-104.61 Y-149.783
X-106.277 Y-149.02
X-107.957 Y-148.272
X-109.651 Y-147.537
X-111.357 Y-146.814
X-113.076 Y-146.104
X-114.809 Y-145.407
X-116.555 Y-144.721
X-118.312 Y-144.049
X-120.081 Y-143.389
X-121.865 Y-142.74
X-123.658 Y-142.105
X-125.464 Y-141.482
X-127.283 Y-140.87
X-129.113 Y-140.269
X-130.953 Y-139.681
X-132.805 Y-139.105
X-134.669 Y-138.54
X-136.544 Y-137.987
X-138.429 Y-137.445
X-140.325 Y-136.915
X-142.231 Y-136.395
X-144.148 Y-135.887
X-146.074 Y-135.39
X-148.011 Y-134.904
X-149.958 Y-134.429
X-151.913 Y-133.964
X-153.878 Y-133.511
X-155.854 Y-133.068
X-157.838 Y-132.635
X-159.831 Y-132.214
X-161.833 Y-131.801
X-163.842 Y-131.401
X-165.861 Y-131.01
X-167.888 Y-130.629
X-169.924 Y-130.258
X-171.966 Y-129.897
X-174.017 Y-129.546
X-176.075 Y-129.205
X-178.14 Y-128.874
X-180.212 Y-128.553
X-182.292 Y-128.241
X-184.379 Y-127.939
X-186.471 Y-127.646
X-188.571 Y-127.363
X-190.677 Y-127.089
X-192.784 Y-126.825
X-197.03 Y-126.324
X-201.292 Y-125.859
X-205.574 Y-125.431
X-209.877 Y-125.039
X-214.197 Y-124.682
X-218.531 Y-124.36
X-222.88 Y-124.073
X-227.243 Y-123.821
X-231.616 Y-123.602
X-235.999 Y-123.418
X-240.389 Y-123.267
X-244.786 Y-123.15
X-249.188 Y-123.067
X-253.594 Y-123.017
X-258 Y-123
X-262.406 Y-123.017
X-266.812 Y-123.067
X-271.214 Y-123.15
X-275.611 Y-123.267
X-280.001 Y-123.418
X-284.384 Y-123.602
X-288.757 Y-123.821
X-293.12 Y-124.073
X-297.469 Y-124.36
X-301.803 Y-124.682
X-306.123 Y-125.039
X-310.426 Y-125.431
X-314.708 Y-125.859
X-318.97 Y-126.324
X-323.216 Y-126.825
X-325.323 Y-127.089
X-327.429 Y-127.363
X-329.529 Y-127.646
X-331.621 Y-127.939
X-333.708 Y-128.241
X-335.788 Y-128.553
X-337.86 Y-128.874
X-339.925 Y-129.205
X-341.983 Y-129.546
X-344.034 Y-129.897
X-346.076 Y-130.258
X-348.112 Y-130.629
X-350.139 Y-131.01
X-352.158 Y-131.401
X-354.167 Y-131.801
X-356.169 Y-132.214
X-358.162 Y-132.635
X-360.146 Y-133.068
X-362.122 Y-133.511
X-364.087 Y-133.964
X-366.042 Y-134.429
X-367.989 Y-134.904
X-369.926 Y-135.39
X-371.852 Y-135.887
X-373.769 Y-136.395
X-375.675 Y-136.915
X-377.571 Y-137.445
X-379.456 Y-137.987
X-381.331 Y-138.54
X-383.195 Y-139.105
X-385.047 Y-139.681
X-386.887 Y-140.269
X-388.717 Y-140.87
X-390.535 Y-141.482
X-392.342 Y-142.105
X-394.135 Y-142.74
X-395.919 Y-143.389
X-397.688 Y-144.049
X-399.445 Y-144.721
X-401.191 Y-145.407
X-402.924 Y-146.104
X-404.643 Y-146.814
X-406.349 Y-147.537
X-408.043 Y-148.272
X-409.723 Y-149.02
X-411.39 Y-149.783
X-413.044 Y-150.557
X-414.683 Y-151.346
X-416.31 Y-152.147
X-417.921 Y-152.96
X-419.519 Y-153.789
X-421.103 Y-154.631
X-422.672 Y-155.486
X-424.226 Y-156.355
X-425.766 Y-157.239
X-427.291 Y-158.136
X-428.802 Y-159.048
X-430.297 Y-159.973
X-431.777 Y-160.913
X-433.243 Y-161.867
X-434.692 Y-162.836
X-436.126 Y-163.819
X-437.544 Y-164.818
X-438.948 Y-165.83
X-440.334 Y-166.859
X-441.706 Y-167.902
X-443.06 Y-168.96
X-444.399 Y-170.033
X-445.723 Y-171.123
X-447.029 Y-172.226
X-448.319 Y-173.347
X-449.592 Y-174.483
X-450.849 Y-175.634
X-452.088 Y-176.801
X-453.312 Y-177.985
X-454.519 Y-179.185
X-455.708 Y-180.402
X-456.881 Y-181.634
X-458.035 Y-182.883
X-459.173 Y-184.149
X-460.294 Y-185.432
X-461.397 Y-186.732
X-462.483 Y-188.047
X-463.551 Y-189.381
X-464.601 Y-190.732
X-465.633 Y-192.101
X-466.649 Y-193.487
X-467.645 Y-194.89
X-468.624 Y-196.312
X-469.585 Y-197.751
X-470.527 Y-199.208
X-471.452 Y-200.683
X-472.358 Y-202.177
X-473.246 Y-203.689
X-474.115 Y-205.22
X-474.966 Y-206.77
X-475.798 Y-208.338
X-476.611 Y-209.925
X-477.406 Y-211.532
X-478.183 Y-213.157
X-478.939 Y-214.8
X-479.677 Y-216.464
X-480.396 Y-218.148
X-481.095 Y-219.852
X-481.776 Y-221.574
X-482.437 Y-223.316
X-483.079 Y-225.078
X-483.701 Y-226.86
X-484.304 Y-228.663
X-484.887 Y-230.485
X-485.45 Y-232.328
X-485.994 Y-234.191
X-486.518 Y-236.075
X-487.022 Y-237.979
X-487.506 Y-239.903
X-487.97 Y-241.849
X-488.414 Y-243.815
X-488.837 Y-245.803
X-489.241 Y-247.811
X-489.625 Y-249.839
X-489.987 Y-251.889
X-490.33 Y-253.961
X-490.652 Y-256.054
X-490.954 Y-258.165
X-491.235 Y-260.3
X-491.495 Y-262.457
X-491.735 Y-264.634
X-491.954 Y-266.832
X-492.153 Y-269.053
X-492.33 Y-271.294
X-492.487 Y-273.556
X-492.622 Y-275.842
X-492.738 Y-278.148
X-492.832 Y-280.475
X-492.906 Y-282.824
X-492.958 Y-285.194
X-492.989 Y-287.586
X-493 Y-290.014
G2 X-496 Y-293 I-3 J0.014
G1 X-508
G2 X-511 Y-290 J3
G1 Y0
Y-290 Z-10.587
G3 X-508 Y-293 Z-10.597 I3
G1 X-496 Z-10.621
G3 X-493 Y-290.014 Z-10.631 J3
G1 X-492.989 Y-287.586 Z-10.635
X-492.958 Y-285.194 Z-10.64
X-492.906 Y-282.824 Z-10.645
X-492.832 Y-280.475 Z-10.65
X-492.738 Y-278.148 Z-10.655
X-492.622 Y-275.842 Z-10.659
X-492.487 Y-273.556 Z-10.664
X-492.33 Y-271.294 Z-10.668
X-492.153 Y-269.053 Z-10.673
X-491.954 Y-266.832 Z-10.678
X-491.735 Y-264.634 Z-10.682
X-491.495 Y-262.457 Z-10.686
X-491.235 Y-260.3 Z-10.691
X-490.954 Y-258.165 Z-10.695
X-490.652 Y-256.054 Z-10.7
X-490.33 Y-253.961 Z-10.704
X-489.987 Y-251.889 Z-10.708
X-489.625 Y-249.839 Z-10.712
X-489.241 Y-247.811 Z-10.716
X-488.837 Y-245.803 Z-10.721
X-488.414 Y-243.815 Z-10.725
X-487.97 Y-241.849 Z-10.729
X-487.506 Y-239.903 Z-10.733
X-487.022 Y-237.979 Z-10.737
X-486.518 Y-236.075 Z-10.741
X-485.994 Y-234.191 Z-10.745
X-485.45 Y-232.328 Z-10.749
X-484.887 Y-230.485 Z-10.753
X-484.304 Y-228.663 Z-10.757
X-483.701 Y-226.86 Z-10.76
X-483.079 Y-225.078 Z-10.764
X-482.437 Y-223.316 Z-10.768
X-481.776 Y-221.574 Z-10.772
X-481.095 Y-219.852 Z-10.776
X-480.396 Y-218.148 Z-10.779
X-479.677 Y-216.464 Z-10.783
X-478.939 Y-214.8 Z-10.787
X-478.183 Y-213.157 Z-10.79
X-477.406 Y-211.532 Z-10.794
X-476.611 Y-209.925 Z-10.798
X-475.798 Y-208.338 Z-10.801
X-474.966 Y-206.77 Z-10.805
X-474.115 Y-205.22 Z-10.808
X-473.246 Y-203.689 Z-10.812
X-472.358 Y-202.177 Z-10.815
X-471.452 Y-200.683 Z-10.819
X-470.527 Y-199.208 Z-10.823
X-469.585 Y-197.751 Z-10.826
X-468.624 Y-196.312 Z-10.83
X-467.645 Y-194.89 Z-10.833
X-466.649 Y-193.487 Z-10.837
X-465.633 Y-192.101 Z-10.84
X-464.601 Y-190.732 Z-10.843
X-463.551 Y-189.381 Z-10.847
X-462.483 Y-188.047 Z-10.85
X-461.397 Y-186.732 Z-10.854
X-460.294 Y-185.432 Z-10.857
X-459.173 Y-184.149 Z-10.861
X-458.035 Y-182.883 Z-10.864
X-456.881 Y-181.634 Z-10.868
X-455.708 Y-180.402 Z-10.871
X-454.519 Y-179.185 Z-10.875
X-453.312 Y-177.985 Z-10.878
X-452.088 Y-176.801 Z-10.881
X-450.849 Y-175.634 Z-10.885
X-449.592 Y-174.483 Z-10.888
X-448.319 Y-173.347 Z-10.892
X-447.029 Y-172.226 Z-10.895
X-445.723 Y-171.123 Z-10.899
X-444.399 Y-170.033 Z-10.902
X-443.06 Y-168.96 Z-10.906
X-441.706 Y-167.902 Z-10.909
X-440.334 Y-166.859 Z-10.913
X-438.948 Y-165.83 Z-10.916
X-437.544 Y-164.818 Z-10.92
X-436.126 Y-163.819 Z-10.923
X-434.692 Y-162.836 Z-10.927
X-433.243 Y-161.867 Z-10.93
X-431.777 Y-160.913 Z-10.934
X-430.297 Y-159.973 Z-10.937
X-428.802 Y-159.048 Z-10.941
X-427.291 Y-158.136 Z-10.944
X-425.766 Y-157.239 Z-10.948
X-424.226 Y-156.355 Z-10.952
X-422.672 Y-155.486 Z-10.955
X-421.103 Y-154.631 Z-10.959
X-419.519 Y-153.789 Z-10.962
X-417.921 Y-152.96 Z-10.966
X-416.31 Y-152.147 Z-10.97
X-414.683 Y-151.346 Z-10.973
X-413.044 Y-150.557 Z-10.977
X-411.39 Y-149.783 Z-10.981
X-409.723 Y-149.02 Z-10.985
X-408.043 Y-148.272 Z-10.988
X-406.349 Y-147.537 Z-10.992
X-404.643 Y-146.814 Z-10.996
X-402.924 Y-146.104 Z-10.999
X-401.191 Y-145.407 Z-11.003
X-399.445 Y-144.721 Z-11.007
X-397.688 Y-144.049 Z-11.011
X-395.919 Y-143.389 Z-11.015
X-394.135 Y-142.74 Z-11.019
X-392.342 Y-142.105 Z-11.022
X-390.535 Y-141.482 Z-11.026
X-388.717 Y-140.87 Z-11.03
X-386.887 Y-140.269 Z-11.034
X-385.047 Y-139.681 Z-11.038
X-383.195 Y-139.105 Z-11.042
X-381.331 Y-138.54 Z-11.046
X-379.456 Y-137.987 Z-11.05
X-377.571 Y-137.445 Z-11.054
X-375.675 Y-136.915 Z-11.058
X-373.769 Y-136.395 Z-11.062
X-371.852 Y-135.887 Z-11.066
X-369.926 Y-135.39 Z-11.07
X-367.989 Y-134.904 Z-11.074
X-366.042 Y-134.429 Z-11.078
X-364.087 Y-133.964 Z-11.082
X-362.122 Y-133.511 Z-11.086
X-360.146 Y-133.068 Z-11.09
X-358.162 Y-132.635 Z-11.094
X-356.169 Y-132.214 Z-11.098
X-354.167 Y-131.801 Z-11.103
X-352.158 Y-131.401 Z-11.107
X-350.139 Y-131.01 Z-11.111
X-348.112 Y-130.629 Z-11.115
X-346.076 Y-130.258 Z-11.119
X-344.034 Y-129.897 Z-11.123
X-341.983 Y-129.546 Z-11.128
X-339.925 Y-129.205 Z-11.132
X-337.86 Y-128.874 Z-11.136
X-335.788 Y-128.553 Z-11.14
X-333.708 Y-128.241 Z-11.145
X-331.621 Y-127.939 Z-11.149
X-329.529 Y-127.646 Z-11.153
X-327.429 Y-127.363 Z-11.157
X-325.323 Y-127.089 Z-11.162
X-323.216 Y-126.825 Z-11.166
X-318.97 Y-126.324 Z-11.175
X-314.708 Y-125.859 Z-11.183
X-310.426 Y-125.431 Z-11.192
X-306.123 Y-125.039 Z-11.201
X-301.803 Y-124.682 Z-11.21
X-297.469 Y-124.36 Z-11.218
X-293.12 Y-124.073 Z-11.227
X-288.757 Y-123.821 Z-11.236
X-284.384 Y-123.602 Z-11.245
X-280.001 Y-123.418 Z-11.254
X-275.611 Y-123.267 Z-11.263
X-271.214 Y-123.15 Z-11.272
X-266.812 Y-123.067 Z-11.281
X-262.406 Y-123.017 Z-11.289
X-258 Y-123 Z-11.298
X-253.594 Y-123.017 Z-11.307
X-249.188 Y-123.067 Z-11.316
X-244.786 Y-123.15 Z-11.325
X-240.389 Y-123.267 Z-11.334
X-235.999 Y-123.418 Z-11.343
X-231.616 Y-123.602 Z-11.352
X-227.243 Y-123.821 Z-11.361
X-222.88 Y-124.073 Z-11.37
X-218.531 Y-124.36 Z-11.378
X-214.197 Y-124.682 Z-11.387
X-209.877 Y-125.039 Z-11.396
X-205.574 Y-125.431 Z-11.405
X-201.292 Y-125.859 Z-11.413
X-197.03 Y-126.324 Z-11.422
X-192.784 Y-126.825 Z-11.431
X-190.677 Y-127.089 Z-11.435
X-188.571 Y-127.363 Z-11.439
X-186.471 Y-127.646 Z-11.444
X-184.379 Y-127.939 Z-11.448
X-182.292 Y-128.241 Z-11.452
X-180.212 Y-128.553 Z-11.456
X-178.14 Y-128.874 Z-11.461
X-176.075 Y-129.205 Z-11.465
X-174.017 Y-129.546 Z-11.469
X-171.966 Y-129.897 Z-11.473
X-169.924 Y-130.258 Z-11.478
X-167.888 Y-130.629 Z-11.482
X-165.861 Y-131.01 Z-11.486
X-163.842 Y-131.401 Z-11.49
X-161.833 Y-131.801 Z-11.494
X-159.831 Y-132.214 Z-11.498
X-157.838 Y-132.635 Z-11.502
X-155.854 Y-133.068 Z-11.507
X-153.878 Y-133.511 Z-11.511
X-151.913 Y-133.964 Z-11.515
X-149.958 Y-134.429 Z-11.519
X-148.011 Y-134.904 Z-11.523
X-146.074 Y-135.39 Z-11.527
X-144.148 Y-135.887 Z-11.531
X-142.231 Y-136.395 Z-11.535
X-140.325 Y-136.915 Z-11.539
X-138.429 Y-137.445 Z-11.543
X-136.544 Y-137.987 Z-11.547
X-134.669 Y-138.54 Z-11.551
X-132.805 Y-139.105 Z-11.555
X-130.953 Y-139.681 Z-11.559
X-129.113 Y-140.269 Z-11.563
X-127.283 Y-140.87 Z-11.567
X-125.464 Y-141.482 Z-11.57
X-123.658 Y-142.105 Z-11.574
X-121.865 Y-142.74 Z-11.578
X-120.081 Y-143.389 Z-11.582
X-118.312 Y-144.049 Z-11.586
X-116.555 Y-144.721 Z-11.59
X-114.809 Y-145.407 Z-11.593
X-113.076 Y-146.104 Z-11.597
X-111.357 Y-146.814 Z-11.601
X-109.651 Y-147.537 Z-11.605
X-107.957 Y-148.272 Z-11.608
X-106.277 Y-149.02 Z-11.612
X-104.61 Y-149.783 Z-11.616
X-102.956 Y-150.557 Z-11.62
X-101.317 Y-151.346 Z-11.623
X-99.69 Y-152.147 Z-11.627
X-98.079 Y-152.96 Z-11.631
X-96.481 Y-153.789 Z-11.634
X-94.897 Y-154.631 Z-11.638
X-93.328 Y-155.486 Z-11.642
X-91.774 Y-156.355 Z-11.645
X-90.234 Y-157.239 Z-11.649
X-88.709 Y-158.136 Z-11.652
X-87.198 Y-159.048 Z-11.656
X-85.703 Y-159.973 Z-11.659
X-84.223 Y-160.913 Z-11.663
X-82.758 Y-161.867 Z-11.667
X-81.308 Y-162.836 Z-11.67
X-79.874 Y-163.819 Z-11.674
X-78.455 Y-164.818 Z-11.677
X-77.052 Y-165.83 Z-11.681
X-75.666 Y-166.859 Z-11.684
X-74.294 Y-167.902 Z-11.688
X-72.939 Y-168.96 Z-11.691
X-71.601 Y-170.033 Z-11.695
X-70.277 Y-171.123 Z-11.698
X-68.971 Y-172.226 Z-11.701
X-67.681 Y-173.347 Z-11.705
X-66.408 Y-174.483 Z-11.708
X-65.151 Y-175.634 Z-11.712
X-63.911 Y-176.801 Z-11.715
X-62.688 Y-177.985 Z-11.719
X-61.481 Y-179.185 Z-11.722
X-60.292 Y-180.402 Z-11.726
X-59.12 Y-181.634 Z-11.729
X-57.964 Y-182.883 Z-11.733
X-56.827 Y-184.149 Z-11.736
X-55.706 Y-185.432 Z-11.739
X-54.603 Y-186.731 Z-11.743
X-53.518 Y-188.047 Z-11.746
X-52.45 Y-189.381 Z-11.75
X-51.399 Y-190.732 Z-11.753
X-50.367 Y-192.101 Z-11.757
X-49.352 Y-193.487 Z-11.76
X-48.355 Y-194.89 Z-11.764
X-47.376 Y-196.312 Z-11.767
X-46.415 Y-197.751 Z-11.771
X-45.473 Y-199.208 Z-11.774
X-44.548 Y-200.683 Z-11.778
X-43.642 Y-202.178 Z-11.781
X-42.754 Y-203.689 Z-11.785
X-41.885 Y-205.22 Z-11.788
X-41.034 Y-206.77 Z-11.792
X-40.202 Y-208.338 Z-11.796
X-39.388 Y-209.926 Z-11.799
X-38.594 Y-211.532 Z-11.803
X-37.818 Y-213.157 Z-11.806
X-37.061 Y-214.801 Z-11.81
X-36.323 Y-216.464 Z-11.814
X-35.604 Y-218.148 Z-11.817
X-34.905 Y-219.851 Z-11.821
X-34.224 Y-221.573 Z-11.825
X-33.563 Y-223.315 Z-11.829
X-32.921 Y-225.078 Z-11.833
X-32.299 Y-226.86 Z-11.836
X-31.696 Y-228.663 Z-11.84
X-31.113 Y-230.485 Z-11.844
X-30.55 Y-232.328 Z-11.848
X-30.006 Y-234.191 Z-11.852
X-29.482 Y-236.075 Z-11.856
X-28.978 Y-237.979 Z-11.86
X-28.494 Y-239.904 Z-11.864
X-28.03 Y-241.849 Z-11.868
X-27.586 Y-243.815 Z-11.872
X-27.162 Y-245.802 Z-11.876
X-26.759 Y-247.81 Z-11.88
X-26.376 Y-249.84 Z-11.884
X-26.013 Y-251.889 Z-11.889
X-25.67 Y-253.961 Z-11.893
X-25.348 Y-256.053 Z-11.897
X-25.046 Y-258.166 Z-11.902
X-24.765 Y-260.301 Z-11.906
X-24.505 Y-262.457 Z-11.91
X-24.265 Y-264.634 Z-11.915
X-24.046 Y-266.832 Z-11.919
X-23.848 Y-269.053 Z-11.924
X-23.67 Y-271.294 Z-11.928
X-23.513 Y-273.557 Z-11.933
X-23.377 Y-275.842 Z-11.937
X-23.262 Y-278.148 Z-11.942
X-23.168 Y-280.475 Z-11.947
X-23.094 Y-282.824 Z-11.952
X-23.042 Y-285.195 Z-11.956
X-23.011 Y-287.586 Z-11.961
X-23 Y-290.013 Z-11.966
G3 X-20 Y-293 Z-11.976 I3 J0.013
G1 X-8 Z-12
X-20
G2 X-23 Y-290.013 J3
G1 X-23.011 Y-287.586
X-23.042 Y-285.195
X-23.094 Y-282.824
X-23.168 Y-280.475
X-23.262 Y-278.148
X-23.377 Y-275.842
X-23.513 Y-273.557
X-23.67 Y-271.294
X-23.848 Y-269.053
X-24.046 Y-266.832
X-24.265 Y-264.634
X-24.505 Y-262.457
X-24.765 Y-260.301
X-25.046 Y-258.166
X-25.348 Y-256.053
X-25.67 Y-253.961
X-26.013 Y-251.889
X-26.376 Y-249.84
X-26.759 Y-247.81
X-27.162 Y-245.802
X-27.586 Y-243.815
X-28.03 Y-241.849
X-28.494 Y-239.904
X-28.978 Y-237.979
X-29.482 Y-236.075
X-30.006 Y-234.191
X-30.55 Y-232.328
X-31.113 Y-230.485
X-31.696 Y-228.663
X-32.299 Y-226.86
X-32.921 Y-225.078
X-33.563 Y-223.315
X-34.224 Y-221.573
X-34.905 Y-219.851
X-35.604 Y-218.148
X-36.323 Y-216.464
X-37.061 Y-214.801
X-37.818 Y-213.157
X-38.594 Y-211.532
X-39.388 Y-209.926
X-40.202 Y-208.338
X-41.034 Y-206.77
X-41.885 Y-205.22
X-42.754 Y-203.689
X-43.642 Y-202.178
X-44.548 Y-200.683
X-45.473 Y-199.208
X-46.415 Y-197.751
X-47.376 Y-196.312
X-48.355 Y-194.89
X-49.352 Y-193.487
X-50.367 Y-192.101
X-51.399 Y-190.732
X-52.45 Y-189.381
X-53.518 Y-188.047
X-54.603 Y-186.731
X-55.706 Y-185.432
X-56.827 Y-184.149
X-57.964 Y-182.883
X-59.12 Y-181.634
X-60.292 Y-180.402
X-61.481 Y-179.185
X-62.688 Y-177.985
X-63.911 Y-176.801
X-65.151 Y-175.634
X-66.408 Y-174.483
X-67.681 Y-173.347
X-68.971 Y-172.226
X-70.277 Y-171.123
X-71.601 Y-170.033
X-72.939 Y-168.96
X-74.294 Y-167.902
X-75.666 Y-166.859
X-77.052 Y-165.83
X-78.455 Y-164.818
X-79.874 Y-163.819
X-81.308 Y-162.836
X-82.758 Y-161.867
X-84.223 Y-160.913
X-85.703 Y-159.973
X-87.198 Y-159.048
X-88.709 Y-158.136
X-90.234 Y-157.239
X-91.774 Y-156.355
X-93.328 Y-155.486
X-94.897 Y-154.631
X-96.481 Y-153.789
X-98.079 Y-152.96
X-99.69 Y-152.147
X-101.317 Y-151.346
X-102.956 Y-150.557
X-104.61 Y-149.783
X-106.277 Y-149.02
X-107.957 Y-148.272
X-109.651 Y-147.537
X-111.357 Y-146.814
X-113.076 Y-146.104
X-114.809 Y-145.407
X-116.555 Y-144.721
X-118.312 Y-144.049
X-120.081 Y-143.389
X-121.865 Y-142.74
X-123.658 Y-142.105
X-125.464 Y-141.482
X-127.283 Y-140.87
X-129.113 Y-140.269
X-130.953 Y-139.681
X-132.805 Y-139.105
X-134.669 Y-138.54
X-136.544 Y-137.987
X-138.429 Y-137.445
X-140.325 Y-136.915
X-142.231 Y-136.395
X-144.148 Y-135.887
X-146.074 Y-135.39
X-148.011 Y-134.904
X-149.958 Y-134.429
X-151.913 Y-133.964
X-153.878 Y-133.511
X-155.854 Y-133.068
X-157.838 Y-132.635
X-159.831 Y-132.214
X-161.833 Y-131.801
X-163.842 Y-131.401
X-165.861 Y-131.01
X-167.888 Y-130.629
X-169.924 Y-130.258
X-171.966 Y-129.897
X-174.017 Y-129.546
X-176.075 Y-129.205
X-178.14 Y-128.874
X-180.212 Y-128.553
X-182.292 Y-128.241
X-184.379 Y-127.939
X-186.471 Y-127.646
X-188.571 Y-127.363
X-190.677 Y-127.089
X-192.784 Y-126.825
X-197.03 Y-126.324
X-201.292 Y-125.859
X-205.574 Y-125.431
X-209.877 Y-125.039
X-214.197 Y-124.682
X-218.531 Y-124.36
X-222.88 Y-124.073
X-227.243 Y-123.821
X-231.616 Y-123.602
X-235.999 Y-123.418
X-240.389 Y-123.267
X-244.786 Y-123.15
X-249.188 Y-123.067
X-253.594 Y-123.017
X-258 Y-123
X-262.406 Y-123.017
X-266.812 Y-123.067
X-271.214 Y-123.15
X-275.611 Y-123.267
X-280.001 Y-123.418
X-284.384 Y-123.602
X-288.757 Y-123.821
X-293.12 Y-124.073
X-297.469 Y-124.36
X-301.803 Y-124.682
X-306.123 Y-125.039
X-310.426 Y-125.431
X-314.708 Y-125.859
X-318.97 Y-126.324
X-323.216 Y-126.825
X-325.323 Y-127.089
X-327.429 Y-127.363
X-329.529 Y-127.646
X-331.621 Y-127.939
X-333.708 Y-128.241
X-335.788 Y-128.553
X-337.86 Y-128.874
X-339.925 Y-129.205
X-341.983 Y-129.546
X-344.034 Y-129.897
X-346.076 Y-130.258
X-348.112 Y-130.629
X-350.139 Y-131.01
X-352.158 Y-131.401
X-354.167 Y-131.801
X-356.169 Y-132.214
X-358.162 Y-132.635
X-360.146 Y-133.068
X-362.122 Y-133.511
X-364.087 Y-133.964
X-366.042 Y-134.429
X-367.989 Y-134.904
X-369.926 Y-135.39
X-371.852 Y-135.887
X-373.769 Y-136.395
X-375.675 Y-136.915
X-377.571 Y-137.445
X-379.456 Y-137.987
X-381.331 Y-138.54
X-383.195 Y-139.105
X-385.047 Y-139.681
X-386.887 Y-140.269
X-388.717 Y-140.87
X-390.535 Y-141.482
X-392.342 Y-142.105
X-394.135 Y-142.74
X-395.919 Y-143.389
X-397.688 Y-144.049
X-399.445 Y-144.721
X-401.191 Y-145.407
X-402.924 Y-146.104
X-404.643 Y-146.814
X-406.349 Y-147.537
X-408.043 Y-148.272
X-409.723 Y-149.02
X-411.39 Y-149.783
X-413.044 Y-150.557
X-414.683 Y-151.346
X-416.31 Y-152.147
X-417.921 Y-152.96
X-419.519 Y-153.789
X-421.103 Y-154.631
X-422.672 Y-155.486
X-424.226 Y-156.355
X-425.766 Y-157.239
X-427.291 Y-158.136
X-428.802 Y-159.048
X-430.297 Y-159.973
X-431.777 Y-160.913
X-433.243 Y-161.867
X-434.692 Y-162.836
X-436.126 Y-163.819
X-437.544 Y-164.818
X-438.948 Y-165.83
X-440.334 Y-166.859
X-441.706 Y-167.902
X-443.06 Y-168.96
X-444.399 Y-170.033
X-445.723 Y-171.123
X-447.029 Y-172.226
X-448.319 Y-173.347
X-449.592 Y-174.483
X-450.849 Y-175.634
X-452.088 Y-176.801
X-453.312 Y-177.985
X-454.519 Y-179.185
X-455.708 Y-180.402
X-456.881 Y-181.634
X-458.035 Y-182.883
X-459.173 Y-184.149
X-460.294 Y-185.432
X-461.397 Y-186.732
X-462.483 Y-188.047
X-463.551 Y-189.381
X-464.601 Y-190.732
X-465.633 Y-192.101
X-466.649 Y-193.487
X-467.645 Y-194.89
X-468.624 Y-196.312
X-469.585 Y-197.751
X-470.527 Y-199.208
X-471.452 Y-200.683
X-472.358 Y-202.177
X-473.246 Y-203.689
X-474.115 Y-205.22
X-474.966 Y-206.77
X-475.798 Y-208.338
X-476.611 Y-209.925
X-477.406 Y-211.532
X-478.183 Y-213.157
X-478.939 Y-214.8
X-479.677 Y-216.464
X-480.396 Y-218.148
X-481.095 Y-219.852
X-481.776 Y-221.574
X-482.437 Y-223.316
X-483.079 Y-225.078
X-483.701 Y-226.86
X-484.304 Y-228.663
X-484.887 Y-230.485
X-485.45 Y-232.328
X-485.994 Y-234.191
X-486.518 Y-236.075
X-487.022 Y-237.979
X-487.506 Y-239.903
X-487.97 Y-241.849
X-488.414 Y-243.815
X-488.837 Y-245.803
X-489.241 Y-247.811
X-489.625 Y-249.839
X-489.987 Y-251.889
X-490.33 Y-253.961
X-490.652 Y-256.054
X-490.954 Y-258.165
X-491.235 Y-260.3
X-491.495 Y-262.457
X-491.735 Y-264.634
X-491.954 Y-266.832
X-492.153 Y-269.053
X-492.33 Y-271.294
X-492.487 Y-273.556
X-492.622 Y-275.842
X-492.738 Y-278.148
X-492.832 Y-280.475
X-492.906 Y-282.824
X-492.958 Y-285.194
X-492.989 Y-287.586
X-493 Y-290.014
G2 X-496 Y-293 I-3 J0.014
G1 X-508
G2 X-511 Y-290 J3
G1 Y0
Y-290 Z-12.587
G3 X-508 Y-293 Z-12.597 I3
G1 X-496 Z-12.621
G3 X-493 Y-290.014 Z-12.631 J3
G1 X-492.989 Y-287.586 Z-12.635
X-492.958 Y-285.194 Z-12.64
X-492.906 Y-282.824 Z-12.645
X-492.832 Y-280.475 Z-12.65
X-492.738 Y-278.148 Z-12.655
X-492.622 Y-275.842 Z-12.659
X-492.487 Y-273.556 Z-12.664
X-492.33 Y-271.294 Z-12.668
X-492.153 Y-269.053 Z-12.673
X-491.954 Y-266.832 Z-12.678
X-491.735 Y-264.634 Z-12.682
X-491.495 Y-262.457 Z-12.686
X-491.235 Y-260.3 Z-12.691
X-490.954 Y-258.165 Z-12.695
X-490.652 Y-256.054 Z-12.7
X-490.33 Y-253.961 Z-12.704
X-489.987 Y-251.889 Z-12.708
X-489.625 Y-249.839 Z-12.712
X-489.241 Y-247.811 Z-12.716
X-488.837 Y-245.803 Z-12.721
X-488.414 Y-243.815 Z-12.725
X-487.97 Y-241.849 Z-12.729
X-487.506 Y-239.903 Z-12.733
X-487.022 Y-237.979 Z-12.737
X-486.518 Y-236.075 Z-12.741
X-485.994 Y-234.191 Z-12.745
X-485.45 Y-232.328 Z-12.749
X-484.887 Y-230.485 Z-12.753
X-484.304 Y-228.663 Z-12.757
X-483.701 Y-226.86 Z-12.76
X-483.079 Y-225.078 Z-12.764
X-482.437 Y-223.316 Z-12.768
X-481.776 Y-221.574 Z-12.772
X-481.095 Y-219.852 Z-12.776
X-480.396 Y-218.148 Z-12.779
X-479.677 Y-216.464 Z-12.783
X-478.939 Y-214.8 Z-12.787
X-478.183 Y-213.157 Z-12.79
X-477.406 Y-211.532 Z-12.794
X-476.611 Y-209.925 Z-12.798
X-475.798 Y-208.338 Z-12.801
X-474.966 Y-206.77 Z-12.805
X-474.115 Y-205.22 Z-12.808
X-473.246 Y-203.689 Z-12.812
X-472.358 Y-202.177 Z-12.815
X-471.452 Y-200.683 Z-12.819
X-470.527 Y-199.208 Z-12.823
X-469.585 Y-197.751 Z-12.826
X-468.624 Y-196.312 Z-12.83
X-467.645 Y-194.89 Z-12.833
X-466.649 Y-193.487 Z-12.837
X-465.633 Y-192.101 Z-12.84
X-464.601 Y-190.732 Z-12.843
X-463.551 Y-189.381 Z-12.847
X-462.483 Y-188.047 Z-12.85
X-461.397 Y-186.732 Z-12.854
X-460.294 Y-185.432 Z-12.857
X-459.173 Y-184.149 Z-12.861
X-458.035 Y-182.883 Z-12.864
X-456.881 Y-181.634 Z-12.868
X-455.708 Y-180.402 Z-12.871
X-454.519 Y-179.185 Z-12.875
X-453.312 Y-177.985 Z-12.878
X-452.088 Y-176.801 Z-12.881
X-450.849 Y-175.634 Z-12.885
X-449.592 Y-174.483 Z-12.888
X-448.319 Y-173.347 Z-12.892
X-447.029 Y-172.226 Z-12.895
X-445.723 Y-171.123 Z-12.899
X-444.399 Y-170.033 Z-12.902
X-443.06 Y-168.96 Z-12.906
X-441.706 Y-167.902 Z-12.909
X-440.334 Y-166.859 Z-12.913
X-438.948 Y-165.83 Z-12.916
X-437.544 Y-164.818 Z-12.92
X-436.126 Y-163.819 Z-12.923
X-434.692 Y-162.836 Z-12.927
X-433.243 Y-161.867 Z-12.93
X-431.777 Y-160.913 Z-12.934
X-430.297 Y-159.973 Z-12.937
X-428.802 Y-159.048 Z-12.941
X-427.291 Y-158.136 Z-12.944
X-425.766 Y-157.239 Z-12.948
X-424.226 Y-156.355 Z-12.952
X-422.672 Y-155.486 Z-12.955
X-421.103 Y-154.631 Z-12.959
X-419.519 Y-153.789 Z-12.962
X-417.921 Y-152.96 Z-12.966
X-416.31 Y-152.147 Z-12.97
X-414.683 Y-151.346 Z-12.973
X-413.044 Y-150.557 Z-12.977
X-411.39 Y-149.783 Z-12.981
X-409.723 Y-149.02 Z-12.985
X-408.043 Y-148.272 Z-12.988
X-406.349 Y-147.537 Z-12.992
X-404.643 Y-146.814 Z-12.996
X-402.924 Y-146.104 Z-12.999
X-401.191 Y-145.407 Z-13.003
X-399.445 Y-144.721 Z-13.007
X-397.688 Y-144.049 Z-13.011
X-395.919 Y-143.389 Z-13.015
X-394.135 Y-142.74 Z-13.019
X-392.342 Y-142.105 Z-13.022
X-390.535 Y-141.482 Z-13.026
X-388.717 Y-140.87 Z-13.03
X-386.887 Y-140.269 Z-13.034
X-385.047 Y-139.681 Z-13.038
X-383.195 Y-139.105 Z-13.042
X-381.331 Y-138.54 Z-13.046
X-379.456 Y-137.987 Z-13.05
X-377.571 Y-137.445 Z-13.054
X-375.675 Y-136.915 Z-13.058
X-373.769 Y-136.395 Z-13.062
X-371.852 Y-135.887 Z-13.066
X-369.926 Y-135.39 Z-13.07
X-367.989 Y-134.904 Z-13.074
X-366.042 Y-134.429 Z-13.078
X-364.087 Y-133.964 Z-13.082
X-362.122 Y-133.511 Z-13.086
X-360.146 Y-133.068 Z-13.09
X-358.162 Y-132.635 Z-13.094
X-356.169 Y-132.214 Z-13.098
X-354.167 Y-131.801 Z-13.103
X-352.158 Y-131.401 Z-13.107
X-350.139 Y-131.01 Z-13.111
X-348.112 Y-130.629 Z-13.115
X-346.076 Y-130.258 Z-13.119
X-344.034 Y-129.897 Z-13.123
X-341.983 Y-129.546 Z-13.128
X-339.925 Y-129.205 Z-13.132
X-337.86 Y-128.874 Z-13.136
X-335.788 Y-128.553 Z-13.14
X-333.708 Y-128.241 Z-13.145
X-331.621 Y-127.939 Z-13.149
X-329.529 Y-127.646 Z-13.153
X-327.429 Y-127.363 Z-13.157
X-325.323 Y-127.089 Z-13.162
X-323.216 Y-126.825 Z-13.166
X-318.97 Y-126.324 Z-13.175
X-314.708 Y-125.859 Z-13.183
X-310.426 Y-125.431 Z-13.192
X-306.123 Y-125.039 Z-13.201
X-301.803 Y-124.682 Z-13.21
X-297.469 Y-124.36 Z-13.218
X-293.12 Y-124.073 Z-13.227
X-288.757 Y-123.821 Z-13.236
X-284.384 Y-123.602 Z-13.245
X-280.001 Y-123.418 Z-13.254
X-275.611 Y-123.267 Z-13.263
X-271.214 Y-123.15 Z-13.272
X-266.812 Y-123.067 Z-13.281
X-262.406 Y-123.017 Z-13.289
X-258 Y-123 Z-13.298
X-253.594 Y-123.017 Z-13.307
X-249.188 Y-123.067 Z-13.316
X-244.786 Y-123.15 Z-13.325
X-240.389 Y-123.267 Z-13.334
X-235.999 Y-123.418 Z-13.343
X-231.616 Y-123.602 Z-13.352
X-227.243 Y-123.821 Z-13.361
X-222.88 Y-124.073 Z-13.37
X-218.531 Y-124.36 Z-13.378
X-214.197 Y-124.682 Z-13.387
X-209.877 Y-125.039 Z-13.396
X-205.574 Y-125.431 Z-13.405
X-201.292 Y-125.859 Z-13.413
X-197.03 Y-126.324 Z-13.422
X-192.784 Y-126.825 Z-13.431
X-190.677 Y-127.089 Z-13.435
X-188.571 Y-127.363 Z-13.439
X-186.471 Y-127.646 Z-13.444
X-184.379 Y-127.939 Z-13.448
X-182.292 Y-128.241 Z-13.452
X-180.212 Y-128.553 Z-13.456
X-178.14 Y-128.874 Z-13.461
X-176.075 Y-129.205 Z-13.465
X-174.017 Y-129.546 Z-13.469
X-171.966 Y-129.897 Z-13.473
X-169.924 Y-130.258 Z-13.478
X-167.888 Y-130.629 Z-13.482
X-165.861 Y-131.01 Z-13.486
X-163.842 Y-131.401 Z-13.49
X-161.833 Y-131.801 Z-13.494
X-159.831 Y-132.214 Z-13.498
X-157.838 Y-132.635 Z-13.502
X-155.854 Y-133.068 Z-13.507
X-153.878 Y-133.511 Z-13.511
X-151.913 Y-133.964 Z-13.515
X-149.958 Y-134.429 Z-13.519
X-148.011 Y-134.904 Z-13.523
X-146.074 Y-135.39 Z-13.527
X-144.148 Y-135.887 Z-13.531
X-142.231 Y-136.395 Z-13.535
X-140.325 Y-136.915 Z-13.539
X-138.429 Y-137.445 Z-13.543
X-136.544 Y-137.987 Z-13.547
X-134.669 Y-138.54 Z-13.551
X-132.805 Y-139.105 Z-13.555
X-130.953 Y-139.681 Z-13.559
X-129.113 Y-140.269 Z-13.563
X-127.283 Y-140.87 Z-13.567
X-125.464 Y-141.482 Z-13.57
X-123.658 Y-142.105 Z-13.574
X-121.865 Y-142.74 Z-13.578
X-120.081 Y-143.389 Z-13.582
X-118.312 Y-144.049 Z-13.586
X-116.555 Y-144.721 Z-13.59
X-114.809 Y-145.407 Z-13.593
X-113.076 Y-146.104 Z-13.597
X-111.357 Y-146.814 Z-13.601
X-109.651 Y-147.537 Z-13.605
X-107.957 Y-148.272 Z-13.608
X-106.277 Y-149.02 Z-13.612
X-104.61 Y-149.783 Z-13.616
X-102.956 Y-150.557 Z-13.62
X-101.317 Y-151.346 Z-13.623
X-99.69 Y-152.147 Z-13.627
X-98.079 Y-152.96 Z-13.631
X-96.481 Y-153.789 Z-13.634
X-94.897 Y-154.631 Z-13.638
X-93.328 Y-155.486 Z-13.642
X-91.774 Y-156.355 Z-13.645
X-90.234 Y-157.239 Z-13.649
X-88.709 Y-158.136 Z-13.652
X-87.198 Y-159.048 Z-13.656
X-85.703 Y-159.973 Z-13.659
X-84.223 Y-160.913 Z-13.663
X-82.758 Y-161.867 Z-13.667
X-81.308 Y-162.836 Z-13.67
X-79.874 Y-163.819 Z-13.674
X-78.455 Y-164.818 Z-13.677
X-77.052 Y-165.83 Z-13.681
X-75.666 Y-166.859 Z-13.684
X-74.294 Y-167.902 Z-13.688
X-72.939 Y-168.96 Z-13.691
X-71.601 Y-170.033 Z-13.695
X-70.277 Y-171.123 Z-13.698
X-68.971 Y-172.226 Z-13.701
X-67.681 Y-173.347 Z-13.705
X-66.408 Y-174.483 Z-13.708
X-65.151 Y-175.634 Z-13.712
X-63.911 Y-176.801 Z-13.715
X-62.688 Y-177.985 Z-13.719
X-61.481 Y-179.185 Z-13.722
X-60.292 Y-180.402 Z-13.726
X-59.12 Y-181.634 Z-13.729
X-57.964 Y-182.883 Z-13.733
X-56.827 Y-184.149 Z-13.736
X-55.706 Y-185.432 Z-13.739
X-54.603 Y-186.731 Z-13.743
X-53.518 Y-188.047 Z-13.746
X-52.45 Y-189.381 Z-13.75
X-51.399 Y-190.732 Z-13.753
X-50.367 Y-192.101 Z-13.757
X-49.352 Y-193.487 Z-13.76
X-48.355 Y-194.89 Z-13.764
X-47.376 Y-196.312 Z-13.767
X-46.415 Y-197.751 Z-13.771
X-45.473 Y-199.208 Z-13.774
X-44.548 Y-200.683 Z-13.778
X-43.642 Y-202.178 Z-13.781
X-42.754 Y-203.689 Z-13.785
X-41.885 Y-205.22 Z-13.788
X-41.034 Y-206.77 Z-13.792
X-40.202 Y-208.338 Z-13.796
X-39.388 Y-209.926 Z-13.799
X-38.594 Y-211.532 Z-13.803
X-37.818 Y-213.157 Z-13.806
X-37.061 Y-214.801 Z-13.81
X-36.323 Y-216.464 Z-13.814
X-35.604 Y-218.148 Z-13.817
X-34.905 Y-219.851 Z-13.821
X-34.224 Y-221.573 Z-13.825
X-33.563 Y-223.315 Z-13.829
X-32.921 Y-225.078 Z-13.833
X-32.299 Y-226.86 Z-13.836
X-31.696 Y-228.663 Z-13.84
X-31.113 Y-230.485 Z-13.844
X-30.55 Y-232.328 Z-13.848
X-30.006 Y-234.191 Z-13.852
X-29.482 Y-236.075 Z-13.856
X-28.978 Y-237.979 Z-13.86
X-28.494 Y-239.904 Z-13.864
X-28.03 Y-241.849 Z-13.868
X-27.586 Y-243.815 Z-13.872
X-27.162 Y-245.802 Z-13.876
X-26.759 Y-247.81 Z-13.88
X-26.376 Y-249.84 Z-13.884
X-26.013 Y-251.889 Z-13.889
X-25.67 Y-253.961 Z-13.893
X-25.348 Y-256.053 Z-13.897
X-25.046 Y-258.166 Z-13.902
X-24.765 Y-260.301 Z-13.906
X-24.505 Y-262.457 Z-13.91
X-24.265 Y-264.634 Z-13.915
X-24.046 Y-266.832 Z-13.919
X-23.848 Y-269.053 Z-13.924
X-23.67 Y-271.294 Z-13.928
X-23.513 Y-273.557 Z-13.933
X-23.377 Y-275.842 Z-13.937
X-23.262 Y-278.148 Z-13.942
X-23.168 Y-280.475 Z-13.947
X-23.094 Y-282.824 Z-13.952
X-23.042 Y-285.195 Z-13.956
X-23.011 Y-287.586 Z-13.961
X-23 Y-290.013 Z-13.966
G3 X-20 Y-293 Z-13.976 I3 J0.013
G1 X-8 Z-14
X-20
G2 X-23 Y-290.013 J3
G1 X-23.011 Y-287.586
X-23.042 Y-285.195
X-23.094 Y-282.824
X-23.168 Y-280.475
X-23.262 Y-278.148
X-23.377 Y-275.842
X-23.513 Y-273.557
X-23.67 Y-271.294
X-23.848 Y-269.053
X-24.046 Y-266.832
X-24.265 Y-264.634
X-24.505 Y-262.457
X-24.765 Y-260.301
X-25.046 Y-258.166
X-25.348 Y-256.053
X-25.67 Y-253.961
X-26.013 Y-251.889
X-26.376 Y-249.84
X-26.759 Y-247.81
X-27.162 Y-245.802
X-27.586 Y-243.815
X-28.03 Y-241.849
X-28.494 Y-239.904
X-28.978 Y-237.979
X-29.482 Y-236.075
X-30.006 Y-234.191
X-30.55 Y-232.328
X-31.113 Y-230.485
X-31.696 Y-228.663
X-32.299 Y-226.86
X-32.921 Y-225.078
X-33.563 Y-223.315
X-34.224 Y-221.573
X-34.905 Y-219.851
X-35.604 Y-218.148
X-36.323 Y-216.464
X-37.061 Y-214.801
X-37.818 Y-213.157
X-38.594 Y-211.532
X-39.388 Y-209.926
X-40.202 Y-208.338
X-41.034 Y-206.77
X-41.885 Y-205.22
X-42.754 Y-203.689
X-43.642 Y-202.178
X-44.548 Y-200.683
X-45.473 Y-199.208
X-46.415 Y-197.751
X-47.376 Y-196.312
X-48.355 Y-194.89
X-49.352 Y-193.487
X-50.367 Y-192.101
X-51.399 Y-190.732
X-52.45 Y-189.381
X-53.518 Y-188.047
X-54.603 Y-186.731
X-55.706 Y-185.432
X-56.827 Y-184.149
X-57.964 Y-182.883
X-59.12 Y-181.634
X-60.292 Y-180.402
X-61.481 Y-179.185
X-62.688 Y-177.985
X-63.911 Y-176.801
X-65.151 Y-175.634
X-66.408 Y-174.483
X-67.681 Y-173.347
X-68.971 Y-172.226
X-70.277 Y-171.123
X-71.601 Y-170.033
X-72.939 Y-168.96
X-74.294 Y-167.902
X-75.666 Y-166.859
X-77.052 Y-165.83
X-78.455 Y-164.818
X-79.874 Y-163.819
X-81.308 Y-162.836
X-82.758 Y-161.867
X-84.223 Y-160.913
X-85.703 Y-159.973
X-87.198 Y-159.048
X-88.709 Y-158.136
X-90.234 Y-157.239
X-91.774 Y-156.355
X-93.328 Y-155.486
X-94.897 Y-154.631
X-96.481 Y-153.789
X-98.079 Y-152.96
X-99.69 Y-152.147
X-101.317 Y-151.346
X-102.956 Y-150.557
X-104.61 Y-149.783
X-106.277 Y-149.02
X-107.957 Y-148.272
X-109.651 Y-147.537
X-111.357 Y-146.814
X-113.076 Y-146.104
X-114.809 Y-145.407
X-116.555 Y-144.721
X-118.312 Y-144.049
X-120.081 Y-143.389
X-121.865 Y-142.74
X-123.658 Y-142.105
X-125.464 Y-141.482
X-127.283 Y-140.87
X-129.113 Y-140.269
X-130.953 Y-139.681
X-132.805 Y-139.105
X-134.669 Y-138.54
X-136.544 Y-137.987
X-138.429 Y-137.445
X-140.325 Y-136.915
X-142.231 Y-136.395
X-144.148 Y-135.887
X-146.074 Y-135.39
X-148.011 Y-134.904
X-149.958 Y-134.429
X-151.913 Y-133.964
X-153.878 Y-133.511
X-155.854 Y-133.068
X-157.838 Y-132.635
X-159.831 Y-132.214
X-161.833 Y-131.801
X-163.842 Y-131.401
X-165.861 Y-131.01
X-167.888 Y-130.629
X-169.924 Y-130.258
X-171.966 Y-129.897
X-174.017 Y-129.546
X-176.075 Y-129.205
X-178.14 Y-128.874
X-180.212 Y-128.553
X-182.292 Y-128.241
X-184.379 Y-127.939
X-186.471 Y-127.646
X-188.571 Y-127.363
X-190.677 Y-127.089
X-192.784 Y-126.825
X-197.03 Y-126.324
X-201.292 Y-125.859
X-205.574 Y-125.431
X-209.877 Y-125.039
X-214.197 Y-124.682
X-218.531 Y-124.36
X-222.88 Y-124.073
X-227.243 Y-123.821
X-231.616 Y-123.602
X-235.999 Y-123.418
X-240.389 Y-123.267
X-244.786 Y-123.15
X-249.188 Y-123.067
X-253.594 Y-123.017
X-258 Y-123
X-262.406 Y-123.017
X-266.812 Y-123.067
X-271.214 Y-123.15
X-275.611 Y-123.267
X-280.001 Y-123.418
X-284.384 Y-123.602
X-288.757 Y-123.821
X-293.12 Y-124.073
X-297.469 Y-124.36
X-301.803 Y-124.682
X-306.123 Y-125.039
X-310.426 Y-125.431
X-314.708 Y-125.859
X-318.97 Y-126.324
X-323.216 Y-126.825
X-325.323 Y-127.089
X-327.429 Y-127.363
X-329.529 Y-127.646
X-331.621 Y-127.939
X-333.708 Y-128.241
X-335.788 Y-128.553
X-337.86 Y-128.874
X-339.925 Y-129.205
X-341.983 Y-129.546
X-344.034 Y-129.897
X-346.076 Y-130.258
X-348.112 Y-130.629
X-350.139 Y-131.01
X-352.158 Y-131.401
X-354.167 Y-131.801
X-356.169 Y-132.214
X-358.162 Y-132.635
X-360.146 Y-133.068
X-362.122 Y-133.511
X-364.087 Y-133.964
X-366.042 Y-134.429
X-367.989 Y-134.904
X-369.926 Y-135.39
X-371.852 Y-135.887
X-373.769 Y-136.395
X-375.675 Y-136.915
X-377.571 Y-137.445
X-379.456 Y-137.987
X-381.331 Y-138.54
X-383.195 Y-139.105
X-385.047 Y-139.681
X-386.887 Y-140.269
X-388.717 Y-140.87
X-390.535 Y-141.482
X-392.342 Y-142.105
X-394.135 Y-142.74
X-395.919 Y-143.389
X-397.688 Y-144.049
X-399.445 Y-144.721
X-401.191 Y-145.407
X-402.924 Y-146.104
X-404.643 Y-146.814
X-406.349 Y-147.537
X-408.043 Y-148.272
X-409.723 Y-149.02
X-411.39 Y-149.783
X-413.044 Y-150.557
X-414.683 Y-151.346
X-416.31 Y-152.147
X-417.921 Y-152.96
X-419.519 Y-153.789
X-421.103 Y-154.631
X-422.672 Y-155.486
X-424.226 Y-156.355
X-425.766 Y-157.239
X-427.291 Y-158.136
X-428.802 Y-159.048
X-430.297 Y-159.973
X-431.777 Y-160.913
X-433.243 Y-161.867
X-434.692 Y-162.836
X-436.126 Y-163.819
X-437.544 Y-164.818
X-438.948 Y-165.83
X-440.334 Y-166.859
X-441.706 Y-167.902
X-443.06 Y-168.96
X-444.399 Y-170.033
X-445.723 Y-171.123
X-447.029 Y-172.226
X-448.319 Y-173.347
X-449.592 Y-174.483
X-450.849 Y-175.634
X-452.088 Y-176.801
X-453.312 Y-177.985
X-454.519 Y-179.185
X-455.708 Y-180.402
X-456.881 Y-181.634
X-458.035 Y-182.883
X-459.173 Y-184.149
X-460.294 Y-185.432
X-461.397 Y-186.732
X-462.483 Y-188.047
X-463.551 Y-189.381
X-464.601 Y-190.732
X-465.633 Y-192.101
X-466.649 Y-193.487
X-467.645 Y-194.89
X-468.624 Y-196.312
X-469.585 Y-197.751
X-470.527 Y-199.208
X-471.452 Y-200.683
X-472.358 Y-202.177
X-473.246 Y-203.689
X-474.115 Y-205.22
X-474.966 Y-206.77
X-475.798 Y-208.338
X-476.611 Y-209.925
X-477.406 Y-211.532
X-478.183 Y-213.157
X-478.939 Y-214.8
X-479.677 Y-216.464
X-480.396 Y-218.148
X-481.095 Y-219.852
X-481.776 Y-221.574
X-482.437 Y-223.316
X-483.079 Y-225.078
X-483.701 Y-226.86
X-484.304 Y-228.663
X-484.887 Y-230.485
X-485.45 Y-232.328
X-485.994 Y-234.191
X-486.518 Y-236.075
X-487.022 Y-237.979
X-487.506 Y-239.903
X-487.97 Y-241.849
X-488.414 Y-243.815
X-488.837 Y-245.803
X-489.241 Y-247.811
X-489.625 Y-249.839
X-489.987 Y-251.889
X-490.33 Y-253.961
X-490.652 Y-256.054
X-490.954 Y-258.165
X-491.235 Y-260.3
X-491.495 Y-262.457
X-491.735 Y-264.634
X-491.954 Y-266.832
X-492.153 Y-269.053
X-492.33 Y-271.294
X-492.487 Y-273.556
X-492.622 Y-275.842
X-492.738 Y-278.148
X-492.832 Y-280.475
X-492.906 Y-282.824
X-492.958 Y-285.194
X-492.989 Y-287.586
X-493 Y-290.014
G2 X-496 Y-293 I-3 J0.014
G1 X-508
G2 X-511 Y-290 J3
G1 Y0
Y-290 Z-14.587
G3 X-508 Y-293 Z-14.597 I3
G1 X-496 Z-14.621
G3 X-493 Y-290.014 Z-14.631 J3
G1 X-492.989 Y-287.586 Z-14.635
X-492.958 Y-285.194 Z-14.64
X-492.906 Y-282.824 Z-14.645
X-492.832 Y-280.475 Z-14.65
X-492.738 Y-278.148 Z-14.655
X-492.622 Y-275.842 Z-14.659
X-492.487 Y-273.556 Z-14.664
X-492.33 Y-271.294 Z-14.668
X-492.153 Y-269.053 Z-14.673
X-491.954 Y-266.832 Z-14.678
X-491.735 Y-264.634 Z-14.682
X-491.495 Y-262.457 Z-14.686
X-491.235 Y-260.3 Z-14.691
X-490.954 Y-258.165 Z-14.695
X-490.652 Y-256.054 Z-14.7
X-490.33 Y-253.961 Z-14.704
X-489.987 Y-251.889 Z-14.708
X-489.625 Y-249.839 Z-14.712
X-489.241 Y-247.811 Z-14.716
X-488.837 Y-245.803 Z-14.721
X-488.414 Y-243.815 Z-14.725
X-487.97 Y-241.849 Z-14.729
X-487.506 Y-239.903 Z-14.733
X-487.022 Y-237.979 Z-14.737
X-486.518 Y-236.075 Z-14.741
X-485.994 Y-234.191 Z-14.745
X-485.45 Y-232.328 Z-14.749
X-484.887 Y-230.485 Z-14.753
X-484.304 Y-228.663 Z-14.757
X-483.701 Y-226.86 Z-14.76
X-483.079 Y-225.078 Z-14.764
X-482.437 Y-223.316 Z-14.768
X-481.776 Y-221.574 Z-14.772
X-481.095 Y-219.852 Z-14.776
X-480.396 Y-218.148 Z-14.779
X-479.677 Y-216.464 Z-14.783
X-478.939 Y-214.8 Z-14.787
X-478.183 Y-213.157 Z-14.79
X-477.406 Y-211.532 Z-14.794
X-476.611 Y-209.925 Z-14.798
X-475.798 Y-208.338 Z-14.801
X-474.966 Y-206.77 Z-14.805
X-474.115 Y-205.22 Z-14.808
X-473.246 Y-203.689 Z-14.812
X-472.358 Y-202.177 Z-14.815
X-471.452 Y-200.683 Z-14.819
X-470.527 Y-199.208 Z-14.823
X-469.585 Y-197.751 Z-14.826
X-468.624 Y-196.312 Z-14.83
X-467.645 Y-194.89 Z-14.833
X-466.649 Y-193.487 Z-14.837
X-465.633 Y-192.101 Z-14.84
X-464.601 Y-190.732 Z-14.843
X-463.551 Y-189.381 Z-14.847
X-462.483 Y-188.047 Z-14.85
X-461.397 Y-186.732 Z-14.854
X-460.294 Y-185.432 Z-14.857
X-459.173 Y-184.149 Z-14.861
X-458.035 Y-182.883 Z-14.864
X-456.881 Y-181.634 Z-14.868
X-455.708 Y-180.402 Z-14.871
X-454.519 Y-179.185 Z-14.875
X-453.312 Y-177.985 Z-14.878
X-452.088 Y-176.801 Z-14.881
X-450.849 Y-175.634 Z-14.885
X-449.592 Y-174.483 Z-14.888
X-448.319 Y-173.347 Z-14.892
X-447.029 Y-172.226 Z-14.895
X-445.723 Y-171.123 Z-14.899
X-444.399 Y-170.033 Z-14.902
X-443.06 Y-168.96 Z-14.906
X-441.706 Y-167.902 Z-14.909
X-440.334 Y-166.859 Z-14.913
X-438.948 Y-165.83 Z-14.916
X-437.544 Y-164.818 Z-14.92
X-436.126 Y-163.819 Z-14.923
X-434.692 Y-162.836 Z-14.927
X-433.243 Y-161.867 Z-14.93
X-431.777 Y-160.913 Z-14.934
X-430.297 Y-159.973 Z-14.937
X-428.802 Y-159.048 Z-14.941
X-427.291 Y-158.136 Z-14.944
X-425.766 Y-157.239 Z-14.948
X-424.226 Y-156.355 Z-14.952
X-422.672 Y-155.486 Z-14.955
X-421.103 Y-154.631 Z-14.959
X-419.519 Y-153.789 Z-14.962
X-417.921 Y-152.96 Z-14.966
X-416.31 Y-152.147 Z-14.97
X-414.683 Y-151.346 Z-14.973
X-413.044 Y-150.557 Z-14.977
X-411.39 Y-149.783 Z-14.981
X-409.723 Y-149.02 Z-14.985
X-408.043 Y-148.272 Z-14.988
X-406.349 Y-147.537 Z-14.992
X-404.643 Y-146.814 Z-14.996
X-402.924 Y-146.104 Z-14.999
X-401.191 Y-145.407 Z-15.003
X-399.445 Y-144.721 Z-15.007
X-397.688 Y-144.049 Z-15.011
X-395.919 Y-143.389 Z-15.015
X-394.135 Y-142.74 Z-15.019
X-392.342 Y-142.105 Z-15.022
X-390.535 Y-141.482 Z-15.026
X-388.717 Y-140.87 Z-15.03
X-386.887 Y-140.269 Z-15.034
X-385.047 Y-139.681 Z-15.038
X-383.195 Y-139.105 Z-15.042
X-381.331 Y-138.54 Z-15.046
X-379.456 Y-137.987 Z-15.05
X-377.571 Y-137.445 Z-15.054
X-375.675 Y-136.915 Z-15.058
X-373.769 Y-136.395 Z-15.062
X-371.852 Y-135.887 Z-15.066
X-369.926 Y-135.39 Z-15.07
X-367.989 Y-134.904 Z-15.074
X-366.042 Y-134.429 Z-15.078
X-364.087 Y-133.964 Z-15.082
X-362.122 Y-133.511 Z-15.086
X-360.146 Y-133.068 Z-15.09
X-358.162 Y-132.635 Z-15.094
X-356.169 Y-132.214 Z-15.098
X-354.167 Y-131.801 Z-15.103
X-352.158 Y-131.401 Z-15.107
X-350.139 Y-131.01 Z-15.111
X-348.112 Y-130.629 Z-15.115
X-346.076 Y-130.258 Z-15.119
X-344.034 Y-129.897 Z-15.123
X-341.983 Y-129.546 Z-15.128
X-339.925 Y-129.205 Z-15.132
X-337.86 Y-128.874 Z-15.136
X-335.788 Y-128.553 Z-15.14
X-333.708 Y-128.241 Z-15.145
X-331.621 Y-127.939 Z-15.149
X-329.529 Y-127.646 Z-15.153
X-327.429 Y-127.363 Z-15.157
X-325.323 Y-127.089 Z-15.162
X-323.216 Y-126.825 Z-15.166
X-318.97 Y-126.324 Z-15.175
X-314.708 Y-125.859 Z-15.183
X-310.426 Y-125.431 Z-15.192
X-306.123 Y-125.039 Z-15.201
X-301.803 Y-124.682 Z-15.21
X-297.469 Y-124.36 Z-15.218
X-293.12 Y-124.073 Z-15.227
X-288.757 Y-123.821 Z-15.236
X-284.384 Y-123.602 Z-15.245
X-280.001 Y-123.418 Z-15.254
X-275.611 Y-123.267 Z-15.263
X-271.214 Y-123.15 Z-15.272
X-266.812 Y-123.067 Z-15.281
X-262.406 Y-123.017 Z-15.289
X-258 Y-123 Z-15.298
X-253.594 Y-123.017 Z-15.307
X-249.188 Y-123.067 Z-15.316
X-244.786 Y-123.15 Z-15.325
X-240.389 Y-123.267 Z-15.334
X-235.999 Y-123.418 Z-15.343
X-231.616 Y-123.602 Z-15.352
X-227.243 Y-123.821 Z-15.361
X-222.88 Y-124.073 Z-15.37
X-218.531 Y-124.36 Z-15.378
X-214.197 Y-124.682 Z-15.387
X-209.877 Y-125.039 Z-15.396
X-205.574 Y-125.431 Z-15.405
X-201.292 Y-125.859 Z-15.413
X-197.03 Y-126.324 Z-15.422
X-192.784 Y-126.825 Z-15.431
X-190.677 Y-127.089 Z-15.435
X-188.571 Y-127.363 Z-15.439
X-186.471 Y-127.646 Z-15.444
X-184.379 Y-127.939 Z-15.448
X-182.292 Y-128.241 Z-15.452
X-180.212 Y-128.553 Z-15.456
X-178.14 Y-128.874 Z-15.461
X-176.075 Y-129.205 Z-15.465
X-174.017 Y-129.546 Z-15.469
X-171.966 Y-129.897 Z-15.473
X-169.924 Y-130.258 Z-15.478
X-167.888 Y-130.629 Z-15.482
X-165.861 Y-131.01 Z-15.486
X-163.842 Y-131.401 Z-15.49
X-161.833 Y-131.801 Z-15.494
X-159.831 Y-132.214 Z-15.498
X-157.838 Y-132.635 Z-15.502
X-155.854 Y-133.068 Z-15.507
