%
(1001)
(origin stock top)
(T2  D=6 CR=0 - ZMIN=-11.8 - flat end mill)
G90 G94
G17
G21

(2D Contour4)
M9
T2 M6
S8500 M3
G54
M9
G0 X-510 Y-398.063
Z15
Z5
G1 Z3.1 F30
G18 G3 X-510.6 Z2.5 I-0.6
G1 X-511.2 F3000
G17 G3 X-511.8 Y-398.663 J-0.6
G1 Y-520 Z-1.737
G2 X-515 Y-523.2 Z-1.913 I-3.2
G1 X-517.5 Z-2
X-1015
G2 X-1018.2 Y-520 J3.2
G1 Y-20
G2 X-1015 Y-16.8 I3.2
G1 X-515
G2 X-511.8 Y-20 J-3.2
G1 Y-520
G2 X-515 Y-523.2 I-3.2
G1 X-517.5
G0 Z5
X-375.537 Y-525
G1 Z3.1 F30
G19 G3 Y-524.4 Z2.5 J0.6
G1 Y-523.8 F3000
G17 G3 X-376.137 Y-523.2 I-0.6
G1 X-505 Z-2
G2 X-508.2 Y-520 J3.2
G1 Y-20
G2 X-505 Y-16.8 I3.2
G1 X-310.4
G2 X-307.2 Y-20 J-3.2
G1 Y-28.8
X-20
G2 X-16.8 Y-32 J-3.2
G1 Y-508
G2 X-20 Y-511.2 I-3.2
G1 X-307.2
Y-520
G2 X-310.4 Y-523.2 I-3.2
G1 X-505
G2 X-508.2 Y-520 Z-2.061 J3.2
G1 Y-359.413 Z-4
Y-20
G2 X-505 Y-16.8 I3.2
G1 X-310.4
G2 X-307.2 Y-20 J-3.2
G1 Y-28.8
X-20
G2 X-16.8 Y-32 J-3.2
G1 Y-508
G2 X-20 Y-511.2 I-3.2
G1 X-307.2
Y-520
G2 X-310.4 Y-523.2 I-3.2
G1 X-505
G2 X-508.2 Y-520 J3.2
G1 Y-359.413
G0 Z5
X-510 Y-398.063
G1 Z1.1 F30
G18 G3 X-510.6 Z0.5 I-0.6
G1 X-511.2 F3000
G17 G3 X-511.8 Y-398.663 J-0.6
G1 Y-520 Z-3.737
G2 X-515 Y-523.2 Z-3.913 I-3.2
G1 X-517.5 Z-4
X-1015
G2 X-1018.2 Y-520 J3.2
G1 Y-20
G2 X-1015 Y-16.8 I3.2
G1 X-515
G2 X-511.8 Y-20 J-3.2
G1 Y-520
G2 X-515 Y-523.2 I-3.2
G1 X-517.5
G0 Z5
X-510 Y-398.063
G1 Z-0.9 F30
G18 G3 X-510.6 Z-1.5 I-0.6
G1 X-511.2 F3000
G17 G3 X-511.8 Y-398.663 J-0.6
G1 Y-520 Z-5.737
G2 X-515 Y-523.2 Z-5.913 I-3.2
G1 X-517.5 Z-6
X-1015
G2 X-1018.2 Y-520 J3.2
G1 Y-20
G2 X-1015 Y-16.8 I3.2
G1 X-515
G2 X-511.8 Y-20 J-3.2
G1 Y-520
G2 X-515 Y-523.2 I-3.2
G1 X-517.5
G0 Z5
X-375.537 Y-525
G1 Z-0.9 F30
G19 G3 Y-524.4 Z-1.5 J0.6
G1 Y-523.8 F3000
G17 G3 X-376.137 Y-523.2 I-0.6
G1 X-505 Z-6
G2 X-508.2 Y-520 J3.2
G1 Y-20
G2 X-505 Y-16.8 I3.2
G1 X-310.4
G2 X-307.2 Y-20 J-3.2
G1 Y-28.8
X-20
G2 X-16.8 Y-32 J-3.2
G1 Y-508
G2 X-20 Y-511.2 I-3.2
G1 X-307.2
Y-520
G2 X-310.4 Y-523.2 I-3.2
G1 X-505
G2 X-508.2 Y-520 Z-6.061 J3.2
G1 Y-375.975 Z-7.8
Y-20
G2 X-505 Y-16.8 I3.2
G1 X-310.4
G2 X-307.2 Y-20 J-3.2
G1 Y-28.8
X-20
G2 X-16.8 Y-32 J-3.2
G1 Y-508
G2 X-20 Y-511.2 I-3.2
G1 X-307.2
Y-520
G2 X-310.4 Y-523.2 I-3.2
G1 X-505
G2 X-508.2 Y-520 J3.2
G1 Y-375.975
G0 Z5
X-510 Y-403.791
G1 Z-2.9 F30
G18 G3 X-510.6 Z-3.5 I-0.6
G1 X-511.2 F3000
G17 G3 X-511.8 Y-404.391 J-0.6
G1 Y-520 Z-7.537
G2 X-515 Y-523.2 Z-7.713 I-3.2
G1 X-517.5 Z-7.8
X-1015
G2 X-1018.2 Y-520 J3.2
G1 Y-20
G2 X-1015 Y-16.8 I3.2
G1 X-515
G2 X-511.8 Y-20 J-3.2
G1 Y-520
G2 X-515 Y-523.2 I-3.2
G1 X-517.5
G0 Z15

(2D Contour6)
M9
X-275 Y-288.1
Z15
Z5
G1 Z3.1 F30
G18 G2 X-274.4 Z2.5 I0.6
G1 X-273.8 F3000
G17 G3 X-273.2 Y-287.5 J0.6
G1 Y-180 Z-1.254
G3 X-280 Y-173.2 Z-1.627 I-6.8
X-286.8 Y-180 Z-2 J-6.8
G1 Y-360
G3 X-273.2 I6.8
G1 Y-180
G3 X-280 Y-173.2 I-6.8
X-286.8 Y-180 J-6.8
G1 Y-237.273 Z-4
Y-360
G3 X-273.2 I6.8
G1 Y-180
G3 X-280 Y-173.2 I-6.8
X-286.8 Y-180 J-6.8
G1 Y-237.273
Y-294.545 Z-6
Y-360
G3 X-273.2 I6.8
G1 Y-180
G3 X-280 Y-173.2 I-6.8
X-286.8 Y-180 J-6.8
G1 Y-294.545
Y-351.818 Z-8
Y-360
G3 X-273.2 I6.8
G1 Y-180
G3 X-280 Y-173.2 I-6.8
X-286.8 Y-180 J-6.8
G1 Y-294.545
Y-351.818
Y-360 Z-8.286
G3 X-273.2 Z-9.032 I6.8
G1 Y-332.273 Z-10
Y-321
Z-9
Y-309
Z-10 F30
Y-231 F3000
Z-9
Y-219
Z-10 F30
Y-180 F3000
G3 X-280 Y-173.2 I-6.8
X-286.8 Y-180 J-6.8
G1 Y-219
Z-9
Y-231
Z-10 F30
Y-309 F3000
Z-9
Y-321
Z-10 F30
Y-360 F3000
G3 X-273.2 I6.8
G1 Y-332.273
Y-321 Z-10.394
Z-9
Y-309
Z-10.813 F30
Y-280.728 Z-11.8 F3000
Y-231
Z-9
Y-219
Z-11.8 F30
Y-180 F3000
G3 X-280 Y-173.2 I-6.8
X-286.8 Y-180 J-6.8
G1 Y-219
Z-9
Y-231
Z-11.8 F30
Y-309 F3000
Z-9
Y-321
Z-11.8 F30
Y-360 F3000
G3 X-273.2 I6.8
G1 Y-321
Z-9
Y-309
Z-11.8 F30
Y-280.728 F3000
G0 Z15

(2D Contour5)
S9500 M3
M9
X-1015.6 Y-15.2
Z15
Z5
G1 Z1 F30
Z-7.4
G19 G2 Y-15.8 Z-8 J-0.6
G1 Y-16.4 F3000
G17 G3 X-1015 Y-17 I0.6
G1 X-515
G2 X-512 Y-20 J-3
G1 Y-520
G2 X-515 Y-523 I-3
G1 X-1015
G2 X-1018 Y-520 J3
G1 Y-20
G2 X-1015 Y-17 I3
G0 Z5
X-19.4 Y-512.8
G1 Z1 F30
Z-7.4
G19 G3 Y-512.2 Z-8 J0.6
G1 Y-511.6 F3000
G17 G3 X-20 Y-511 I-0.6
G1 X-307.4
Y-520
G2 X-310.4 Y-523 I-3
G1 X-505
G2 X-508 Y-520 J3
G1 Y-20
G2 X-505 Y-17 I3
G1 X-310.4
G2 X-307.4 Y-20 J-3
G1 Y-29
X-20
G2 X-17 Y-32 J-3
G1 Y-508
G2 X-20 Y-511 I-3
G0 Z5
X-274.8 Y-359.022
G1 Z1 F30
Z-7.4
G18 G2 X-274.2 Z-8 I0.6
G1 X-273.6 F3000
G17 G3 X-273 Y-358.422 J0.6
G1 Y-180
G3 X-287 I-7
G1 Y-360
G3 X-273 I7
G1 Y-358.422
G0 Z15
M9
M30
%
